ncols 200
nrows 200
xllcorner 340000
yllcorner 510000
cellsize 50
159.9 155.3 153.9 152 150.6 150.1 148.6 146.8 144.6 144.6 144.6 144.6 144.6 144.6 144.6 144.6 144.6 144.6 144.6 144.6 144.6 144.6 144.6 144.6 144.6 144.6 144.6 144.6 144.6 144.6 144.6 144.6 144.6 144.6 144.6 144.6 144.6 144.6 144.6 144.6 144.6 144.6 144.6 144.6 144.6 144.6 145.5 145.6 146 146.3 145.6 144.6 144.6 149.9 171.2 189 212.3 224.2 230.5 246.8 278.1 300.2 319.8 311.9 307.3 310 317.7 331.4 333.1 330.1 324.2 312.4 289.2 269.7 243.6 218.2 195.9 176.6 160.2 151.9 148.8 144.6 144.6 144.6 144.6 144.6 144.6 144.6 144.6 154.3 165.7 185.4 212 234.3 255.3 287.9 314.3 337.4 347.4 360.9 373.3 402.6 432.9 470.2 500.1 521.7 527.3 522.4 515.1 511.8 506.8 502.1 495.2 488.9 496.4 506.5 519.7 530.1 537.8 543.5 547.2 549.7 548.1 545 542.7 538.7 533.9 531.4 527.3 522.6 516.9 512.3 508.2 503.4 500 497 493.1 488.5 485.6 481.7 476.3 470.4 452.7 429.1 422.6 428.2 424 418.5 412.6 405.5 399.7 386.6 377.8 374.9 378.1 379.4 378.5 379 378.9 378.7 375.1 372.2 366.7 354 340.7 329.2 311.5 307.1 306.4 315 317.4 315 310.6 304.9 298.2 292.1 285.4 280.1 277.3 274 272.2 271 271 271.1 275.6 277.5 277.4 277.1 277.2 279.1 277.6 278.3 276.8 273.6 272.2 270.3 267.8 265.7 264.5 263.2
155.9 153.6 152.1 149.6 149.4 149.2 147.7 146.1 144.6 144.6 144.6 144.6 144.6 144.6 144.6 144.6 144.6 144.6 144.6 144.6 144.6 144.6 144.6 144.6 144.6 144.6 144.6 144.6 144.6 144.6 144.6 144.6 144.6 144.6 144.6 144.6 144.6 144.6 144.6 144.6 144.6 144.6 144.6 144.6 144.6 148.5 148.7 146.3 146.6 146.2 146.2 146.6 148.3 162.8 181.7 201.6 220.4 235.5 246.5 270.9 303.9 323.9 326 326.4 328.7 331.4 346.5 354.1 352.3 342.5 328.2 316.6 309.8 289.8 260.6 235.7 211.3 185.9 165.6 154.6 148.3 144.6 144.6 144.6 144.6 144.6 144.6 144.6 144.6 154.9 167.9 189.7 219.2 239.3 261.9 294.7 323.3 344.8 354.2 366.1 380.4 413.2 448.4 481.6 506.3 524.2 527.9 523.5 516.7 512.2 509.1 502.6 497.9 493.7 499.4 510.2 523.7 534.1 543.2 548.3 550.7 551.8 551.7 548.7 543.3 537.7 532.5 528.2 524.7 521.1 516.6 512.9 508.1 503.3 499.8 495.9 491.5 486.3 483.1 478.9 474 467.7 456.4 430.9 409.5 404.1 400.1 397.4 394.3 388.2 384.1 381.1 383.1 384.8 386.2 388.2 389.1 386 386.5 382.6 379.2 375.4 369.9 360.2 347.1 332.8 322.5 314.7 301.4 295.4 303.9 303.1 298 291.9 285.8 281.5 277.7 276.7 275.1 274.7 273.3 275.9 276.4 276 278.3 280.8 281.6 282.2 282.6 283.6 282.7 279.9 279.2 275.6 275.7 274 272.7 269.7 267 264.7
151.4 151 150.8 148.3 148.3 148.2 146.7 145.2 144.6 144.6 144.6 144.6 144.6 144.6 144.6 144.6 144.6 144.6 144.6 144.6 144.6 144.6 144.6 144.6 144.6 144.6 144.6 144.6 144.6 144.6 144.6 144.6 144.6 144.6 144.6 144.6 144.6 144.6 144.6 144.6 144.6 144.6 144.6 144.6 149.1 149.3 149.6 146.5 146.7 146.7 148.9 153 159.1 172.7 193.9 211.2 230.1 248.9 260.1 293.4 317.9 340.9 336.7 341.7 344.6 359 367.5 373.6 368.8 345.7 330 323.8 316.5 304.9 282.6 252.5 221.6 196.1 172.8 158.7 148.1 144.6 144.6 144.6 144.6 144.6 144.8 144.6 147.9 154.5 172.2 190.7 219.3 244.7 266.7 299 328.2 348.9 359.8 368.1 386.6 416.7 456.2 484.9 508.1 525.8 526.2 522.3 516.6 513.7 510.9 505 500.8 497.6 502 511.7 523.5 535.6 545.1 551.2 553.7 555.5 554 549.4 543.6 538.7 532.6 529.3 524.6 520.1 516.3 510.9 505.8 502.1 497 491.5 485.7 482.4 478.1 471.1 463.2 456.4 437.9 415.5 419.4 423.1 418.1 412 405.9 403.1 399.5 396.1 395 395.1 398.7 401.2 397.4 391.3 394.3 388 381.6 374.8 369 359.6 349.7 338.9 323.3 311.8 303.3 295.4 294 290.8 287.3 282 280.8 278.8 277.3 277.4 276 277.6 279.5 282 282.8 281 282.8 283.7 284.9 285.6 286.2 286.2 286.3 283.3 284.1 279.1 278.9 276.9 275 272.9 270.5 267.8
149.2 148.8 146.9 147.3 147.1 146.8 146.8 144.6 144.6 144.6 144.6 144.6 144.6 144.6 144.6 144.6 144.6 144.6 144.6 144.6 144.6 144.6 144.6 144.6 144.6 144.6 144.6 144.6 144.6 144.6 144.6 144.6 144.6 144.6 144.6 144.6 144.6 144.6 144.6 144.6 144.6 144.6 144.6 146.3 149.6 150 149.5 147.6 147.8 151.1 160.8 159.1 166.1 181.4 199.9 216.8 242.6 257.9 276.7 300.9 327.6 338.6 346.4 355 364.2 381.3 379.3 375.9 365.3 342.6 333.5 328.1 327.4 320.3 314.2 275 237.2 210.3 188.8 167.5 148 145.6 145.3 145.1 145.1 145.7 145.8 145.9 151.8 159 172.3 191.3 217 248 271.3 300.2 326.6 348 357.1 368.9 392.4 422.7 461.6 488.1 510.8 522.8 523.7 521.8 519.1 517.7 514.5 509 505.3 503.3 503.7 513.4 524.7 535.5 543.9 551.6 555.9 557.9 556 550.2 544 541.7 534.9 529.8 525.6 518.9 513.2 509.8 504.1 496.3 486.4 486.1 482.6 468.7 462.9 456.2 449.5 438 440.5 442.6 441.3 435.1 429.3 423.6 418 410.8 407.5 405.2 407.8 411.7 410.2 413.3 402 392.5 391.8 387.8 380.2 371.8 364.6 355.1 345.5 333.6 321.7 306.3 298.7 294.4 288.9 287.1 284.1 281.9 280.1 280.5 285.4 284.7 285.1 281.6 284.5 286.8 287.1 286.3 286.9 286.9 288.7 288.3 289.2 289.6 289.5 290.1 288 283.9 281.5 279.9 277.8 276 273.5 271
146.5 145.3 146.1 146.1 146.3 145.4 144.6 144.6 144.6 144.6 144.6 144.6 144.6 144.6 144.6 144.6 144.6 144.6 144.6 144.6 144.6 144.6 144.6 144.6 144.6 144.6 144.6 144.6 144.6 144.6 144.6 144.6 144.6 144.6 144.6 144.6 144.6 144.6 144.6 144.6 144.6 144.6 144.6 147.6 148.7 149.3 149.9 148.1 151.1 161.9 169.7 167.1 171.9 182.7 201.6 219.8 240.3 266.3 291.6 311.3 326.4 347.7 355 362.9 375.7 380.8 386.6 378 353.3 341.5 334.7 328.5 328.3 327.4 302.2 275.5 255.8 231.5 201.1 170.2 146.4 146.3 146 146.2 146.5 146.9 147.9 147.9 154.9 161.7 169.9 192.8 218 238.8 269.2 292.1 320.4 342 351.8 369.2 395.6 428 465 494.9 515 520.3 522.3 524 524.4 522 518 512.7 510.1 508.8 505 512.7 524.2 536.7 546.9 553.6 557.2 558.6 555.2 551.2 545.7 540.9 536 528.9 522.9 519.3 512.7 504.2 504.5 502.6 500.2 495.6 491.3 485.9 477.9 472.4 466.9 461.5 458.9 454.8 452.4 447.9 441.8 438.1 434.3 431.9 430.1 430.8 426 423.3 418.4 421 404.6 394.2 386.8 380.1 372.8 366.9 358 349.1 336.6 322.1 311.1 299 292.6 288.6 286.8 284.7 284.1 287.3 291 291.9 292.6 294 292.2 288.9 290.1 291.5 292.3 291.9 292.3 293 292.9 293.2 294.4 294 293.7 293.2 292 287.4 285.4 283.7 281.5 279.5 277 274.3
145.4 144.6 145 144.8 145.3 145 144.6 144.6 144.6 144.6 144.6 144.6 144.6 144.6 144.6 144.6 144.6 144.6 144.6 144.6 144.6 144.6 144.6 144.6 144.6 144.6 144.6 144.6 144.6 144.6 144.6 144.6 144.6 144.6 144.6 144.6 144.6 144.6 144.6 144.6 144.6 144.6 146.4 146.8 147.4 148.4 149.9 148.7 159.4 171 174.2 170.6 172.7 183.5 200.2 218.4 236.3 261.6 284.9 302.3 319.9 345.1 361.4 367 373.6 365.2 371.4 362.2 352.7 346.5 333.2 327.5 326.1 314.8 312.3 303.6 267.2 230.4 191.6 164.2 146.5 146.3 146.2 146.8 148.1 147.8 148.8 149.8 162.2 168.7 171.8 194.8 217.2 234.6 261.6 285.2 311.5 331.6 347.2 368.7 399.1 431.4 467 497.4 510.7 519.1 524.8 527.7 528.9 526.9 523.5 518 513.7 512.7 507.9 513.5 522.8 536.7 547.9 554.3 558.6 560.5 558.1 552.6 545.9 540.5 535.1 527.9 522.5 516.7 512.6 511.2 510.2 507.9 504 500.6 497.6 493.4 487.7 482.6 477.1 471.2 467.7 465.2 462.3 457.9 453 449 443.9 442.7 441.3 438.6 437 430.4 422.5 415.9 404.3 392.1 379.9 372 363.1 356.6 347.3 335.6 321.5 311.5 302.2 293.1 290.6 289.4 289.1 290 291.5 295.9 296.4 297.6 299.1 300.8 298.9 292.5 295.4 296.8 298 299.7 297.9 301 299.5 300.7 300.9 300.7 298.4 296.8 295.3 291.6 289.6 289.9 286.7 283.8 281.3 278.8
144.6 144.6 144.6 144.6 144.6 144.6 144.6 144.6 144.6 144.6 144.6 144.6 144.6 144.6 144.6 144.6 144.6 144.6 144.6 144.6 144.6 144.6 144.6 144.6 144.6 144.6 144.6 144.6 144.6 144.6 144.6 144.6 144.6 144.6 144.6 144.6 144.6 144.6 144.6 144.6 145.3 148 148.7 147.4 147.9 149.7 152 149.6 157.6 169.6 174.2 174.8 174.8 182.6 199.1 215.7 230.9 247.5 271.5 290.2 310 330.5 342.4 349.4 349.5 350.7 352.8 355 354.7 340.5 332.5 329.4 325.4 327.9 317.8 289.5 250.5 217.3 186.4 162.9 146.4 146.5 146.6 147.2 148.4 149 149.8 153.9 167.3 171.9 173.3 193.7 216 233.1 262.5 281 301.9 326.1 344.8 367.8 398.4 432.2 466.1 496.2 509 520.6 529.7 531.2 531.9 529.9 526.9 522.2 516.4 515.1 512.6 515.8 523.8 536.5 545.8 553.8 558.1 559.8 558.3 552.6 546.8 540.6 535.6 528.7 521.8 518.2 517.7 516 514.6 511.9 508.5 505.7 503 498.3 493.9 488.9 482.7 478.7 475.9 472.6 469.3 465.9 459.2 454.1 451.4 450.6 451 446.1 439.4 430.4 419.8 409.5 394.6 380.9 369.1 359.8 349 339.6 329.7 319.8 309.6 301.5 294.6 292 293.7 293.6 295.9 296.5 298.5 302.9 307.2 309.9 310.6 307.9 306.9 296.4 302.9 306.1 308.3 310.4 308.4 309.3 309.3 308.8 307.1 306.5 303.9 301.2 298.8 297.6 298.1 296 290.5 287.3 284 282
144.6 144.6 144.6 144.6 144.6 144.6 144.6 144.6 144.6 144.6 144.6 144.6 144.6 144.6 144.6 144.6 144.6 144.6 144.6 144.6 144.6 144.6 144.6 144.6 144.6 144.6 144.6 144.6 144.6 144.6 144.6 144.6 146 145.1 144.6 144.6 144.6 147.9 152.1 154.1 157.8 156 154 150.2 152.4 156 157.2 150.3 151.5 161.8 172.9 180 182.7 181 194.5 210 224 236.7 257.4 278.7 294.5 314.2 329.2 339.1 340.5 338.2 340.2 343.7 342.9 335.1 330.8 334 325.2 325 309.2 267.8 234.7 204.1 178.6 153.6 146.4 146.6 147.2 147.8 148.6 150 151.1 154 169.4 173.5 175.7 191.7 211.1 229.3 255 280.5 299.3 322.5 342.6 365 397.2 437.6 474.1 499.9 513 526.1 532.6 534.6 535.6 533.5 529.7 526.5 523.1 519.7 516.4 518.8 524 536.7 544.6 552.9 558.2 558.9 557.3 552 547.9 542.5 536.2 528.4 525.2 525.4 523.6 520.3 518.4 517.9 516 512.8 509.1 504.6 500.6 497.1 490.2 485.1 482.4 476.9 471.3 465.6 458.8 455.8 452.4 449.9 448.8 442.1 432.5 420.6 408.9 396 380.8 367.3 355 342.5 330.6 321.1 315.1 307.5 299.1 299.5 297.8 300.5 302.1 301.6 305.2 305.9 310.2 317.3 322.7 324.9 321.8 316.6 312.6 314.1 311 316.1 316.9 317.1 314.9 314.7 314.8 314.5 313.9 310.1 307.5 305.3 303.7 302.2 302.9 300.2 295.5 290.6 286.5 284.1
144.6 144.6 144.6 144.6 144.6 144.6 144.6 144.6 144.6 144.6 144.6 144.6 144.6 144.6 144.6 144.6 144.6 144.6 144.6 144.6 144.6 144.6 144.6 144.6 144.6 144.6 144.6 144.6 144.6 144.6 144.6 146.1 148.8 148.9 148.4 151.8 155.4 158 160.3 162.4 163.6 162.2 158 156.2 161 168.1 168.5 161.8 155.8 156.1 168.9 181.8 189.9 186.6 190.4 200.4 215.5 227.2 242 259.9 275.5 291.8 305.6 322.3 330.8 331.6 331.7 330.1 329.3 329.6 326.9 322.1 323.2 313.6 286.7 250.1 219 195 171.7 150.7 146.9 147.1 147 148.3 149 150.3 156.8 161.3 159.1 172.6 175.3 189.6 208.5 227.5 252.5 279.6 296.3 318.9 339.2 364.3 401.8 446.4 480.2 501.2 517.3 528.1 534.4 539.9 541.5 539.6 535.3 529.7 526.3 523.7 518.2 522 528.1 536.4 545.1 551.3 556.8 558 556.9 553.9 549.7 544.7 539.5 535 532 531.1 530.1 528.3 524.6 523.7 522.9 524.1 519.1 514.8 510.9 505.3 496.3 489.7 484.4 478.5 471.6 463.6 459 457 448.4 443.3 438 431.8 423 406.2 395.2 382.5 366.4 351.4 339.2 327.2 318.5 313.5 309.8 305.7 310.2 313.7 310.9 311.5 312.6 312.6 314.6 317.5 322.3 330.6 333.5 332.5 328.5 324.3 318.8 321.8 318.3 321.6 321.8 320.6 318.9 318.3 317.9 317.6 317.1 313.3 311.2 308.7 307.1 305 305.6 304.3 300.2 293.7 289.8 287.6
144.6 144.6 144.6 144.6 144.6 144.6 144.6 144.6 144.6 144.6 144.6 144.6 144.6 144.6 144.6 144.6 144.6 144.6 144.6 144.6 144.6 144.6 144.6 144.6 144.6 144.6 144.6 144.6 144.6 144.6 144.6 150.3 151.8 152.3 153.2 156.3 160.8 164.4 167.4 169.6 169.5 167 163.7 165.6 172.7 177.7 175.5 167.3 162.7 158.6 168.7 177.9 188.5 188.7 188.2 195.8 207.3 219.6 230.9 243.7 256.9 275.7 285.8 303.9 317 322.1 324.6 322.7 316.8 320.9 315.3 314.6 314.4 303.7 276.8 238.9 206.5 185.4 164.2 151 147.1 146.6 146.8 147.4 149.5 160.8 168.5 170.3 165.5 171.2 174.5 185 203.6 223.3 249.9 278.1 292.6 314.6 335.9 363.7 398.9 437.8 475.3 500.1 516.2 528.9 539.3 546.6 545.3 540.8 537.5 531.8 528 525.3 521.8 527 532.7 540 546.7 551.7 556.6 559.3 558.3 555.9 551.7 546.8 542.4 538.7 535 534 534.9 534.6 533.3 531.9 529.8 532.7 525.4 521.4 512.9 504.8 497.4 490 482.8 475.9 469.3 461.3 455.6 448 439.8 433 427.9 418.1 405.4 390.6 377.9 364.4 348.8 335.7 325.8 317.9 313.5 312.6 316.1 318.7 321 322.8 325.5 322.7 322.4 322.5 324.5 329.1 325.6 339.5 340.2 336 331 327.1 323.8 326.2 323.4 325 325.7 324.5 321.4 320.4 320.7 320.2 319.2 316 313.5 311.8 310.2 308.6 307.8 305.4 302.4 297.1 294 289.3
144.6 144.6 144.6 144.6 144.6 144.6 144.6 144.6 144.6 144.6 144.6 144.6 144.6 144.6 144.6 144.6 144.6 144.6 144.6 148.8 156.6 160.1 149.9 144.6 144.6 144.6 144.6 144.6 145.2 148.7 150.3 153.4 154.9 156.9 162.5 165.2 167.7 171.9 174.3 176.2 175.9 173.8 170.9 178.2 187 191.4 186.1 173.3 168.9 160.1 167.8 175.4 184.4 184 188.6 193 198.9 208.8 219.6 231 241.8 257.3 269.7 283.7 298.7 308.5 309.6 310.1 307 301 295.8 299.9 302.3 286.8 254.4 224.1 197.2 174.4 161.8 155.9 147.3 146.8 147 147.4 154.1 172.4 176.8 175.4 169.7 168.2 171.1 181.2 198.8 215.7 243.1 271.8 286.1 308.4 331.3 359.5 393.5 433 469.5 496.2 512.8 527.9 538.7 545.5 544.3 540.6 535.6 532.3 529.7 527.7 527 532.3 538.9 545.5 551.3 556.2 560.2 561.7 560.7 556.5 553 549.4 545.3 541 537.6 535.9 538.6 539.1 538.3 536.1 534.4 533 527.8 520.9 513.2 505 494.3 485.7 477.7 470.9 461.7 453.5 445.9 440.1 431.5 423.9 414.2 400.6 386.7 372.2 361.5 347.3 334.4 325 320.5 316.5 316.5 321.4 327 331.9 334.4 333.5 334.9 333 333.6 337.6 339.7 343.9 340.3 344.7 342.5 339.3 334.5 332 328.6 330 328.1 328.5 328.4 326.2 324.1 321.7 321.9 320.2 319.3 317.2 315.8 314.2 312.9 310.2 309.1 306.6 303.1 296.7 292.8 291
144.6 144.6 144.6 144.6 144.6 144.6 144.6 144.6 144.6 144.6 144.6 144.6 144.6 144.6 144.6 144.6 144.6 147.9 164.3 174.9 182.1 179.7 162.6 149.5 147.6 146.3 147.3 151.6 156.4 157.9 160.7 161.4 161.7 161.1 170.4 173.2 176.9 180.8 184.2 185.7 184.2 186 187.4 196.3 204.9 203.3 191.8 175.3 173 165.3 160.5 167 174.2 177.4 182.6 189.4 194.7 201.3 208.1 218.3 230 243.1 255.5 269.5 282.1 291.9 292.6 294.1 288.1 284.9 282.4 287.9 284.9 266.5 238.2 211 187.6 173.4 168.9 158.1 150.9 149.5 147.7 153.3 168.7 184.3 183.6 180.5 175.1 168.4 168.9 177.9 194.4 211 235.3 260.4 277.6 300.4 324.2 355 389.8 429 464.3 491.3 509.6 523.9 535.5 541.3 542.6 540.6 536.8 533.3 531 528.9 529.9 536.9 544.4 550.7 555.9 561.1 565.5 566.6 562.9 559.5 555.8 552.4 549 544.3 540.9 539.1 541.2 541.5 539.6 537.4 533 528.6 524.4 517.2 509.5 500.6 491.5 482 472.7 464.8 455.4 448.5 440.1 432 422.4 410 397.7 384.7 372.7 356.7 341.7 332.1 327.2 322.9 320.2 322.1 326.6 332.1 339.8 344.5 346.9 347.4 348.9 346.8 351.3 353.9 351 352 349.2 348.8 346.4 341.7 338.1 335.5 333.3 333.7 331.1 330.2 328.4 325.9 324.3 322.8 322.2 320.6 318.3 316.9 317.1 315.4 314 311.8 309.5 306.5 303.2 296.5 293.3 290.6
144.6 144.6 144.6 144.6 144.6 144.6 144.6 144.6 144.6 144.6 144.6 144.6 144.6 144.6 144.6 146.5 158.7 186.7 192.1 202.7 208.5 196.7 176.9 169.4 163.6 157.2 158.6 162.1 166.6 169 167.9 170.1 168 171.1 175.4 179.7 183.7 191 193.7 196.6 196.2 200.5 205.4 208.8 216.9 206.6 191.1 185.3 178.9 170 166.5 163.2 165.1 168.5 170.8 178.3 187.6 195.4 199.2 205.4 218.7 231.1 241.5 253.8 267.9 274 276.8 274 271.4 272.1 269.2 269.1 263.7 248 224.4 204.3 189.6 182.1 171.6 159.9 157.9 153.9 152.5 164.4 184.2 198.2 198.8 191.8 176.1 169.4 169.6 176.7 190.7 205.7 227.3 248.8 267.8 292.7 318.7 348.4 383.2 423.3 457.1 481.8 498.3 511.2 525.8 535.2 539.8 541.3 538.2 534.7 532.5 531.3 533.7 542.1 549.7 555.2 561.1 564.6 569.3 568.3 564.6 561.7 558.1 554.9 551.5 548.1 544.6 542.1 542.6 540 535.1 532.1 527.9 521.8 517 510 502 494.4 486.2 477.6 469.4 463.3 458.7 452.7 442 428.9 415.6 399.6 377 369 354.8 339.5 334.7 330.5 330.9 327.2 327.8 332.2 339 345.6 351.8 357.2 359.4 361.6 361.8 358.8 363.1 364.6 363.5 358.9 353.5 351 349 346.9 343 341.2 338.2 336.4 333.8 332.3 328.5 326.8 325.1 323.3 323 320.9 318 316.7 317.4 314.6 313.3 311.6 309.4 306.2 302.8 296.2 294.2 291.5
144.6 144.6 144.6 144.6 144.6 144.6 144.6 144.6 144.6 144.6 144.6 144.6 144.6 144.6 156.2 173 188.5 220.3 236.8 241.2 230.9 219.6 210.6 196.7 185.6 172.4 167.4 169.8 174.9 177.8 177.5 177.5 169.2 178.6 184.5 186.8 191.5 200.8 204.8 207.5 209.8 216.2 223.8 229.3 227.5 218.6 207.8 202.7 194.4 183 169.9 164.3 164.8 165.7 165.7 167.3 177.9 186 189.9 197.3 203.6 216.5 227.5 243.4 254.1 259.7 258.5 255.7 254.1 256.5 257 252.9 245.1 229.8 217.2 207 200.8 195 177.6 166.9 160.8 161.7 163.1 178.8 201.4 220.3 214.7 197.6 178.4 170.7 170.7 172.3 186.4 201.4 220.2 242.1 262.8 286.1 312.3 340.6 374.1 413.1 438.8 463.4 483.4 503.7 520.5 532.6 538.9 541.6 540.5 537 534.6 535.5 538 543.8 551.6 559.8 565.9 571.3 573.5 571.4 567 563.8 559.7 556.9 553 549.5 545.8 542.3 539.3 534.2 529.6 526.3 521.5 514.8 508.8 502.3 495.2 488.9 481.7 475.2 470.5 468.3 464.1 456.8 444.3 427 412.2 392.3 372.5 355.3 345.9 348.7 346.2 344.8 340.3 333.9 335 345.7 351.5 357.5 363.3 369 370.7 371.1 371.6 368.4 368.4 370.2 369.9 364.1 357.2 352.9 352 350.6 348.1 342.7 342.1 338.9 336.7 334.4 330.2 327.6 326.2 324.2 323.9 321.7 318.4 316.2 315.7 313.5 311.9 310.1 307.9 304.7 300.8 295.1 292.4 288.8
144.6 144.6 144.6 144.6 144.6 144.6 144.6 144.6 144.6 144.6 144.6 144.6 149.4 164.7 179.5 200 218.8 255 277.9 275.6 263.2 254.4 241.3 226.1 217.4 191.6 175.7 177.1 181.2 189.1 190.5 182 173.3 184.3 190.5 193.8 200.8 209.7 213.6 220 226.7 234.2 246.9 258 258.6 247.9 233 220.4 210.3 196.6 179.7 168.8 165.3 166.7 166.4 169 172 174.8 181.4 189 193.6 203.6 217.4 233.2 243.2 246.2 244.9 248.5 248 247.5 244.8 240.1 226.3 220.3 225.4 220.3 213.7 195.8 180.9 176.2 174.3 177.2 181.6 197.6 227.5 247.3 239.5 210 183.1 171.8 171.5 172.5 186.1 201.4 218.2 236.4 256 280.8 307.5 330.8 362.8 392 423.1 454.8 482.2 506.2 524.6 535.3 544.4 543.9 541.7 539.6 537.9 538.3 543 547.8 555.3 561.7 567.4 572.7 575.5 574.5 569.7 565.9 562.1 557.4 553.3 549.3 544.1 539.4 532.1 523.2 517.4 509.3 503.9 499.1 496.7 491.1 485.3 479.8 476.3 473.1 472.2 471 466.3 455 441.6 423.7 402 379.4 360.5 352.9 357.3 361.3 359.8 356.9 354 340.8 345.6 355.9 362.7 367.2 374.4 377.5 377.5 378.1 377.6 376.7 375.7 372.8 370.5 367.3 362.6 358.6 355.3 351.9 348.4 348.8 346.1 342.5 338.5 334.8 331.7 329 327.2 325.2 323.9 321.4 318.2 315.8 313.4 311.2 309.8 307.6 305 301.7 297 291.8 287.4 283.4
144.6 144.6 144.6 144.6 144.6 144.6 144.6 144.6 144.6 144.6 144.6 147.6 168 184.7 204 225.2 249.6 278.5 306.2 323.2 302.6 283.4 268.9 257.5 240.1 223.2 203.6 194.5 194.4 198 196.3 184.7 181.2 192.8 195.3 202.4 212.4 223.4 225.4 232.5 242.8 252.7 268.5 285.1 294.4 276.2 256.4 242.1 221.4 210.1 191.2 172.1 165.6 167.8 168 167.7 169.5 170.9 171.6 173.4 179.8 192.2 206.1 222 234.1 236 235.4 236.6 237 236.8 236.8 228.4 227.5 231.5 235.8 218.6 206.5 195.3 190.3 188.4 187.9 192.3 202.1 230.6 262.8 266.9 252.7 222.4 188.5 173.1 172.4 174.9 185 199 214.7 232.2 252.9 276.7 300.4 328.1 360.2 394 428.6 460.5 488 512.2 530.3 544 552.5 548.4 544.8 542.8 541.5 543 546.3 552.3 559.3 565.4 569.2 572.5 574.6 574.2 571.2 566.6 562.9 558 553 548.7 544.4 537.7 540.2 534.5 528.9 526.7 517.7 503.5 494.6 491.9 482.4 471.2 455.2 464.5 464.2 461.2 454.8 444.9 430.4 411.1 393.4 368.4 361.4 372 375.6 381.3 378.5 372.1 366 353.5 360.6 364.7 369.3 377.2 382.7 383.1 382 381.8 382.2 381.7 380.3 376.9 373 369.5 365.4 360.9 358.2 355.1 352 351.6 348.6 345.2 339.8 336.7 333.2 330.6 327.9 326.1 323.6 321.4 317.5 313.7 311.1 309.2 307.1 304.9 301.9 298 294.1 289.1 284.3 280
144.6 144.6 144.6 144.6 144.6 144.6 144.6 144.6 144.6 144.6 152.8 169.2 187.2 206.3 226.4 251.6 280.9 312.6 347.5 334.3 327 313.3 295.7 283.9 272.5 264.1 247.5 231.7 213.2 204 196 184.1 186.5 199.9 205.7 211 222.9 231.1 234.4 247 256.1 271 289.2 309.4 319.1 305 284 256.7 235.3 213 199.1 178.5 165.6 167.2 167.9 168.3 171.3 176.5 179.8 187.1 187.3 178.3 190 204.2 218.2 220.7 222.2 223.5 225.6 226.6 223.8 223.8 224.5 237.9 227.6 215.4 205.9 198.3 195.6 199.7 200.2 207.7 226.4 256.9 291.1 286.4 256.8 220.6 190.6 174.1 173.3 173.2 182.6 196.2 211.8 231.7 251.6 277 304.5 334.4 366 400.9 437.2 466.9 497.1 522.2 538.9 550.5 553.9 551 548.2 546.2 545.8 548.4 553.7 558.9 565.3 568.7 571.2 572.6 573.3 572.4 570.1 566.5 562.7 559.1 554.4 550.8 543.7 545 543.8 537.7 532 525.6 518.2 509.3 501.7 492.4 483 475.6 466.3 439.3 450.1 447.9 438.6 426.2 407.3 394.2 378.7 373.9 381.9 388.8 393.9 392.7 390 382.3 376.2 363.1 362.2 373.1 378 386 389.4 389.2 388.3 387.2 387.1 386.5 384 379.9 375.5 370.6 367.3 363.3 360 357.4 355 354.2 351 346.9 342.5 338.7 335.8 332.3 329.7 325.8 323.8 321 317 313.2 309.9 307.4 305.7 301.7 299.2 294.4 290.5 285.5 281 273.7
144.6 144.6 144.6 144.6 144.6 144.6 144.6 144.6 144.6 154.4 175.8 191.4 210.1 231.9 254.3 285.8 315 341.5 361.7 354.8 341.2 335.3 324.1 311.4 306.7 304.5 282.2 256.4 227.6 207.8 192.9 197.4 201.1 213 215.9 220.5 233.8 239.5 246.6 260 268.8 286.6 306.9 327.7 334.6 333.6 307.2 277.5 251.3 225.3 201.3 185.3 167 167.5 167.4 168.7 176.4 184.4 187.8 195.2 200.4 200.6 181.3 182.6 195.7 206.5 209.2 212.8 214.3 211.3 216.4 224.7 234.3 240.4 233.3 217.7 211.4 206.6 209.3 212.7 212.2 222.7 247.8 276.4 306.2 284 250.5 218.6 192.1 175.3 174.9 174.6 176.3 192.5 209.6 229.1 251.6 277.7 308.5 339.1 373 408.6 445.2 479.3 510.6 533.4 550.3 558.6 556.3 553.5 551.7 550.3 550.4 554.1 559.6 565.2 569 572.4 573.9 574.8 573.7 572.3 569.7 566.6 562.7 559.1 553.5 552.2 552 548.5 544.6 538.5 532.2 525.1 516.1 506.5 497.5 489.4 479.4 471.4 461.7 446.3 427.7 431.9 422.4 408.4 396.8 390.1 395.2 392.1 401 405.9 406.7 403.4 398.9 390.4 382.5 373.7 369.6 379.8 385.9 392.3 393.7 394 393.9 393.7 392.8 390.1 387 383.4 377.5 372.4 368.9 364.8 361.6 359.5 357.5 356.5 354.4 350.6 346.1 341.7 337.9 332.9 329.9 326.6 323.3 319.8 316.5 313.7 309.1 306.2 302.8 300.2 296.4 291.7 287.4 281.5 276 267.7
144.6 144.6 144.6 144.6 144.6 144.6 144.6 144.6 152.2 170.4 199.3 232.2 241.6 263.9 285.9 315.4 348.4 347.1 357.7 365.4 361.4 362.9 353.5 340.9 330.9 313 291.5 261.9 236.4 206.8 206 214.2 214.5 220.8 229 231.7 242.1 250.2 261 272.9 281.6 296.8 318.3 338 345.4 344.1 333.5 300.2 265.7 234.5 208.7 191.3 172.7 168.1 168 173.7 182.5 190.4 198.5 204.3 210.6 220.5 208.4 198.7 183.3 191.3 197.8 203.6 207.2 208.5 216.5 229.8 242.1 237.1 228 223.5 216.4 217.2 222 225.3 227.6 245.1 275.3 303.2 323.1 286.7 248.6 217.7 191.2 176.3 176 175.9 175.9 188.8 207.7 229 252.6 279 311.8 346.9 381.4 417.2 452.7 490.3 524.7 544.1 555.2 563.7 561.9 558.6 556.3 555.6 556.6 561.9 568 571.7 574.3 575.9 576.2 576.9 575.9 572.7 570.6 566.9 563.5 561 558.2 556.6 555 550.7 545.5 539.1 532.1 523.3 513.9 503.4 493.5 484.6 476.5 466 457.4 444.3 422.8 413.2 415.1 406.1 401.2 408 407.9 410.1 415.3 417.9 415.8 411.2 405.8 397.3 387.8 378.5 373.5 384 391.3 398.2 400.8 400.7 400 399.1 398.1 395.4 392 387.5 382 375.6 371.4 368.7 364.8 363.1 360.8 357.9 355.6 352.5 348.5 343.1 339.2 334.2 331 328.4 323.9 320 316.2 312.5 308.7 305.9 301.9 298.2 295.2 290.4 282.9 271 266 263.1
144.6 144.6 144.6 144.6 144.6 144.6 144.6 164 188.7 196.1 223.1 249.6 270.3 290.9 312.9 334.4 358.4 353.4 365.7 370 374.1 364 351 339.1 323.3 303.2 288.3 267.4 240.2 236.2 235.7 234.1 229.7 236.5 243 242.2 248.2 257.5 269.4 279.3 292.5 306.1 328.7 341.6 352 360 342.3 314 277.9 246.2 214.8 191.3 175.5 168.7 170.2 174.1 183 191.3 199.3 213.2 220.8 227.7 217.4 211.7 198.4 184.2 188 194.6 203.5 215.5 218.7 227.9 237.3 232.5 236 229 223.1 225.8 229.2 236.8 243.4 269.4 304 339 322.8 287.7 249.4 220 193.4 177.6 177.5 177.2 177.2 187.5 208.4 230.7 254.5 283.3 316.9 352.7 389.2 425.5 461.6 504.3 540 549.9 559.7 566.1 567.7 564.4 561.4 561.4 564.3 568.8 573.5 577.3 578.2 578.8 578.4 578.7 577.3 575 572.2 569.6 565.6 562 560.9 561 558.7 553.3 547 539.8 531.3 521.4 510.8 499.7 490 479.6 467.6 455.4 437.4 432.3 435.1 427.8 420.9 414.2 418.6 420.6 421 424 426.8 425.3 422.7 418 409.5 401.1 393.1 384.3 381.2 388.5 397.9 404.1 407.1 407.1 406.6 406.6 404.4 402.7 397.3 392.7 386.1 379.4 376.5 374.1 369.9 366.6 365.6 360.4 356.9 353.3 349.4 344.8 339.7 334.9 331.4 329.3 326.5 320 315.1 310.7 307.8 304.4 300.2 296.8 294.3 290.3 281.2 282.2 277.2 275.2
144.6 144.6 144.6 144.6 144.6 144.6 152.8 176.9 203.1 221.8 241.9 274.2 290.3 316.8 341.8 360.7 360.4 360.7 366.9 368.1 365.4 356.8 345.5 331.2 312.7 298.3 280.6 265.4 264.9 261.8 259.5 254 250 247.9 254 256.5 256.5 263.7 279 288.9 300.4 317.9 336.4 346.7 357.7 361.3 346.6 320.2 285.1 249.8 219.1 193.9 177.3 168.5 170.3 173.8 181.2 190.8 202.9 219.9 228.1 237.1 223.8 211.1 195.4 185.9 185.7 190.3 208.2 225.1 227.5 233 236.6 245 244 247.6 242.5 241.7 246.9 256.5 267.9 294.4 333.9 351.9 321.1 281.5 246.8 219.4 195.9 182.8 178.6 178.3 180.7 189.2 209.4 230.8 256.6 286.1 319.6 355.8 391.6 428 467.7 521.1 548.6 557.1 563.3 572.5 572.3 567.8 567.1 567.1 570 574.1 578.9 582.6 582.8 582.9 582.4 581.4 579.9 577.5 574 570.9 567.8 566.3 565.6 565.5 561.7 555.5 548.5 541.4 532.1 522 509.7 500 488.5 477.3 458.2 449 452 447.5 440.9 433.9 425.3 427.9 428.3 431.9 434.5 436.2 435.5 432.6 427.9 420.1 411.6 403.8 396.2 382.4 391.6 395.9 407.3 412.5 413.7 415.3 414.6 413.9 412.5 408.9 402.8 397.4 391.7 386.2 385.4 382.1 378.5 375.5 372.6 365.6 358.6 355.2 350.4 345.1 340.2 335.7 331.8 329.5 327.7 321 314.2 310.1 307.3 303.8 299.7 297.1 293.9 290.2 284.8 287.1 282.8 280.8
144.6 144.6 144.6 144.6 144.6 151.4 177.3 203.6 220.6 256.7 261.7 289.5 313.7 338.5 355 363.4 365.5 358.2 354.8 355.6 354.1 350.5 343.2 325.6 304.8 285.8 277.7 284.6 282.9 286.1 284.1 284.5 286.4 274.6 263.5 263.1 267.3 278.1 289.6 298.4 311.5 327.2 344.5 353.2 366.6 365.5 352 326.7 293.7 253 219.4 192.9 177.5 168.3 168.9 172.5 179.9 195.9 209.2 224.8 237.2 241.8 221.4 205.8 190.9 185.7 185.2 191 206.2 224.3 232 248.2 263.5 257.2 261.7 278.2 266.8 263 266.5 280 295.1 322 361.4 348.4 313 276.8 244.3 216.5 194.5 180.8 180.2 180.7 183 191.4 209.1 230.2 256.5 287.4 322.2 357.5 393.2 432.3 480.2 520.7 549.8 558.3 566.8 572.1 572.1 571.6 571 572.6 575.7 580 584.9 587.3 588.7 587.5 585.8 584.4 581.1 579.3 577.3 573.7 571.6 570.7 570.5 569.2 565.1 558 550.8 540.9 530.8 516.6 509.4 501.8 484.7 466.7 462 467.6 461.9 456.4 449 443.4 438.2 439.4 440.4 442.5 445.6 445.8 444.1 439.7 431.7 423.6 413.7 406 392.1 399.7 405.6 407.7 417.7 422 422.2 423.8 423 421.4 418.6 413.9 408.6 403.1 399.8 394.1 391.6 389 384.2 379.2 375.5 371 364.1 357.6 352.5 346.4 341.1 335.2 331.9 329.4 326.3 321.1 315.3 309.6 307.1 302.7 299.9 297 294.3 291.1 288.9 289 285.5 283.1
144.6 144.6 144.6 144.6 144.6 162.6 193 218.4 236.7 265.8 284.4 320.5 338.1 352.6 362.5 365.2 363.8 362.6 355.4 349.8 347.1 339.7 331.9 314 298.3 290.7 300.3 302.9 304 309.1 311.6 311.1 303 290.9 276.9 273.8 283.1 294 306.2 312.6 322.9 338.3 351.8 366.9 370.8 376 354 331.1 294.5 252.8 220 194.3 178.8 169 168.4 170.5 178.3 194 211.2 231.9 252.3 254.8 235.5 213.8 196.5 186.4 185.9 192.7 207.4 219.4 234.1 257.4 267.5 273.1 291.3 302.8 292.8 292.2 301.6 315.2 323.7 352.8 365 346.1 306.9 271.8 242.2 214.9 197.7 182.3 181.4 182.5 185.9 190.5 210.2 229.3 256.8 289.9 325.3 358.9 394.7 435.9 479.5 521.9 550.5 560.6 567.7 571.7 572.9 573.6 574.8 576.1 579.5 584.8 590.1 592.7 593.9 591.5 588.4 586.4 584.6 582.8 581.3 579.6 577.9 576.4 576.6 573.7 568.1 560.5 550.7 540.8 520.3 505.4 493.9 485 474.9 477.4 481.1 477.6 472.9 465.4 458.7 452.9 451.6 451.3 451.9 453.7 454.6 453.3 450.4 444.4 435.7 426.6 417.5 406.1 406.8 413.8 420.2 422.9 428.5 430.7 431.3 430.9 430.4 427.4 424.4 421.9 416.8 412.6 406.9 400.3 397.6 394 389.2 383.8 379.6 374.5 367.4 358.9 353.8 349.2 342.3 335.3 331.7 328.3 325 320.4 315 308.5 303.8 301.1 298.6 295.8 293.4 290.5 290.5 290.7 286.7 286.4
144.6 144.6 144.6 144.6 144.6 172.2 206.5 235.2 253.8 275.7 307.1 346.2 366.7 374 369.5 367 369.5 358.2 356.5 346.8 339.9 328.9 316.3 304.5 299.5 307.2 317.4 324.1 332.9 332.7 328.9 323.5 316.2 305.2 289.4 288.4 297.5 311.4 322 325.5 333.8 350.1 364.1 372.7 375.4 363.5 343 318.3 287.9 250.8 216.5 192.8 180.6 170 169.3 169.1 177 193.1 216.5 238.7 261.2 262.2 235.9 210.2 199.5 192.2 186.6 191 201.7 223.4 247.4 264 270.9 289.2 316.2 331.3 329.5 323.6 330.6 344.6 352.6 372.9 372.6 341.7 304.1 266.9 239.5 217.2 196.5 184.2 183.9 186.6 190.5 195.9 210.6 231.7 255.6 290.3 325.4 357.8 394.7 439.7 482.1 520.3 546.4 559.3 568.2 572 574.3 575.3 577.5 579.3 582.3 588.3 594.3 597.5 598.2 596.7 592.6 591.1 588.5 587.9 587.3 586.4 585.8 583.9 582.6 578.7 571.1 559.3 551.2 539.5 525.1 513 504.9 501.7 496.1 493.8 490.9 487.5 482.6 474.8 469.5 464.5 462.8 462.3 462.1 463 462.3 459 455.1 447.7 440.5 430.4 417.7 412.2 420.7 427.5 432.1 433.3 440.4 441.1 439.1 437.9 435.5 432.4 431.9 428.9 422.6 418.2 413.8 407.4 404.2 398.4 392.5 388.1 382.2 376 368.6 362.3 357.7 352.4 343.3 334.9 330.1 326.8 321.2 317.5 312.9 305.5 302.1 299.5 297.7 296.4 295.2 293.2 293 292.3 288.5 287.8
144.6 144.6 144.6 152.8 170.3 186.9 217.8 248.1 269.5 286.7 318.1 354 382.3 379.8 380.2 377.5 363.4 355.3 351.7 346.3 342.8 332.9 324.3 313.4 302.5 318.7 330.4 342.8 353.5 345.7 343 337.5 329.6 314.6 305.8 309.9 318 331.3 334.7 338 346.3 361.5 370 375 368.2 358.5 333.8 304.4 275.7 243.7 217.7 193.6 179.8 170.2 170.3 171.7 179.9 196.4 218.8 238.6 264.7 261 240.9 215.5 198.2 190.9 187.3 191.4 197.1 222.8 241.3 262.3 285.2 304.7 316.8 335.1 347.9 353.3 351.6 359.5 379.3 384.7 367.6 331.9 295 265.9 238 217.2 195.9 185.2 189.1 192.1 196.4 203.6 213.7 231.4 256.3 286.9 319.4 357.3 398.5 437 484 520.7 539.4 548.4 560.4 570.7 574.1 576 578.8 581.8 586.8 593.1 598.9 602.9 603.2 600.9 599.6 598.5 595.5 596.1 595.3 594.9 594.1 592.2 589 584.9 576.8 568 559.8 549.9 540.5 531 522.1 516 508.7 506.6 503.2 498.6 492.3 485.7 479.5 477.5 475.3 474.5 473 470.6 467.4 462.8 458.2 449.9 441 426.1 418.3 429 433.4 438.9 444.5 449.3 449.9 448.5 445.5 443.8 442.4 440.4 438.2 435.2 430.7 425.6 421.6 417.2 409.7 403.1 397.3 390.4 383.6 377.4 371.4 364.6 360.8 352.9 343.1 334.2 328.7 324.1 319 314.8 309.4 303.1 301.8 299.5 298.3 297.4 296.4 294.2 293.7 293.1 290.8 289.9
144.6 144.6 161 181.2 204 215.9 234.9 254.1 285.2 302 319.7 352.6 376.5 381.4 383.9 378.2 370.6 373.7 374.2 363 352 342.2 328.5 315.2 320.1 329.1 341.7 352.2 357.4 357 353.7 350.4 340.3 336.4 332.6 334.1 341.5 348.9 352.5 353 355.2 368.8 374 374.9 360 341.9 317.6 288.3 261.1 237 211.2 193.1 182.5 171.6 173.2 178.9 188.6 204.4 223.4 245 261.1 262.5 245 211.8 196.8 189.2 187.7 191.1 198.6 221.5 239.6 258.9 280.4 304.6 326.6 333.2 350.2 357 363.1 369.7 393.4 388.6 358.5 320.7 284.8 261.9 237.6 214.5 198 186.8 191 195.7 202.2 210.6 221.7 236.8 259.1 287.6 322.1 356.8 392.5 430.5 472.9 505.9 511.5 521 545.7 567 575.4 578.3 584 587.9 592.9 598.9 603.6 606.5 607.7 606.7 608.1 607 605.3 605.8 604.6 605.3 602.6 601.2 597.5 592.6 586.2 577.5 569.4 565.7 554.8 545.1 537.5 530.9 525.9 522.8 518.6 513.2 506.5 498 491.8 488.1 485.3 483.3 480.9 476.5 471.9 466.4 460 450.4 438 433.5 438.7 442.6 445.4 450.4 455.4 456.6 456.7 454.6 450.5 447.9 446.6 444.5 442.1 439.2 435.7 431.7 426.4 422.5 416.3 407.8 400.7 393.6 386.1 379.7 376 368.1 363.4 354.5 344.8 334.5 327.8 322.4 317.1 310.6 309.2 306.5 304.3 302.2 298.6 298 297.3 295.6 295 294.1 293.7 291.9
144.6 160.1 178.7 209.8 244.9 252.3 265.3 287.4 302.4 317.5 336.2 360.3 381.3 390.3 393.4 397.8 397.1 388.8 383.1 371 360.8 347.7 332.1 321.8 332.6 341.7 351.2 363.1 368.2 365 360.6 354.3 352.2 353.5 356.8 359.1 362.8 366 369 366.7 365.3 371.9 367.3 357.3 336.9 312.8 294.8 271.2 248.7 226.2 203.8 187.4 181.3 173.7 178 182.1 194.4 207.1 228.5 245.7 259.9 257.7 237.4 212.2 199.5 188.6 188.4 191.5 199.7 217.7 236.2 255.1 275.1 298.3 328.8 340.4 353.6 364.5 374.1 383.8 397.8 386 354.2 317.9 285.5 258 235.3 214.3 202.5 188.9 192.1 197.3 205 215.2 228 244.4 261.8 285 313.7 343.2 383.4 414.6 441.6 467.8 479.3 506.4 538.7 566.4 578.3 582.3 588.1 596.2 602.1 606.4 610.6 615.2 615.3 614.6 616.9 616.2 617.2 617.6 617.3 613.9 611.8 607.9 604.8 600.5 595.6 589.6 585.9 582.5 575 563.7 556.8 550.3 545.8 541.7 534.7 528.6 520.7 508.1 503.8 499.4 494.4 490.2 485.5 479.8 474.6 468 460.5 449.2 442.2 446.8 450.1 453 457.2 460.9 463.4 463.2 461.7 459 454.9 451.8 449.7 446.4 444.5 441.8 438.2 433.5 428.2 424.7 417.7 409.4 403 395.6 387.7 381.3 376.1 368.2 361.7 352.6 342.8 332.8 325.3 319.7 314.6 312.8 312.5 309.7 308.9 307.4 303.3 299.9 300.1 297.2 296.2 296 295.1 292.7
164.3 182 215.4 249.7 282.7 291.9 299.1 319.4 341.9 349.4 370.2 393.9 409.3 418.5 424.5 428.2 416.1 397.6 383.6 373.9 363 345.3 338.6 332.6 341.6 352.3 358.9 368.4 377.2 380.7 378 371.9 366.4 365.8 373.9 381.5 382.6 382.4 384 380.4 373.1 373.6 356.2 329.2 309.1 289.5 272.3 254.6 235.4 217.5 195.7 184.9 177.8 172.9 182 187.3 195.6 213.3 232.4 248.5 262.1 251.3 230.9 214 199.5 188.6 188.9 190.9 199.1 214.7 231.4 249.7 273.4 299.1 334 344 355.3 369.4 383.4 395.1 402.2 391.9 356.9 320.8 285.8 257.5 233.5 216.3 204.6 191.6 194.6 200.9 207.9 219 229.4 245 266.5 295.2 325.7 349.5 366.7 395.1 431.1 459.1 483 510.5 543.1 571.6 581.9 590.2 596.1 604.4 611.2 616.3 620.7 624.2 623.2 624.4 628 629.2 627.5 627.8 624.9 621.6 619.4 616 613.1 609.6 604.3 600.9 598.3 592 584.1 577.5 571.6 563.3 556.3 549.1 540.5 534.4 527.3 521.4 515.7 509.3 501.7 495.6 488.9 481.7 475 467.4 457.9 446.6 454.8 457.7 460.8 464.9 467.8 469.1 469 467.5 464.5 461.8 458.1 455.5 452.1 449 445.7 442.9 438.7 433.3 428.6 424.2 417.2 409.3 404 396 387.4 380.5 373.8 365.9 357.8 349.3 339.5 330.2 323.8 319.1 315.6 314.3 314.2 312.4 311.9 310.6 306.9 302.1 302.8 300.1 298.6 297.8 296 293.1
182.7 210.5 250.1 281.5 303.4 327.2 337.5 356.5 374.4 383.3 405.6 430.3 440.6 446.5 451.3 442.3 417.4 396.6 380.8 369.4 357.7 351.7 349.3 350 353.9 359.6 368.3 377.6 384.5 392.6 398.2 396.3 383.3 382.2 384.6 396.9 396.6 395.4 398.1 392.7 378.6 372.4 350.8 318.4 287.7 270 255.4 241.8 224 205.7 186.6 177.7 173.8 180.9 185.1 190.3 202.5 219.5 238.9 252.8 264.9 250.9 229 211.7 197.5 189.7 189.2 190.6 195 212.5 228.9 245.7 268.7 296 323.8 336.5 353 373.7 388.2 392.8 406.2 398.6 355.9 318.5 283.7 255.1 232 217.7 206.1 192.6 198.6 206.3 214.1 222.6 235.8 251.9 274.1 302 334.8 365.2 399.6 430.8 459.4 483.5 509.3 534 560.8 584.3 592.1 599.1 606.4 612.8 620.5 628.4 634.8 638.7 639.7 640.6 639.7 640.3 639.1 635.6 631.2 629.3 627 623.6 620.6 618.6 614.9 609.9 604.3 596.7 590.2 583.5 575.5 567.3 560.2 552.5 544.3 536.6 530.6 526.6 520.6 514.8 507.3 499.2 490.5 482.6 473.8 464.4 454.9 459.1 464.1 465.6 467.9 470.7 473.7 475.3 473.1 470.9 467.9 464.2 461.2 457.3 453.6 448.9 445 441.2 437.1 432.6 429 422.9 413.5 407.3 401.3 394 385.2 377 367.5 360.1 355.2 346.5 336.9 329.5 325.8 320.6 316.3 315.3 316 314.5 314.8 313.4 308.4 304.2 303.9 300.6 301.2 301.3 296.9 293.9
196.5 228.2 262.2 298.7 333.3 358.2 375.9 389.7 406.6 419.5 444 459.1 460.6 461.5 451 433.5 415.1 396 380.8 366.4 359 354.7 353.2 358.1 362.8 369.4 378.2 385.8 398.1 414 421.9 421.3 413.4 402.2 402.3 405.6 404.6 400.5 402.6 392 377 358.6 333.4 305.6 276.2 259.8 245.4 228.4 213.4 194 178.3 174.3 175.4 180.1 186.6 193.3 205.5 225.6 242.7 259.6 279.8 254.8 233.6 214.2 198 191.9 188.7 190.2 192.1 212.3 227.3 244.6 266 290.1 314.4 334.7 357 376.5 385.3 394.2 407.2 389.6 349 314 280.6 253 232.5 218.2 206.5 196 202 210.1 219.4 229.6 240.5 257.6 281 311 342.1 374.3 408.4 444.7 483.7 518.7 544.8 566.5 588.1 598.2 603.7 607.8 614.2 621.1 630.6 637.7 643.7 647.5 649.2 649.3 649.3 648.1 644.6 640.3 637.5 634.3 631.6 630 627.7 625.1 620.8 614.8 607.8 601.1 593.1 586.2 577.7 569.9 562.1 553.6 546.7 538.9 533 527.8 522.4 515.7 508.7 499.5 489.8 479.7 469.3 466.4 466.8 467.6 470.9 472.7 474.4 476.9 477.5 476.9 474.7 472.3 469.3 465.8 462.2 457.9 452.6 447.6 444 440.2 435.6 429.9 424.7 418 411.7 405.2 397 390.6 381.7 372.2 363.4 357.3 351.2 342.8 334.5 331.1 327.5 320.1 317.1 316.2 317.5 318 317.5 315.9 311.1 306.6 304.7 301.9 304.4 302.2 298.6 295.1
219.8 248.7 286.3 324 352.2 383.7 409.9 415.9 431.9 458.7 476.2 479.2 473.8 462.9 448.6 435.7 413.3 399.8 383.4 371.7 365.6 361 360.2 363.5 370.6 379.8 389 404.2 421.6 435.6 449.7 445.3 437.4 426.8 422.2 412.8 407.3 402.6 401.3 381.2 358.2 341.7 315.7 291.2 268.5 249 236.2 218.4 203.1 183.5 174.5 173.5 173.5 176 187.4 199.6 211.8 232.8 249.2 270.3 284.6 258.4 242.7 236.1 211 192.7 190.5 191.5 195.1 206.3 225.1 242.7 258.3 286.2 311.5 336.9 363 377 386 399.8 409 382.6 342 309 277.7 252.5 231.4 217.9 208.1 198.1 204.6 213.1 224.1 237 248.4 263.5 289.9 320.2 350.8 383.4 417.5 455.9 493.4 528.2 558.2 580.4 594 605 611.8 617.3 622.4 630.3 637.4 643.2 648.4 654.3 656.1 655.8 653.7 651.1 649 645.5 642.4 639 636.4 634.4 631 629.4 624.3 618.7 612.2 604.5 597 588.4 579.2 571.4 563.5 555.3 547.3 539.8 534.2 526.6 521.5 513.1 505.7 497.8 486.2 474.8 474.6 473.4 473.5 473.3 475 476.2 477.2 479.6 479.5 477.5 474.6 472.1 469 465.1 460.4 455.8 450.8 447.1 443.5 439.2 434.2 428.1 422 417.5 410.8 404.6 396.1 388.7 384.1 374.4 363.6 355.2 347.7 339.3 334.5 331.6 326.6 320.6 318 319 320.4 321.1 320.7 318.4 312.9 309.2 308 304.8 304.3 302.7 300.7 296.5
248.4 277.4 316 353.2 381.6 418.1 436.6 445.7 457.7 470.7 475.1 479.6 472.8 458.2 447.8 435 416 398.5 387.3 376.6 372.1 369.1 367.6 370 379.1 388 402 419.1 441.9 453.4 466.5 458 454.3 445.6 444.4 420.7 403.7 395.3 382.5 363.9 342.5 322.4 304.2 279.5 258.6 240.3 223.8 207.3 189.8 174.7 174 173.8 173.4 179.7 193.5 207.8 224.7 241.7 260.1 285 301.5 267.7 239.2 228.5 214.6 195.9 190.2 194.3 193.2 199 219.1 234.8 253.4 279.9 305.1 331 362.1 375.7 386.3 402.5 402.1 370.2 332.6 301.4 274.6 250.9 232.4 223.5 213.5 202.8 209.6 220.3 229.5 240.3 257.4 273.5 299.2 328.7 357.9 391 424 462.9 497.7 532.9 563.1 584.4 598.8 609.4 616.1 621.2 628.7 637 644.4 649.4 653.6 656.5 660.5 658.9 658.4 655.8 653.2 650.6 647.4 643.8 641.4 639.7 635.1 631.5 626.1 621.5 614.5 606.6 598.4 589 580.3 571.2 563.1 555.1 545.6 539.4 532.7 525.6 518.6 510.9 502.5 493.2 484.4 482.2 480.5 478.7 478.3 478.4 479.9 479.9 480.8 481.7 481.4 477.7 475.3 472.6 468.2 464.2 459.6 454.7 450 445 441.9 438.3 433.4 429.1 422.9 418 411.4 406.4 401.8 395.2 387.1 374.7 363.4 353.9 346.5 340.8 336.4 331.9 325.5 321.3 321.2 322.8 324.1 324.6 323.5 320.8 315.6 312.1 310.1 306.8 304.6 304.7 302 298.3
272.1 302 350.4 385.9 425 456.6 473.2 471.3 470.1 481.4 476.9 466.3 463.2 455.7 443 433.1 420.4 397.5 381.7 379 377.1 375.5 373.9 376.6 384.4 393.7 412.3 436.6 454.7 468.2 468.7 468.4 468.9 466.9 456.9 426.5 398.6 383.8 362.9 346.1 325.7 307 290.2 268.2 247.5 230.3 211 195.6 179.5 174.6 174.1 173.8 173.5 181.3 198.6 214.5 232.7 252.1 273.5 304.4 306 290.6 251.5 224.8 208 193.1 190.4 191.7 191.1 192.7 212.2 230.3 247.1 269.5 296.4 324.3 351.4 371 394.1 411.9 408.8 376.6 340.3 301.7 275.2 250.2 237.5 223.2 213.1 207.8 212.5 221.8 236.7 256.1 265.6 279.7 305 333.2 363.2 396.4 428 465.3 506.4 541.5 565 581 596.7 611.3 621.1 628.3 634.9 641.5 649.9 654.3 657.2 660.2 663 661.8 661.1 659.1 656.4 653.1 650 647.5 645.5 642.9 638.5 633.9 629 622.6 615.5 607.3 598.6 589.1 579.4 571.1 562.1 552.8 543.5 535.7 528.9 520.5 510.8 504 496.3 494.4 492.1 488.6 485.7 483.2 482.6 482.2 482.5 482.4 483.1 483.1 481.5 477.2 473.7 471.3 466.9 462.1 458.1 453.9 447.8 442.7 439.6 436.5 434.3 430.7 425 419.5 412.2 407.7 402 392.4 384.1 373.1 363 354.6 347.7 341.5 335.9 330.2 326.9 323.3 323.9 326 328.3 327.7 326.3 322.9 318.6 315.1 312.1 309.4 307.7 306.2 303 298.7
308.7 339 381.1 420.2 459.1 487.8 502.3 488.1 478.4 478.3 468.2 462.5 453 450.5 442.5 430.7 418.8 407.1 394.3 387.1 379 377.6 379.2 382.1 388 402.8 433 449.4 467.7 474.7 476.8 481.7 488.1 482.1 456.6 429.3 397.6 374.2 351.3 331.9 313.2 294.8 277.3 257.4 238.2 219 199.3 187.4 178.9 175 174.7 174.3 177.5 184.6 203.8 224.4 239.1 258.7 282.8 313.7 315.7 290.2 253.2 228.5 208.1 197.5 190.9 190.4 190.6 191.8 200.5 218.1 236.9 261.1 287.9 318.5 350.1 369.8 397 415.4 411.7 385.6 350.6 305.2 276.9 255.1 241.5 227.5 217.8 210.7 216.1 226.2 244.1 266.1 281.4 285.4 308.8 338.1 368.5 399.9 431.8 471.7 512.8 544.9 565.5 582 598.9 613.3 624.8 634 641.2 648.8 654.9 658.8 660.8 662.5 664 664 663 660 657.2 654.3 651.4 649.3 647.5 644.6 639 633.8 630.2 624.4 616.6 607.8 597.5 587.6 579.5 570.3 562.2 552.5 544.8 536.9 529 522.7 514.7 507.7 503.9 501.3 497 493.2 490.4 487.8 486.8 485.4 485.8 486.6 486.3 484.2 480.2 475.7 470.6 466.5 462.1 458 453.2 449.8 444.9 439.5 437.1 434.2 432.2 430.1 427.7 421.2 412.5 406.5 398.6 391.6 380.8 372 365.8 354.9 347.7 340.5 334.9 332 328.7 326.3 326.5 328.1 331.1 330.5 328 323.8 321.1 317.1 314.3 312 310.9 306 301.9 297.9
333.3 372.2 415.6 439.9 479.9 509.2 496.3 487.7 476.1 472.9 465.5 461.8 453.2 443.7 439.7 430.4 423.5 418 409.1 394.1 386.8 382.9 383.1 386.6 393.5 412.2 432.8 453.5 474.7 491 498.1 499.3 491.7 474.3 448.7 431 398.5 358.6 336.6 320.4 300.1 281.5 263.6 246.4 229 211.6 192.3 182.8 177.6 175.4 176.7 181.4 189 197.8 210.8 231.1 246 264.1 291.1 320.8 319.3 296.5 256.1 222.1 203.6 192 189.8 189.9 190.3 192 197.4 208 227.1 253 280.9 309.5 341.7 370.6 395.3 412.3 411.3 389.5 348.8 311.1 282.8 260.8 240 230 223 213.3 221.7 232.4 252.9 277.9 296 311.9 311.6 340.5 372.8 406.4 442.5 482.8 516.2 540.7 565 585.2 602.3 617.2 629.4 640.2 648.7 654.9 659.8 662.8 664 664.8 665.5 663.9 663.2 660.9 659.1 656.2 652.6 649.4 646.9 643.8 639.9 634.2 628.3 624 615.2 606 596.7 588 579.5 570.1 560.9 552.5 544.7 536.2 529.8 525 520.1 514.3 508.7 505 501 497.3 493.5 491.3 489.9 488.3 489.3 488.6 487.4 482.4 477.6 474.1 469.1 463.8 459.1 455.7 450.8 446.5 443.1 437 434.8 432.1 430.5 429.1 423.6 418.2 409.8 402.1 394.7 385.1 379.2 372.4 364.2 352.9 345.4 339.3 335.9 333 330.5 328.7 327.3 329.8 327.9 324.7 323.8 322.3 320.3 317.7 316.8 314.7 309.4 305 301.1 299.1
354.8 397.6 431.7 458.6 489.5 493.6 484.4 479.4 473.3 467.8 461.8 454.1 445.6 441.6 439.4 432.6 426.9 418.6 413.6 404.1 395.9 387.5 387.7 392.7 398.8 415.6 436.5 455.7 474.5 494.6 496.1 492.6 477.9 462.7 444.7 425.2 391 352.9 325.1 304.5 288.5 268.5 254.9 237 220.6 202.3 188.1 180 175.5 178 181.9 189.5 197 206 218.9 235 253 271 294.1 326.8 315.5 285.2 263.9 221.8 202.6 192.7 189.9 189.6 190.7 192.5 198.6 205.3 219.3 245 272 300.9 330.7 361.6 390.5 412.7 415.6 396.2 352 315.2 286.2 262.8 243.2 237.7 224.9 222.2 227.9 241.5 260.3 287.3 310.3 329.7 321.9 347.4 376.7 414.1 448.6 480.2 512.7 538.9 565.6 587.3 606.8 622.9 636.6 647.3 654.9 660.4 664.1 666.5 667 667.5 666.6 665.7 663.9 662.8 660.3 657.2 653.3 649.3 644.7 640.1 636.1 631.1 625.7 619 611.8 603 594.7 586.7 579 570.7 561.3 553.7 545.7 538.9 532.9 526.9 522.5 516.6 511.7 507.4 503.3 499.2 495.7 491.9 490.4 490.1 489.3 486.5 484.6 481.3 477.1 471 466.1 461.9 456.4 453.1 447.6 442.9 438.6 433.5 431.6 429.1 426.2 423.1 417.5 410.8 400.8 394.8 388 380.3 374.4 368.2 357.9 349.1 343.6 338.4 335.9 333.9 331.6 330.6 328.6 327.3 323.6 323.6 322.8 322.6 321.2 317.2 314.9 310.2 307.4 304.6 301.7 297.2
378.8 416.2 454.2 476.4 483.3 487 485.9 483.6 473.2 461.8 460.3 454.8 446.7 444 439.6 436 431.8 429.9 425.3 414.7 404.4 399.5 399.7 400.3 405.1 419 440.2 468.2 481.1 485.2 487.1 482.6 474.3 458.7 437.9 405.8 375.6 347.4 313.6 291.2 274 256.7 242.8 226.4 209.3 193.4 183.9 177.6 175.8 179.4 185.9 191.6 198 209.9 226.1 242.5 258.7 277.5 301.4 323.6 308.2 281.1 252.7 224 204.9 194.3 190.5 189.9 191 193.6 199.6 206.3 215.5 239.6 265.6 298.7 325.2 350.5 382 409.4 417.9 395.9 358.2 320.9 290.7 265.3 248.9 243.4 233.6 224.9 235.9 249.2 272 298.3 323.8 346.7 334.6 356.7 389.1 423.8 452.5 479.9 512.9 541.5 566.7 587.6 608.7 625.8 640.1 652.1 659.7 664.7 666.1 668.3 669.1 668 667.5 666.3 664.9 663.1 660.2 657.1 653.2 648.3 642.4 636.3 630.3 626.7 621.4 614.8 607.5 601.4 592.7 586.2 579.3 571.1 563.7 556.3 548.2 539.7 533.3 527.9 522 516.3 511.9 508.1 504.8 500.6 496.4 491.9 491.3 489.4 487.9 485.8 485.5 481.4 475.5 469.3 464.2 458.7 453.7 449.8 444.6 438.7 432.9 429 427.6 422.1 418.1 413.2 409 400.6 393.3 387.6 382.8 374.8 366.4 359.2 352.7 346 339.8 335.6 333.4 331.7 330 328 326.8 323.3 322.3 321.1 321.1 320.9 319.2 318.9 318.1 314.3 309 304.4 300.5 294.2
393.2 434.3 474.2 479.4 484.7 485.5 486.4 481.6 468.9 457.9 457.1 451.3 449.2 443.4 445.1 443.5 444.3 443.5 438.8 425.9 419.2 413.3 411.3 405.9 411.4 421.6 444.2 462.8 473.1 477.3 483 480.4 469.9 449.8 420.5 390.3 363.3 335.5 307.1 280.7 260.8 243.1 228.3 213.8 197.5 186.9 178.7 176.4 176.3 180 187 192.6 202.6 216.9 236.9 251 266.1 283.1 301.9 321.5 311.6 284.6 255.5 222.9 204.8 194 191.4 190.4 190.7 193.1 200.8 206.2 216.5 233.4 263.1 295.8 321.6 339.6 372.7 401.6 430.2 404.9 370.5 328.7 296.8 270.8 255.3 248.3 240.9 230.2 247.2 259.9 280.8 309.8 336.9 363 351 365.8 401.6 428.2 452 480.1 515.2 543.7 566.3 587.2 609.4 627.8 641.3 653.2 662.1 666 668.5 670.8 669.9 669 666.7 665.8 664.6 662.3 659.4 656.3 651.6 645.5 639.4 632.9 626 620.8 615.6 609.9 603.9 597.5 592 585.5 579.1 572 565.2 557.6 549.4 540.7 532.9 527 520 514.7 511.4 509 504.3 500.1 495.8 491.8 488.3 486.4 484.6 482.5 480.2 477.5 471 466.3 461.7 456.2 450 446.7 440.4 432.5 426.6 421.2 418.1 410.4 403.7 400 395.7 391.9 388.6 377.6 372.2 365.3 357.4 350.4 344.7 338.9 334.9 332.1 330.1 328.6 326.2 324.6 322.1 321.6 318.7 318.1 319.3 318 317.1 317.8 318.8 315.6 309.4 303.9 298.8 295.8
410 440.8 469.1 480.7 485.5 489.8 485.8 470.9 462.5 457.2 455.3 450.3 453.2 455 459.2 457.5 453.2 450.6 448.6 441.9 433 428 423.8 418.8 417.1 424.1 441.3 455.2 462.2 471.3 478.2 473.5 461.1 446.7 411.9 387.4 360.3 326.9 301.6 273.3 248.6 235.9 221.3 204.7 188.6 182.2 176.9 176.5 175.9 177.6 187.8 197.8 208.7 226.6 246.5 262.6 275.8 290.9 303.4 318.1 316.3 288.5 256.6 224 202.9 193 190.1 190.9 190.4 191.4 200.5 204.4 216.3 232.2 259.7 285.6 310 336.3 366.9 391.1 422.5 401.8 373.5 337.1 301.7 275.6 259.9 254.4 247.9 239.7 255 270.3 293.6 321 348.1 377 379.3 374.1 405.2 432.7 450.9 478.6 516.6 546 566 587.4 606.3 624.3 640.6 655 662.4 667.7 669.8 671.1 670.7 669.8 667.7 665.4 663.1 660.4 657 653.7 648.7 642.7 635.7 628.9 622.3 615.1 609 603.5 598.8 593.5 588.7 582.7 576.6 570.4 563 555.9 547.6 538.9 531.5 525.5 519 513.2 510.1 506.8 502.3 498.3 493.9 488.2 482.7 479.8 478 475.3 473.7 470.4 465.6 461.3 456.9 451.6 444.2 436.4 429.2 423.3 415.3 407.2 402.3 393.2 383.8 379.7 376.4 377.7 370.9 364.1 357.8 350.8 346 342.9 337.2 333.4 329.5 328.1 326.3 322.7 319.8 320.3 318 316.9 315.8 316 318 317.1 316 317.4 319 314.5 308.3 304.1 300.7 298.7
414.7 434.7 464.3 480 487.1 487.2 484.2 473.5 458 457.1 453.8 459.1 465.5 467.6 469.5 463.3 462.5 460.3 462.3 458.8 450.1 444.5 438.7 432.1 428.1 438.1 442.9 449.7 457.1 467 468 467.3 462.5 439 409.5 371.5 342.8 312.2 290.6 265.2 237.7 227.8 213.9 197.7 181.5 176.4 176.8 176.6 176.3 177.2 186.4 203.7 219.4 235.1 254.2 274.3 289.4 300.7 311.8 324.3 327.1 299.2 259.1 228.5 203.3 192.6 190.7 190.6 191.2 191.8 198.8 206.6 218.1 235.3 254.1 274.9 302.6 329.8 355.2 378.6 404.4 393.9 371.7 338 306.5 279.3 265 259.5 258.5 249 260.9 279 303.9 332.7 360.1 389.7 404.5 382.2 412.8 442.9 458.3 480.2 514.5 544.7 566.9 586.1 603.4 620 635.5 651.6 662.8 668.1 670.5 670.8 670.4 669.1 666.9 663.7 660.3 655.7 650.4 647.4 643.4 637.6 630.4 622.4 615.5 609.3 602.8 596.8 592.1 586.9 582 577 571.6 563.8 557.9 550.9 542.4 534.7 527.7 521 514.6 509.4 505.3 502.1 496.5 493.7 488.2 481.3 475.7 468.7 463.8 460.7 457.1 457.2 453.7 451.4 449.1 441.4 429.8 422.7 414.3 404.3 393.1 385 378.3 373.4 361.2 358 354.5 353.1 348.7 345.6 344.4 340.8 337.7 334.3 329.7 327.3 325 323.1 319.6 318.1 324.5 322.6 321.7 315.3 313.6 314.3 313.7 315.9 315.6 317.4 315.8 312.3 307.5 303.4 300.2 301.7
415.4 440.8 467.5 481.8 484.4 482.3 481 478 464.5 458.1 467.9 466.2 472.1 477.6 480.8 485.7 484.4 481.3 483.5 480.2 469.7 463.6 457.2 445.9 442.7 444.9 446.1 449 455.5 460.8 464.1 463.3 454.9 430.4 397.8 362 332.6 308.6 281.1 255.2 231 218 203.5 190.1 177.8 176.9 177.1 176.8 176.5 179.1 191.8 208.7 226.5 244 263.6 284.6 301.7 313 318.5 331.3 321.1 296.9 258.5 228.2 205.8 192 190.5 190.7 191.1 191.3 201 206.8 215.9 227.4 244.9 267 287.7 318.6 341.5 362.9 388.6 385.8 368.3 340.3 311 285.8 274.4 266.7 266 256.9 272.4 288.2 313.7 342.8 374.4 402.2 424.2 423.9 416.7 446 462.8 483.7 519.2 548.6 570 587 601.9 616 632 645.4 658.8 665.6 667.6 668.7 667.9 667.1 664.2 660.7 656.5 651.6 647 641.6 636.8 631.4 624.7 617.8 609.5 600.7 594.2 587.9 583.1 578.7 572.8 569.2 564.8 558.7 551.8 545.3 538.5 531.7 524.6 518.4 511.8 505.7 499 493.8 488.8 484.2 477.6 469.9 460.5 451 442.6 436.7 435.4 436.6 437 434.3 428.3 419.3 409.2 399.7 388.1 374.4 365.7 357.4 352.4 346.9 345.2 343.1 340.7 339.3 336 334.4 332.3 330.5 327.9 326 324.4 322.6 321.5 319.8 322.4 326.6 327.8 328.3 327.9 318.1 308.8 308.7 308.6 309.9 310.5 312.9 312.7 310.1 303.3 301.7 301.5 303.1
414.4 437.3 462.1 473.2 482.8 482.2 482.8 475.6 473.6 472.6 472.8 474.8 479.6 485.7 488.8 502.2 510.8 525.1 518.5 501.2 493.6 478.8 466 458.4 455.5 452.5 449 450.5 453.3 457.7 458.4 456.5 450.4 421.7 399.8 367.5 329.7 299.4 274.5 248 220.8 207.7 194.5 186.4 177.1 177 177.2 177.3 177.3 183.7 199.7 218.7 234.7 255.7 276.4 296.6 318.2 326.7 331.3 329.6 314 293.3 259.9 231.4 208.9 194.2 190.9 190.9 191.5 191.2 192.7 198.5 207.7 217.4 236.8 255.6 275.7 299.3 325.3 348.3 374.2 387.1 372.6 344.4 316.3 292 280.2 271.9 270.4 263.4 273.5 295 322.8 354.8 387.3 422.1 444.8 452.5 434.2 453.5 469.5 492 524.4 551.3 571.8 587.1 602 617.1 629.2 640.7 652.7 660.8 664.3 665.3 664.5 662.6 660 656.6 651.9 647.3 642.5 636.8 629.4 622.5 616.6 610.7 602.9 594 585.4 577.7 571.8 567.3 563.3 560.6 556.8 551.1 544.6 540.2 533.3 527.4 521.2 513.8 507.3 500.3 493 482.2 474.6 468.3 462.2 449.9 437 424.8 416.4 411.8 410.5 409 408.6 405.6 395.4 387.6 377.2 367.7 357.6 352.6 346.9 342 339.8 333.8 332.2 330.7 329.2 328.1 326.1 325.8 324.7 324 322.7 322 322 321 321.1 322.5 326.9 329.7 330.6 330.6 328.8 325.3 317 305.6 304.1 298.7 306.6 307.1 307.4 305.5 300.7 300.4 300 298.4
412.2 451.6 467.4 474.7 478.9 482.7 485 488.4 487.3 479.7 477.9 481.7 489.8 497.2 510 520.3 530.7 534.9 532.2 522.3 506.4 490 479.6 472.7 464.9 459.9 455.6 456.3 454.5 454.3 454.2 454.4 444 412.8 392.8 363.2 328 288.8 264 238.5 215 203.5 187.5 180.1 177.7 177.4 177.2 177.4 177.8 190.6 207.5 227.8 248.7 270 292.9 310.9 331.2 343.2 346.6 331.5 303.2 287.2 260.8 237.1 215.3 199.9 191.9 192.1 191.5 190.9 192.1 192.3 198 210.2 227.6 245.8 268.7 295.2 322.1 343.3 367.5 388.9 381.1 352.1 324.6 302.6 288.4 283.1 278.4 269.4 278.2 302.3 331.9 361.7 397 428.2 450.9 465.6 466 451.1 481.3 499.4 531.6 556.4 576.2 591 603.9 616.1 626.2 639.4 648.1 654.5 658.6 659.8 659.6 657.6 655.9 652.2 647.5 642.9 636.5 630.7 623 616.1 606.8 601.5 594.6 586.4 578.5 568.8 557.6 555.8 552.9 550.1 546.4 541 535.2 532.5 527.2 522.5 515.5 508.6 502 493.5 485 475.1 457.7 450.3 437.3 423.9 408.1 393.5 387.1 378.9 378.3 376.1 373.1 368.6 361.7 354.7 347.8 340.5 337.5 335.2 333.7 332.5 332.6 330.1 329.7 327.8 325.8 325.5 325.6 324.6 324.1 323.8 323.2 323.3 322 325.1 326.8 327.8 330.6 332.4 331.9 330.3 327.5 323.5 318.1 313.9 309.8 302 299.7 300.2 300.9 298.2 296.8 296.8 296.5 296.5
411.3 450.2 468.3 474.7 482.7 483.3 499.2 500.2 494.4 487.6 485.7 491.6 498.9 515.6 522.5 529.8 532.1 538.5 542.8 537.1 524.2 509 496.7 483.9 473.5 465.6 462.6 458.9 455.8 454.3 453.3 450.1 438.1 412.8 383.7 348.8 313.8 277.3 257.3 232.6 210.6 198.7 181.4 179 178.2 177.7 177.9 178.4 184.4 198.8 215.7 236.2 261.7 289.3 313.2 330.8 345.5 358.2 364.8 346.3 311.8 284.1 264.4 245.9 230.4 207.1 194.6 193.3 192.5 191.9 192.1 192.2 196.3 205.7 217.1 239.1 259.7 284.9 315.4 341.7 360 385.9 377.7 361.7 334.8 315 302.8 292.6 286.5 276.6 280 303.9 335.4 367 403 428.8 454.7 471.9 480.5 467.3 483.4 507.2 539.4 562.5 579.9 593.8 606.8 616.9 626.3 636.5 644.1 651 653 654.7 653.6 651.5 649 647 642.8 637.7 630.4 624.1 618.1 611.2 602.5 593.1 582.9 577.2 570 561 549.6 542.9 541.4 537.3 534 530.3 525.6 522.3 518 513.3 506.5 502.1 493.9 484.7 473.8 462.4 444.2 427.5 413.8 399.4 384.1 369.7 364.6 355.7 350.5 348.1 344.5 341.1 339 337.7 336.1 334.6 333.7 332.7 331.8 330.9 330 330.3 327.3 326.4 326.3 326 326.9 328.2 328.3 328 326.8 328 328.4 329.6 330.4 332.5 332.4 333.2 330.8 328.3 324.7 320.4 316.3 314.7 310.2 298.6 288.4 294.2 294.5 291.8 290.5 290.9 292 292.6
409.5 443.5 457.8 468.1 472.4 487 508.2 512.2 511.7 501 502.2 506.7 510.6 522.2 528 530.8 540.7 549.7 551.6 546.4 536.6 523.1 508.4 491.7 478.8 470.3 465 461.8 457.7 455.5 457.6 455.3 438.7 399.1 364.6 325.8 299.1 266.8 246.5 225.9 203.6 188.5 180 178.2 178.5 178.9 181.3 185.3 193.9 207.9 223.5 249.1 274.2 301.6 327.8 347.2 364.7 374.1 365.5 341.7 314.7 288.3 267.4 251.2 246.5 220.6 200.4 194.9 195 192.4 191.5 193.1 196.1 202.2 207.2 225.3 248.1 272.4 303.2 337.6 351.7 378.3 384.4 366.4 342.8 324.1 309.7 300.6 295.1 286.4 283.2 306.4 335.8 365.5 398.8 432.8 458.8 479.3 487.6 484.6 492 514.9 546.3 567 583 596.7 609.7 619.9 628.2 635.3 640.9 646.7 647.7 647.6 646.5 644.3 641.9 639.1 636.6 631.5 624.3 618 611.7 605 598.2 589.4 579.2 559.4 558.3 550 542.7 531.6 526.2 523.4 521.1 517.6 514.4 509.6 505.1 501.2 496.5 488.6 480.9 469.9 457.1 440.8 422 408.8 391.3 375.4 358.8 350.9 347.8 346 342.7 340.9 339.7 338.2 338.1 337 335.2 335.1 334.3 333 331.3 330.4 329.4 328.7 328.1 328.7 326.9 330.1 332.8 333.7 334.6 333.5 333.3 333.6 333.4 334 335.4 337.5 335.6 331.7 328.8 325.6 322.4 318.3 317.4 314.8 308.9 298.2 290.2 285 286.5 283.7 282.6 282.8 283.6 282.2
409.1 430.3 451 464.8 483.6 498.2 503.9 515.6 520.7 519.1 511.8 519.6 523.7 528.1 531.7 544.3 550.3 557 554.8 554.8 549 532.6 514.8 499.3 483.3 474.2 467 463.6 463.5 463.9 466.5 461.1 429.5 391.1 359 324.4 287.7 257.6 241.1 218.2 198 182.6 179.1 178.7 179 184 191.3 199.3 206.8 217.4 233.2 258.7 288.3 318.7 346 369.8 388.4 388.9 371.2 356.9 325.2 298.6 269.1 250.1 235.6 218 212.2 202.3 201.6 194.1 192.1 192.6 192.9 195.2 204 218 237.7 260.2 288.5 320.2 340 368.2 382.1 369.9 351.8 334.7 316.5 306.7 300 287.7 290.5 310.2 334.4 362 393.5 426.4 454.2 479.8 487.4 495.5 499.5 519.2 550.1 569.4 585.6 598.9 611.1 620.2 628.9 634.7 639.1 643.4 644.3 643.1 640.3 638.2 635.8 631.9 628.6 624.9 619.2 611.9 604.7 598.6 591.9 583.4 574.5 563.2 540.9 529.8 523.6 524.6 518.3 505 506.1 503.9 499.8 497.2 493.1 488.8 482 474.4 464.8 453.3 437.7 421.1 402.1 386.7 372 355 356.4 354 347.7 345 342.6 340.7 339.1 338 336.7 335.9 334.6 334.1 332.1 331.7 331.1 330 329.3 328.7 329.5 330.6 333.3 340.4 343.7 344.4 343 342.3 342.2 342.1 340.7 342 343.6 341.8 335.3 330.7 325.3 322 319.4 317 316.3 311.8 306.8 298.2 291.2 282.8 281.7 279.7 278.5 277.1 279.8 273.5
394.3 422.6 451.3 472.9 491.4 502.9 506.6 523.8 536.4 527.7 520.3 526.6 527.2 532.6 544.4 549 553.7 560.8 564.3 560 549.8 534.5 514.5 498.7 485.6 474.4 468.9 467 467.5 468.9 466.6 452.7 418.4 382.7 344.2 311.6 279.2 250.1 231.4 208.1 197 182.4 179.8 179.4 180.4 188.9 198.4 207.1 215.3 227.4 248.4 275.2 305.7 333.7 367.5 391.9 410.9 410.4 389.5 374.5 349.3 314.8 272.5 249.9 235.4 222 215.8 207.5 200.6 194.5 192.3 192.2 193.1 193.4 200.7 211.4 229 251.7 278 306.1 327.5 354.2 375.6 382 363.3 342.3 327.1 317.7 313.5 299.8 292.7 312.1 333.2 358.7 389.2 422.2 454.8 475.6 492.1 505 510.7 521.9 548.3 568.1 583.6 598.7 610.6 621.3 629.4 634.6 638.5 640.5 641.1 639.6 636.4 632.6 629.1 626.2 621.5 617.2 613.1 606.6 598.8 591.3 584.1 576.5 567.2 558 546.2 535.4 519.8 511.1 504.9 496.1 489.8 487.5 484.8 483.2 479.2 472.8 467.4 458.5 448.7 434.4 419.5 404.2 387 370.6 366.2 370.3 371.8 368.1 357.5 348.3 345.3 341 339.5 337.9 337 335.7 335.2 333.1 333 332.1 331.3 330.8 330.7 336.2 340.9 344.9 351 355.3 355.3 355.5 355.5 354.4 354.4 352.8 352.5 354 349.6 343 333.9 326.3 321.3 317.4 315.7 314.6 313.9 310.4 306.2 297.5 288.3 292.8 292.3 287.8 286.1 286.5 286.9 283.2
385.6 427.2 461.3 483.8 499 510.3 515 532.1 549.6 532.3 528.2 532.2 533.4 546.6 549.8 556.6 559.3 566 565.7 559.6 551.5 536.3 515.4 500 491.6 481.9 471.4 468.9 468.7 472.8 469.5 460.1 428.6 379.5 338.6 301.4 270.6 245 221.2 207.9 189.8 183 179.6 179.8 183.4 192.7 200.4 208.5 222.9 237.2 261.3 289.5 319 347.1 375.2 411.2 430.3 429 412.5 393.4 365.1 337.2 279.2 256.8 240.2 227.7 216.6 212 201.5 193.5 192.8 193.1 192.8 193.4 195.5 205.7 221.7 240.6 266 296.2 318.9 345 377.4 393.6 385.8 362.6 344.4 331.4 324.4 310.1 302.7 311 334.6 360.8 389.9 424.5 450.9 474.3 494.6 509.4 518.7 527.9 546.5 565 583.4 596.8 611 621.7 629.1 635 637.6 637.4 636.2 634.9 632.1 629 624.7 620.7 615.4 610.6 606 599.5 591.6 582.8 575.5 567.9 559.4 549.9 538.5 526.8 514.5 496.5 487.3 478 470.7 470.6 467.5 466.5 463.3 459 451.9 443.5 427.1 415 401.8 387.3 375.7 373.8 384.4 390.7 388.5 380.3 367.9 359.1 350.8 345.9 342.8 343.1 340.3 338.9 337.3 336.5 338.1 335.2 334.7 337.3 345.7 351.1 355.9 364.4 372.6 374.6 374.6 372.9 373.6 373.1 369.7 366.3 365.2 359.6 350.2 339.3 328.7 320.3 314.5 313.1 312 311.8 311 308.7 302.8 298 300.5 302.9 302.9 294.7 293.1 292.9 293 288.9
390.9 429.7 468.7 490 509.1 519.3 526.8 539.4 541 543.8 547.8 539.9 550.6 549.9 553 563.3 564.9 566.7 564.9 560 551.9 541.3 523.9 507.2 496.4 488.4 474.5 471.5 471.4 472.4 471.9 455.4 415.3 373.3 336.8 301.8 267.6 238.9 219.5 204.9 189.6 182 180.1 180 182.9 193.5 202.5 215.1 232.3 248.7 274.1 305 334.4 364 387.2 421.1 440.7 441.8 421.7 399.9 374.6 333.6 285.7 267.9 251.1 234.5 219.8 206.9 200.3 195 193.6 193.8 193.7 193.9 194.1 201.7 216.8 232.8 258 283.7 306.6 338.4 370.5 399.1 398.5 379.6 360.8 346.8 332.8 317.2 312 313.8 336.2 363.7 392.3 425 451.4 473.7 496.9 510.5 520.1 532.7 546.8 561.8 576.5 594.1 607.6 619.3 628.5 633 634.6 632.9 630.8 630 627.3 624.6 621.2 616.4 606.4 605.5 598.6 591.2 582.8 574.6 566.7 557.4 549.2 537.6 527.7 515.5 503.8 491.2 479.1 480.4 471.7 457.8 462 455.6 439.7 434.5 430.7 420.7 405.4 393.9 383.5 380.4 386.9 397.1 407 409.3 403.9 396.9 384.2 372.7 366.3 360.7 356.8 353.5 351 347.9 344.9 345.4 346.1 343.8 348.7 358.3 368.5 375.2 380.1 386 391.7 395.4 395.6 398.5 397.5 393.2 386 378.8 368.5 356.1 341.1 331.2 321.3 316.1 315 311.8 310.3 309.8 308.6 307 299.6 300.2 305 307 309.8 303.6 299.2 297.9 297.8 294
404.3 434.4 470.4 495.1 514.6 527.1 540.3 545.6 546.7 551.2 556.6 552.5 554.9 556.6 557.8 565 566.4 566.2 564.3 558.7 552.6 543.9 525 512.3 499.5 488.1 479.8 477.5 476.2 474.3 462 435.4 396.9 361.2 329.1 296.2 262.8 234.9 217.3 201.9 189 181.6 180.6 180.7 181.8 194.7 207.3 221.9 241.7 261 287.8 319.1 350.7 382.1 407.3 429.6 445.2 440.6 434.9 404.7 360.3 325.3 310.8 290 274.5 255.5 235 216.5 201.2 195 193.6 194 193.2 194.1 194.3 195.8 211.2 225.2 246.9 273.8 298.3 328.9 361.1 387.5 400.5 395 376.6 357.7 342 329.5 321.8 312.2 337.8 364.1 391.7 424.2 450.2 473.1 494.1 507.7 515.8 530.4 545.8 558.9 572.6 585.6 601.7 615.3 624.6 628.6 629.8 628.4 627.5 626.2 623.6 621.4 617.3 612.3 604.6 598.2 583.1 575.6 571.3 563.4 552.5 543.9 537.1 527.1 510 500.1 496.7 493.3 495.8 490.1 483.5 478.4 471.2 459.4 449.6 438.7 422.5 398.4 392.6 392.5 392.7 396.3 407.1 419.7 427.1 432.1 427.6 414 399.9 392.6 385.2 377.7 373.9 370.1 366.2 362.5 358.1 359 356.9 358.6 370 383.3 392.9 401.1 404.2 407.8 407.4 409.1 411.4 414.5 409.6 403.5 394.4 383.4 365.5 347 334.2 321.9 320.2 321.1 318.4 314.3 312.1 309.7 309.3 304.8 303.8 306.8 308.9 311 315 310.5 308.6 306.8 305.1 300.8
403.5 433 470.1 501.7 525.8 542.5 553.4 549 556.2 562.7 563.5 556.3 559.9 560 564.5 565.1 568.6 571.8 570.2 564 555.5 543.7 530.6 519.6 505.5 496.3 486.5 481.7 479.2 470.1 447.9 414.7 379.7 348.5 316.5 286.3 255.4 230 214.1 197.3 182 181.8 181.6 181 183.4 195.2 210.1 228 248.9 271.4 302.3 335.7 369 402 427.5 442 455.5 446.4 435.1 405 372.2 347.7 336.5 315.2 296.1 275 252.2 243.6 214.1 195.3 194.3 193.9 194 194.1 194.6 195.3 205.4 218.6 241.3 266.6 291.6 320.1 351.7 389.1 411.1 413.3 405.7 382.7 359.8 342.2 325.6 320.1 339.2 361.1 389.3 422.8 450.1 472.6 489.2 503.4 514.1 524.4 541.4 555.7 567.6 580 594.2 608.2 617.1 622.6 623.9 623.9 623.8 623.4 621.2 618.8 615.4 610.6 602.7 592.4 576.8 561.4 552.2 549 542.5 539.2 526.7 522.5 525.3 520.3 515.9 510.6 505.2 496.6 491.7 485 472.5 458.8 446.4 433 414.1 405.3 410.2 399.3 403.6 415 426.3 440.4 453.4 459.4 441.5 426.4 420.4 414.9 406.4 398.4 392 389.2 384.4 379.4 372.9 374.5 372.5 379.4 393.6 411.4 419.5 427.1 423 420.1 420.4 424.7 420.7 421.5 415.4 410.2 396.8 376.2 355 339.6 327.5 321.4 324.3 324.9 322 318.8 315.4 311 308.3 305.2 306.9 309.8 312.3 314.8 319 317.4 316.8 315.1 313.9 311.6
391.3 431.4 471.4 510.7 535.4 552.2 549.8 552.8 565 565.6 561.4 559.9 563.1 568.4 570 569.6 573 577.8 581.8 572.4 562.5 551 539.4 524.4 508.6 499.6 490.8 480.5 477.6 466.9 439.5 402.1 366.3 334.8 311 279.1 250.3 227 208.4 191.9 183 182.4 182.1 182.2 186.1 198.7 217.3 237.7 258.2 284.9 316.7 349.6 382.8 415 438.9 455.3 463.8 450.8 440 437.6 389.5 374.2 355.9 338.4 326.7 290.3 268.1 257.2 233.2 197.9 194.9 194.7 195.1 194.8 195 195.1 198.4 213.2 234.6 261.2 285.4 314.9 350.9 389.2 413.8 433.7 426 411.6 384.6 358.4 336.2 325.7 345.4 363.9 392.4 421.3 448 467.4 486 496.7 506.5 521.3 536.8 551.6 564.2 573.4 584.8 599 609.9 615.7 619.5 622 622.7 621.9 620.4 618 615 611 605 593.7 578.1 579.1 571.7 565.5 564 557.3 548.4 538.9 532 526 523.1 516.7 511.8 502.9 496.7 485.8 472.8 459.9 445.7 425.2 414.6 425.9 425.3 412.3 421.8 431.9 445.2 459.2 467.1 465.2 461.7 452.9 448.1 440.5 433.1 423.5 411.3 407.1 400.9 395.6 392.6 390.6 389.7 399.2 415.5 429.9 438.6 442.2 436.4 429 427.9 428.1 424.6 416.6 408.2 396 379.4 359.5 342 329 323.7 324.9 327.2 326.9 323.6 319.7 315.6 311.3 313 311.9 309.1 312.5 314.7 317.5 321.6 321.4 321.9 320.5 319.9 314.6
393.9 435.9 470.9 504.5 535.8 548.2 550.7 556.5 571.3 571.1 566.7 562.9 565.4 568.1 571.1 577.3 578.9 591.1 596.1 585.4 570.6 557.1 542.1 523.1 509.2 499.7 494.8 485.6 474.9 452.7 424.6 390.2 355.3 328 300.6 273.7 248.2 225.1 207.7 193.8 182.7 182.9 182.9 184.9 193.1 206.2 225.7 246.1 268 294.4 327.3 361.1 392.2 416.9 441 463.3 476.5 463.4 461.4 449.3 410.9 397.5 386.6 366.9 352.7 305.2 278.1 259.4 239.2 213 198.5 195.6 195.3 195.6 194.9 194.7 196.6 208.5 229 255.2 280.3 312.4 351.8 390.7 420.9 438.8 438.8 427.2 399.6 367.9 350.2 338.7 354 374.8 397.1 426.1 448.7 464.1 481.7 491.3 499.6 514.8 529.9 544.3 556.2 565 576.2 585.9 599.1 610.9 616.1 620.6 623 623.8 622.1 618.5 615.9 612.2 607.6 597.7 590.7 586.7 579.4 575.1 571.2 564.4 557 550.5 545.2 539 532 526.8 515.9 514.9 504.2 491.1 479.4 464.2 443.2 421.9 439.8 442.2 439.3 420.3 435.3 446.8 461 469.4 475.5 482.2 481.4 474.4 472.3 470.9 458.3 447.6 438.9 429 422.7 417.3 413.7 407.9 409.1 418.8 432.2 448.5 455.2 452.1 443.5 434.5 428.5 425.6 415.7 402.4 388.7 372.5 356.9 341.8 331.5 326.7 326 326 327.6 326.2 323.7 320.5 318.6 317.9 317.2 316 312.7 314.2 317.7 323.5 324.8 324.8 325.8 324.2 321.6 316.5
398.3 442.7 478.9 506.7 542.5 559 564.5 566.2 581.3 585.1 572.7 565.7 567.4 572.4 579 585.5 598.3 598.7 594.1 581.3 567.4 559.1 541.9 524.4 513.4 502.7 497.9 489.2 471.8 439.8 408.1 381.8 347 314.9 285 263.6 241.7 221.9 203.7 191.8 184.4 182.8 185 191.7 201.3 212.1 229.4 253.1 275.3 303.4 336.5 367.5 396.7 427.1 447.9 473.8 479.2 475.1 471.8 457.6 430.5 420.8 410.8 389 373.5 335 294.7 264 241.6 218.7 202.8 195.8 195.3 195.9 195.6 195 196.6 205.2 223.9 250.5 275.6 308.8 353.3 389.3 419.8 440.9 440.5 434.9 406.9 380.4 365.2 351.6 370.4 384.5 405.3 430.7 447.2 459.4 474.7 485.5 494.6 506.9 523.2 537 546.7 556.9 567.2 575.1 587.1 604.6 614.9 620.6 623.5 625.3 624.8 620.3 618.6 615 609.2 602.1 594.7 588.8 582.7 578.4 572.5 567.5 561 554 548.9 543.2 538.4 529.4 527.8 522.8 513.1 497.2 480.4 458.6 434.2 449.5 459.7 461.6 443.7 430 449.9 458.5 469.4 476.9 485.3 492.1 493.9 494.5 491.9 497.4 489 473.6 466.2 458.5 450.2 445 437.1 430.4 431.2 433.3 447.2 464.7 464.5 458.3 447.2 432.1 422 410.1 396.8 380.8 365 351.7 340.5 333.1 329.3 328.5 327.6 327.7 326.3 324.8 322.9 322.9 322.9 322.7 321.3 319.3 317.4 316.3 325.4 327.4 326.3 329.5 329 327.7 323.9 317.3
410.2 451.2 487.6 516.1 544.6 566.6 568.9 576.3 588.8 588.6 578.4 569.4 574.1 582.9 595.2 608.1 613.2 600.2 590.7 578 566.7 555 542.1 523.8 512.8 503.9 500.9 493.9 469.1 433.3 398.7 369.3 338.7 309 281.1 256.2 235.9 217.9 201.8 191.5 186.2 183.6 187.4 194.8 207.7 217.9 231.2 252.1 279.3 313.2 347.8 376.9 404.7 437.3 460.5 469.7 479.4 479.4 479.5 466.9 445.6 439.2 419.1 399.1 377.3 339.3 297.8 273.8 248.7 221.7 207.8 196.5 196.1 196.1 196.1 196.1 196.7 206.7 222.6 245.1 271.8 305.6 347 387.3 419.8 434.6 436 432.7 416.1 393.3 377.5 367.4 387 397.2 397.7 419 439.7 457.3 470.6 483.1 489.2 497.4 514.4 525.9 528.5 539.9 548.8 557.8 577.8 602.7 614.1 620.4 625.5 627.2 625.3 624.5 621.7 616.8 610.5 603.2 596 588.2 581.8 577.1 572.1 566.3 559.8 554.8 549.2 544.9 539.4 537.2 531.7 525 515.9 500.5 481.7 457.3 455.4 474.6 483.3 481.4 467.1 453.5 456.2 465.8 474.8 483.4 494 501.4 505.7 510.7 510.1 511.9 511.2 508.5 497.6 488.6 478.8 468.6 460.6 453.1 451.2 450 466.1 470.1 467.9 459.9 444.6 424.3 404.2 389.5 373.3 359.1 349.5 341.2 334 331.5 331.9 331.3 330.2 329.5 328.2 326.3 324.5 326 326.5 326.4 326.2 325 322.6 322.4 330.4 330.8 329.3 329.7 330.8 331.1 326.3 318.9
411.5 463.1 503 528.4 555.6 562.4 580.7 588.5 594 592.9 586.5 578.9 587.5 602.4 615.1 619.3 608.7 597.9 584.9 573.8 562.5 552.5 541.1 525.3 517.7 508.8 506.3 495.1 463.1 426.3 390.7 361.4 329.7 302.7 275.1 252.4 236 212.1 201.4 188.8 184.8 185.4 190.2 198.1 207.4 222.2 236.4 255.8 287.3 323.1 357.6 389 426.2 454.5 461.8 473.3 482.9 487.5 488.7 472.4 454.6 448.3 428 403.7 376.2 340 303.8 278.1 249.7 227.1 210.3 199.2 196.6 196.5 196.6 197.1 198.7 206.3 221.2 243.3 269.1 302.4 339.1 373.6 411.4 428.9 435.3 429 419 406.7 389 379.5 397.3 408.1 414.1 427.5 440 455.3 464.1 470.6 479.2 488.9 500.4 515.6 530.4 544.3 551.5 569.3 593.2 606.8 616 622.5 627.4 628.8 629.2 626.8 624.5 618.4 612.2 603.3 595.3 587.9 582.3 575.6 570.6 564.4 557.6 552.5 549 544.6 541.8 538.6 532.2 525.6 516 501.3 479.7 451.6 477.1 495.3 499 496.2 479.1 459.3 461.2 472.8 481.9 492.7 503.4 510.7 517.2 523 526.5 528.5 530.1 530.6 526.5 520.2 510.1 494.8 482.9 473.1 467.6 472.9 479.9 475.3 465.2 451.1 431.1 408.9 388.9 369.7 357.1 349.8 342.4 336.5 335 335.4 335.7 334.9 334.1 333.1 331.9 328.9 328.5 330.6 330.9 332.2 332.6 330.8 331.1 330.3 337.8 336.9 336 330.2 330.7 331.2 327.3 321.4
418.6 473 516.4 544 558.8 566 589.9 587.9 594.7 596.7 594.2 595.5 607.9 616 620.6 612.6 602.9 592.7 579.9 569.4 563.4 556.1 541.8 530.1 520.5 512.6 504.6 485.6 449.7 415.8 379.3 348.6 318.6 293.2 269 246.4 225 207.6 196.7 187.4 185.4 188.5 194.9 202.3 212.9 226.8 243.4 266.7 299.2 335.7 373.2 404.4 442.2 457.9 463.3 482.1 491.4 500.6 493.5 475.1 460.6 445.5 425.7 398.9 370.7 336.1 305 278.2 249.1 231.9 213.8 200.6 197.2 196.9 197.1 197 198.3 205 222.9 241.4 266.4 298.7 330.6 364.7 398.5 421.4 430.8 426.7 420.4 412.8 393.3 390 406.2 418.6 417.4 429.4 449.8 457.8 472.1 480.7 488 501.3 517.1 530.4 542.9 557.9 570.6 583.3 600.2 612.3 620.2 625.7 630.7 632.9 633.1 632 627.4 621.1 613.2 603.7 595.9 588.8 582 575.9 570.1 560.9 554.3 548.2 543.6 542.7 541.4 538.8 534.6 526.9 514.7 499.5 473 469.8 495.4 508.7 509.7 503.3 483.4 457 468.2 479.2 490.4 502.3 511.9 519.7 526.1 530 534.8 537.5 539.6 540.7 537.7 532.3 524.4 513.2 507.6 498.1 493.3 489.9 486.3 477.1 461 438.7 411.9 390.5 371.7 360.3 352.1 346.6 341 341.8 339.8 340.3 340.5 340.4 338.9 338 337 336.1 337.9 340.2 340.6 341.9 342.8 340 334.8 339.9 342.3 340.8 337 332.9 330.7 328.9 326 320.9
420.5 469.8 528.4 557.3 561.4 579.4 579.2 589.8 596.3 608.2 616.5 620.8 627.4 618.7 618 610 601.4 591.1 576.2 570 562.3 550 536 526.7 515.5 511.4 498.5 474.3 433.9 404.4 371.5 335.1 307.6 280 258.6 240.3 221.6 204.3 190.5 187.6 186.4 191.3 198 206.9 218.2 232.9 251.3 278.5 310.6 350.4 384.1 415 447.2 468.5 477.9 494.4 503.4 502.1 496.9 481.3 460.7 437 411.7 390.1 365.6 335.7 313.6 280.7 250.6 234.8 215.2 200.2 197.9 197.1 197.4 197.7 198.3 208.6 225.8 240.2 264 294.8 330.7 362.8 389.5 412.7 424.9 423.3 423.3 415.9 397.3 402.5 415 420.6 422.5 433.8 448.5 458.6 471.3 482.4 492 504.1 520 534 549.9 565.2 579.5 591.8 604.4 617 624 629.8 634.5 637.7 637.5 634.9 630 622.9 614.6 604.7 596.6 588.7 580.9 576.2 568.8 560.8 555.5 550.8 547 536.3 535.8 533.4 527.1 518.9 503.1 474 477.5 491.7 511.9 517.4 515.9 508.7 486.9 464.3 475.8 485.4 497.4 509.1 518.8 525.2 530.9 533.9 538.9 542.3 544.1 543.6 540.8 536.8 528.7 521.4 512.7 507.6 502.8 493.1 485.4 473.8 453.4 424.6 399.3 376.8 366 357.5 350.6 345 346.5 346.4 346.4 346.8 348 348.4 347.1 344.6 346.9 349.1 350.9 352.5 357.7 356.6 353.5 349.9 340.2 341.5 347.1 345.6 341.3 337.4 334.4 330.9 325.1 323.1
415.5 465.7 528.7 552.2 568.9 574.3 581.9 585.4 598.8 619.4 632.4 631.7 629 619.7 618.6 614.1 602.9 589.2 576.9 570.7 559.1 545.1 534 523.8 519.8 509.8 494 466.6 435.5 396 355.1 325.2 302 276.7 251.9 233.6 214.9 197.8 190.5 188.5 188.2 193.6 199.5 210.2 224.5 241.1 259.1 289.8 325.8 363.4 398.1 428.5 456.1 474.1 486.7 498.5 502.9 500.3 490.2 474.5 449.5 426.3 405 386.4 359.2 335.1 308.5 275.7 253 236.4 219.2 201.4 198.1 197.7 197.9 198 199.4 213.4 225.3 238.5 259.4 293 330.2 361.8 388.4 406.6 416.7 418.7 420.3 415.9 401.3 403.4 415.4 420.9 425.2 434.5 448 459.6 470.9 483.6 496.3 506.4 521.5 538.2 554.1 569.1 583.1 596.6 610.4 620.2 628.7 635.4 640.9 642.3 641.5 638.9 633.7 626.8 616.8 605.8 596.5 589.8 582.8 576.7 570.3 563.5 557.3 552.1 547.3 542.8 530.6 522.4 517.9 508 496.8 498.3 509 515.8 525.3 526.1 523 515.1 493.6 467.2 479.2 490.1 502.9 513.2 521.8 528.4 534.9 538.5 541.3 546.1 547.1 546.6 542.4 537.6 530.4 524.8 515.2 509.4 503.9 493.4 481.8 464.9 438.4 410.2 385.6 371.4 362.1 355.1 349.8 353.6 353.8 354.6 360.5 361.9 361.7 359.1 358.6 360.6 362.5 363.3 363.6 366.9 372 370 363 354.6 344.2 348.7 356.4 352.4 348.2 341.5 335.6 331.9 328.6 326
417.5 455.2 501.3 535.1 567.1 570.5 582.5 582.8 602.4 626.8 647.7 634 634.4 622.4 617.8 612.5 603.1 589.5 576.7 568.8 560.9 546.7 536.6 532.9 520.1 507.3 492.3 466.6 437.7 397 363.3 324.8 299.3 272.2 250.8 230.6 211.3 195.9 191 187.7 187.8 192.6 204.1 217.4 231.4 249.6 269.7 303.4 342 380.1 416.5 436.7 460.7 480.5 497.1 503.1 498.2 490.2 480.4 464.5 443.4 419 399.4 374.8 351 326.3 300.4 273.4 251.4 237.3 217.5 202.9 198.2 198.5 198.9 198.4 199.7 208.6 221.6 238.7 259.1 290.1 324.5 355.5 384.8 401.7 412.3 417.8 420.9 414.2 402.3 398.4 409.6 419.5 426.9 436 447.3 458 469.6 483.6 497.8 507.8 523.2 541.1 557.6 574.2 587.5 600.8 615.2 625.7 634.9 642.2 647.4 648.9 647.9 645 638.4 630.1 619.8 609.5 599.6 590.9 584.3 578.2 571.2 566.5 561.1 553.6 547.4 543 536.8 528.1 517.2 508.9 501.3 521.3 528.2 532.1 534.7 533.8 530.5 523.4 504.9 483.6 480 494.6 506.3 515.9 525.4 533 537.7 542 543.2 547.7 549.5 547 541.1 535.1 530 523.9 514.9 508.1 503 491.4 476.7 450.4 419.7 398.3 380.9 367 359.9 357.5 359.9 361 366.4 373.5 379.1 380.4 377.3 374.9 375.7 380.2 374.6 376.6 374.4 380.5 380.7 377.8 367.1 357.1 350.6 349.5 357.7 358.2 353.8 343.2 336.2 334.5 332.2 332.1
414.5 451.3 496.4 529.2 547 564.1 573.7 585.3 613.6 633.9 653 644.1 631 620.2 614.6 611.7 600.2 587 579.3 570.6 560.2 547.2 539.2 535 522.7 503.8 488.8 464.2 421.3 389.1 354.3 318.2 289.1 266.5 246 223.8 206.8 193.4 189.5 188.9 189.8 195.8 212.7 225.9 241.2 259.5 280.1 312.9 352.8 389.8 419.8 447.1 462 484.9 496.2 497.4 494.7 485.2 463.7 446.8 427.8 404.3 386.7 362.7 338.8 316.5 291.8 266.2 245.3 231 215.9 202.5 199 199.7 199.6 199.2 202.2 212.2 224.3 242.1 261.9 287 319.3 350.5 373.6 395.7 408.6 416.1 418.1 414.5 407.5 410.4 417.3 418.9 426.2 435.5 449.7 458.4 467.6 481.2 495.3 505.5 524.7 544.1 561.7 576.2 590.4 604.1 620 631.8 642.7 648.7 653.9 654.9 654.4 649.9 642.2 635.6 627.9 616.5 606.3 595 585.9 579.2 573.7 567.6 561.8 553.6 546.4 539 527.9 513.8 520.4 523.8 526.9 537.4 540.9 542.2 541.9 539.6 536.1 530.4 516.7 497.8 483.7 500.4 510.6 521 528.6 535 539.9 542 544.9 548 548 545.5 540 533.5 527.7 521.9 515.2 507.6 499.6 487.2 469.5 440.9 411.4 394.3 376.6 367.2 360.4 364.1 367.5 377.4 389.7 398.4 403.5 401.2 398.2 395.4 399.6 399.6 392.1 388.3 385.2 386.8 384.4 380.4 370.8 360 354.1 351.9 362.4 362.8 358.8 341.7 334.4 335 334.9 333.9
412.1 444.6 479.5 520.3 537.1 551.2 564.1 586.2 616.2 634.5 649.4 645.7 631.1 616.1 610.9 610.4 599.4 589.3 577.3 574.3 566.1 552.9 544.3 537.3 523 507.6 490.9 446.8 413.3 378.8 345.1 311 283.4 257.9 233.6 215.1 202.5 190.3 189.5 190.3 195 205.1 219.3 231.2 248 271.9 294.3 323.9 361.5 395.1 423.8 447.4 469.9 483.2 495.7 492.6 483.3 464.2 453.2 434.2 414.8 389.3 365.6 346.6 325.2 303.6 278.2 257.4 238.3 223.3 210.9 200.1 200.7 200.2 199.4 199.8 202.7 212.7 224.7 241.3 264.5 292.4 326.5 351.3 374.8 400.4 417.6 423.9 423.9 421.1 417.1 417.5 420.6 419.4 427.8 438 448.7 457.9 467.2 479.1 492.9 505.4 525.1 546.9 563.1 578.2 592.6 605.5 623.4 638.1 649.8 655.4 658.4 659.7 659 655.7 648.2 640.3 633.7 625.9 616.1 603.3 590.4 579.9 571.6 565.3 557.1 546.9 540.7 538.5 526 530.9 535.9 539.6 546.8 549.5 549.8 548.6 547.1 544.2 539.7 534 522.8 505.9 488.1 504.1 516.5 525.5 533.1 538.4 540.2 543.2 546.9 547.1 545.3 542.6 538.4 531 525.3 519.8 514.4 509.1 495.8 476.7 454.9 426.9 405.4 387.2 375.3 365 367.7 377.4 391.7 404.9 416.6 427.8 431.2 425.6 423.1 421.7 420.6 409.1 403.8 398 390.5 387.8 384.3 381.3 371.8 363.1 357.7 352.9 359.4 365.7 359.9 344.7 335.9 334.1 334.4 332.9
400.3 430.3 465.1 503.1 529.8 543.7 561.1 596.3 625.7 637.6 637.2 638.9 626.9 616.5 609.6 605.3 595.7 587.1 580.2 575.8 570.1 559.5 557 543.1 523.7 515.4 479.8 441.6 403 365.4 328.4 298.8 270.7 247.3 227 210.2 198 191 190.9 192.8 199.8 209.8 226.9 238 258.6 283.5 308.4 338.8 368.6 401.7 426.5 449.3 474 482.9 486.7 480 470.1 455.9 443.4 420 397.7 373.8 351.7 331.2 310.3 288.9 268.9 253.5 238.1 224.7 209.1 200.5 200.6 200.1 200.1 200.9 202.2 215.3 226.4 241.4 266.3 294.1 329.3 361 389.2 412.2 424.2 437.1 436.8 432.1 429.5 429.2 429.7 428.6 432.9 440.2 452.3 462 469 478.8 491.3 505.8 527.9 546.9 563.1 579.3 593.4 609.1 626.5 644.5 657.4 663.3 664.9 664.2 663.1 659.3 653.1 647.1 639 630.8 622.6 612.9 601.3 588.6 578.8 571.8 564.1 557.9 544.7 538.5 534.5 544.2 549 554.2 556.8 557.7 556.6 553 550.2 546.3 541.2 535.7 525.9 512.6 492.9 507.4 519.5 529.4 537 540.9 543.2 546.8 548.4 547.4 544.8 542 537.3 530.7 525.2 517.4 514.6 508.8 495.5 473.8 444.5 419.5 399.9 387.2 375.3 375 381.8 398.6 415.5 426.4 445.7 449.2 448.7 443.4 443.8 437.5 430.5 418.5 419.1 407.7 395.2 389.8 388.5 380.6 370.8 361.9 355.4 355.2 357.3 363.2 361.4 347.5 340 333.7 335.6 336.6
386.3 421.9 453.8 490.4 514.4 535.3 562.1 596.3 624.2 632.7 634.9 641.1 631.3 617 607.5 605 603.5 593 588.3 580.8 578.4 569.1 560.3 545.1 532.8 512.6 472.8 435.2 388 350.1 314.8 284.6 260.2 240.7 219.2 204.3 193.4 191.8 192.6 199.1 206.9 220.2 235 254.5 276.1 297.5 321.7 350.1 377.3 405.8 428.9 452.6 477.1 478.6 473.5 467.5 453.4 436.8 418.9 403.2 381.8 356.8 335.9 317 298.7 279.5 262.3 249.3 236.2 223.3 205.8 201.4 200.9 201.2 201.2 201.4 203.5 217.3 230.4 244.7 269.2 297.5 334.4 367.3 395.2 418.8 431.2 441.2 456 448.3 444.5 441.6 438.1 436.5 440.7 441.3 450.8 458.2 468.1 477.1 489.4 504.5 524.6 544.9 564 579.8 595.1 611.8 629.6 648.9 662.8 668.6 669.1 667.7 665.5 662.3 657.2 652.1 644.5 636.2 628 618.4 608.9 599.6 591.2 582.8 572 557.9 555.2 541 544 554.4 560.7 563.6 563.8 561.9 559.6 556.6 552.2 547.2 542 535.6 528.2 518.2 506.2 509.1 524.2 534.3 541.5 544.9 546.6 548.8 548.7 546.8 544.3 541.1 536.5 529.8 522.4 515.2 512.5 503.6 491.3 466.9 434.3 413.8 399.4 388.9 376.2 386 401.1 420.6 437.2 446.6 460.1 463.7 456 451.3 449 447.2 437.6 431 427.9 415 399.9 394.8 387.6 378.8 367.4 358.9 354.7 354.6 354.9 357.3 358.4 354.4 341.6 332.2 329 337.6
388.8 416.2 443.8 471 497.1 526.8 557.2 586.8 612 629.8 632.8 641.9 631 616.1 606.8 606.3 608.6 601 598.4 589 581.8 575.6 564.8 556.3 524.5 492.1 453.6 410.5 367.2 330.8 299.5 272.1 249 229.8 213.7 195.5 193.1 194.7 198.5 204.7 215 228 247.6 270.7 292.6 313.5 337.8 362.1 386.2 412.9 435.6 459.1 480.3 469.6 461 447.1 432.6 419 402 384.9 366.1 341 322.6 304.1 285.9 270.8 255.5 243.2 228.1 212.2 201.8 201.8 201.8 202.1 202.3 202.1 209.4 221.7 229.5 247 272.8 304.5 338 373.5 397.4 423.6 436.5 453.9 459.3 465.3 458.4 455.7 450.1 447 446.6 450.7 456.6 465.9 474.2 481.7 490.1 498.9 521.9 543.2 563.6 582.9 599.2 617 634.9 651.4 665 671.8 671.4 668.8 667.3 663.8 659.9 654.5 647.5 639.4 631.1 622 613.3 605 595.3 584.3 570 567.9 560.7 540.5 557.3 565.7 568.6 568.7 567 564.9 561.9 557.1 552 546 540.3 535.1 530.2 521.8 509 514.7 531.5 540.7 545.6 547.9 549.9 550.7 550.3 548.3 545.3 541 535.6 529.4 521.6 513.4 508.2 500.1 482.2 459.1 435.5 410 398.7 388.4 390.8 402.6 422.3 444.9 457.4 462.1 467.9 463.5 455.9 450 449.6 446.4 440.5 438.1 427.7 415.2 405.2 397.7 388 380.3 369.7 358.2 354.6 354.8 355.6 362.8 365.6 361.4 342.2 333.6 328.5 330.2
388.9 400.4 428.8 451.9 479.6 510.2 544.9 574.3 601.9 620.1 625.4 637.7 632.6 621 610.1 608.2 606.7 608.8 604.2 602.1 590.2 586.6 570.5 538.8 503.2 467.1 423.5 380.7 345.9 312.8 283.3 259.3 237.5 220.7 204 194.4 194.4 198.1 203.6 212.5 221.1 239.7 261.4 285.9 310.6 333.8 355.2 376.4 397.9 420.6 442.2 465 466.6 459.2 447.5 433.9 418.3 401.7 383.6 364.8 345.4 323.8 308.4 291.1 275.3 261.5 248 233.9 218.9 208.2 201.4 202.1 202.9 203.2 203.6 203.2 209.5 218.9 232.1 248.8 273 304.3 336.8 368.7 396 422.3 446.4 464.7 466 471 467.2 462.9 455.7 451.2 452.2 460.3 465.1 473.8 482.5 488.5 495.3 509 520.4 545.2 568.8 588.2 605.6 622.4 639.4 653.7 665.1 671.6 671.6 669.5 668 665.2 661.3 655.1 648.7 640.5 632.7 624.4 615.1 607.3 597 587.5 580.4 576.9 564.4 550.5 568.7 572.6 572.6 572.1 568.4 564.6 560 554.8 549.6 544.4 538.8 534.2 528.7 520.6 508.4 527.1 539.6 546.3 551.1 551 552.2 553.2 552.3 549.7 546.3 541.7 534.8 527.6 519.9 511.7 506.1 492.9 476.9 455.3 429.7 410.4 400.1 391.7 403.9 424.1 448.4 466.3 469.5 469.8 466.7 463.9 453.9 448.9 445.9 442.8 446.3 447.7 431.2 415.2 404.4 397.4 388.4 382.3 370.8 362.5 355.3 355.4 357.7 372.9 377.2 360.3 342.7 337.3 333.3 324.9
367.2 383.3 407.5 435.4 462.7 491.8 524.2 561.2 587.5 607.1 609.3 624.9 637.8 625.1 619.2 615.2 607.8 606.3 603.9 610.7 595.7 577.1 549.2 517.2 480.5 445.7 398.2 359.4 326.8 296.5 270.9 245 225.9 212.5 198.8 195.5 195 202.6 211.4 217.8 231.4 254.7 277.7 305.4 331.2 353.8 373.1 393.2 409.8 436.4 455.6 471.2 461 452.8 436.6 418.9 399.5 383 362.8 345.2 327 309 294.1 281.8 266.7 254 240.8 229 218.1 207.8 201.9 201.7 202.2 204 204.8 206.6 211.9 220.7 232.1 250.2 274.8 303.5 331.9 360.3 388.9 418 448.5 467.3 467.9 471.4 470 467.1 462.9 460.4 457.4 468.2 472.2 482.6 491.2 499 503.8 516.7 537.1 553.8 576.1 595.5 613.6 628.8 644 655.7 664.7 669.8 670 670 668.3 665.5 661.2 654.6 648.6 641.3 633.2 625.6 617.3 610 602.8 595.2 588.8 580.3 560.7 567.1 576.3 576.9 575.2 571.4 567.1 561.8 556.9 552.4 547.8 543.7 538 533.5 525.7 522.6 528.2 537.2 546.1 552.2 555.8 555.5 555.6 555.5 554.1 551.6 547.3 542.3 533.2 525.7 517 509.7 498.6 486.4 469.7 447.9 430.3 417.2 404.2 408.4 424.7 444.7 467 477.3 475.3 469.8 464.1 458.1 453.5 453 451 444.6 445.9 444.7 425.9 410.2 403.6 395.5 388.1 381.7 369.2 363.1 356.5 355.9 355.8 367.3 375.5 356.3 344.2 338.5 332 329.1
348.1 366.8 389.8 416.7 446.5 474.9 506.9 538.1 568.7 583.3 583 595.9 607.9 618.6 624 623.5 610.4 607.2 602.4 609.2 584.9 550.9 521.2 490.3 449.3 418.1 380.1 340 310.2 283 258.6 238.9 216.8 203.8 197.1 196.8 201.8 210.1 219.6 227.5 245.1 270.6 295.5 323.7 350.4 373.7 393.6 411.3 426 448 465.9 469.7 457.6 438.5 421.6 401.6 382.4 363.2 345.3 329.4 311.2 296.7 282.6 271.5 257.6 247 230.9 219.8 213.5 208.3 203.2 208.4 206.6 203.8 209.7 209.2 210.9 221.6 233.3 251.2 272.9 299.9 326.4 353.6 382.2 408.9 438.8 459.2 467.1 464.2 465 469.1 464.5 462.5 463.1 474.5 480.2 490.7 500.1 511.9 519.2 527.4 548.8 567 586.5 605.7 620.5 635.4 648.3 657.5 664.4 667.8 669.1 668.2 666.7 663.8 659.8 654 647.3 640 632.6 626.2 618.8 612.8 605.7 600.1 592.7 567.7 572.5 579.9 581.5 578 574.5 569 563.7 559.8 555.2 551.1 547.6 543.4 537 533 530.9 532.7 538.4 545.8 552.1 557.4 559.4 560.3 559.1 558.7 556.3 553.3 548.3 542 533 522.2 513.3 502.6 489.2 478.2 464.8 448.4 434.8 423.7 416.4 427.7 445 461.9 475 481.2 480.2 473 465 459.1 455 454.8 456.1 449.3 445.6 431.6 418.1 409.4 399.8 392.6 387.7 378 372.9 367.7 359.5 355.8 355.8 362 364.9 356.8 346.5 342.8 336.4 327.4
335.5 353.2 375 402.5 427.9 453.7 483 513.5 539.1 548.9 552.2 561.7 580.1 597.9 619.2 628.3 609.3 612.3 599.1 590.5 563.6 523.6 489.2 452.4 422.8 392.4 356.7 322.3 295.2 269.7 250 225.7 208.6 198.6 197.8 198.1 207.1 216.5 227.3 238 257.3 284.8 311.5 342.2 371.1 395.7 415.7 429.1 440.1 450.9 460.6 460.6 441.1 418.7 400.1 383.3 367.4 349.7 331 315.6 298.7 284.5 273.1 262.7 251.7 238.7 223.3 215.9 214.5 208.8 209.1 214.1 210.1 206 211.6 212.1 209.5 220.5 231.2 247.3 271 297.8 324.4 348.5 374.5 402.9 431.3 450.5 457.7 459.2 459.6 463.2 462.1 461 464.5 476.7 487.2 497.3 508.8 521.3 532.1 538.9 558.2 581.2 599.3 614.6 627.6 640.7 652.2 660.4 665.8 668.4 668.2 667.1 665.3 662.2 657.2 652.8 645.1 638.9 632.4 626.5 620.5 614 607.5 600.5 591.7 580.9 586.7 584.7 582.8 578.6 572.9 566.4 561.5 557.8 553.6 549.6 545.9 542.5 541.2 540.1 540.6 543.6 548.7 553 558.8 562.9 565 565.7 563.3 561.2 558.1 554.5 550.9 541.4 531.8 521.4 510.5 497.4 484.8 473 460.3 447.4 439.8 426.4 428.8 446.6 462.6 471.8 479.3 484.5 480.8 479.3 472.8 467.8 456.5 458.6 464.2 457.2 444.8 426 412.5 407.7 397.3 391.2 380.9 380.6 384.7 376.5 367.9 356.5 358.5 358.8 369.8 358.1 350.4 345.7 335.4 328.8
317.4 339 360.2 387.4 411.1 436.2 461.8 492.4 514 519.6 518.6 527.7 552.8 581.7 605 609.1 600.5 593.6 584.7 555.3 519.4 491.8 459.5 432.3 400.3 368 336.5 305.4 279.6 254.7 234.8 215.8 204 199.6 198.7 206.2 216.2 227.2 237.9 252.5 274.5 305.1 334.9 362.7 393.7 413.6 429 440.8 447.3 456.3 449.1 433.4 419.1 403.4 385.2 369.5 353.1 336 320.1 305.2 289.6 278.3 264.7 253.1 242.8 231.2 222.8 219 213.5 208.3 215.7 223.5 214.2 210.8 212.6 212.3 209.4 218.7 229.4 246 269.7 291 315.6 347.6 375.7 403 430.4 443.2 446.9 450.5 452 454.9 454.7 456.8 463.5 477.6 492.6 505.4 517.1 529.2 539.1 551.6 570.8 594.2 612.2 626.9 637.3 647.9 657.8 663.1 666.7 668.7 668.9 667.4 663.9 660.7 655.4 650.7 643.8 637.9 631.3 625.8 620.5 613.6 606.3 593.9 584.7 595.6 591 587.6 584.2 579.1 571.3 565.8 561.8 557.7 554.9 551.6 549.1 547 546.8 548.2 550.2 552.2 556.7 560.8 564.8 567.7 568.5 569.2 567 562 559.1 554.1 547.8 539.2 529.1 516.8 505.9 490.1 478.4 470.2 459 447.4 435.4 431.1 440.4 457.6 473.6 477.7 480.2 485.3 483.6 483.2 479.8 473.1 464 463.7 465.5 454.5 437.5 422.1 410.7 403.5 394.7 385.5 382.7 386.5 390.8 385.4 383.3 363.8 357.7 356.7 361.8 356.9 359.2 351.5 343.8 333.4
300.2 327.9 347.9 367.5 388 409.7 436 463.5 485.6 490.3 485.9 507.5 540.5 570.6 593.2 593.7 587.1 580.5 571.7 566.1 527.9 482.8 442.7 401.2 376.8 352.9 324.2 291.7 264.1 240.4 222.2 213 201.9 201.1 205.7 217.9 229.8 239.9 252.7 268.6 293.9 324.1 355.8 386.3 411.3 424.5 439.1 451.4 450.8 447.6 432.5 412.5 400.1 387.3 371.6 357.4 341.9 326.5 310.7 295.7 280.6 271.5 259.4 246 236 224.7 221.3 221 216.8 213.3 222.8 229.3 220.5 216.4 214.4 211.5 210.2 216.1 228.6 247.2 270.1 290.8 317.2 348.1 377.9 405.4 427.6 434.3 438.4 438.5 441.2 443.2 446.5 452.9 462.5 478.8 495 508.8 521.4 532.5 548.3 570 589.2 608.4 623.5 636 645.7 656 664 667.5 668.7 669.8 670 666.8 662.5 658.9 654.4 648.7 641.7 634.7 629.4 624.2 619 609.5 609.9 606.7 603.5 599.4 596.2 591.9 586.2 576.9 572.2 568.6 562.8 559.7 556.8 554.5 554.2 554.2 555 555.8 558 559.2 563.1 566.8 569.1 570.9 571.3 570.8 567.2 562 556.1 550.3 545.8 536.9 526.2 511.5 496.4 483.7 474.3 464.9 457.3 447.8 439.5 439.4 449.3 462.4 472.8 477.1 475.5 476.3 483.8 486.2 484.9 475.9 469.4 463.7 457.4 449.2 433.3 417.6 410.5 399.4 391.5 388.4 390.8 397.4 393.6 394.3 395.4 374.3 360.6 356 357.6 369.7 364 356 342.1 335.3
289.1 312.7 336.3 348.6 365.7 386.8 412.9 437.4 458.3 459.3 461.7 495.3 530.3 562.8 587.3 582.6 575.3 573.6 561 544.1 516 474 436.3 396.8 355.9 329.2 303.5 277.5 251.7 230.7 216.2 208.6 203.6 207.8 215.7 227.6 237.4 247.8 265.5 286.3 313.8 343.1 372 398.8 416.3 429.8 442.2 454.6 447.4 431.7 413.3 397.4 385.9 373.3 358.4 345.4 330 315.5 301.4 285.8 271.6 263.7 249.4 238.8 228.5 221.2 218.3 220.1 213.6 217.3 226.6 231.7 225 222 219 212.7 212.4 211.8 226.9 247.5 268.3 290.3 317.6 352.9 379.8 404.6 418.7 423.1 427 427.8 431.5 435.3 444.2 452.6 462.7 477.2 494.7 509.1 526.7 541 561.1 587.5 606.1 620.3 634 645.8 656.2 665.3 670.2 672.5 672.7 672 670 667.3 662.8 658.8 653.7 647.6 641 635.8 629.4 623.4 615.9 616.4 612.6 609.6 605.7 603.6 599.2 593 590.8 584 576.5 571.6 566.9 562.8 562 561.8 561.1 562.7 562 561.8 564.3 565.9 567.2 568.1 570.2 571.9 570.3 568.2 564.3 558.3 551.3 545.1 541.2 531.1 521.7 508.6 493.2 479.7 469.3 462.3 457.6 451.7 445.6 447.6 454.8 466 471.8 468.4 469 470.5 477.3 483.4 480.6 468.8 459.8 453.7 446.9 440.3 422.6 414.6 407.3 396.8 390.2 385.2 388.1 395.3 394.7 393.3 393.1 385.5 364.4 357.4 355.6 369.4 367.4 356.1 348.4 339.3
272.4 289.9 309.2 324.7 338.9 364.4 386.4 408.7 427.3 426 449.5 483.8 516.6 549.2 573.1 572 556.1 549.7 534.6 515.3 490.3 460.4 426.6 386.6 348.3 314.2 287.2 262.9 242.9 227.1 216.7 208.1 204.6 210.7 224.2 236.5 250.2 264.2 286.5 308.4 332.4 360.8 388.8 411.2 431.3 447.6 453.4 450.1 434.7 417.2 401.9 387.1 374.5 360 346.2 333.1 318.8 306.4 295 278.7 265.8 252.4 241 232.2 222.8 218.6 215.3 214.7 212.9 218.6 231.8 238.4 229.6 228.6 222.8 214.9 213 218 229.8 248.4 266.6 287.4 316.4 347.2 375.5 396.8 405.5 410 413.5 417.5 427.3 435.8 444 453.7 463.2 477 492.9 514.4 533.1 553.3 576.2 598.6 615.6 630.3 642.9 654.2 663.9 670.2 673.5 674.9 674.9 673.2 670.5 667.4 663.6 659.2 653.5 647.7 641.4 635.5 630.8 623 623.9 620.5 617 613.5 612.5 610 607 602.2 596.6 590.1 584 578.8 573.5 570.8 569.1 568.9 568.8 569 569.8 569.8 570 570.1 569.8 569.6 569.6 569.2 565.3 561.1 555.9 548.7 541.9 537.7 533.9 526.4 524.1 507.1 489.1 475.4 461.3 459.7 457.3 454.6 449.6 454 458.6 466.5 469.6 463.4 466.3 466 466.8 470.3 466.8 455.4 448.6 442 433.6 419 407.9 403.6 403.9 394.4 389.5 380.1 385.3 389.5 392.5 396.5 384.3 382.9 368.7 355.7 352 366.4 367.5 355.1 352.7 344
250.6 269.3 283.3 297.6 315.4 337.5 359.7 382.2 394.5 404.8 437.3 471.8 505.3 533.9 553.6 553.2 534.9 519.7 506.7 491.2 473.5 449.9 413.4 374.5 333.5 301.7 274.8 252.6 235.6 222.9 210.7 206.9 209.2 221.2 236.7 253 267.2 288.2 310.9 331.4 353.7 380.2 405.6 425.8 447.5 460.5 459.3 450.3 426.9 402.7 386.4 375.6 363.2 349.9 335.6 320.9 309.8 297.8 284.3 272.5 258.2 243.5 234.8 226.5 220.6 216.5 219.1 213.8 214.1 223.4 240.2 243.6 236.4 232.3 225.5 214.2 214.1 221.7 232.7 246.2 264.2 285.2 313.2 341 366.8 381.9 387.4 393 401.2 414.4 425.1 436 445.9 455.7 465.4 478.8 498.7 520.7 539.6 562.4 587.4 607.3 623.4 636.6 648.8 659.4 666.5 671.6 674.6 675.6 674.9 673.5 671.1 667.1 663.9 658.8 653.4 647.6 641.9 636.2 632.2 630 626.9 625.2 623.6 621.7 619.6 616.2 612.5 608.3 603.2 596 589.9 584.2 580 577.7 575.5 574.5 573.8 572.7 573.8 574.9 574.3 571.6 569.7 566.4 562.2 558.9 554.2 549.2 542.9 536.2 528.8 524.1 520.4 516.9 513.7 498.8 484.1 474.4 462.2 456.6 456.7 452.4 454.2 456.8 459.9 463.1 468.3 460 459.8 458.5 458.7 457.9 452.9 442.6 430.9 419.7 414.3 407.6 397.1 395.7 397 399.9 394.4 379.8 381.5 384.7 383.8 380.7 379.8 367.5 360.5 351.8 345.2 361.5 352.3 346.1 344 346.6
228.3 248.6 260.8 277.4 298.2 317.9 337.8 356.2 364.7 395.3 427.5 462 493.9 519.1 537.8 529 511.5 497.3 484.9 471.5 454.9 420.9 398.9 367.9 322.8 289.8 264.1 240.9 227.1 214.9 210.6 208.9 218.3 235.9 251.8 269.6 291.8 312 329.8 349.6 375.7 400.7 423.8 437.8 457.8 458.9 449.2 437.8 413.7 393.9 377 368.8 351.9 339 325.9 314.1 302.1 287.2 275.5 263 248.9 234.9 224.6 221.2 218.4 218 224.1 216.2 219.6 230.4 247.8 251.6 243.3 234.4 223.6 215.7 215.3 221.6 232.9 245.6 262.8 280.8 304.4 331 354.5 359.5 368 383.5 399 413.9 426.4 437.7 447.6 455.6 466 480.6 501.2 525 546.9 574.4 597 614 628.7 642.2 653 662.5 668 672.8 674.8 675.1 674.2 673.5 671 668.1 664.2 659.9 654 648.7 642.5 639 635.8 635.1 631.8 629.8 628.4 626.2 623.4 620.3 616 610.9 606 600.3 593.5 587 584.6 581.9 579.7 577.9 575.1 574.6 575.4 576.6 574.5 570.2 561.7 555.8 550.8 544.4 536.3 528.3 521.3 513.5 506.6 503.4 501.9 502.8 502.1 493.8 484.3 475.6 463.6 453 452.9 452.3 454 455.2 456.5 458.7 459.5 458.1 457.4 453.7 447.6 439.8 430 420.7 409.9 401 399 394.4 393.7 399.5 408.9 412 396 378.4 386.6 386.5 376.2 363.4 356.1 343.1 339.5 333.5 335.9 343.9 336.7 332.8 331.4 335.6
210 227.5 241.8 259.6 281.7 296 314.8 331.2 353.4 387.2 420.1 453.3 484.4 510.8 526.6 512.7 493.1 484.4 471.6 457.4 443.2 418.9 377.7 339.4 313.1 282.6 256.4 235.3 220.4 219.4 216 217.1 232.6 250.3 270 294.4 317.2 336.6 351.6 371.7 396.4 419.9 436.4 446.4 454.9 454.4 442.7 421.7 399.8 381 368.6 357.6 342.7 327.7 316.5 302.4 290.2 276.5 265.5 251.7 239.4 228.1 219.8 218.1 217.1 222.3 224.7 226.5 229.6 242.1 259.9 256.6 245.5 237.3 220.2 217.2 215.9 225 238.4 245.7 259.5 274.9 295 316.7 338.4 341.6 368 383.5 395.7 412 425.2 437.3 447.9 457.8 468.6 485.2 508 532.1 556.9 582.8 602.8 619.1 632.8 645.3 655.6 663.9 669.4 672.5 673 673.3 672.4 672.1 670.5 666.8 663.1 659.8 654.7 649.2 645 642.7 641.5 639.2 636.3 634 632.2 629.5 626.8 622.7 618.2 611.9 606 599.9 594.5 588 585.1 582 580.3 577.2 573.4 572.3 573.8 572.7 567.9 559.1 548.4 542 531.9 520.8 510.1 498.4 491.2 483.3 478.5 476.1 478.9 482.8 485.7 484.9 479.1 469.9 459.1 449.6 448.7 446.6 446.8 449 449.2 451.8 450 451.4 448.8 444.8 433.9 421.3 412.3 402.2 392.1 388.6 386.2 387.5 386 395.2 403 407.1 394.5 376.6 378.4 382.6 365.8 349.3 329.2 320.1 320.2 321.7 325.5 326.6 326.8 325.5 324 324.2
187.9 204.4 220 240.1 261.3 277.6 294.4 315.9 344 375.8 404.6 434.1 464.5 494.2 505.1 491.1 472.2 463.5 454 445.9 430.1 402.5 366.4 327.9 296.5 269.6 249 229 233.4 231.4 224 233.6 250.6 269.6 292.3 315.6 339.6 358.7 376.7 395.5 416 429.1 448 459.8 461.4 441.1 423 402.6 383.8 369.5 357.7 346.7 331.6 317.2 307 293.1 278.8 265 253.4 238.9 230.2 223.3 219 217.8 220.1 228.8 232.8 234.2 238.8 252.5 268.4 256.7 251.9 240.7 223.8 220.9 217.8 230.2 241.4 249.6 259 270.2 283.8 299 325.1 349.7 366.7 373.9 396.5 409.4 426.1 439.8 450.2 461.8 475 489.9 512.7 537.9 566 588.6 607.2 622.5 635.3 646.9 657.3 664.9 668.8 669.8 669.9 670.2 670.8 670.2 668.9 666.1 663 659.8 655.8 651.8 650.2 648.2 645.1 643.1 639.5 636.8 633.9 631.2 627.8 622.7 617.4 611.7 604.2 598.4 591.8 587.1 582.5 577.8 575.8 571.7 565.9 563.6 560.7 556.5 550.9 541.9 527.3 515.3 501.1 487.6 472.5 463 456.3 450.8 446.7 446.2 450.2 455.1 462.7 463.4 461.8 454.9 445.7 439.7 439.3 437.2 435.7 439.2 438.3 439.9 437.5 434.7 432.9 425.2 411.9 402.1 395.3 387.5 380.2 378.6 382.2 381.6 382.7 385.2 389.5 390.5 382 371.1 346.5 347.6 340.8 328.7 310.8 306.2 308.1 310 303.7 305 309.5 311.6 307.3 309.5
172.1 182.9 200.9 220.8 241.7 257.3 279 301.3 328.1 357.3 386.7 415.8 441.7 471.5 482.9 473.2 457.7 453.4 448.9 439.9 417 379 346.5 312.3 284.2 262.2 243 238.2 239.3 237.9 241.1 253.1 272.5 295.6 320.3 340.9 364.8 386.7 403.9 421.3 435.1 443.8 458.6 462.9 446.7 425.6 405.8 391.4 374.5 357.7 346.2 333.4 319.4 309 295.9 277.9 267.5 254.9 243.9 234.5 225.8 220.7 218.1 219.9 225.3 233.8 240.5 242.1 249 259.5 268.3 269.1 264.4 248.1 235.4 229.3 224.3 224.3 236.8 246.7 256.7 268.9 283.4 300 320.1 341.8 357.1 378.8 396.9 415.5 429.9 441.2 451.2 463.3 479.6 493.8 512.9 537.6 560.9 591 608.3 623.7 636.5 646.8 654.9 661.2 663.6 666.1 665.7 666.4 666.5 666.5 666.3 665.5 662.1 660.6 656.8 655 654.5 652.8 650.3 645.7 641.9 638.1 634.5 630.7 626.3 621.3 616.2 609.1 601 594 587.2 581.3 574.9 570.4 566.2 560.1 553.9 547.8 543.2 536.3 527.3 514.6 498.7 481.2 464.1 448.6 437.7 428.6 421.1 418.1 415.7 415.6 421.6 428.5 437.4 442.7 445.6 441.1 431.1 425.6 424.1 424.3 423.1 422.7 422.8 425.4 422.7 419 415.7 407 395 389.6 383 379.7 378.3 376 378.6 377.5 374 374.9 374.6 374 363.5 344.7 328.8 318.5 316.7 304.3 296.4 294 294.1 290.4 291.9 293.7 297.5 295.6 294.4 294.6
165.4 173.7 187 205.2 219.6 241.6 264.7 286.1 310.1 337.9 370.4 398 427.5 454.6 470.6 460 454 454.2 443.6 432.5 405.6 368.3 331.6 303.3 277.2 256.8 242.9 234.2 238.3 239.8 253.3 277.1 301 324.5 347.6 376 397.8 416.1 431.6 444.6 453.9 459.8 458.2 446.2 421.9 406.8 393.8 382 364.3 345 334.1 320.6 309.2 296.6 284.8 269 253.5 244.2 242 233.5 223.2 220.1 219.1 218.9 230.9 241.4 246.3 250.8 260.5 272.5 277.8 278.9 270.7 257.1 246 236.5 228.7 221.8 235.5 244.4 253.6 267.5 282 295.3 319.2 341.8 359.9 379.3 397.5 416 428.5 441.4 454.1 468.6 486.7 503.5 524.2 553 581.6 594.4 609.7 623.1 636.2 646.4 653.1 658.3 660.5 661.7 661.6 662.1 662.8 663 663.7 662.5 661.7 661.1 659.9 659.5 658.1 656.3 653.1 647.6 642.7 637.1 633.3 628.1 623.3 617.7 611.5 603.1 594.4 587.3 578.9 572.6 566.4 559.3 551.9 546 537.5 527.8 518.6 507.2 496.2 478.9 462.2 444.8 427.6 412.9 399 392.7 390 388.8 386.2 390 393.6 401.7 409.7 418.9 424.7 427.5 422.8 418.1 416.4 412.1 409.5 407.8 407 410.7 407.3 403.2 399.4 390.7 382.2 377.9 373 371.3 372.2 372.3 374.9 369 361.3 358.2 360.3 348.6 337.3 325.3 307.9 296.8 288.6 285.9 283.5 282.8 280.2 279.1 280.8 279 280.4 284.7 280.8 271.6
158.7 164.3 177 192.3 208.4 226.9 248.7 270.4 293.5 320.9 353.7 384.2 417 445.8 456.8 445.3 438 446.4 435.1 426.5 397.2 359.3 328.6 301.2 276.4 261.9 243.3 242.5 251.1 258.3 274.7 300.8 329.5 352.4 378 407.2 429.7 445.8 457.7 462.7 485.6 471.2 455.6 431.9 414.8 398.3 384.9 367.7 353.2 335.8 322.7 311.2 300.6 286.9 268.2 253.6 242.5 239.3 233.8 222.3 218.8 222.7 219.1 220.8 239 249.6 255.2 264.8 276.3 287.1 290.1 287.8 276 263.6 252.1 240.5 231.1 222.7 229.4 240.8 252 266.9 280.2 298.6 321.7 341.4 357.6 377.3 396.7 414.9 427.4 439.1 454.7 473.7 492.1 510.8 533.3 564.4 591.6 606.2 617.2 627.2 636.1 646.4 652.6 656.4 658.4 659.9 658.1 657.3 658.3 659.6 660.5 661.2 662.2 662.8 662.6 662 661.3 658.7 654.2 647.6 640.7 634.8 629.1 623.6 618.1 611.5 604.7 595.8 586 576.9 569 559 549.9 538 529.2 520.7 510.1 494.9 479.5 469.8 455.9 439 425.2 405.1 389.5 376.4 365.7 366.7 364 364.7 360.8 367.7 369 376.2 384.3 392.6 401.5 410.7 414.4 411.4 408.4 401.2 396 391.3 389.3 390.8 389.9 390.1 383.8 378.9 374.7 368.1 364.6 364.7 366.8 367.1 364.7 362.7 354.6 342.4 339.6 328.9 319.9 304.4 287.2 280.3 275.8 272.9 272.7 271.1 267.6 264.9 263.6 263 263.4 263.2 259.9 259
156 163.1 169.9 180.4 197.9 212.9 231.3 255.1 283 312 341.6 373 397.8 419.9 429.8 427.5 427.4 429.5 427.6 418.3 399.7 358.5 331.7 308.6 291.9 267.5 250.8 253.9 266.1 279.8 299 327.7 358.2 382 409.5 431.7 454.1 473.2 483.4 486.3 493 466.2 450.2 424.4 402.5 386.1 376.3 355.2 338.9 323.9 311.7 300.2 287.9 269.7 254.7 243.8 236.2 230.8 220.6 218.6 219 218.5 219.3 229.6 245.1 256.9 264.1 273.6 289.7 297.5 299.5 296.7 285.1 270.1 259.7 246.5 233.1 227.5 229.2 238.4 249.9 264.4 276.5 294.4 320 335.6 354.9 375.9 396.2 414.1 426.6 440.3 456.7 479.5 496.6 514.4 542.9 575 598.7 614.3 625.5 634.5 641.8 648.6 654.5 656.7 657.5 656.5 653.8 647.5 654.3 656 657.6 659.8 661 663.8 663.9 665 663.6 660.3 653.8 645.4 636.3 628.4 623.6 617.5 612.1 604.6 595.5 586.7 575.9 565 553.5 540.1 525.4 511.6 503.6 493.6 476.7 455.6 440.6 429.1 415 402.5 387.6 371.6 360.5 353.5 347.8 346.7 346.5 346 346.9 346.9 348.2 355 359.4 365.9 375.1 383.6 392.5 394.3 394.6 395.3 391.1 384.7 377 377.5 378.5 379.1 375.6 371.9 363.2 358 355.3 355.1 359.9 358.6 354.3 346 342.4 333 323.4 314 297.2 281 273.9 268 264.9 262.2 261 259.2 256.2 252.5 249.1 248.8 249.7 249.5 245.7 245.9
154 158.3 161.6 170.5 186.3 199.8 220.3 243.5 271.9 302.8 334.2 362 385.1 400.9 408.9 413.7 415 425.1 429.8 414.3 397.4 369.9 344.5 324.7 303.5 279.5 265.6 269.8 283 302 324.1 355.9 387 413.8 440 460.3 484.2 493.6 494.1 486.9 467.7 454 442.3 413.6 390.7 372.2 355.4 344.7 326.1 314.6 304.3 291.4 274 258.5 248.8 236.7 226 219.9 219.4 219.6 219.4 219 220.9 234.8 248.2 262.3 273.8 287.3 299 307.3 311.8 306.9 293.9 276.7 266.6 253.1 238.5 232.3 227.8 236.8 246.7 259.3 271.2 287.4 311 331.7 351 372.8 394.3 411.1 429 442.8 461.1 482 499.1 518.7 550 583 606.1 622.3 634.2 642.5 649.2 653.1 656.4 657.9 657.7 655.8 648.4 639.5 649.1 651 653.7 655.3 657.8 661 662.6 663.6 662.3 656.6 647.7 637.7 628.2 620.7 615.7 609.2 601.8 593.8 583.5 573.5 563.3 549.7 533.4 517.2 500.3 484.3 476.2 464.1 443.7 419.3 401.3 389 378.2 370.6 362.5 351.5 347.7 347.7 347.4 346.7 346.1 345.8 345.4 345 344.8 344.6 344.6 345.5 349 357.2 364.1 374.4 376.9 378.9 378.5 374.7 368.5 368.2 370.2 370.6 365.1 358.2 349.9 344.8 341.7 343.8 347.3 346.6 344 338.3 329.6 320.8 306.2 295.6 281.5 269.1 261.3 257.2 254.3 251.5 249.2 247.8 246.2 238.1 238.1 238.1 238.1 238.1 238.1 238.1
155.4 154.3 156.8 165.1 176.5 189.9 212.3 237.5 264.4 290.7 322.5 353.3 375.3 391.9 401 399.9 405.4 412.9 412.5 404 397.3 386.3 363.8 343.1 318.1 296.9 285.9 292 301.8 322 351.2 384.3 415.4 444.6 470.3 484.5 496.6 495 488.7 467.5 448.6 438.4 420.2 395 377.1 359.2 344.2 333.5 317.2 305 292 281 267.8 254.9 241.8 231.6 222.2 220.3 219.6 220 220.4 222.8 225.7 242.4 259.6 271.3 287.1 300 312.2 320.1 326 319.6 305.8 285.8 271.5 257.4 239.4 231.8 227.7 234.9 242.5 255.8 267.6 281.1 302.3 325.1 345.8 369.2 391.9 408.1 428.7 444.9 465.6 489.9 500.3 523.4 555.5 588.8 614.7 630.8 643.2 651.9 656.5 659.7 661.2 660.7 659 655.7 641.9 628.4 636.9 644.8 647.3 650.1 652.6 655.2 657.7 656.5 654.5 647.5 639.3 630.1 621.7 614.9 605.1 597 587.8 579.2 569 557.6 545.9 529.1 508 491.2 473.5 461.2 452.6 444.2 424.9 397 377.6 363.4 353.8 352 350 349.3 348.7 348 347.5 347 345.9 345.3 344.9 344.8 344.3 344 343.5 343.1 342.6 342.1 345.2 351.8 354.8 359.4 362.8 366.4 359 361.4 361.5 359.7 352.3 343.7 335.6 330.1 327.3 330.8 332.9 333 330.3 324.8 316.8 307.1 292.4 279.7 270.2 256.6 250.7 247.1 244.4 239.7 238.1 238.1 238.1 238.1 238.1 238.1 238.1 238.1 238.1 238.1
152 152.3 154.3 160.5 169.6 185.6 204.2 227.1 254.2 281.2 308.9 339.5 363.8 377.3 383 388.9 397.2 400.6 406.7 404.7 405.6 389.6 393.2 359.2 334.5 317.5 316.6 321.2 327.9 342.4 373.5 409.5 441.1 465.3 484.9 496.2 502.1 496.9 471.5 457.5 439.8 417.9 401.1 383.9 365.8 351 334 321.6 306.6 295 280.1 270.5 260.3 253.4 241.7 228.7 223 220.6 220.3 221 229 232.4 235.9 249 271.1 285.7 300.4 315.8 323.2 332.2 335.8 332.5 320.6 299.2 276 262.7 242.5 230.1 228.6 233.5 241.8 251.6 264.6 278.7 297 317.4 340.9 361.8 383.3 405.7 428.2 448.5 471.5 493.2 503.8 527.1 558.5 592.1 621.1 639.7 651.2 659.7 664.7 666.9 667.1 665.7 663.5 661.6 653.6 637.8 620.8 630.5 637.1 644 647.2 648.8 649.9 649.1 645.6 639.1 632.1 624.2 615.8 605.6 594.1 580.5 572.6 564.5 554.6 540 524.4 503.7 478.3 459 447.2 439.9 429.1 424.9 416.6 394.4 373.2 365.3 361.5 355.5 350 350.9 350.9 355 348.1 346.6 346.8 347.2 345.1 344.2 343.9 343.6 343.2 342.7 342.2 341.7 341.6 341.3 341.6 347.3 349.9 351.6 350.5 352.6 352 346.7 336.5 326.4 319.3 314.3 313.8 314.6 318.1 322.6 324.3 324.2 311.4 294.2 280.9 268.1 256.7 244.2 238.1 238.1 238.1 238.1 238.1 238.1 238.1 238.1 238.1 238.1 238.1 238.1 238.1 238.1
151.7 150.2 152.9 157.1 164.4 177.7 193 217.4 242.1 269.8 296.2 323 345.5 364.2 377.6 380 384.7 391 397.2 401.9 399.8 393.9 400.6 380.3 354.5 346 360.9 363.9 357.6 362.8 391 426.8 455.2 473.7 491.6 509.1 506.4 483.1 465.3 447.2 424.7 407.6 386.6 370.8 354.9 337.6 321.5 307.9 296.6 287.2 270.7 260.9 255.9 250.6 241.9 230.6 222 220.9 221.3 222.9 233.8 240.2 247.2 254.5 279.5 296.4 313.9 327.4 333 342.2 349.2 345.2 331.8 312.1 288 266.3 245.2 231.2 230 232.7 240.3 248.5 261.7 274.5 290.2 310.2 332.6 357.1 380.1 406.7 431.7 457.1 478.7 491.5 510.8 533.1 559.8 589.2 622.5 645.8 658.7 666.9 671.6 674.2 673.9 672.6 669.9 667.7 663 647.7 625.1 616.1 626.6 635.2 641.2 643.1 642.8 641.3 637.3 631.9 625 617.7 607.5 594.9 581.7 568.3 557.9 548.2 536.3 519.7 498.5 478.7 455 437.1 426.6 416.6 407.5 403.5 396.3 389.4 383.6 388.5 381.3 371.1 365.1 359 358.3 354.1 352.3 358.4 353.6 355.6 351.5 347.6 344.9 343.9 342.9 342.3 341.8 341.3 340.5 340.5 339.5 340.6 341.9 345.4 344.7 342.9 341.3 336 323.7 312.2 305.7 302.5 301.6 303 304.8 313.8 310.1 301.9 293.4 282.4 268.4 255.8 243.4 238.1 238.1 238.1 238.1 238.1 238.1 238.1 238.1 238.1 238.1 238.1 238.1 238.1 238.1 238.1
151.9 149.6 153.7 157.2 164.5 172.2 189.6 213.3 234.2 260.1 289.6 318.1 344.4 358.5 369.1 381.8 388 386.5 392.8 396.7 395.7 402.3 404.2 389.6 369.1 371.5 386.4 390 394.1 404.1 407.4 448.7 471.4 495.9 507.2 513.2 494.9 484 462.4 438.8 417.9 393.2 376.5 363.1 346.8 328 311.1 298 286.1 273.8 260.2 252.7 252.3 246.6 237.8 229.7 222.4 221.8 222.7 229.7 241.4 247.2 259.7 273.4 290.8 308.3 324.4 336.2 348.8 359.1 367.1 360.1 342.9 322.4 294.2 273.2 251.7 234.4 230.5 232.4 239.9 248.3 259 271.4 284.9 304.9 330.5 353.8 376.6 404.4 434.5 461.2 479.4 494.9 514.5 537.8 565.6 589 618.5 650.7 665.5 673.6 677.9 679.7 679.5 678.2 674.9 672.1 666.3 653.3 629.7 607.2 617.4 626.5 634 636.8 636.9 633.9 629.9 624.9 617.8 609.2 597.8 585 569.1 555.7 541.2 529.6 515.6 495.1 474.8 458.6 436.9 422.4 410.9 407.7 405.5 403 402.4 403.9 409.1 415 407.3 396.7 388 384.7 375.9 374.4 372.8 373.7 374.8 373.9 370.3 364 353.3 347.6 344.7 342.9 342.2 341.8 341.6 343.6 344.1 341.8 338.3 340.8 339.2 339.7 335.1 326.1 312.2 300.3 292.2 293.7 293.1 292.8 291.6 298.9 299.6 290.6 279.9 267.6 256.7 243 238.1 238.1 238.1 238.1 238.1 238.1 238.1 238.1 238.1 238.1 238.1 238.1 238.1 238.1 238.1 238.1
148.7 150.8 155.5 159.3 163.3 170.5 183.6 218.5 237.5 257.3 284.1 309.9 335.9 357.6 373.5 384.5 380.9 381.7 392.5 396.3 398.4 408.8 404.1 393 384.9 388.8 403.6 408.2 421.8 437.5 434.9 465.4 486.5 509.2 514.5 518.4 500.9 478.8 451.4 424.5 403 384.7 367.8 354.8 335.4 318.3 301.2 289 272.5 263.3 254.7 249.6 247.7 240.4 235.5 228.7 222.1 223.6 228.3 233.3 244.3 254.3 268.9 285.5 303.5 322.2 339.5 351.1 365.3 379.9 388.7 377.5 357.4 332.1 306 278.4 256.3 236.5 232 232.5 237.3 245.6 256.9 269.5 283.6 302.2 325.8 349.5 372 400.4 432.6 458 481.4 497.6 516.4 540.7 566.6 596.2 629.8 656.6 671.6 680.5 683.8 685.4 684.9 682.4 678.6 674.8 668.1 656.3 634 610.6 610 617.6 626.4 631.4 631.7 628.8 622.5 616.4 608.4 599.1 586.3 572.7 558.9 542.2 524.7 507.9 491.8 471.6 453.5 437.5 424.5 419 419.4 425.8 426.3 426.5 427.6 435.2 438.1 440.1 435.3 430.3 422.1 409.3 409.7 403.7 400.1 400.1 398.2 391.8 385.9 381.6 368.6 358.7 352.1 348.4 346.1 346.8 348.9 350.2 348.8 345.8 342.1 335.4 335.7 330.1 333.4 320.8 310.5 299.9 287.1 281.3 284.4 282.1 282.8 283.1 284.3 275.9 266.4 254.3 243.4 238.1 238.1 238.1 238.1 238.1 238.1 238.1 238.1 238.1 238.1 238.1 238.1 238.1 238.1 238.1 238.1 238.1
149.6 152.3 155.2 158.1 164.2 174.8 189.2 224.5 234.6 255.2 275.9 302.7 330.3 351.1 364.1 369.7 377.2 383.6 390.6 396.5 401.1 408 406.5 401.5 400.7 405.5 417.5 428.2 440.5 447 461.6 479.1 490.9 519.1 527 511.1 496.9 476.1 441.2 413.7 393.7 379.9 358.4 344.4 325.7 306.4 291.5 279.2 268.3 255.3 248.7 239.9 233.4 227.5 232.1 224.6 222.6 228 234.5 244.2 252.4 263.6 279.1 300.3 319.1 338.2 354.5 375.4 395 405 410.1 398.1 373.9 348.2 315.3 284.4 261.3 239.1 233.8 234.1 237.6 244.3 253.2 266.3 281.2 300.9 323.9 344 367.6 396.3 424 453.7 481.7 501.6 518.2 540.9 569.1 604.6 638.4 664.9 680 688 690.9 690.6 689.8 685.9 681.2 675.2 668.5 657.1 638.3 611.9 602.2 608.8 618.2 624.9 625.7 622.7 616.5 607.9 598.6 587.1 574 559.8 544.9 525.4 504.4 482.8 464.9 444.6 432.4 431.3 432 437.5 443.2 447.3 451.7 455.6 458.1 465.8 468.1 466.1 466.9 465.7 457.7 447.8 449.1 440.8 434.9 437.1 422.6 406.4 398 394.1 387.5 374.3 365.5 361.1 358.3 357.7 358.8 355.8 351.6 345.8 342.1 337.7 336.3 329.5 326.1 317.9 312 300.1 287.1 270.1 275.7 272.2 271.5 270.5 264.6 257.9 252.8 240 238.1 238.1 238.1 238.1 238.1 238.1 238.1 238.1 238.1 238.1 238.1 238.1 238.1 238.1 238.1 238.1 238.1 238.1
150.6 151.4 153.7 159.8 165.2 178 193.6 213.7 234.7 254.6 280.9 303.9 328 352.5 365.4 375.8 378.9 383.6 390.4 399.5 404.6 414.5 413.6 413.6 418.9 421.5 431.7 441.1 458.9 461.1 473.3 487.5 502.3 524.3 524.5 507.1 482.3 455.5 428.7 402.2 391.4 370.2 353.7 331.2 315.3 296.3 278.6 267.2 256.6 251.8 242 235 230.3 226.8 225.7 225.6 224.9 229.6 239.4 250.4 261.3 276.3 292.7 313.8 332.2 353.6 380.2 399.8 425.1 438.8 440.8 424 394.4 359.9 323 292.4 267.8 242.5 234.7 235.4 235.8 244 253.9 265 280 297.4 320.2 340.7 364.7 390.6 416.8 446.7 478.3 501.2 520.2 543.7 574.8 612.9 647.2 673.8 689.5 695.4 697.2 695.5 692.5 687.8 681.4 675 667.4 655.8 641.4 618.9 599.3 596.5 610.4 617.5 618.2 615 608.9 600.8 589.4 575.8 564.1 551 531.5 509.7 481 456.3 449.8 454.9 458.1 457.3 456 458.9 467.5 473.4 480 486.6 489.7 490.9 492.3 490.1 487.2 488.9 477.5 484.3 482.9 475.7 465.6 458.7 447.9 433.8 424.6 416.4 404.1 394.7 385.3 378.1 373.4 369.7 366.6 359.4 351.4 346 340.7 337.7 336.8 329.4 319.6 312.3 307 296.7 281.8 268.8 268 264.9 259.4 254.8 247.9 238.1 238.1 238.1 238.1 238.1 238.1 238.1 238.1 238.1 238.1 238.1 238.1 238.1 238.1 238.1 238.1 238.1 238.1 238.1 238.1 238.1
153.5 155.6 156.2 152.8 163.4 177.4 196.4 213.2 230.5 253.2 279 305.6 331.8 356.9 381 391.9 391.6 393.5 398.5 398.2 408.5 417.8 420.7 418.6 431.3 431.7 438.1 453.2 463.4 474.8 488.2 498.3 516.2 523 519.6 499.2 473 447.3 421.2 395.1 379.9 363.1 344.7 321.7 305.9 289.5 277.1 265 262.5 255.8 240.8 236.8 230.1 227.9 227.2 225.5 226.1 234.3 246.6 262.7 273.8 288.1 306.1 327.8 350.7 377.5 402.8 428.7 455.8 480 479.3 449 413.1 374.1 333.6 302 275.3 250.3 235.7 236.6 237.1 242.6 252.2 265.6 281.3 296.9 316.9 338.4 362.5 387 413.1 440.6 472.3 498.4 518.9 545.7 581.2 621.7 656.1 680.9 695 699.5 700.9 698 693.4 688.3 681 673.2 665 654.2 642.3 629.6 611.7 587.8 602.4 608.6 609.4 607.3 602.7 595.9 582.8 567.4 552.8 539.7 520.1 499.1 470.7 468.8 478 481.4 483 482.7 481.7 487.2 497.4 502.2 508.2 513 515.3 515.2 513.6 511 510.9 511.3 501.1 510 513.6 506.2 494.2 484.6 472 464.8 447 436.1 424.9 413.8 403 395.2 386.5 377 368.8 359.3 351.7 346.9 342.9 338.5 336.1 327.5 319.6 310.6 299.5 285.6 272.1 264.3 255.5 254.6 251.2 246.2 238.1 238.1 238.1 238.1 238.1 238.1 238.1 238.1 238.1 238.1 238.1 238.1 238.1 238.1 238.1 238.1 238.1 238.1 238.1 238.1 238.1 238.1
149.6 156.3 155.9 151.4 160 175.5 202.4 217.2 229.2 249.1 277.3 302.5 328.9 356.5 378.8 392.9 398.2 400.1 404.1 402.3 416.4 426 430.4 440.4 443.5 442.4 446.4 457.7 472.7 488.9 496.4 505.5 515.9 528.1 513.5 487.6 464 436.5 409.1 387.9 370.2 353.9 334.8 315.7 297.8 283.3 271.4 268.2 267.2 258.2 246.6 236.4 233 229.7 228.6 227.1 231.5 239.7 252.7 270.9 287.1 301.1 319.9 344 369.3 395.9 424.7 453.1 483 509.3 499.9 463.9 425.9 386.2 346.4 313.2 283.2 258.7 240.6 237.5 238 241 252.1 265.2 280.7 295.3 314.5 335.6 358.8 383.3 411 440.1 468.2 493.6 518.6 548.1 584.5 624.9 658.6 684.3 698.4 703.2 702.4 698.7 693.8 686.9 678.9 670 661.2 650.2 640.5 630.3 614.9 587.6 595.8 600 602.5 601.4 598 589.6 577.6 561.4 545.1 527.6 504.3 482.7 478 498.1 505.3 509.6 513.3 513.4 509.3 514.1 521.2 525.9 530.1 537 540.7 540.3 540.6 541.3 537.8 529.5 522.5 525.2 528 527.6 522.3 514.8 498.8 484.6 475.7 465.2 453.5 435.5 427.8 406.8 391.2 376.7 365.3 354.9 349.4 347.1 345.2 338.8 338.3 330.6 314.3 296.6 289 277.8 263.7 246.6 246.7 242.1 245.1 240.1 238.1 238.1 238.1 238.1 238.1 238.1 238.1 238.1 238.1 238.1 238.1 238.1 238.1 238.1 238.1 238.1 238.1 238.1 238.1 238.1 238.1 238.1
148.2 150.6 152.6 151.5 158.9 173.2 200.3 222 230.6 249.8 269.9 297.5 329.1 353.4 381 406.3 409.3 414.5 411.3 410.2 422.5 431 438.2 447.6 453.8 440.5 447.4 461.1 483.2 501.9 508.2 509.8 517.5 520.7 498.7 468.4 440.3 421 402.2 376.8 363 347.4 326.9 308.2 290.8 279.9 274.2 271.6 269.2 260.4 250.1 239.2 235.3 232.1 233.5 230.7 237.9 246.2 258.1 278.5 297.9 315.9 337.6 363.1 391 419.6 448.2 476.9 504.8 524.7 511.1 474.2 436.6 397.2 355.2 322.4 292.5 267.2 247 238.9 239.1 239.9 253.5 265.8 279.9 294.6 312.8 334 356.6 381.2 408.4 433.2 461.1 487 515.8 550.4 589.1 628.4 666.5 689.8 701.8 706.1 704.4 699.9 692.7 685 676.1 667.1 657 646.5 637.6 627.9 616.2 594.5 586.7 593.1 594.8 594.9 592.7 584.2 571.8 557.6 532.1 508.2 487.5 491.2 510.5 524.6 534.6 539.5 541.1 544.9 540.6 538.5 546.2 551.9 556.5 558.9 555.7 555.9 555.3 552.2 548.5 534.8 534.8 539.8 538.2 534.4 529.5 526.1 514.5 502.8 495.2 482.2 465.9 451.9 438 413.8 393.9 377.5 358.9 348.7 338.9 337 332.8 332.3 333.9 334.1 318.2 294.6 274.3 269.1 256.1 247.5 238.1 238.1 238.1 238.1 238.1 238.1 238.1 238.1 238.1 238.1 238.1 238.1 238.1 238.1 238.1 238.1 238.1 238.1 238.1 238.1 238.1 238.1 238.1 238.1 238.1 238.1
148.8 149.4 156.2 149.7 157.3 173.9 190.9 210.9 231.8 247.1 268.3 298.5 329.2 373.4 398.4 415.6 421.8 423.3 415.1 422.4 438.3 446.2 449.1 457.3 450.7 448.9 451.3 468 497.4 510.5 517.1 522.7 527.9 518.1 496.7 462 433.1 406.5 386.1 371.8 355.4 340.4 320.2 300.1 287.1 279.8 274.5 270.2 268.2 260 248.8 241.3 237.7 238.8 237.9 234.1 245.5 249.4 265.2 286 305.6 327.6 352.9 382.6 413.6 441.9 471 500.7 524.8 533.9 525.2 484.3 449.1 406.6 364.8 333.1 302.2 274 250.5 240.7 241 242.1 253.2 265.6 279.3 293.8 310.9 330.5 352.7 376.8 401 427.7 456.4 484 515 548.8 588.2 631.2 668.1 692.3 704.2 707.7 705.4 698.9 691.2 683 672.8 662.9 651.9 639.8 629.6 620.1 612.6 598.6 578.2 588.2 585.9 586.5 587.4 576.6 566.9 553.5 530 503.5 502.3 518.2 530.5 544 553.6 560 562.1 563.4 563.3 560.9 569.7 575.8 577.2 573.1 569.8 566.7 564.3 558.7 553.4 545.1 547.5 548.6 545.7 540.8 537.5 529.9 520.2 511.5 503.8 491.2 476.5 460.2 444.1 412.3 390.6 366.9 348 337.7 329.9 323.2 321.6 321 327 324.3 314 287.4 265.9 255 250.2 238.1 238.1 238.1 238.1 238.1 238.1 238.1 238.1 238.1 238.1 238.1 238.1 238.1 238.1 238.1 238.1 238.1 238.1 238.1 238.1 238.1 238.1 238.1 238.1 239.3 246.6 250.9
148.8 150.6 149.5 148.7 149.1 163.3 185.6 205.5 222.9 244.3 265.2 298.6 327 364.9 399.1 417 429.6 437.4 426.4 437.5 452.2 459.2 463.6 454 454.1 456.4 455.4 475.4 503.5 518.2 524.1 530.1 534.2 524.3 490.3 460.3 422.3 394.6 377.3 364.1 347.3 329.8 311.4 298.1 288.8 279.2 279.1 272.5 263.1 255 249.3 244.1 240 240.7 242.2 236.7 252.6 254 274.4 292.4 312.2 341.3 369.7 399.3 430.4 459.8 493.9 523.1 544.9 554.7 536.7 500.8 460.2 418.7 381 343.5 310.1 279.9 254.1 242.1 242.5 243.9 251.2 265.7 280.1 294.3 310.6 328.8 351.2 375.3 399.1 427.1 453.2 482.2 514.6 548 589.6 631.2 669.7 694.4 706.4 708.3 704.6 697.8 689.6 680.5 669.3 657.4 642.3 622.7 608.4 599.7 594.5 579.8 574.3 583 579.2 576.7 576.8 572 567.5 556.8 539.3 505.9 522 536.6 542.9 557.2 567.1 573.2 577.5 581.3 581.4 581.1 586.5 590.2 590.6 585.3 580.4 574.5 569.9 567.6 559.6 557.4 556.1 554.2 550.8 545.9 542.4 532.5 525.2 519.2 510.5 498 482.6 464.6 444.6 413.7 388.8 362.5 342.1 329 322.1 313.3 313.5 305.5 300.1 299.7 286.8 271.7 254.4 247.3 239.2 238.1 238.1 238.1 238.1 238.1 238.1 238.1 238.1 238.1 238.1 238.1 238.1 238.1 238.1 238.1 238.1 238.1 238.1 238.1 238.1 242.4 243.8 246.7 251.2 252.2 258.4 267.2
148.9 149.2 149.1 148.7 149.3 157.1 178.7 198.2 215.8 236.8 261.5 286.6 318.6 355.7 392.6 420.5 438.6 446.9 435.1 453.1 468.1 472.7 471.4 457.3 458.5 460.8 463.9 480.1 503.2 521.7 532.8 545 541 521.3 487.1 445.2 412.3 391.9 377.8 364.4 345.8 330.6 320.6 308.7 291.4 279.6 269.4 264.3 262.4 255.6 247.7 243.3 241.7 236.4 236.3 235.6 250.9 258.1 280.1 302.4 325.4 357.5 389.1 431.4 458 482.7 513.1 541.9 565.9 569.8 549.2 509.8 471.2 429.8 391.9 351.8 316.3 286.4 263 245.6 243.4 247 254.2 265.2 278.3 293.1 309.4 327.9 349.3 374.1 399.1 426.8 454 482.9 514 548.5 587.5 628.6 667.7 693 706.6 709 703.9 696.8 688.4 678 664.8 644.8 624.4 612.3 616.7 616.7 609.3 598.2 570.1 577.3 575.1 571.2 570.3 569.3 566 556.8 542.5 516.4 538.5 552.8 557.3 568.2 578.4 588.1 594.8 597.9 597.1 598 601.1 601.1 599.8 593.8 587.5 581.4 575.6 570.8 566.9 566.1 562.9 560.6 557.6 551.7 546 538.8 532.6 523.5 513.8 501.3 484.7 470.3 449.9 423.1 392.3 360.3 338.4 325.3 315.6 307.7 298.3 288.3 280.5 275.5 266.8 253.4 243.1 238.1 238.1 238.1 238.1 238.1 238.1 238.1 238.1 238.1 238.1 238.1 238.1 238.1 238.1 238.1 238.1 238.1 238.1 238.1 238.1 245.1 253.2 256.7 262 267.2 272.1 275.2 280.1 286.4
148.5 149.4 149.6 149.4 150.3 150.4 167.9 193.1 210.4 231.9 256.1 284.8 321.2 355.2 388.5 424.7 454.3 460 443.5 465.8 479.6 479.6 468.9 468.2 467 469.7 472.1 483.9 503.2 523 538.7 550.9 547.1 511.4 476.8 440.5 413.2 397.2 387.1 375.5 357.2 341.8 328.6 312 292.2 275.7 260.9 255 250.3 243.7 245.6 242.2 238.9 239.7 241.2 244 252.1 266.7 287.4 310.7 337.1 371.4 415 454.1 479.7 506.8 532.3 556.3 574.1 569.8 549.3 514.4 477.5 435.6 399.5 359.4 324.6 293.4 268 251 245.3 250.6 257 265.6 277.1 290.8 307.8 326.7 349.1 372.9 400.1 427.7 454.3 486.1 519.6 552.7 585.8 625.2 664.7 693.1 706.6 708.6 703.5 696.5 687.7 676.7 664 637.7 627 632.3 629.2 623.2 614.1 604.1 586.6 568.1 563.1 561 562.2 563.8 561.9 557.7 549.2 525.4 548.7 564.1 573.8 576.6 591.2 601.5 610.3 613 614 612.9 613.2 610.9 606.5 601.7 593.5 585.2 581.1 575.8 575.3 574.4 570.1 567.4 563.3 558.7 552.6 547.4 541 530.7 516.9 503.9 491.9 476.8 450.5 420.6 394.2 360.7 335.7 319.5 307.1 297.7 285.7 276.8 268.8 262.2 254.3 247.1 238.1 238.1 238.1 238.1 238.1 238.1 238.1 238.1 238.1 238.1 238.1 238.1 238.1 238.1 238.1 238.1 238.1 238.1 238.1 254.3 261.8 267.9 269.1 275.6 285.4 295.1 302.9 305.5 309.3 314.4
149.1 149.1 150 150 150.6 151 160.8 184.4 204.8 229 249.5 281 317.5 357.6 390.7 428.3 457 463.3 451.5 468.4 488.3 490.2 481 475.3 473.4 477.4 478.8 492.1 503.4 517.7 532 547 544.6 509 473.3 447.9 423.6 411.1 399.1 382.6 371.7 346.1 329 315.3 290.5 273.5 260.1 247.8 244 240.8 244.9 239.8 241.9 242.6 245.1 250.4 259.9 274.2 296.2 318.4 350.1 386 423.2 452.1 484.5 511.4 536.8 558.6 572.8 566.1 545.1 516.6 482.2 444.4 404.7 366.5 330.4 299.6 275 257.6 247 251.2 258.5 267.4 278.2 291.1 306.3 325.4 349.6 374.7 402.3 430 457.9 488.2 519.8 552.8 587.5 624.8 661.8 695.3 710.4 708.3 702.1 695.4 687 677.5 665.7 643.9 645.5 639.2 631.5 623.9 615.2 602.4 582.3 587.2 582.3 575.6 565.6 555.6 557.2 557.2 547 537.6 559.3 574.5 586.9 593.5 598.2 614.5 624.5 628.2 628.9 626.7 623.8 619.3 613.6 607.5 598.5 591.6 584.8 583 582.7 580.1 577.3 572.6 568.6 560.9 556.8 550.7 543.1 531.3 520 505.8 500.9 484.4 459.9 416.6 386.8 361.4 342.5 324.8 308.4 296.2 281 271 262.3 254.1 248 238.1 238.1 238.1 238.1 238.1 238.1 238.1 238.1 238.1 238.1 238.1 238.1 238.1 238.1 238.1 238.1 238.1 238.1 249.8 266 282 296 298.7 299.7 302.7 312.9 328 349.3 337.3 341.8 347
149.3 149.4 149.6 150.1 150.3 150.4 156.5 175.4 195.5 218.8 247 280.8 310.5 345.8 383.8 425 461.8 466.3 457.4 474.8 493.2 493.5 492 482.7 491.9 486.6 489.8 497.2 508 520.3 534.6 549.5 548.6 519.5 491 458.5 439 433.9 423.6 399.4 376.8 347.6 338.5 316 291.3 270.8 260.2 246.7 241.3 240.6 240.9 242.4 244.4 245.9 249.8 256.6 267.4 284.8 302.9 327.7 359.5 393.6 425 454.8 483.6 508.8 531.8 550 564.4 558.1 544.9 520.5 486.5 450.2 407.8 369.2 333.9 303.7 279.9 260.6 248.1 253.1 260.7 269.7 280.5 293.4 308 325.3 350.3 376.6 404.7 431.2 461.8 492.4 524.4 552.3 591.1 631.9 669.5 699 708.7 705.6 701.1 695.1 687.6 677.9 668.5 658.3 650.7 640.8 631.8 623.5 612.5 594.3 597.1 592.1 586.6 575.8 564.4 554.4 551.5 552.3 549.4 555 568.4 584.2 597 606.9 615.4 621.9 634.8 638.4 640.1 637 632.6 627.1 619.3 611.3 603.1 597.6 592.1 588.5 587.6 585.7 582.1 575.1 571.8 563.2 556.3 546.1 535.4 526.3 517.2 506.2 501.3 478.8 442.8 411.1 387.9 360.1 347.1 329.8 314 298.6 279.3 267.7 256.5 244.5 238.1 238.1 238.1 238.1 238.1 238.1 238.1 238.1 238.1 238.1 238.1 238.1 238.1 238.1 238.1 238.1 238.1 238.1 249.4 267.9 295.4 342.3 366.4 355.7 334.4 330 339.4 358 376.8 373.5 386.7 392.8
149.7 149.9 149.9 150.1 150.8 151.5 157.2 170 189.5 213.5 243.3 275.9 306.6 341.6 379.6 417.4 455.8 470.4 462.9 477.6 484.9 501.7 489.3 491.6 499.8 489.4 496.7 508.3 520.5 529.8 540.5 549.2 545.6 531.8 499.3 469.9 460.2 461.6 470.1 461.5 410.6 370.9 345.9 317.5 293 272.9 259.3 245.4 240.5 241.3 242.4 244.7 247.5 249.6 254.3 263.2 274.6 290.7 308.3 337.2 368.2 399.6 426.5 452.2 479.5 503.6 524.3 542.6 555.9 552.3 545.5 521.9 486.5 450.5 413.7 375.5 339.5 307.6 280.6 259.7 249.5 252.4 260.3 278.8 287.7 298.7 312.8 329.6 350.6 372.5 399.9 428 459.1 489.1 517 556.4 593.8 630.1 666.2 693.2 703.1 703.1 699.2 693.4 686.9 678.9 669.8 661 651.1 641 626.1 616.2 606.1 607.8 602.4 594.5 583.5 558.2 558.4 561.8 564.2 568.2 573 577.8 572.7 593 607.5 617.7 625.2 634.4 640.3 644.3 646.5 642.4 638.2 632.5 624.3 614.5 608.8 603.2 599.4 595.2 592.5 588.6 583.3 575.5 569.1 559.6 548.9 535 522.1 508.1 499.5 498 488.6 473.7 437.1 408.6 388.1 359.7 343.4 331.4 307.8 293.1 275.3 262.4 248 238.1 238.1 238.1 238.1 238.1 238.1 238.1 238.1 238.1 238.1 238.1 238.1 238.1 238.1 238.1 238.1 238.1 238.1 249.8 265.9 291.8 319.3 353.5 396.1 407.7 384 378.6 380.7 389.2 398 399.7 410.3 408.4
150.2 150.4 150.4 152.1 151.6 150.6 161.6 171 188.5 209.4 239.4 270.7 296.6 331.4 367.7 401.7 436.8 458.9 470.4 468.5 482.8 495.5 489 499.2 501 504 506.8 516.6 532 538.6 551.1 550 544.2 534.5 517.4 497.8 505.3 496.2 516.3 481 436.2 392.1 357.5 331.3 298.4 273.8 255.3 243.4 240.5 243 244.3 245.2 248.5 252.4 257.3 267 279.4 294.8 311.9 336.6 368.3 399.5 426.2 450.6 476.1 497.8 517.4 534.7 548.7 549.2 541.7 526.5 496.9 461.2 419.1 378.9 343.4 310.9 285.1 263.2 252.6 253.5 260 276.1 292.7 303 316.1 331 354.9 380.6 404.5 424.9 455 482.8 518.5 556.4 591.6 630.4 667.1 690.7 700.3 701.3 698.7 693.1 688.3 680.6 671.8 662 652.7 643 635.5 627.4 618.3 610.4 602.9 592.2 564.2 562.3 566.6 572.6 579 584.3 590.4 597.1 599.8 600.5 617.5 628 635.4 642.8 647 650 650.5 647.9 642.3 636.2 627.1 618.8 613.7 609.8 602.7 597.8 593.9 590.5 581.5 573 562.6 545.6 528.5 515.3 503.2 488.7 474.4 469.3 464.9 462.9 431.5 405.6 386.7 359.2 330.7 318.8 297.5 281.6 265.2 253.1 241.7 238.1 238.1 238.1 238.1 238.1 238.1 238.1 238.1 238.1 238.1 238.1 238.1 238.1 238.1 238.1 238.1 238.1 247.6 266.2 286.6 310.4 351.8 379.9 411.3 423.6 426.2 422.2 416.8 404.6 407.2 405.6 412.6 412.9
150.7 150.9 153.4 153.7 153.6 150.9 156.1 169.4 186.7 206.2 229.2 263.7 301 332.1 363.4 399.4 434.4 457.9 467.3 460.3 477.1 490.8 492.4 502.9 507.2 507.9 514 521.6 535.6 544.7 553.8 553.3 546.9 532.5 520.5 526.3 550.4 540.4 526.8 493.9 446.8 403.5 360.8 325.8 299 272.9 254.5 244.2 240.8 243.8 246 245.9 249.5 253.6 262.8 273 286 303.8 325.5 348.5 361.8 392.7 423.1 448.2 470.8 490.8 510.3 528 542.2 543.5 543.4 531.4 499 457.9 418.7 380.1 347 314.5 288.4 266.5 253.9 261.2 275.3 284.1 299.4 316.5 329.6 342.5 362.3 387 411.1 436.4 464.9 493.7 521.8 555.5 595.1 633 670.7 692.9 700.5 700.8 697.6 694.3 688.8 681.3 672.3 663.1 654.4 645.9 637 628.5 619 609.4 598.9 579.6 564.4 567.6 576.8 584.4 590.3 597.1 605 611.6 618.3 610.8 627.1 637.2 644.5 650 653.9 656.1 657.4 652.4 647.2 638.7 629.7 623.3 619.5 612.8 606.9 601 595.7 590.4 581.2 564.8 540.1 515.8 497.5 485.1 474.9 463.6 455 445.4 438.3 431.5 416.1 389.3 369.1 339.5 318.2 301.4 283.8 269.3 255.9 244.3 238.1 238.1 238.1 238.1 238.1 238.1 238.1 238.1 238.1 238.1 238.1 238.1 238.1 238.1 238.1 238.1 238.1 241.6 264.4 281.7 304.1 329.9 374.1 403.3 414.4 424 430.1 422.2 417 413.5 411.5 408.4 409.8 413.7
150.8 150.9 152.5 152.8 159.3 151.6 150.9 162.8 181.4 200.4 223.8 254.9 295.9 336.5 366.2 397.9 437.3 455.3 466.6 455.2 467.1 476.3 480 501.4 509.6 515.7 522.9 539.8 543.2 545.1 548.3 544.6 550.9 548.9 535.5 542.1 555.6 544.4 521.9 494.2 452.7 402.6 359.2 322.6 298.9 271.7 254.7 245.6 240.7 242.3 244.1 245.5 248.2 252.7 265.8 279.9 293.6 304.4 334.5 361.9 383.1 391.9 423.2 446.5 466.8 484.9 503.5 519.5 532.5 536.4 540.5 528.3 496.2 457.6 419.8 382.4 349.1 319.5 291.8 267.1 255.6 266.5 281 291.9 300.5 312 331.8 351.5 371.1 389.7 409.6 433.7 460.1 488 520.9 559.9 599.1 635.8 672.3 694.4 700.9 701.2 699.3 695.7 689.6 682.2 673.7 663.9 656.5 646.9 637.6 627.6 618.6 607.6 592.3 571.8 569 576.7 585.4 592.4 600.8 608.4 617.9 624.9 631 624.9 639.2 645.4 652.5 657.5 660.2 661.7 660.8 656.1 649.8 642.1 632.8 628.3 622.4 616.9 610.5 604.2 596 589.2 573.6 538.4 514.2 487.6 468.4 456.4 443.2 432.2 428.4 423.3 411.9 402.1 386.3 371.3 344.4 321.5 304.5 287.2 272.5 259.2 245 238.1 238.1 238.1 238.1 238.1 238.1 238.1 238.1 238.1 238.1 238.1 238.1 238.1 238.1 238.1 238.1 238.1 238.1 259.4 281.6 306.9 333.9 345.7 381.8 414.8 421.2 428.8 429.5 424.3 414.7 416.9 409.3 411.3 412.5 408.2
151.3 151.3 151.3 151.3 154 152.2 151.9 154.5 175.5 196 216 248.2 289.2 339.5 375.7 398.1 426.6 448.4 459.3 438.1 446 445.2 483.7 501.9 515.8 521.6 540.3 554.2 552.6 548.5 545.8 546.5 546.5 544.5 541.2 550.6 554 541.9 513.9 477.3 436.2 393.3 354.2 322.7 297.8 274.3 254.4 244.9 241.1 241.6 243.3 245 246.9 253.5 267.7 287.6 306.4 321.1 342.3 353.9 396.7 409.8 424 445.3 465.1 479.6 496.8 512.2 524.8 532.3 535.8 520.3 492.4 455.9 420.8 386.4 354.9 321.8 293.9 269.2 258 267.9 278.6 289.7 300.3 312.6 333 353.3 378.1 396.3 414.7 436.6 462.6 490.5 520.4 554.3 592.9 633.5 673.1 696.2 702.5 701.7 701.3 697.2 690.8 683.3 674.4 664.6 656.9 647.6 637.7 627.2 617.9 603.7 585.1 570.6 575.8 585.7 594.9 602.8 610.9 620.7 630.4 638.2 641.8 642.9 646.4 651.5 657.9 662.4 664.6 664.7 662.6 658.7 652.6 644.2 635.9 632 626.2 619.7 611.6 605 596.8 587 554.2 521.1 494.3 470.4 449.7 435 418.7 406.6 400.4 396.3 386 377.7 362.6 347.5 327.8 305.9 289.9 275.5 259.5 242.3 238.1 238.1 238.1 238.1 238.1 238.1 238.1 238.1 238.1 238.1 238.1 238.1 238.1 238.1 238.1 238.1 238.1 238.1 253.5 274.8 298.8 325.9 361.9 371.4 394.8 417.6 424.9 418 422.6 416.2 410.6 410.3 407.8 405.5 403.2 405.6
151.8 151.8 151.8 152 151.8 151.6 151.5 152.9 167.1 185.8 208.7 242.2 280 330 376.4 400.9 419.3 441.3 438.7 414.5 413.8 440.8 477.9 499.2 512.8 528.8 565.5 550.2 556.1 545.5 552.9 535.8 532.6 533.4 536.3 541.4 546.6 534.1 512.6 475.2 431 390.7 354.5 322.9 297.2 274.4 256.1 242.5 240.9 241.6 242.9 244 246.2 254.2 273.2 294.5 315.7 334.2 360.6 385.8 396.9 405 429.3 446.5 464.7 478.5 494.4 510.2 519.4 526.1 525.7 511.5 488.6 454.1 421.6 388.7 358.4 324.1 293.9 271.7 260.3 266.5 275.1 288.1 300 314 337.7 358.3 379.5 397.3 417.9 443.4 471.3 501.9 534.3 563.3 596.7 639.5 681.3 698.6 704.4 703.7 702.4 698 690.7 682.8 673.5 666 656.8 647.3 638.7 627.4 614.2 596.9 582 576.8 585.1 596 603.9 612.9 623.6 633.2 641.3 648.8 651.2 651.3 653.5 656.9 661.3 665.3 668.2 667.7 664.5 660.4 654.5 646.6 640.4 635.1 629.9 622.2 613.7 607.2 595.1 580.9 543.6 507.9 481.6 458.5 436.3 417 403.3 389.3 379.8 371.9 365.9 354.4 342.5 325.5 309.5 292.6 278.1 257.8 245.6 238.1 238.1 238.1 238.1 238.1 238.1 238.1 238.1 238.1 238.1 238.1 238.1 238.1 238.1 238.1 238.1 238.1 238.1 252.7 274.3 300.8 335.8 344 383.6 392 408 418.2 418.6 411.4 409.1 403 408 405.1 403.8 401.3 399.8 401.4
152.4 152.3 152.3 152.8 153.3 152.3 153.3 151.3 159.7 176 202.9 237 276.4 315.7 371.5 392.5 409.1 418.4 411.8 397.3 394.9 434.6 470.6 497.4 510.4 525.8 544.8 551.2 546.3 544.5 548.6 542.6 524.8 520.7 523.1 526.5 535.9 531.6 502.9 475 426.6 385.6 348.7 317.4 291.4 270.9 251.6 242.9 241.9 241.7 241.9 243.6 246.5 257.2 276 300.3 320.4 348.9 377.1 406 431.3 420.5 433.6 449 463.9 479 495 506.8 515.8 521.6 520.9 510.6 486.2 450.5 420 388.9 360.4 324.6 296 272.1 262.3 264.5 274.4 283.9 297 318.1 337.8 361.4 386.6 405.4 424.7 455.7 486.2 516.9 554.9 589.9 617.7 654.1 684.6 701.7 706.8 705.8 703.6 698.9 690.7 683.1 674.1 665.1 656.6 647.5 637 624.5 609.1 597.7 582.3 583.5 595.2 605.3 613.2 625.1 636 644.4 652.5 656.8 658 658.7 661.7 664.3 666.4 669.2 670.3 669.7 666.1 660.3 654.8 649.3 643.4 638.3 632.2 624.8 616 606.2 595.1 575.3 540.5 502.9 475.1 446.1 426.7 408.3 389 374.6 362.6 354.3 345.2 335.7 323.4 308.4 294.1 281 261.3 245.7 238.1 238.1 238.1 238.1 238.1 238.1 238.1 238.1 238.1 238.1 238.1 238.1 238.1 238.1 238.1 238.1 238.1 238.1 249.3 267.8 298.2 329.8 364.5 380.1 402.4 402.7 407.8 404.4 403.2 399.7 400.6 400.7 406.5 407.9 402.6 399.4 396.3 400.1
153.2 153.2 153 153.3 152.4 151.8 151.6 151.4 151.4 171.6 197.7 233.6 268.1 314.2 351.6 380.1 396.4 393.8 385.8 359.2 392.1 428.6 463.1 491.4 504.1 516.6 536.9 544.1 548.4 551.6 541.2 532.8 523.7 506.5 509.9 515.4 525.8 524.8 499.4 466.4 420.5 381.1 344 310.4 284.5 267.2 250.9 245.7 242.4 242.7 243.1 247.9 250.5 264.8 284.1 308.6 332.5 362.7 394.2 423.8 444.4 438.9 435.2 451.4 464.3 480.9 493.1 505.2 513.6 518.1 519.5 508.8 484.1 447.7 417.8 390.1 359.2 323.4 296.6 272.9 264.5 269.4 278.5 290.2 305 321.6 343 370 394.2 418.2 440.9 470.2 497.4 529 564.2 600.9 629.7 659.8 687.7 703.4 707.8 707.8 704.9 699.4 690.7 683.5 674 666 655.1 646 633.7 619.5 609.5 599.7 585.1 593.8 601.4 613.9 623.6 636.9 646.1 653.8 659 663.3 665.9 667.5 669.8 671.5 672.2 672.9 672.7 671.6 667.2 660.3 655.3 651.8 646.1 640.3 632.7 624.9 615.3 605.3 588.5 561.6 530.7 495.7 472.2 436.4 416.1 401.4 377.1 358 350.1 338.4 330.5 320.2 306.4 293.7 280.8 266.2 248.4 238.1 238.1 238.1 238.1 238.1 238.1 238.1 238.1 238.1 238.1 238.1 238.1 238.1 238.1 238.1 238.1 238.1 238.1 255 271.1 290.8 317.7 349.8 391.7 401.8 403.9 406.5 404.8 403.1 400.8 398.9 399 400.1 401.6 406.1 407.3 402.9 395.2 394.3
153.7 154 153.9 153.1 152.7 152.5 152 151.5 151.6 164.6 193.8 218.6 254.6 294.5 327.7 357.4 367.4 358 349.5 350.3 385.9 422 458.7 485.3 503.8 521.4 525.1 537.6 557.4 549.9 526.9 524.4 506.5 498 499 506.5 514.7 511.9 495.5 464 418.1 378 341.9 310.3 286.6 266.4 257 247.8 244.1 244.1 244.8 253 258.8 277.2 295.5 320.3 355.3 384.3 413.7 440 453.6 450.8 454.4 458.4 465.8 480.5 495.2 503.5 509.6 515.4 518.8 506.7 485.4 444.9 415.8 385.9 354.8 323 296.7 274.2 266.7 274.7 283.2 294.5 311 327.1 348.5 374.8 401.1 425.4 452.1 480.7 508 541.4 577.8 609.2 633.6 660.3 686.7 701.8 709.4 708.6 705.9 699.5 691.4 682.5 673.5 664.4 654.2 642 624.7 605.3 599.5 602.9 605.9 614.1 614.4 623 635.2 647.5 653.5 660.4 666.1 670.8 673.1 673.9 675.6 676.7 675.5 673.7 672.9 670.7 666.1 660.9 656.2 652.2 647.5 641.7 633.1 624.7 614.1 601.7 574.8 541.1 512.7 488.5 464.2 431.9 408.9 386 363.9 349.8 335.5 325.7 316.2 304.7 293.8 280.5 267.2 251.1 238.1 238.1 238.1 238.1 238.1 238.1 238.1 238.1 238.1 238.1 238.1 238.1 238.1 238.1 238.1 238.1 238.1 245.3 257.5 274.7 290.2 310.8 337.8 370.7 394.7 401.1 408.3 410.3 413.8 409.8 401.9 398.9 399.5 400.8 403 402.4 404.8 396.7 395 393.3
154.7 154.4 154 153.3 152.7 152.5 151.9 151.6 151.8 154 181 209.2 239 272 301.3 321.7 325.6 322.9 315.7 354.8 385.5 419.5 454.4 482.4 508.4 511 518.6 528 540.6 531.1 514.4 502.2 496.2 487.1 488.4 496.7 499.6 507.6 493.2 462.8 416.6 377.8 343.6 311.9 287.4 270.7 259.5 251.9 246.2 245.5 248.1 254.5 269.5 288.1 311 338.4 373.2 402.8 430.6 454.7 458.6 457.8 452.5 464.3 470.3 481.9 494.7 502.2 506.7 512.8 514.9 510.8 485.9 445.5 413.3 380.9 351.2 321.5 297 277.6 268.6 280.7 289.2 301.4 315.8 332.1 352.7 380.9 406.8 433.6 460.2 490.2 520.3 551.6 585.1 611.2 634.5 663.4 687.6 700 712 709.5 706.5 699.6 691.3 683 672.6 663.2 650.8 631 610 622.2 627 628.7 630.5 633.1 632.4 631.6 645.6 654.4 661.8 668.3 673.9 676.3 677.9 678.5 678.7 677.6 675.9 673.6 672 668.4 664.5 660.5 656.1 652.3 649.7 645.2 637.8 627.5 611.8 593.6 557.8 529.6 501.8 475.5 451.8 427 402.6 376.5 353.2 336.2 325.1 311.4 299.1 288.9 277.9 261.9 248.5 238.1 238.1 238.1 238.1 238.1 238.1 238.1 238.1 238.1 238.1 238.1 238.1 238.1 238.1 238.1 238.1 238.1 248.3 257.9 275 293.4 315.2 338.5 385.5 395.6 402.3 406.1 414.5 414.4 413 411.1 408.3 401.9 402.5 404.9 406.1 400.8 398.9 393.7 391.9 393.6
155 155.3 154.6 153.7 152.8 152.2 151.9 151.9 151.7 151.8 168.6 196.7 222.3 250.3 273.5 284.3 287.9 285 324.6 355.4 386 418.8 451.6 481.6 506 507.5 513.5 513.3 510.3 505.2 498.5 487.5 478 476 477.1 486.2 494.1 496.7 492.9 467.4 422.6 385.2 352.5 317.9 290.7 273.3 258.9 250.8 247.5 247.9 251.5 266.3 282.4 303.2 327.7 356.4 388.4 418.8 451.7 464.2 464.8 463.3 457.9 466.5 474.5 484.9 496.5 502.6 507.7 512.6 513.7 513 479.7 441.3 411.4 377.5 347.2 318.9 297.8 277.9 271.6 283.3 295.2 306.1 320.3 335.6 358.5 385.4 412.5 440.5 468.2 499.8 533.3 562.6 588.5 611.5 638 661.9 683.6 702.2 713.1 711.2 706.5 699.2 690.8 681.8 670.9 660.2 642.4 615.5 629.5 640.6 643.1 645.2 647 648.5 647.6 639.2 654.2 663.5 669.3 673.9 678.5 681.4 682.2 681.8 680.1 677.6 675 671.9 669.4 666.4 663.4 659.4 656.3 652.2 650.1 645 638 627.7 608.9 590.8 560.8 529 501.5 468.9 446.1 422.5 394.9 366 343.3 327.4 311.6 299.1 288.1 274.2 256.9 248.1 238.1 238.1 238.1 238.1 238.1 238.1 238.1 238.1 238.1 238.1 238.1 238.1 238.1 238.1 238.1 238.1 238.1 251.1 263.7 280.5 299.5 313.6 344.5 383.3 398.6 402.7 408.7 414.5 420.3 422.2 420.6 414 406.4 398.5 398.7 406 404 398 388.2 385.9 386.2 394.6
156 156 155 153.7 153.4 152.5 151.9 151.8 152.2 151.8 164.3 186.9 208 229 244.6 244 267.3 302.3 331.1 359.4 387.1 420.8 450.6 479.6 503.3 498.2 505 501.1 496.3 491.6 485 474.6 474.2 473.1 474.4 482.3 492.3 489.4 481.9 466.5 432.2 389.9 351.3 319.7 293.8 276.4 262.7 252.4 249.9 251 258 275.4 294.1 317.7 345.7 376.7 406 439.1 467 477 473.8 469 466.2 466.8 475.8 487.9 498.4 505.9 510.8 514.4 515.2 508.6 478.3 441.8 406.6 373.1 343.6 318.2 297.3 276.9 277.1 289.3 301.5 312.4 326.1 342.2 364.2 391.1 419 450.5 476.1 509 540.9 557.9 585 613.3 633.2 652.7 680.4 707.2 714.8 710.2 704.9 697 688.2 679.7 668.5 656.5 630.9 632.4 646.9 652.5 656.7 661.2 662.6 661.9 661.9 656.4 665.7 671.5 675 678.8 682.4 683.7 684 683.4 681.1 676.9 671.8 668.2 665.3 661.6 659.6 657 654.9 653 648.5 642.9 636.2 623.4 604.9 585.4 558.4 531.7 495.2 461.6 442.2 416.5 386.2 359 336.9 319.9 304.7 287.5 273.4 259.9 244.9 238.1 238.1 238.1 238.1 238.1 238.1 238.1 238.1 238.1 238.1 238.1 238.1 238.1 238.1 238.1 238.1 238.1 245.5 259.6 279.1 306 329.6 357.7 377.3 393.6 404.6 414.1 410.5 417 420.6 415.5 416.1 411 403 396.9 394.9 393.7 393 389 383.2 382.2 379.2 382.1
156.4 155.5 154.7 154.6 153.8 153 152.2 152.4 152.8 156.9 170 182.6 201.5 208.9 224 250 275.5 302.3 330.8 358.4 388.7 422.8 449.8 475.6 489.4 492.4 497.3 496.2 493 482.6 477.3 485.8 473.1 473.1 473.1 473.6 484.3 491.8 485.1 467.9 438.5 393.4 354.9 324.9 300 281.8 266.8 256.8 254.3 258 267.3 283.5 304.2 331 361 390.6 423.6 458.5 486.6 492.2 484 476.8 471.9 466.7 476.6 489.2 500.1 507.8 512.5 516.1 516.2 505.1 471.9 440.7 402.4 369.3 341.3 316.4 294.8 280.1 282.4 290.8 305.1 319.6 333.7 349.2 371.7 399.4 429.2 456.8 483.4 514.7 538.9 569.3 596.4 612 631.3 653.4 683.4 712.5 715.4 708.5 702.5 693.1 685.4 674.3 664.1 651.1 628.1 644.7 658 665.5 671 673.6 674.6 676.4 676.1 674.4 676.6 680.9 682.4 685.3 685.6 684.8 685.1 683.4 678.8 672.3 664.6 662.7 659.8 656.2 654.4 652.8 650.9 649.6 646.5 639.5 630.6 618.9 600.5 580.6 558.5 523.9 495.5 466.8 441.5 411.7 388 356.2 331.3 315.7 292.6 277.3 265.8 248.9 238.3 238.1 238.1 238.1 238.1 238.1 238.1 238.1 238.1 238.1 238.1 238.1 238.1 238.1 238.1 238.1 238.1 246.5 267.1 282.5 311 340 366.8 385.6 394.6 404 411.8 420 414 418.4 421.4 412 406.5 402.1 397.1 391.6 387.4 386.4 383.3 378.8 378 377.7 373.6 371.4
157.2 157.1 156.4 155.4 154.3 153.2 152.8 152.9 152.4 162.4 169.8 178.8 187.6 197.3 215.5 232.3 264.8 295.3 326.7 351.6 384.8 421.8 451.4 473 484.1 488.4 487.9 485.4 479.5 475.9 474.2 473.1 473.1 473.1 473.1 473.1 474.4 492.2 492.7 472.5 448.1 408 366.9 336.3 310.8 289.8 271.3 262 263.4 271.1 279 295.7 314.6 346.6 376.3 407.1 443.1 473.8 504.4 502.3 491.6 482.8 479.7 474 478.9 491.4 502.6 509.5 513.9 516.5 516.2 500.5 468.2 433.9 398.4 366.6 338.7 313.1 294.3 283.3 285.2 293.1 307.9 323.2 338.6 355.4 373.7 401.6 436.4 465.2 491.9 518.9 545.7 570.8 590.6 606.7 629.9 656 688.9 714.1 714.4 707.4 699.8 690 681.3 669.4 658.5 645.2 636.8 651.6 665 674.2 681.4 686.2 687.6 688.4 685.8 686.3 687.1 688.8 689.4 689.5 688.2 686 684.3 679.6 670.5 662.3 656.1 652.1 646.5 644.7 643.8 643.4 642.4 642 638.1 631 624.9 612.1 595.8 577.9 561.8 526.4 497.4 473.1 443.9 420.8 386.5 351.7 327.5 309 286.8 268.3 255.5 242.8 238.1 238.1 238.1 238.1 238.1 238.1 238.1 238.1 238.1 238.1 238.1 238.1 238.1 238.1 238.1 238.1 238.1 262.1 280 303.2 327.8 355.4 375.7 387.5 395.8 402.2 410.8 419.2 422.9 425.7 419.3 411.1 405.8 404.3 398.7 392.4 390 387 381.3 372.5 371.5 369.5 365.8 362.5
159.3 158.5 156.9 155.6 154.7 153.9 152.7 152.8 155.7 158 164.9 170.3 176.6 189.6 207.5 233.3 262.8 292.6 325 354.4 388.5 422.7 454.3 474 482.1 479.7 476.6 472.3 470.7 476.1 476 480.9 479.7 473.1 473.1 473.1 474 491.6 493.8 479.3 466.1 422.8 384.4 352.3 328.9 303.9 285.1 272.3 272.4 280.1 290.8 309.9 332.9 362.5 395.5 434.6 466.2 492.6 519.3 521.6 508.7 496.2 484.4 479.9 480.4 492 504.3 512.2 515.9 519.4 513.8 494 458.9 425.6 392.7 363.3 335.3 310.9 296.5 289.3 289.4 300.1 311.2 328.7 347 366 388.7 415.8 448.1 470 482.6 506.5 527.6 549.1 572.5 599.7 626.7 657.7 692.3 713.8 710.8 704.9 697.4 687.5 676.7 664 653.3 640.4 641.5 656.4 673.3 683.7 692 696.6 698.5 698.8 695.9 696.7 696.6 695.5 695.3 691.9 687.6 677.7 661 654.6 649.9 640.5 631.7 627.3 624.6 624.3 623.9 623.2 624.1 623.3 620.9 616.3 613.2 602.7 589.5 575.7 561.6 530.7 498.2 478.2 447.6 416.4 382.2 350.7 326 300.4 277 259.9 245.7 238.1 238.1 238.1 238.1 238.1 238.1 238.1 238.1 238.1 238.1 238.1 238.1 238.1 238.1 238.1 238.1 238.1 249.6 273.2 299.2 319.3 347.4 385.4 399.3 398.1 403.3 404.5 413.9 421.6 426 423.7 421 414 404.9 397.6 395.6 393.3 391 392.2 383.5 367.5 369.8 368.2 361.3 353.9
160 158.4 156.7 156 155.1 153.9 152.8 153.1 152.9 157.2 159.3 163.4 167 178.1 198.8 224.1 252.3 281.7 313.3 347.2 388.2 422.6 449.1 469.6 468.9 467.3 468.1 464.3 474.8 479.2 479.5 476.7 474 473.1 473.1 473.1 476.8 493.8 500.7 499.2 474.1 433.2 394.6 363.6 336.8 315.1 297.2 285.7 284 292.8 305.4 324 348.1 374.9 410 454.2 488.5 516.3 538.4 540.4 521.6 504.9 490.5 483.5 486.5 496 508.7 514.3 519.7 520.5 515.7 492.5 454.9 421.4 389.3 359.8 333 311 297.6 291.9 295 307.7 319.2 336.4 353.3 372.5 398 426.2 454.2 481.9 499.6 520.1 542.1 567.2 590.8 612.9 637 669.6 697.5 712.8 709.4 702.4 694.2 682.7 672 665.2 664.6 659.7 642.3 658.9 678.8 690.8 699.4 706.3 708.6 706.6 706.7 705.5 703.9 701.5 680.5 664.4 651.1 634.6 622.5 614.7 613.6 606.6 601.4 597.6 596.9 598.7 598.8 601.2 602.5 601.9 601.7 599 593.2 584.2 578.9 566 556.1 528.8 499.4 473.3 448.9 412.5 391.2 350.2 315.2 290.9 268.1 252.6 238.1 238.1 238.1 238.1 238.1 238.1 238.1 238.1 238.1 238.1 238.1 238.1 238.1 238.1 238.1 238.1 238.1 249.5 270.6 297.4 326.4 341.8 369.4 398.9 408.9 406.4 406.9 408.7 417.1 424.6 429.3 430.6 422.1 409.1 399.3 398.1 394 394.1 392.2 386.2 376.8 360.4 362.4 358.6 352.4 349.3
159.8 158 157 156.2 155 153.8 153.1 153.2 152.8 155.1 157.9 160.4 162.6 169.4 189.6 212.3 241.4 277.5 326.3 356.7 391.3 418.8 441.3 446.9 446.7 446.5 449.4 462.6 480.1 504 494.4 487.7 473.1 473.1 473.1 473.1 473.3 494.6 511.2 516.5 495.2 447.5 411.5 378.9 348 327.4 312.6 301.5 296.9 312.6 325.8 341.5 365.4 392.7 421.4 459.8 500.9 530.8 562.9 552 528.7 510.1 497.7 486.6 489.8 500 509.9 512.3 519.8 524.1 518.6 485.2 452.9 418.7 386.4 356.1 330.2 311.5 300.3 293.9 301.3 312.1 328.4 340.3 359.3 382.3 408.6 436.4 465.6 489.3 502.2 525.6 550.1 576.6 600 621 647.5 681.6 711.2 715.7 709.3 704.1 696.3 679.3 678.8 681.7 678.5 670.7 650.6 658.8 681.9 694.3 704.7 711.3 715.1 716.4 714.1 711.8 710.1 687 649.3 625.1 610.3 594.5 583.6 572.5 571.8 570.3 569.4 569.9 570.8 572 572 574.7 576.2 575.1 574.1 574.6 570.6 566.3 554.5 547.4 545.6 527.2 503.3 473.3 446 414.3 388.1 341.4 307.4 281.1 261.8 247 238.1 238.1 238.1 238.1 238.1 238.1 238.1 238.1 238.1 238.1 238.1 238.1 238.1 238.1 238.1 238.1 238.1 256.1 287.4 324.8 358 373.2 389.5 404.5 399.9 406.5 406.1 413.1 414.8 419.8 424.4 417.7 408.2 402.8 397.9 392.7 393.7 393.5 389.2 378.7 374.3 364.1 349.2 348.6 346.2 341.3
164.7 157.7 156.9 156 154.8 153.8 153.3 153.6 153.2 154.9 156.4 158 159.7 166.7 185.6 210.7 239.2 271.3 309 350.6 386.4 419.4 427.8 417.6 430.8 446.2 453.7 468.5 481.4 494.6 500.9 497.7 478.8 473.6 473.1 473.1 479 496.2 512.9 521.7 519.3 463.4 425.9 394.4 364.9 343.8 330.9 320.8 320.4 330.2 350.9 365.9 383.9 411.9 443.7 479.7 513.3 553.5 582.3 571.1 541.9 524.7 504.2 494.6 498.8 504.1 512.2 522.1 525.3 527.2 518.7 483.3 453.7 419 383.8 354.3 329.3 312.6 301.1 300.5 310.1 317.7 335.8 349.7 362.9 386.7 414.5 442.6 472 487.9 505.7 530.6 557.8 587.2 612.7 634.3 664.6 695.1 718.3 721.5 714.8 708.4 697.1 689.6 694 691.9 686.6 677.7 657.8 661.7 683 697.3 706.8 713.6 719 720.7 719.5 717.3 712.3 675.1 626.2 598.8 581.5 567.1 547.9 538.6 533.9 534.8 538.3 542.6 544.4 547.6 548.8 547 549 548.8 549.6 551.5 550.9 543.9 533.5 529.8 529.8 517.7 496 472.2 440.5 406.5 370.7 332.4 298.1 270.6 250.8 239.8 238.1 238.1 238.1 238.1 238.1 238.1 238.1 238.1 238.1 238.1 238.1 238.1 238.1 238.1 238.1 238.1 242.9 266.4 308.1 345.5 362.2 371.7 385.4 394.2 400.9 403.2 403.8 405.5 406.7 412.1 412.4 407.4 402.4 397.9 392.1 390.6 389.5 385.2 378.4 372.5 367.4 359.1 348.7 344.2 342.4 339.8
167.2 159.1 156.4 158.8 158.5 154 153.5 153.2 153.5 153.7 154.4 155.9 158.2 167.8 185.7 209 236.3 267.4 309 351.9 395.7 421.3 399.2 422.1 436.2 448.1 459.2 482 483.6 491.7 504.2 500.2 488.2 477.3 474.1 473.1 484.4 494.4 509.8 525.3 531.1 507.9 446.7 412.7 384.9 364.8 351.6 340.7 340.3 347.1 368.6 386.8 405.3 430.4 463.3 504.9 539 564.4 592.9 584 557.7 534.5 511.5 506.1 508.3 511.3 520.7 527.8 529.3 531.7 511.6 478.1 449.9 416.6 379.3 352.1 332.5 316.9 304 307.3 312.4 326 342.3 359.2 375 392.3 413.7 449.5 467.7 489 511.2 534.4 565.1 594.9 623.3 649.4 681.1 711.7 724.8 724.7 720 715.2 710.4 706.1 704.2 700.1 694.4 683.9 666.1 665.1 686.1 701.5 711.5 717.7 721.4 722.1 721.6 718.9 710 665 620.4 587.2 562 540.9 523 508.3 502.2 505 512.8 518.5 523 525 526.2 525.6 524.4 524.3 524.3 526.1 526.5 525.5 515.6 510.8 510.4 504.6 481.8 465.8 430.4 396.5 358 321.3 287.8 259.9 242.8 238.1 238.1 238.1 238.1 238.1 238.1 238.1 238.1 238.1 238.1 238.1 238.1 238.1 238.1 238.1 238.1 238.1 254 283.9 322.7 350.3 367.2 378.5 386.5 394.6 401.3 404.4 404.3 410.2 406.4 404.7 399.6 397.7 395.4 396.2 388.8 388.8 383.7 380.2 372.9 367.6 360.4 352.8 344.6 341.2 337.5 335.7
178.3 172.1 158.4 157.9 161.2 153.4 153.5 153.3 153.3 154.2 154.6 156 158.4 161.9 181 204.6 235.2 268.5 320 365.7 403.3 389.1 403.5 426.5 440.4 449 458.2 473 484.2 496.3 498.7 499.7 487.9 478 475.4 477 488.5 498.7 508.1 522.4 528.3 519.8 475.3 441.2 412.1 392.1 374.5 362 362.9 363.8 385 406.8 424.3 450.5 485.8 529 557.6 579.7 601.9 593.8 567.5 543.6 525.9 517.9 516.5 523 529.2 529.8 533.4 535.3 509.8 477.1 450.2 414 379.5 350.3 332 315.9 308.9 313.1 318.5 329.3 349.2 367.1 383.6 405.4 432.4 447.6 471 494.8 514.9 537.6 568.8 600.7 633.2 663.3 694 727.1 735.1 730.5 726.4 723.3 718.8 715.9 711.7 706.2 698.9 688.7 671.9 670.8 689.1 704.5 714.7 721.2 724.2 725.2 725.4 721.8 700.8 671.8 623.8 585.1 548.4 524.3 506.4 493.2 486.8 486.9 490.5 496.1 499.9 503.3 505 503.5 503.1 501.3 500.2 498.2 498.5 499.1 498.4 495 492 488 464.1 443.3 422 383 343.4 310.8 284.5 254.7 238.1 238.1 238.1 238.1 238.1 238.1 238.1 238.1 238.1 238.1 238.1 238.1 238.1 238.1 238.1 238.1 238.1 238.7 265.7 296.4 320.3 347.8 365.1 378.8 388.7 398.8 410.2 408.6 414.3 415 412 410.6 400.4 394.5 392.6 390.4 388.3 385.7 381.3 380.7 369.9 358.8 353.2 345.8 342.8 339.7 338.1 336.4
200.1 184.7 175.2 163.5 157.6 154 153.8 153.5 153.3 154.1 155.2 155.9 158.9 162.7 176.8 202.1 231.7 265.3 304 344.2 369.2 365.2 406.9 433.3 448.1 460.1 464.3 474.7 480 489.4 498.7 499.9 491.7 484.2 480.1 478.6 491.6 497.4 506.9 520.1 524.9 531.9 527.1 487.9 446.6 420.7 398.1 389 391.7 393 401.7 421.5 441 469 506.8 543.5 569.1 589.8 608.5 612 581.7 553.2 536.1 533.5 532.6 532.3 538.8 544.4 547.4 544 510.2 481.3 450.7 410.7 373.8 349 330.4 324 314 320.6 326.7 336.1 351 374.3 395.6 418.8 443.3 461.7 480.3 493.8 518.9 543.6 575.2 605.4 639.5 674 703.7 732 741.3 739.2 734 729.9 727.1 721.7 716.2 709.5 700.6 689.5 675.8 676.4 694.1 707.4 718.5 725.4 728.9 729.7 728.9 726.9 723.2 681.8 625.5 575.2 543.9 517.7 493.3 482.7 476.9 474.8 475.5 478.7 480 483.6 486.4 483.2 482.7 481.1 479.7 478.7 477.3 478.7 482.6 482.2 479.3 467.7 449.9 431.1 404.2 371.2 329.2 300.6 277.6 256.2 238.1 238.1 238.1 238.1 238.1 238.1 238.1 238.1 238.1 238.1 238.1 238.1 238.1 238.1 238.1 238.1 238.1 253 279.3 304 323.2 345.3 360.4 376.2 392.3 404.1 414.8 411.8 415.9 417.4 412.9 404.3 395.7 394.1 392.3 394.7 396.5 388.2 384.2 377.7 366.7 357 350.5 345.1 343.9 342.4 342.6 343.5
205.9 193.4 181.9 166.7 160.9 153.8 153.9 153.7 153.5 153.6 153.9 155.1 157.3 168 184.3 202.1 219 248.8 286 302.2 321.6 359.4 399.4 438 456.1 464.7 462.7 469.8 477.8 485.7 492.1 498 501.7 494.7 489.5 488.5 495 494.6 506.8 519.2 525.4 534.2 547.8 544.8 483.2 448.8 422 417.1 417.9 417.6 423.6 441.8 461.1 488.5 524 553.5 576.7 598.8 612 619.8 592.5 571.9 554.3 547.9 546.4 549.1 554.3 566.2 565.6 544 508.8 480 450.4 409.3 374.6 353 341 332.7 326 329.1 336.3 345.2 363.3 381.4 406.8 430.3 452.9 470 485.9 506.5 527.9 544.4 583.6 618 650.3 681.6 714.3 747.6 747.9 744 740.1 735.3 731.2 725.5 718.1 709 695.7 678.6 673.4 688.4 704.5 716.3 725.3 730.6 732.5 732.8 731.7 728.4 717.9 671 620.5 565.9 537.8 508.2 484.2 468 463.7 462.7 463.7 466.2 463.4 466.9 469.3 467.4 465.6 464.3 462.7 461.2 461.6 461.6 464.4 462.9 466.1 454 444.2 423.9 392.7 358.7 318.5 289.1 267.3 247.4 238.1 238.1 238.1 238.1 238.1 238.1 238.1 238.1 238.1 238.1 238.1 238.1 238.1 238.1 238.1 240.7 250.2 265.4 289.3 306.9 328.8 349.2 363.4 381.3 397.5 411.5 420.9 416.4 417.9 426.1 411.3 404.7 394 392.5 390.1 392.2 388.4 386.6 381.1 371.2 357.2 357.6 357.3 355.5 357.7 359.1 358.7 357.2
213.9 205.4 187.9 173.5 164.7 153.7 153.9 153.7 153.7 153.9 153.7 154.5 167.1 171.9 184.7 204.1 226.7 253.1 293.4 324.9 347.1 372 403.1 446.5 461.3 460.2 461.2 467 473.5 482.8 489.6 494.2 496.4 495.2 494.9 496.3 502.8 499.1 506.7 519.1 525.5 532.9 553.4 559.4 547 485.1 453 446.5 446.5 444.3 446 463.2 482 510.4 539.2 564.3 585.8 602.8 618.2 621.6 608.3 593 572.6 569.1 563.1 572.1 580.7 584 581.4 544.5 510.1 479.3 445.9 407.7 376 361.6 351.2 344 341.1 336.2 345.3 352.5 371.1 391.4 417 440.7 460.2 474.9 492.5 515.1 539.3 564.4 589.6 611.8 653.7 688.8 720.6 751.8 754.3 749.3 744.7 740.5 734.6 726.8 716.8 702.3 687 684.5 688.1 701.7 715.5 725.4 731.8 734.2 736 735.3 733.5 730.4 710.5 659.4 615.6 560.4 536.6 498.9 475.3 457.2 449.8 448.8 449.4 450.2 452.8 453.1 455.5 453.5 451.2 449.6 448.7 448 447.7 446.3 449.2 446.4 446.2 442.8 436.7 419.2 376.1 340.6 304.7 273.4 251.5 238.1 238.1 238.1 238.1 238.1 238.1 238.1 238.1 238.1 238.1 238.1 238.1 238.1 238.1 238.1 238.1 251 264.1 277.3 291 310.7 331.9 351.7 363.6 379.8 393.6 408.4 418.4 413.8 419.4 422.3 414.1 401.2 393.6 391.1 388.4 389 386.4 386.3 377.6 370.5 367.7 368.5 367.7 367.5 370.7 373.9 373 369.3
215.2 207.4 190.1 174.7 164.3 153.9 154.1 154 153.5 153.5 153.3 154 164.3 171.9 186.2 203.6 228.3 257 290.5 333 367.5 392.5 426.2 447.7 454.7 452 454.2 460.2 467.9 482.4 487.5 495.1 501.1 502.6 497.2 497.7 499.9 503.1 506.5 516.7 528.5 534.7 541.6 562.8 558.3 522.5 485 473.5 476.4 472.7 470.9 482.5 500.8 522.2 549.7 573.1 588.7 606.8 623.2 626.7 627.6 613 601.8 602.4 592.3 600.8 615.4 616.5 585 553.9 515.7 478.5 442.9 407.2 380.7 369.8 358.7 350.3 350.4 352.6 354.5 361.1 379.8 403 428.6 450.1 461.6 479.2 499.6 526.4 551.5 581.1 613.9 637 649.1 683.5 721.7 752.6 755.8 751.6 747.5 742 735.9 726.4 710.2 697.4 687.2 698.5 702.3 715.5 724.1 732.6 737.3 739.1 739.2 737.7 734.4 730.1 711.9 654.6 598.8 552.3 524.3 487.2 461.9 444.1 432.7 432.9 433.4 436.5 438.2 441.7 441.5 441.1 438.3 435.6 433.8 435.4 435.9 434 433 431.8 429.2 429.6 419.7 407.4 363.3 329.2 292.5 260.9 238.1 238.1 238.1 238.1 238.1 238.1 238.1 238.1 238.1 238.1 238.1 238.1 238.1 238.1 238.1 238.1 254.2 263.8 276.4 290.4 310.8 316 336.2 352.2 365.1 377.8 389.8 400.1 407.2 413.2 425.3 425.9 412.4 401.3 394.5 391.6 392.4 389.4 387.4 380.7 373.6 375.8 377.3 375.7 378.1 381.8 381.8 383.4 382.8 380.7
222.2 207.9 196.9 178.7 165.9 155 154.5 153.9 154.2 154.2 154.3 154.3 159.4 171.8 185.5 203.1 229.3 260.2 292.6 346.2 386.2 417.3 435.8 446.7 450.5 452 453.9 460.5 469.5 482.8 490.8 501.9 510.9 523.4 512.3 506.7 516 512.2 513.6 513.7 524.3 528.3 541.5 553.4 555.6 535.9 510.6 500.4 502.4 498.2 497.8 507.6 528.7 541.8 562.2 578.9 593.1 606.9 619 631.3 640.6 637.8 627.2 622.8 622 629.5 641.9 625 592.8 556.1 514.6 476.1 441.8 411.2 388.1 376.3 364.6 358 359.2 361.9 362.1 375.7 390.3 412.1 436.9 454.1 469.6 487.5 510.3 536.5 561.3 593.1 628.6 661.9 685.1 696 722.8 749.6 756.6 754.3 751.1 744.5 739.2 731.7 718.6 702 703 713.6 722 728 734.7 739.9 742.6 744.1 742.2 738.6 734.3 728.9 696.3 645.6 593.5 549 505.6 475.6 450.8 433.8 423.7 419.1 418.7 420.1 423.2 425.2 426.4 429.2 429.2 427.8 426.5 425.5 425.1 424.8 423.1 422.6 415.1 411.2 407.7 390.6 344.8 309.4 277.1 249.7 238.1 238.1 238.1 238.1 238.1 238.1 238.1 238.1 238.1 238.1 238.1 238.1 238.1 238.1 238.1 245.3 265.1 274.3 295.1 302.4 315.2 325.3 340.5 356.1 369.1 378.6 391.9 400.3 404.7 412 421.4 423.3 410.5 397.9 393.1 393.6 393.5 390.5 390.7 383.4 376.2 379.3 385.1 386.3 389.6 392.9 393.3 395.1 393.5 393.5
232.6 212.4 200.7 184.2 168.9 155.5 154.6 154.4 154.6 154.7 154.3 155.3 162.1 172.7 183.6 203.8 230.1 265.4 296.8 344.5 386.3 443.8 447.9 447.1 445.7 454.1 455.5 460.5 468.7 487.5 500.5 515 518.3 528.7 528.1 527.4 537.2 531.7 519.7 521.1 526.6 537.3 549.2 548.7 555.5 531.5 518.3 515.6 515.7 519.9 521.6 532.5 551.7 557.7 574.5 592.8 598.6 609.1 613 625.3 644.9 647.7 646.3 649.9 645.7 655.9 664.9 632.7 596.6 552.5 512.7 475.5 444.8 418.3 395.4 383.8 370.6 367 366.7 371.5 368.5 384.3 400.4 419.9 442.9 460.5 479.5 497.5 518.8 545.2 573 603.3 640.8 679.1 711.7 734.6 737.1 757.4 760.7 759.1 754.4 748.5 741 732.4 718.2 706.3 719.2 728 734.8 739.5 742.9 745.4 748.5 749.2 744.7 740.1 734.3 725.7 704.2 655.3 601.3 548.4 507.8 471.7 443.9 428.5 419 410.9 408.5 408.9 410.6 410.3 412.7 416.7 420.7 417.9 416.6 416.3 414.7 415.4 413.5 413.4 404 396.1 396.5 382 333.2 291.2 260.7 238.1 238.1 238.1 238.1 238.1 238.1 238.1 238.1 238.1 238.1 238.1 238.1 238.1 238.1 238.1 238.1 256.6 270.5 293 312.2 314.6 322.4 331.2 345.1 359.7 372.3 383.2 396.6 402.1 405.5 412.2 426.1 416 404.5 394.7 394.5 393.6 393 390.2 387.1 384.5 386.5 389.7 394.6 395 397.2 400 403 406.1 406.6 404.2
244.9 221.6 205 190.9 171.2 154.7 154.9 154.3 154.1 154.5 156.6 160.2 159.7 168.4 182.8 203.9 231.1 266.9 306.3 355.5 396.6 439.5 446 445.2 444.6 454.3 468.9 467.1 470.3 490.8 510.8 525.7 536.5 532.3 534.5 541.5 549.2 547.9 541.8 533 531.2 534.7 542 543.4 553.8 551 532 523.4 525.7 532 538.3 549.5 568 571.8 586 600.3 607.6 604.9 607.7 618.2 636.2 650.6 661.9 668.9 675.8 682.8 674.2 638.6 593.1 555.3 518.3 480.7 448 426 403.7 392.1 383 375.1 375 381.7 390.6 393 409.4 431.1 450.6 470.3 489.9 506.6 530.9 555 580.7 615.5 650.8 684.5 718.5 751.1 770.1 767.9 765.8 763.2 759.2 754.1 745.2 729.3 717.4 723.6 733.5 739.9 744.1 745.7 749.4 753 754.5 753.2 748.5 741.7 733.2 723.4 708.1 660.8 606.9 561.8 526.5 478.4 446 425.6 417.2 410.8 407.3 398.4 396.9 398.2 399.6 402 407.8 407.6 407.1 405.1 405.7 404.5 403.7 402.9 395.9 388.2 377.3 355.9 319.8 280.3 247.9 238.1 238.1 238.1 238.1 238.1 238.1 238.1 238.1 238.1 238.1 238.1 238.1 238.1 238.1 238.1 246.1 262.6 281.7 313 322.4 324.3 336.2 340 353.3 365.4 381.4 385.5 397.9 398.8 407.2 413.6 420.3 409.8 402.7 397 395.9 394.5 393.5 395.5 393 395.6 402.6 402.4 403.8 404.9 404.4 410 413.9 414.2 415.8 415.2
255.9 232.8 208.9 190.6 170.8 155.7 154.9 155.1 154.9 154.9 158.3 163 162 169.1 180.6 201.1 227 260.3 303 352.2 395.1 427.7 431.7 447.1 446.2 449.5 465.5 471.8 473.9 493.8 511.9 531.8 546 548.6 546.5 549.1 551.8 560 550.9 538.9 540.1 538.6 534.8 535.5 541.6 557.2 557 553.5 553.4 543.5 556.4 571.3 579.4 576.3 590.2 598.8 603.3 594.9 602.4 612.4 629.4 651.1 662.5 679.8 692.1 691.6 676.9 630.9 590.5 554.7 518.7 481.1 454.8 431.4 412.1 401.3 391.9 387.5 388.3 392.6 405 400.3 418.5 439.1 459.3 478.1 497.9 515 537.1 560.8 590 624.5 660.1 693.7 725.8 760.5 776.1 775.9 771.8 767.5 761.4 756.8 750 735.4 733.1 738.6 743 747.2 748 749.5 752.2 754.1 755.5 753.3 748.1 740.7 731.5 720.5 708.6 671.3 620.5 575.4 532.6 494.9 458.7 430.6 417.6 411.1 403.4 394.5 385.5 383.8 387.8 391.1 394.2 395.4 394.3 391.9 392.4 393.7 390.4 388.8 386.6 382.4 366 326.3 309 277.3 238.1 238.1 238.1 238.1 238.1 238.1 238.1 238.1 238.1 238.1 238.1 238.1 238.1 238.1 238.1 244.6 257.6 274.1 301.5 327.7 332.4 332 339.7 346.9 359.3 371.5 381.6 390 402.8 400.5 408.1 414.3 419.2 415.8 409.4 402.8 397.6 395.9 394.1 399.1 397.9 404.6 413.8 415.4 414.4 415.9 419.5 422.2 422.1 424.9 426.2 430.6
267.3 244.5 214.2 193.6 170.2 156 155.2 155.2 156.3 158.7 157.7 161.9 170.5 172.7 179.9 198.4 224.3 253.8 288.7 327.8 369.3 418.2 421.9 432.3 439.2 444.4 460.6 473.8 485.6 499.2 510.1 529.2 550.7 559.3 553.8 551.8 555 561.8 555.4 549.5 551.4 546.4 527.1 525.7 532.3 547.7 561.1 562.9 566.7 558.8 559.1 572.6 584.6 581.4 584.3 583.1 585.1 592.9 598 614.1 632.2 650.6 666.2 684.9 694.3 693.1 667.8 624.9 582.6 545.7 511.7 482.8 459.6 436.3 415.9 411.6 403.8 401.8 401.1 406.6 415.3 408.9 427.6 447.7 466.8 486.9 507.1 524.7 545.4 570.8 599.4 635.1 671.1 704.7 735.7 768.9 781.1 779.5 776.3 772.2 765.7 760.4 753.6 747.1 743.9 745.5 748.6 750.5 751.4 750.8 752.2 752.2 752.1 749.6 745 737 726.9 717.7 706.2 688.1 645.6 600.5 556.5 510.7 478 444.7 425.2 416.8 405.6 396.4 383.2 373 376.4 379 382.2 385.3 382.1 379.8 380.1 377.1 377.5 375.5 375 363.9 354.7 316.4 288 255.9 238.1 238.1 238.1 238.1 238.1 238.1 238.1 238.1 238.1 238.1 238.1 238.1 238.1 238.1 238.1 251.8 264.3 284.2 310.2 332.9 335.9 332.9 341.7 352.6 358.4 367.8 384.1 393.9 409 404.1 409.8 417.8 428.1 425.2 415.3 409.7 406.4 401.5 398.4 398.2 403.3 411.8 417.5 422.2 422.8 420.6 431.2 434.2 434.1 435.7 439.2 442.3
264.6 241.4 215.9 191.1 169.9 155.7 155.6 156.8 157 157.3 158.8 161.2 165.1 170.5 185.1 202.8 222.2 251.6 283.2 318.6 360.4 389.8 403.7 419.1 435.2 439.2 451.8 465 482.6 495 506.4 521 540.4 549 553.2 551.5 557.6 555.4 557.5 550.9 549.6 538.2 524.2 522.8 523.2 530.3 548.6 557.7 563.9 562.9 562 563.5 566.6 567 564.6 569.2 575.3 584.2 596.1 615.3 632.3 650.7 668.3 682.3 689.4 690.3 670.2 629.7 589.3 547.9 512.1 483.3 466.2 445.4 431.1 420.5 417 417.3 416.1 421.9 423.3 417.9 439 456.6 474 494.2 513.2 534.8 555.9 580 608.6 643.8 680.3 717.4 750.5 777.3 785.2 785.7 781.4 776.2 770.7 763.6 757.1 752.1 748.7 749.7 753.8 753.3 752.7 751 749.6 748.1 746.6 742.3 736.6 730.2 721.3 713.7 703.1 690.7 667 629 583.5 529.5 504.5 468.9 441.6 425.6 403.4 394.8 377.3 366.6 365.9 370.5 373.7 372.8 368.7 370.3 366.6 365.6 364.8 362.1 362.3 352.4 339 298 264.6 238.1 238.1 238.1 238.1 238.1 238.1 238.1 238.1 238.1 238.1 238.1 238.1 238.1 238.1 238.1 243.9 254.2 269.7 292.3 309.8 326.3 330 334.2 345 354.1 358.1 367.3 382.5 390.7 399.9 407.6 411.1 422.7 430.6 433 420.7 415.7 416.1 412.3 406.8 406.9 408 413.2 423 425 426.9 428.4 438.5 446 446.7 450.7 454.7 450.4
271.4 240.5 216.3 190.6 168.2 156.5 156 156.2 156.4 156.8 161.1 160.7 163.7 174.7 199.6 220.3 224.5 248.2 274.7 304.1 346.9 379.9 404 410.9 422.3 426.3 440.1 452.8 462.4 471.4 486 502.9 521.9 547 546.4 548.2 548.4 546.8 551.6 544.2 541.9 531.9 520.4 516.5 523.3 518.3 529.1 551 563.2 559.9 562.3 557.8 552 549.6 551.1 557.5 567.2 577.2 590.9 614.8 633.4 649 658.6 669.1 676.9 681.4 669.9 631.6 593.1 550.9 515.6 492 478.9 462.2 445.2 435.1 434.7 434.1 432.8 436.7 433.3 429.7 446.8 463.1 481.4 501.2 520.3 537.8 563.7 589.9 616.7 661.8 697.6 728.4 761.2 786.5 793 790.3 786.6 779.9 774.8 766.6 759.3 753.7 751.3 751.9 754.4 754.8 751.7 749.7 746.6 743.1 738.8 734.2 729.3 723.2 714.7 707.6 698.8 691.3 675.7 641.3 599 560.6 529 489.3 465.2 442.8 412.4 389.9 374 363.3 362 363.5 365.7 361.3 357.5 356.7 354.9 352.3 349.7 345.5 344.9 337.7 323.7 283.5 248.8 238.1 238.1 238.1 238.1 238.1 238.1 238.1 238.1 238.1 238.1 238.1 238.1 238.1 238.1 238.1 245.8 258.8 271.8 292.5 308.5 319.2 328.7 334 349.9 359.1 361.8 368.2 386.9 393.9 407.4 408.6 411.2 425.3 433.7 433 426.4 420.6 420.6 421.5 416.7 415.8 418.1 416 422.3 427 430.2 435 444.9 448.3 452.7 455.2 457.1 454.6
272.4 240.6 217.9 191.2 167.2 156.1 155.7 156.6 156.6 157 159.9 161.5 174.6 181.2 202.6 220.3 225.7 242.7 269.2 294.8 338.2 361.6 391.9 398.1 410.6 417.4 425.2 431.6 437.5 450.6 471.1 488.4 504.5 523.2 534.5 537.7 532.9 534 537 536.2 534.8 524.5 524.4 517.8 510.3 514.1 518.2 523.4 532.4 539.1 541.1 540.2 536.2 534.2 538.2 547.1 561.6 573.8 589.7 609.4 627.6 641.3 648.7 657.9 664.7 667.9 665.5 634 594.1 561.7 529.2 507.5 495.9 481.9 462.1 452.5 451.2 452.2 450 450.9 443.8 441.1 457 470 488.6 508.7 529.8 550.5 574.7 598.9 631.2 671.9 701.2 736.3 771.7 793 796.7 793.9 789.3 781.6 775.9 770.4 761.1 755.1 751.8 751.3 750.9 751.1 748.6 745.6 740.7 736.2 732.1 726.5 720.8 714 707.6 702.5 697.7 688.3 679 660.5 620.2 591 551.5 529.7 488.1 457.6 428.8 393.1 375.1 361.2 356.5 358.4 357.5 351.6 345.7 346.2 341.8 338.5 332.8 330.2 327.4 319.5 300.5 261.1 238.1 238.1 238.1 238.1 238.1 238.1 238.1 238.1 238.1 238.1 238.1 238.1 238.1 238.1 238.1 238.1 250.1 264.1 279 295.3 309.8 325.6 328.7 333.3 344.5 355.8 366.7 373.2 396 395.2 403.1 412.8 413.3 425.3 433.8 431.8 426.2 425 424.6 425.1 425.4 423.4 426.3 422.5 423.7 431 434 440.8 451 456.6 457.3 457.3 457.9 458.1
269.5 241.2 216.1 192.5 168.2 157 155.9 156.4 157 157.8 158.4 159.9 174 195.3 201.6 213.3 228.9 237.8 257.9 284.8 316.1 350.2 374.9 383.7 397 404.5 410.2 413.5 421.9 438 454.4 476 486 501.7 513.1 521.3 517.4 514.3 515.8 518.1 519.1 512.7 514.3 500.9 493.2 509.4 509.6 512.3 515.7 522.9 524.3 524.6 521.8 519.7 522.6 534 553.4 568.3 585.5 606.9 618.4 626.1 635.9 645.9 650.1 649.7 647.2 633.5 597.6 564.6 535.4 530 514 501.7 481.5 468.8 471.9 470.3 464.4 466.7 456.8 454.4 464.7 479.3 496.5 516.3 539.9 560.5 585.2 612.9 645.3 683.9 730.2 755.9 785.3 798.6 801.6 796 791.3 782 774.1 768.9 763.2 753.7 750.2 747.9 746.1 742.6 740 735.6 732.9 728.9 723.1 716.2 710.9 705.7 700.5 695.7 691.9 686.8 678.8 673.4 643.3 617.6 602.4 560.3 517.2 481.4 455.6 397.8 373.6 359.6 350.4 351.2 349 342.7 336.4 333.4 330.7 326.6 322 319.1 311.4 301.3 271 238.1 238.1 238.1 238.1 238.1 238.1 238.1 238.1 238.1 238.1 238.1 238.1 238.1 238.1 238.1 238.1 240.1 253.6 266.4 281.2 295.5 310.3 324.3 329.3 334.9 343.6 357.2 366 375.3 390.7 397.2 400.4 409 415.8 423.8 427.4 425.9 429.6 432.2 427.6 429.9 431.5 427.1 426.1 424.1 429.2 437.3 443.7 451.4 458.2 465.8 468.2 461.7 462 461.3
267.5 235.9 212 189.1 167.9 158.1 156.9 156.8 157.2 158.2 158.8 159.7 164.5 181 193.1 203.6 222.3 228.6 247.2 273.5 302.3 327.7 354.1 369.1 379.7 384.8 390.8 399.7 407.3 427.4 439.4 449.9 466.5 478.9 497.7 505.4 500.8 498.7 498.8 503.2 495.8 499.9 493.7 484.2 467.3 489.8 494.2 501.7 504.1 505 506.2 506 505.8 509.1 521 539.7 555.8 571.1 586.3 600.2 607.9 615.4 625.7 631.8 633.2 630.7 629.2 617.3 591.3 567.9 556.6 548.8 530.3 517.7 498.4 490.2 492.2 489 484.7 481.6 466.5 470.3 475.7 485.8 501.5 521.5 547.6 568.3 590.8 632.9 660.8 703.8 747.9 776.2 789.1 798.5 801.4 795.8 786 778.4 770.1 763.7 758.3 752.8 748.2 744.4 738.7 734.6 731.5 727.7 721.6 715.2 712 706.7 700.1 692.4 689.1 687.1 683.6 681.8 675.4 672.5 667.7 647.3 617.9 582.9 538.9 492.1 450.8 405.6 377 359.1 349.1 341.2 336.7 335 329.5 323.1 316.6 313.6 310.1 306.5 298 274.2 252 238.1 238.1 238.1 238.1 238.1 238.1 238.1 238.1 238.1 238.1 238.1 238.1 238.1 238.1 238.1 238.1 241.6 254.1 268.7 283.9 301.8 315.8 335.8 337.6 339.2 348.3 363.2 369.4 376.3 390.3 398.7 409.2 414.6 416.6 425 424.3 423.1 424.1 428.6 425.4 426.8 428.9 432.1 429.1 430.5 437.1 445.3 450 463.5 465.8 471.2 475.1 472.7 465 463.2
263.7 232.8 207 185.2 167.2 158.1 157.1 157.5 158.3 159.3 159 160.6 161.1 168.3 183.4 195.3 204.3 221.7 236.1 259.4 283 305 322.9 342.1 352 360.2 370.1 380 393.4 405.6 415.5 426.6 441.8 453.5 464.2 476.8 476.7 485.3 478.6 480.7 480.9 480.1 473.4 465.3 443.4 464.7 475.6 487.1 490.8 495.7 497 490.3 499.9 513 525.9 543.7 555.4 566.2 578.5 586.2 594.6 601.8 609.7 614.8 615.4 615.6 613.4 605 586.7 579.8 576.9 571.2 558.7 537.6 522.3 517.1 510.8 507.7 503.3 498.9 480.5 484.4 493.5 495.7 510.9 531.6 560.7 578.9 611.9 646.4 683.4 730.2 764 781.3 785.5 789.7 790.2 785.4 781.7 772 765.6 758.5 751.8 747.4 744.1 740.9 732.3 722.3 721.8 716.4 709.9 705.2 702.2 697.6 689.7 679.5 675.5 674.2 673 671.3 667.2 667.5 666.3 655 630.3 599 549.1 497 457.7 406.5 376.2 357.4 343.6 342 333.6 321 315.7 315.4 309.6 304 298.7 292.2 278.1 256.3 242.6 238.1 238.1 238.1 238.1 238.1 238.1 238.1 238.1 238.1 238.1 238.1 238.1 238.1 238.1 238.1 238.1 244 257.5 270.8 288.4 305.7 328.1 346.6 347.5 347.1 356.7 365 374.6 379 388.7 407.1 411.7 416.3 419.3 430.4 430.3 426.2 424.8 424.7 423.9 424.3 430.2 430.9 432.2 435.8 450.1 448.5 455.3 472.9 479.4 477.1 478.8 480.9 472.1 469.3
263.6 230.8 203.9 179.6 159.7 157.4 157.5 158.5 158.6 159.3 159.8 161 162 163.5 171.6 187.9 197.7 209.9 224.1 243.3 264.7 292.2 310.8 324.3 333.6 339.8 347.2 359.7 369.5 380.1 391.8 400.8 412.3 422 432.6 440.9 443.3 446.6 444.3 451.4 455 452.9 450.3 440.1 418.6 440 461.1 471.2 486.9 493.8 488.8 487.3 499.6 512.6 523.5 538.9 545 558.2 570 574.8 579 586.3 592.9 598.7 601 601.5 599.8 594.4 586.5 588.7 591.9 591.7 587.8 568 563.2 538.9 536.2 532.5 524.5 513.6 496 494.5 504.7 513.3 524.1 543.1 568.1 594.4 629.3 663.9 712.1 751.9 774.7 779 780 779.4 780 777.9 772.2 766.7 757.5 751.6 744.5 739.3 736 732.3 724.5 717.6 709.5 703.8 699.2 694.7 690.7 685.5 678.8 667.2 660.2 661.7 661 658 658 656 658 652.2 638.7 606.6 558.4 506.3 457.4 415.4 385.3 362.5 342.3 337.9 332.7 325.1 310.2 295.7 300.9 291.1 286.1 279.9 260.9 244 238.1 238.1 238.1 238.1 238.1 238.1 238.1 238.1 238.1 238.1 238.1 238.1 238.1 238.1 238.1 238.1 238.1 248.1 264.3 278.8 293 314.1 337.2 351.4 355.2 360.3 361.4 370.3 379.3 388.9 390.1 410.6 415.8 423.2 426.7 432.4 434.4 430.2 430.1 426.5 423.4 424.5 425.4 430.8 433.9 446.4 453.4 452.1 460.8 479.8 487.6 489.7 484.6 488.4 486.5 478.9
272.6 236.9 202.1 179 158.5 158.2 157.9 158.2 158.7 159.3 160.2 161.3 161.9 162.8 166.7 176.6 188.8 198.8 210.2 227 247.7 269.2 294.9 311.9 320.4 325 327.2 336.8 344.5 353.5 364.5 370.1 382.1 390.7 400.7 405.4 407.4 409.4 409.4 420.2 424.3 423 421 413.6 397.4 425 443.3 457.7 475.3 475.8 477.5 486 497.3 516.6 520.1 528.2 535.5 549.7 556.9 562.4 566.6 574.2 580 588.2 590.2 592.4 590.5 587 588.9 591.3 593.4 598.6 609.2 603.6 602.7 571.7 572.2 578.8 547.2 526.7 511.3 509.3 512.9 525.5 538.4 554.2 578.9 609.1 642.5 678.2 712.3 748.6 768.2 772.5 773.3 773.9 771 767.5 763.7 758.6 749.3 744.5 736.4 730.6 726.1 721.7 716.9 708.4 698.3 691.7 688.1 683.5 678.2 673.5 666.4 657.8 647.9 647.5 647.7 644.9 647.7 643.4 643.9 644.1 635.5 608.9 568.7 513.1 461.2 422.2 395.3 371.9 350 338 329.2 318.7 308.2 295.9 283.3 282.8 276.1 264.6 247.4 238.1 238.1 238.1 238.1 238.1 238.1 238.1 238.1 238.1 238.1 238.1 238.1 238.1 238.1 238.1 238.1 238.1 240.8 255.3 273.7 289.6 308.1 320.4 331.2 340 363.9 362.7 368.6 375.8 383.8 386.9 392.7 414.1 421.5 424.2 431.7 438.8 436.8 443.9 437.7 433 428.2 424.6 429 441.9 438.5 445.4 458.2 455.5 469 481.6 491.1 497 493.9 493.7 491.5 483.6
265.7 233 206.9 181.3 157.4 158.2 159.8 158.5 159.2 160.1 160.8 161.7 162.7 163.6 164.9 171.4 181.1 190 200.9 214.5 229.7 248.9 270.3 289.2 301.1 309.9 312.4 317.7 325.3 330.6 337 342.7 354.1 361.7 370.6 378 375.3 375.7 378.9 385 387.6 388 386 383.6 380 404.3 431.5 448 449.7 450.5 468.5 481.7 498.8 508.7 513.9 518.4 527.1 536 544.3 552.9 558 562.8 570.5 577.8 581.7 582.2 584.1 583.6 586.2 590.7 595 603.8 617.9 625.7 629.5 610 592.9 588.6 571 544.7 526.3 521.7 524.5 535.3 547.2 567.8 590.2 618.8 648.8 685 722.3 757.2 763 765.2 764.9 764 762.4 759.6 755.3 746.9 740.8 734.5 724.7 718.9 714.3 710.6 707 701.2 691.2 678.3 675.6 671.3 666.7 662.1 654.3 647.7 641.5 637.7 637 637.1 634.6 633.7 634.2 635 628.8 611.5 569.2 510.8 467.8 434.4 401.5 379.1 357.9 342.2 328.5 315 303.3 291.2 280.6 272.3 265.9 255.4 238.1 238.1 238.1 238.1 238.1 238.1 238.1 238.1 238.1 238.1 238.1 238.1 238.1 238.1 238.1 238.1 238.1 238.1 248.8 261.7 282.7 298.9 322.1 331.9 345.9 348.1 358.5 361.1 376.6 386.5 389.5 390.4 396.4 415.4 423.2 426.2 441.2 447.4 441.4 445.2 442.2 441.5 444.3 442.2 442.1 446.4 447.4 451.7 453.5 466.6 473.8 480.6 490.1 495.4 495.7 494 490.2 481.4
261.1 236.4 214.8 178.7 156.6 157.5 158.4 159.7 159.9 161.8 161.6 161.1 162 163 164.8 167.5 174.8 182.8 192.5 202.3 212.6 228.7 243.9 260.6 275.6 284.8 293.2 300.1 307.5 311.3 317.5 323.8 331.1 336.4 342.2 343.5 343.7 344.1 346 352.3 352.4 352.7 351.5 353.5 357.6 380.6 404.7 423.9 415.5 446.2 462.9 476.6 488.4 497.7 501.2 510.5 518 524.9 533.1 540.6 550.3 556.6 564 569.9 574.3 575.5 580.8 584.3 587.2 589.1 598.2 606.1 620.5 635.3 648.5 642.3 616.9 601.7 586.3 561.2 540 539.7 544.7 548.3 557.7 576.1 601.5 627.1 659.5 706.5 740.9 757.8 758.3 756.6 754.9 754.5 753.2 748.6 742.5 736.9 729.4 722.7 711.1 704.8 700.1 698.4 696.9 690.9 680.6 671.9 665.3 659.6 655.7 649.5 644.2 639.2 633.9 627 627.2 626 624.7 626 628.9 621.2 615.5 600.9 579.3 530 490.6 454.1 421.3 393.5 368.7 345.1 326.4 308.3 294.6 285.1 277.1 270.2 262.3 248.4 238.1 238.1 238.1 238.1 238.1 238.1 238.1 238.1 238.1 238.1 238.1 238.1 238.1 238.1 238.1 238.1 238.1 238.1 255.2 270.6 290 309.6 329.8 353.2 356.6 359.5 366.4 372.1 377.7 389.7 398 401.2 402.7 408.3 426.3 429.7 442.9 444.7 441.7 446.1 447.8 449.1 457.1 455.5 450.5 453.2 463.5 469.7 473.6 473.9 491.8 491.1 496.5 499.7 499.8 497.2 487.6 478.6
256 229.2 201.2 171.4 156.6 157.2 158.2 159.1 160.4 160.7 161.4 162.3 163.2 164.4 164.1 167.9 170 175.7 182.4 190.5 201.2 213.6 224.9 236.2 249.5 261 270.6 279.9 288.6 295.4 300.2 305.4 308.5 313.4 316.7 317 315.3 315 315.2 318.3 318.1 319.4 323.6 325.9 338.6 357.4 375.1 386.6 407.2 436 456.4 467.4 479.9 488.3 492.9 499.7 506.3 513 520.1 529.9 538.7 547.4 557.8 567.1 574.6 579.5 583.9 587.8 591.3 596.5 604.1 614.5 630.6 646 661 668.2 644.4 619.9 595.7 573.5 557.7 558 560.9 566.4 579.4 597.8 634.4 650.9 685.7 706.2 744.4 752.5 753.1 749.6 746.2 743.8 740.1 737.3 731.5 727.1 718 710 700.5 691.9 684.1 682.9 682.6 677.3 668.7 662 655.9 650.4 644.9 638 634.5 627.6 622.3 616.4 615.8 615.1 615.3 614.7 616.2 609 600.7 596.7 589 561.1 516.5 470.6 440.3 409.9 377.4 347.9 320.6 304.3 288.9 280.9 275.7 268.8 261.7 251.4 243.3 238.1 238.1 238.1 238.1 238.1 238.1 238.1 238.1 238.1 238.1 238.1 238.1 238.1 238.1 238.1 238.1 238.1 259.6 277.7 299.6 316.3 341.8 368.1 376.4 371.8 381.2 390.8 401.7 402 397.8 401.8 406.5 414.6 420.6 430.9 445.4 445.7 443.2 444.2 455.2 455.9 461.6 465.5 459.3 454.9 471.8 479 480.3 483.8 493 493.9 498.6 498.9 495.9 490.8 483.7 476.3
243.1 215 187.9 161 156.6 157.6 158.6 159 159.8 160 161.7 162.7 165.1 165.7 166.3 167.2 167.7 171 176.4 182.7 190.9 202.2 210.9 218.3 228.7 238.8 250.8 261.3 272.3 280 284.9 286.8 291.2 292.5 294.5 293.2 289.5 287.4 288.9 291.5 294.3 293.8 298 306.8 317.4 333 348.2 363.1 385.1 416.1 440.5 455.8 467.3 475.3 482.9 489.5 494.3 504.6 516.3 528.4 540.3 549 559 569.8 578.1 582.3 586.3 592.3 597.2 603.9 613.7 627.4 638.5 657.2 672.2 681.3 667 636.3 601.1 590.1 584.8 575.8 579 584.7 603.5 623.1 660.8 679.3 720.8 751.6 750.7 751.9 748.9 744 738.5 734.3 730.9 727.6 721.4 713.7 704.3 694.8 687.9 681.1 673.5 667.7 665.7 664.5 658.3 651.3 643.8 639.7 634.7 628.9 623.5 617.4 611.3 605 604.8 603.9 603.9 604.2 600.4 592.2 589.6 590.6 584.7 574 550.2 491.8 455 419.9 380.9 345.6 318.9 300.5 288 280 276.1 271.7 269.2 256.4 246.5 238.1 238.1 238.1 238.1 238.1 238.1 238.1 238.1 238.1 238.1 238.1 238.1 238.1 238.1 238.1 238.1 243.7 261.8 285.9 304.5 325.5 349.1 376 384.3 390.5 391.4 400.4 407.4 413.3 418 404.8 402.3 406.6 417.2 426.9 441.7 444.8 445.6 447.6 456.8 462.4 464.1 467.6 462 464.4 470 476.5 481.6 487.4 489.5 489.4 492.1 498.5 493.5 486.8 480.3 472.8
234.4 207.3 179.4 156.8 156.6 156.9 158.1 158.3 159.6 160.1 161 164.9 167.3 168 170.7 169.3 171.8 171.9 170.7 178.2 183.4 192.3 198.4 205.6 213.8 224.1 235.3 244.5 254.8 262.7 269 271.1 273.6 275.5 275.3 270 263.2 260.7 267.3 265.6 269.1 277.6 283.8 290.6 299.4 312.8 326.5 344.4 367.4 393.5 418.3 437.2 450 463.6 470.2 478 488.8 497.7 509.1 520.9 532.3 544.8 560.6 572.4 581 586.8 590.4 597.8 606.7 612.2 618.1 634.7 648.3 665.9 681.3 695.1 695.3 646.4 619.1 606.6 619 598.9 602.7 609.5 630 653.8 683.1 724.4 766.9 766.1 758.7 752.9 746.3 739.8 733.2 726.2 721.4 716.7 709.3 700.1 689.8 684.3 678 669.8 662.2 652.4 652.6 648.5 643.8 639.1 632.6 629.5 623.5 617.2 610 605.5 601.8 598.5 594.6 593.2 591.4 590.4 585 583.2 576.7 571.6 571.7 567.1 548.3 510.3 469.2 429.4 394.9 347.8 319.1 303.6 291.9 285.8 278.5 275.7 274.5 263.1 250.4 238.1 238.1 238.1 238.1 238.1 238.1 238.1 238.1 238.1 238.1 238.1 238.1 238.1 238.1 238.1 238.1 250.2 266.6 291.8 308.7 332.5 351.4 374 388 407.3 408.5 413.2 422.5 421.1 421.6 415.8 403.8 405.2 414.7 427 434.2 442.8 449.4 453.8 456.8 460.7 463.2 466.5 466.1 465.6 472.4 478.7 486 489.4 489.8 489.7 490.5 488.7 485.9 482.4 477.6 468.7
228.1 199.9 173 156.6 156.6 156.6 157.4 157.9 158.4 159.4 160.5 167.6 172.4 178.3 177.4 176 173.6 174.1 174.6 174 178.3 181.5 187.4 194.8 202.5 212 221.1 229.1 237.1 247 253.9 255.7 257.1 257.3 251.1 246.5 248.9 263.9 268 282.6 288.8 297.3 303.4 301.4 299.9 304.5 313 329.4 351.9 372.9 396.3 409.3 430.2 448.1 459.7 471.7 480.3 489.7 501.5 514.1 526 538 553.7 572.4 582.9 590.7 596 603.8 612.9 621.2 630.4 638.8 650.4 668.7 685.9 702.1 707.5 662.9 633 625.7 637.5 624.1 639.5 652.9 679.7 689.6 722.8 759.6 764.4 767.6 761.7 754.2 743.9 735.4 726.9 717.6 709.9 703.3 692.8 685.7 678.9 671 664.2 658 651.3 644 637.5 636 631.7 627.1 622.1 615.9 611.4 605.3 599.9 594.8 590.1 586.9 583.3 578.4 576.8 576.5 573.8 568 562 557.3 549.8 549 534.8 508.4 469.1 427.7 389.3 357.6 328.6 310.2 300.6 291.5 285 283.4 280.5 266.1 250.1 238.1 238.1 238.1 238.1 238.1 238.1 238.1 238.1 238.1 238.1 238.1 238.1 238.1 238.1 238.1 238.1 255.5 273.9 296.6 313.3 336.7 358.3 374.8 392.7 412.8 423.8 420.6 431.9 433.5 429.7 425.7 419.2 414.8 416.2 427.4 438 441.3 447.8 455.4 463.5 463.5 465.3 467.5 474.7 485 484.8 484.4 491.6 496.3 493.6 491.2 492.5 486.4 484.2 480 474.4 466.7
221 192.1 165.7 156.6 156.6 156.6 156.6 157.4 157.7 158.6 160.1 169.5 180.7 189.5 188.4 185 179.8 175.9 176.1 177.5 179.6 178.5 183 186.3 192.6 202.6 211.3 216.8 221.9 231.6 237.5 241.6 238.8 233.1 233.5 247.8 257.5 270.1 281.8 293.1 303.9 314.6 324.3 329.5 326.7 328.7 332.3 338.8 347.2 358.3 376.2 392.2 414.9 437.4 453.4 463.6 473.3 481.9 491.8 503.7 518.2 527.6 545.7 564.3 581.3 591.4 603.6 609.8 619.1 628.3 643.2 654 664.5 672 685.5 702.7 714.1 682.3 653 645.1 650.1 651.6 670.1 692.1 708.3 731.8 763.1 784.3 778.1 770.5 763.1 755.9 745.9 732.9 722.7 711.2 700.7 689.4 679.8 671.7 665.7 659.5 652.8 647.9 643.3 638 632.5 627.7 623.1 620.7 614.4 601.9 599.1 593.2 588.8 584.1 580.1 575.2 570.8 567 564.8 558.8 555.1 553.3 545.4 541.6 533.7 520.7 517.3 497 463.5 439 411.7 379.5 349.4 329 314.1 305.3 296.6 295.5 284.3 265.6 248.9 238.1 238.1 238.1 238.1 238.1 238.1 238.1 238.1 238.1 238.1 238.1 238.1 238.1 238.1 238.1 243.8 266.4 290.5 305 320.9 344 361.2 375.5 395.3 416.4 430.6 427.9 437 438.3 438.9 432.8 428.1 422.4 425.5 429 436.3 441.4 444.3 453.8 462.6 473.6 473.3 487.4 490.1 487.9 487.8 490.9 497.6 499.1 496.5 492.3 490.2 482.2 476.4 473.1 465.9 460
213.4 184.1 156.8 156.6 156.6 156.6 156.6 156.6 157.4 157.8 161.8 169.8 186.9 196.1 198.9 199.4 193.6 183.3 179.1 178.7 182.3 184.2 180.3 182.2 185.1 189.7 198.9 206 214.6 219.9 220.4 219.9 219.1 229.2 240.1 251.6 262.6 274.9 287.6 304.3 317.9 328.9 342 355.5 360.2 359.1 360.1 367.1 372.5 371.1 372.3 386.2 409.3 430.1 445.8 454.2 465.3 475.7 485.1 494.5 504.8 516.4 532.8 553.4 576.4 589.9 607.1 618.7 627.9 636.7 655.3 673.5 677.9 685.5 690.8 701.4 715.4 696.5 675.5 681.2 681 684.3 700.8 725.6 745 763.3 791.5 789.8 781.8 772.3 765.4 758.6 750.3 735.9 723.1 718.7 710.9 701.7 691.3 677.1 664.1 659.2 649.9 645.1 639 634.3 632.3 628.4 625.3 621.8 617.2 611.8 601.2 593.2 582.7 575.3 570.5 565.5 557.6 551.1 547.4 540.6 534.4 526.4 521.2 521.4 508.3 496.6 490.7 482.6 468.5 464.3 437.5 408.7 366.7 351.2 333.2 320.9 314.6 307.7 284.8 268.2 253.9 238.1 238.1 238.1 238.1 238.1 238.1 238.1 238.1 238.1 238.1 238.1 238.1 238.1 238.1 238.1 251.8 272.1 296.6 307 324.2 347.3 371.4 379.8 399.8 413.6 425.6 433.8 444.6 447.4 448.1 445.8 438.7 427.9 431.2 436.2 435.6 440.8 447.7 457.6 470.9 478.5 487.3 494.9 493.5 489 493.5 493.9 496.9 495.6 495.8 492.1 487 480.8 471.3 464.6 460 452.6
203.9 172 156.6 156.6 156.6 156.6 156.6 156.6 156.6 156.6 162.2 172.2 190.7 202.7 210.2 213.7 210.5 200.4 194.6 190.6 193.6 191.1 185.8 182 182.6 186.2 193.4 195.1 198.8 205.5 209.7 210.8 220.6 229.2 241.9 253 266.3 277.5 293.9 315.1 332.8 346.4 363.1 375.7 385.9 391.9 387 398.3 398.9 399.7 390.2 384.5 401.7 418.2 432 445.7 458.3 468 476.9 486.1 496.4 506.1 520.2 537.5 560.2 582.6 605.6 625.2 635.7 648.3 663.1 680.3 688.8 698 702.6 702.1 712 712.9 705.7 718.4 716.2 732.4 740.1 771.4 785.4 790.6 791.1 789 784.1 776.2 768 762.3 755.7 746.1 737.6 732.9 726.2 719.1 707.8 694.2 685.7 675.4 665.1 655.8 648.6 642.4 639.7 636.3 634 631.8 624.1 616 606.1 595.7 584.1 577.2 570 562.8 552.2 536.3 517.3 518.8 512.3 498.1 491.2 486.1 481.6 478 477.2 474.3 473 468 460.4 437.3 400.7 378.3 359.4 347.2 343 318.3 289.6 271.8 260 238.1 238.1 238.1 238.1 238.1 238.1 238.1 238.1 238.1 238.1 238.1 238.1 238.1 238.1 238.1 255.1 278.7 301.2 313.8 331.4 349.6 369.5 388.6 407.1 417.7 423.9 432.6 437.1 444.9 446.2 451.6 442.3 436.2 435.9 440.9 444.8 445.7 454.2 465.8 474.8 480.5 489.2 493.5 489.5 489.3 491.5 492.5 496.1 496.1 491.1 488.6 484.1 476.1 468.6 461.5 453.3 449.8
189.6 159.5 156.6 156.6 156.6 156.6 156.6 156.6 156.6 156.6 160.2 174.5 192.4 205.8 219.3 228.5 234 225.7 214.3 210.5 207.1 204 197.4 190.8 185.9 187.9 186.7 190.7 195.2 200.1 205.7 204.9 217.7 228 239.1 250.8 264.5 277.7 296.2 322.2 339.7 359.6 379.7 390.6 403.4 415.1 419 427.3 424.5 425.1 416.1 401.9 400.3 405 420.4 436.1 448.3 455.6 467.2 476.6 487.5 499.3 510.3 522.2 543 566.9 593.8 619 637.7 656 678.6 696 706.9 713.3 713.6 715 712.9 719.9 731.4 745.2 753.9 764.3 774.6 784.8 791.4 791.6 789.7 788.4 784.6 778.7 770.9 766 761 754.1 747 742.1 737.4 730 722.9 713.7 701.7 692.3 683.5 672.4 663.3 657.8 654 649.7 643.1 641.2 633.6 624.8 611.1 599.3 588.6 580.1 570.6 560.7 551.4 540.3 525.7 505.9 485.7 474.8 465.8 461.1 457.8 459.3 460 459.8 462.5 456.5 455.1 453 445.2 434.5 385 381.3 393.2 334 295.5 275.5 263.8 238.1 238.1 238.1 238.1 238.1 238.1 238.1 238.1 238.1 238.1 238.1 238.1 238.1 238.1 238.1 258.9 283.9 308.1 319 338.1 352.2 364.2 385.4 408.7 427.4 429.4 442.3 445.8 459.4 459.5 452.3 455.2 447.6 440.8 442.1 452.2 450.7 463.5 470.8 474 477.5 482.8 489.3 489.2 491.4 491.2 492.4 495.2 493.2 490.8 487 480.8 475.6 467.6 458.3 453.8 448.2
176.2 156.6 156.6 156.6 156.6 156.6 156.6 156.6 156.6 156.6 160.7 174.8 192.3 213.4 230.7 240.1 252.2 250.6 236.9 228.7 224.1 217.7 210.1 201.4 197.2 198.2 201.2 202.2 198.2 195.1 200.3 201.1 212.1 220.5 236.7 248.8 259.9 276.2 301.4 324.6 344.5 368.8 390.8 409.9 422.1 431.9 444.1 455.6 452 448.2 436.6 431 417.9 410.4 414.7 428.2 438.7 446.4 455.5 466.3 477.8 488.7 500.1 511.5 525.3 548.1 577.4 603.5 629.9 658.2 684.3 712.1 721.4 730 728.7 723.2 719.3 727.4 739.7 752.9 764.2 773.9 779.6 786.3 787.6 787.4 787 785.6 781.8 777.1 771 767.3 764.5 761.6 756.5 749.7 745.2 739.3 735.4 726.1 720.4 711.6 704.5 695.4 679.5 672.1 667.9 663.2 656.5 648.8 642.4 634 619.3 607.1 594.2 583.9 570 560.7 551.8 540.9 528.9 515.7 502.7 498.4 492 477.6 459.8 443.1 430.2 434.9 440.4 445.9 444.6 446.1 449.6 453.3 422.6 399.6 391.2 344.3 301.7 282.8 284.3 238.1 238.1 238.1 238.1 238.1 238.1 238.1 238.1 238.1 238.1 238.1 238.1 238.1 238.1 250.9 267.2 286.9 307.5 319.5 334.4 347.1 363.9 384.6 407.5 425.4 436.7 446.5 454.3 466.3 467.1 466.4 461.1 455.7 447.4 454.5 456.7 459.7 466.4 470.4 474.6 478.6 481.3 486.7 495.8 493.5 492.6 497.6 500.5 494.2 491.2 487.1 479.3 472.6 464.7 458.8 454.1 446.6
166.6 156.6 156.6 156.6 156.6 156.6 156.6 156.6 156.6 156.6 164.8 179.6 196.1 218.2 238.8 254.1 269 273.1 259.5 250.1 241.9 236.3 226.6 217.1 211.2 211.2 212.7 216.8 213.8 208.7 204.1 199.4 209.4 219.1 230.4 244.9 259 278 301.2 323.4 350 377.1 402.1 425 441.5 457.1 471.6 486.3 476.5 467.4 459.7 452 437.2 428.3 413.5 418.7 429.8 438.1 445.8 455.6 466.4 477.3 487.5 498.5 509.8 528.5 556.8 588.8 617.7 646.3 677 707 724.6 736.5 737 726.7 726.9 738.7 749.6 758.3 768.3 776.3 780.9 784.1 782.4 775.7 773.3 772.7 767 763.5 763.9 763.1 766.6 768.9 764.8 758.7 753 748.1 743 733.5 727.1 722.2 717.2 708.6 696.1 689.6 679.2 670.1 663.3 652 645.5 637 622.4 608.7 598.2 584.8 576.1 567.8 559 552.3 541.9 528.5 519.3 513.7 505.4 490.9 476.9 460.8 440.1 421.1 416.2 426.9 430.7 436.9 445.1 445.8 426.9 411.9 388.1 339.6 310.1 294.4 274.1 238.1 238.1 238.1 238.1 238.1 238.1 238.1 238.1 238.1 238.1 238.1 238.1 238.1 238.1 256.5 278.2 293.8 311.6 320.4 337.4 348.5 365.2 389.8 411.2 424.9 441.5 459.2 460.9 467.7 479.1 480.6 468.1 460.6 451.4 455.3 460.3 461 469.1 472.2 475.4 478.3 484.2 491.3 492.7 492.6 493.4 499.6 501.7 501.5 492.9 489.3 483.2 475 468 461.6 455.9 449.4
162.3 156.6 156.6 156.6 156.6 156.6 156.6 156.6 156.6 156.6 169.7 183.3 200.2 221.4 244.5 276 292 304.9 281.1 270.7 259 251.8 248.5 238.3 231.1 223.8 227.6 234.9 232.1 223.6 214.3 210.3 204.3 218.9 227 239.4 254 274.4 295.3 318.1 346.6 378 410 438.1 468.2 490.4 510.9 506 495.4 487.6 475.2 464.1 451 444.8 430.9 422.9 419.2 430.3 434.7 445.3 454.3 465.1 475.1 484 494.9 511.6 536.5 566.5 598.6 632.2 663 693.2 715.9 718.1 711.7 724.8 737.4 747.3 755.7 763.4 770.5 776.9 779.2 779.5 768.6 755.6 749.2 744.9 744.4 739.1 743.5 750.3 762.8 774.3 775.3 769.3 757.7 750.4 741.1 734.6 726.1 722.2 719.3 714.1 702.4 694 684.3 674.7 665.6 655 643 633.2 624.4 612.9 599.6 587.3 583.8 575.4 568.2 560.1 549.7 538.9 526.2 521.3 516.6 504.1 488.5 464.6 447.2 426.8 407.7 406 416.7 420.9 430.3 430.8 420.1 413.1 387.1 347.4 313.4 293.2 257.5 238.1 238.1 238.1 238.1 238.1 238.1 238.1 238.1 238.1 238.1 238.1 238.1 238.1 238.1 255.5 283.1 306.2 321.1 326.3 350 367.6 377.4 394.2 416.5 428.8 441 456.3 467.8 473.3 477.2 483.7 475.3 456.4 453.5 458.9 460.6 463.6 472.1 476.4 476.9 480.3 485.6 492.3 493.7 494.3 495.8 501.7 502.2 499 494.4 489.3 484.7 477.9 472.9 465.6 456.1 449.3
157.7 156.6 156.6 156.6 156.6 156.6 156.6 156.6 156.6 156.6 174.1 191.1 214.5 231.3 253.8 278.1 302.6 323.1 305.8 291.2 285.5 278.6 271.3 259.4 247.2 241.9 244.1 250.9 251 239.2 230 222.5 207 212.6 228 241 249.8 269.3 289.1 313.7 341.9 375.4 412.2 447 484.6 516.9 530.9 526.4 516.8 503.5 489.8 477.5 464.4 456.1 442.5 429.3 424.2 423.7 423.7 434.3 442.4 452.3 459.1 470.7 480.6 494.4 515.1 545 578.1 613.1 642.7 672.3 683.6 680.6 690 721.7 738.1 748.9 757.8 765.3 772.1 775.8 772.3 762.9 744.6 725.7 718 716 712.5 706.8 715.1 727.8 747.9 758.5 776.2 769.7 758.1 740.8 722.2 712.7 713.2 710.8 713.8 709.7 703.9 694.9 684.4 674.6 663.3 650.8 637.7 626.7 616.7 604.9 596.9 586.1 581.4 576.4 574.3 561 554.2 547.2 533.5 524.6 518.8 506.9 495.3 462.1 445.5 425.8 406 388.9 401.7 411.7 419.9 421.4 411.3 410.6 378.2 349.9 310.5 284 251.1 238.1 238.1 238.1 238.1 238.1 238.1 238.1 238.1 238.1 238.1 238.1 238.1 238.1 238.1 258.1 283.2 315.7 330.8 337.7 358.6 377.2 383.1 395.3 419.1 431.8 445.6 456.9 470.3 473.2 477.6 476.7 470.3 459.3 456.8 459.9 462.7 466.6 474.1 478.1 480.5 484.2 488.5 497.1 497.3 501.5 498.2 499.3 501.3 499.3 494.5 488.9 483.5 479 475.1 465.4 456.3 451.3
157.9 156.6 156.6 156.6 156.6 156.6 156.6 156.6 156.6 161.6 180.1 199.7 221.2 244.4 264.1 292 321.8 345.1 339.6 318.7 309.6 304.6 293.1 279.3 271.3 266 262.8 264.4 265 257.6 245.7 228.5 213.9 213.2 222.1 245.8 253.1 265.4 286.7 309.7 339.2 371.5 407.7 443.1 483.4 523.3 548.6 544.4 533.6 522.4 505.5 490.7 477.5 465.7 451.5 435.2 429.8 423.7 423.7 423.7 429.6 443 447.8 458.1 467.5 479.5 496 523.1 555.4 589.5 620.8 640.2 639.4 649.4 684.6 714.3 736.7 748.6 758.7 765.2 769.5 764.4 749.3 734.4 716.7 693.6 683.8 681.6 677.8 675.4 684.6 702.1 716.8 722.2 726.5 724.3 719.9 712 693.6 683 682.9 683.1 687.1 686.8 696.7 686.8 676.9 667.6 655.4 641.2 625 610.7 596.9 589.3 582.2 575.6 571 565.5 568 562 557.9 550.3 536.2 526.5 520.2 505.3 491.2 465 443.2 419.5 397.8 380.8 388.6 398 404.1 402.6 404.1 406.9 374.2 338.5 303.2 274.5 246 238.1 238.1 238.1 238.1 238.1 238.1 238.1 238.1 238.1 238.1 238.1 238.1 238.1 245.7 261.3 283.7 311.1 332.5 350.5 369.5 376.6 388 404.9 434.5 460.3 477.3 475.3 475.5 478.2 475.3 478.5 467.2 458.7 464 464.7 465.5 469.8 471 477.3 481.4 485.3 492.9 502.4 507.8 510.1 506.6 501.3 504.8 501.8 494.5 488.3 483.6 479.7 475.1 469.3 462.4 454.5
158.2 157.4 157 157.5 157.6 157.8 157 157.1 158.1 167.8 186.5 205.1 227.9 256.9 280.5 305.1 334.3 365.2 372.2 348.5 343.9 336.6 321.1 305.7 303.1 291.1 283.2 282.3 280.9 270.8 253.5 234.4 219.3 216.9 223.2 235.2 255.3 269 285.2 306.7 332.3 363.4 399.7 433.2 469.8 512.1 542.7 558.7 551.4 538.2 522.1 503.5 487.7 474.2 459.7 447.9 434.9 423.7 423.7 423.7 423.7 427.9 437.6 447.5 454.2 462.7 480.2 505.2 534.4 568 594.7 594.8 612.7 649.6 686.1 717.8 735.6 747.3 755.1 760.5 758.7 742.2 723.7 709.3 684.6 666.7 647.6 646.3 641.4 641.7 651.9 669.2 678.9 682.8 684.8 681.9 678.1 671.1 660 649.2 647.8 651.1 652.5 656.1 666.2 665.8 658.5 643.7 631.5 615 598.2 581 571.4 561.4 557.9 554 553.4 551 549.4 546.1 549.9 556.3 541.8 534.1 513.4 492.9 476 462.7 441.7 414.5 396.5 377.8 375.5 384.8 387.4 386.6 396.4 393.1 362.1 332.5 299.9 275.5 243.8 238.1 238.1 238.1 238.1 238.1 238.1 238.1 238.1 238.1 238.1 238.1 238.1 238.1 252.8 268.3 282 306.2 328.6 354.5 376 380.9 399 425.9 443.1 473.8 491.3 495.1 494.7 485.4 479.6 471.6 466.7 461.2 467.5 472.1 474.1 472.8 472.7 477.1 482.3 489.2 497.4 508.2 511.7 509.6 505.8 504.8 504.8 497.7 493 488.5 484.5 480.2 479.5 475.5 469 455.3
158.5 158.9 159.2 158.8 158.6 158.5 157.9 157.8 162.8 174.3 193.3 211.8 236.8 265 293.6 327.4 360 394.1 407.9 388.1 386.5 377.1 359.7 347.8 330.1 313.7 303.7 297.6 292.4 279.5 265.6 241.5 225.6 219.3 224.4 235.6 249.3 269.7 290.6 307.4 328.9 358.1 389.7 423.4 458.6 496.2 531.8 568.6 570.2 556.7 539.7 516.1 498.5 483.3 469.4 455.5 439.8 428 423.7 423.7 423.7 423.7 431.7 434.7 440.7 450.4 467.7 489 514.3 542.9 553.7 578.2 615.2 649.3 684.7 713.6 732.1 743.8 750.9 759.7 752.3 721.7 695.4 676.4 647 632 616.3 611.3 607.4 610.9 618.9 628.7 638.8 639.1 639.9 640.1 636.6 631 623.6 615.2 610.1 615.5 617.2 621 625.4 625.7 623.2 603.8 595.3 579.4 563.6 549.3 538.3 526.4 524 522.8 521.1 521.9 519.8 518.4 515.6 512.2 513 516.6 508.8 486.1 469.5 454.4 435.5 411.4 393.6 379.7 365.7 374.9 373.1 376.6 382.9 377 347.9 321.6 299 280.9 245.6 238.1 238.1 238.1 238.1 238.1 238.1 238.1 238.1 238.1 238.1 238.1 238.1 238.1 251.1 271.4 286.3 302.6 327.5 363.7 376.2 387.3 408.1 449.4 457.1 481.4 497.6 496 498.7 487 478.5 473 468 465.3 476 481.3 485 478.3 481.2 481.8 487.2 492.4 504.3 511.8 512 510 507.7 507.8 507.4 497.7 492.7 488.4 486.9 486.5 484.5 479.7 470.9 442.8
158.6 159 159.2 158.8 158.4 158.2 158.2 158.3 164.9 178.3 196.9 221.6 247.9 273.9 306.4 339.4 373.2 411.5 433.6 429.1 443.5 424.8 403.5 375.9 351.5 335.4 324.2 317.6 304.8 290.9 273 251.3 235.8 222.7 222.8 233.4 247.2 265.1 288.2 310.3 331.7 354.4 382.4 415 449.6 485.2 520.4 555.2 586.6 577 557.3 536.6 511.3 492.4 475.7 465 448.6 436.1 423.7 423.7 423.7 423.7 423.7 423.7 431.8 442.9 462.3 477.8 495.6 515.1 538.2 570.1 604.9 642.8 677.5 706.5 727 740.5 746.2 756.5 755.7 718.3 676.7 643.5 616.1 598.4 584 577.7 577.2 584.5 589 594.1 597.4 602.1 600.1 600 597.1 592.1 587.4 579.2 576.2 578.6 579.5 586.8 583.6 582.4 581.2 565.5 554.4 545.2 529.4 516.2 502.5 492.8 490.9 487.8 487.5 485.8 486.4 484.4 483.5 479.7 479.4 477.2 481.1 479.2 460 443.9 430.2 407.8 389.5 374.8 357.3 362.3 363.8 363 368 364.8 337.8 314.1 299.1 269 244 238.1 238.1 238.1 238.1 238.1 238.1 238.1 238.1 238.1 238.1 238.1 238.1 238.1 251 277.3 291.2 307.5 327.1 353.8 378.7 393.5 418.3 454.1 472 481.6 488.7 493 500.9 489.4 490 479.9 475.2 475.7 486.2 484.6 490.1 501 496.9 494.8 499.9 501.2 506.6 512.3 513 513.8 510.6 506.8 504 498.8 492.9 491.3 492.2 491.8 488.4 482.7 465.7 441.5
159.2 159.1 159.2 158.8 158.6 158.5 158.5 158.5 167.1 185.2 206.1 234.1 257.2 285.8 323.6 368.8 395.1 431.3 461.1 473.4 478.8 458.6 430.8 403 383.1 363 345.2 332.9 318.1 299.9 278.7 262.6 241.5 229.4 223.7 230.7 247.5 264 286.6 311.4 330.1 351.6 378 408.4 441.5 476 510.4 545.1 581.8 597.1 575.7 553 526 504.5 487.5 473.4 456.9 446.6 432.3 423.7 423.7 423.7 423.7 424.5 437 443.1 454.3 469.6 485.9 503.4 532.6 561.6 597.1 630.7 665 695.5 719 733.1 742.1 745.9 742.3 702.4 667.3 638.2 610.5 579 559.9 552.6 554 563.4 571.8 570.3 567.2 567.1 566.4 563.9 558.7 555.2 548.5 543.5 540.7 540 539.6 549.2 542.8 542.7 538.7 532.6 516.8 508.4 494.5 484.9 471.3 461.2 461.1 457.6 456.3 456.1 455.3 453 452.1 451.3 447.8 447 446.4 446.9 434.8 427.2 423.7 403.1 384.5 370.6 351.4 349.7 353.4 350.9 349.8 343.6 327.5 308 298.6 266.5 243.3 238.1 238.1 238.1 238.1 238.1 238.1 238.1 238.1 238.1 238.1 238.1 238.1 238.1 255.9 282.3 297.9 312.8 328.1 352.4 371.7 394 423.5 449.2 466.4 473.1 477.9 492.6 503.7 493.1 500.4 488 490.3 489.9 501 506.9 509.2 509.4 505 501.1 504.5 505.8 508.9 511.4 514.2 516.6 515.6 506.4 502.4 496.1 496.1 495.7 496.1 495.5 490.4 483.4 473.1 444.7
158.4 159.2 159.2 158.9 158.8 158.8 158.5 158.7 170.6 192.4 217 240.4 264.9 301.5 347.6 381.8 420.2 450.7 482.4 503.5 504.3 483.7 458 432.4 412 388 363.7 344 329.1 310.7 292.8 273.2 253.7 237.1 227.3 232.8 250.3 268.2 284.8 304.6 327.1 354 380.8 414.4 447.9 483.8 522.3 555.4 584.7 608.1 593.7 569.8 546.2 522 502.9 482.4 465.2 455.2 441.3 423.7 423.7 423.7 423.7 424.9 431.2 437.9 449.3 461.5 474.6 493.1 518.6 547.7 582.4 615.6 648.1 679.7 710.5 726.4 735.8 728.1 700.8 671.4 642.6 616.8 584 559.5 545.4 535.6 535.3 545.5 551.6 553.7 550.6 548.1 541.7 537.8 531.5 523.2 515.6 509.6 505.4 504.1 505.7 506 503.9 501.1 500.6 495.3 481.3 472.9 460.2 450 440.7 433.8 431 430.6 429.9 428.6 428.8 426.9 429.3 426.6 426.3 423.2 421.2 416.3 411.7 404.9 401.2 389.3 376.1 364.3 353.1 339.4 343.7 340 334.2 327.8 316.2 313.4 295.3 272.1 247.1 238.1 238.1 238.1 238.1 238.1 238.1 238.1 238.1 238.1 238.1 238.1 238.1 238.1 262.7 287.8 303.2 319.3 328.9 353.8 370.7 391.1 415.7 438.1 447.1 459.7 470.8 484.7 506.1 509.6 509.5 503.7 500.1 500.5 519.4 518.1 516.9 506.1 502.9 502.1 506.4 508.6 510.7 513.2 516.1 514 510.8 504.8 502.4 501.1 500.3 503.5 502.5 498 491.8 484.3 464.8 435.1
160.4 159.7 159.3 159.1 158.8 158.6 158.9 160.4 172.9 196 221.8 244.7 273.4 310.9 355 392.8 428.1 463 496.5 525.7 526.3 502.8 477.2 451.8 431.7 408.2 382.9 359.4 340.7 320.9 301.4 282.7 267.6 249.3 234.1 233.3 249.8 260.5 282.9 300.7 326.8 353.4 380.1 411.6 448.7 488.8 527.1 568.1 602.6 626.8 612.1 586.7 565 540.3 516.3 497.5 477.6 459.1 440.2 423.7 423.7 423.7 423.7 423.7 428.3 434.8 444.8 452 467.8 481.6 503 530.8 562.4 593.1 626.1 661.1 694.4 713.6 724.2 718.8 683 638.8 610.3 586.9 569.7 550.8 535 527.6 525.8 530.6 534.1 533.9 536.1 530.7 527.9 521 513.3 503.6 493.3 484.4 476.4 469.4 469.8 467.4 463.9 463.5 461 459.9 449.9 437.4 430.9 421.4 412.3 408.7 407.4 407 405.6 405.6 405.4 410.3 411.2 408 410.8 408.8 405.6 400.2 395.7 389.4 380.2 374.9 365.8 356.1 345.4 338.7 330.4 329.4 324.8 316.7 312.5 307.5 293.6 266.8 243.2 238.1 245.3 238.1 238.1 238.1 238.1 238.1 238.1 238.1 238.1 238.1 238.1 238.1 261.6 286.9 302.9 316.1 337 345.2 367 388.2 411.8 429.5 440.7 455.1 469.2 482.4 496.1 503.8 510.3 507.7 517.3 513.1 524.9 519.1 515.4 509 505.8 502.1 504.2 507.7 509.8 511.3 512.6 511.3 513.8 512.4 510 507.3 507.9 508.5 504 495.9 480.4 462 442.2 419.3
160.3 160.1 159.7 159.5 159.2 159 159.1 163.4 178.5 200.8 224.4 249.6 280.8 322.9 364.2 398.8 436.9 473 504 531.5 540.8 525.6 500.8 475.6 452.6 430.5 403.9 378.5 351.7 329.4 307.5 290.1 274.6 254.9 239.1 232.8 244.9 262.4 276.4 297.7 321.4 346 374.2 406.6 442.5 479.5 519.4 559.5 604.8 642.5 634.2 605.9 585 559.3 534.6 511.6 487.9 467.2 451.5 431.9 423.7 423.7 423.7 423.7 424.4 427.9 432.3 437.7 457.1 471.5 491.9 515 541.6 572.7 609.7 647.7 676.2 694.5 708.3 714.8 678.4 644.7 606.6 579.1 563.7 547.8 531 525.6 523.5 523.6 523.9 519.4 518.2 518.6 511.7 506.1 495.9 486.3 474.4 462.8 453.1 445.4 437.3 431.6 430 427.7 429.9 423.6 415.3 412.3 405.3 397.3 390.7 391.2 390.1 388.5 388.6 390.8 388.1 392.9 394.8 395.3 394.2 391.6 389.2 385.8 382.8 376.9 368.7 361.3 354.6 347.9 338.9 332.9 320.3 320.6 316 310.2 306.7 296.5 282.9 265.7 246.9 241.8 248.8 239.7 238.1 238.1 238.1 238.1 238.1 238.1 238.1 238.1 238.1 238.1 253.6 274.7 294.8 310.7 329.8 344 370.3 391.5 412.4 431.1 441 454.5 476.2 481 492.4 500.5 509.9 514.7 521 517 519.1 511.6 507.3 502.9 503.3 501.4 500.8 503 507.9 510.9 511.6 513.4 514.6 515.6 513.3 513.2 514.2 512.2 504.7 485.3 463.3 442 422.3 401.9
161 160.7 160.3 160 159.6 159.4 159.8 166.2 183 203.6 228.9 256.7 292.5 338 376.5 410.6 446.1 478.7 511 540 549.8 543.9 524.2 498.8 474.8 449.9 423.7 399.1 376.5 344.1 321.4 303.2 281.6 262.8 246 236.2 239 247.7 271.2 292.1 317.3 340.8 367.7 400.3 434.7 473.1 513.7 567.4 611.1 650.5 656.9 631 606.5 581 556.4 527.4 501.8 478.7 457.6 441.1 423.7 423.7 423.7 423.7 423.7 423.7 424 436.9 449.9 461.5 481.1 502.7 527.4 559.2 593.3 626.9 647.1 678.2 699.7 711.6 704.8 676.4 627.5 592.5 571.6 555.9 544 534.3 528 524.3 519.9 511.1 504.3 502.9 496.2 488.2 478.2 468 457 445.4 432.4 425.2 417.6 408.1 403.8 403.4 400.6 396.8 390.8 388.6 382.3 379 377.1 375.1 375.3 376.2 375.5 375.2 376.3 377.1 377.9 379.5 377.2 375.8 374.4 372.7 368.4 364.4 356.6 349.6 344.2 335.8 330.7 322.2 315 310 308.7 303.6 298.2 285 271.5 260.6 245 243.7 245.3 245.4 238.1 238.1 238.1 238.1 238.1 238.1 238.1 238.1 238.1 238.1 253.4 273.2 290.7 307.3 322.6 349.1 377.8 393 412.7 426.5 442 458 471.8 486.6 495.6 505.9 512.4 518.8 512.4 510.6 515 512.4 503.2 499.2 501 503.7 499.9 501.3 509.9 511.2 512.3 515.6 518.7 521.4 521.5 523.1 527 519.5 500.1 476.6 451.9 428.6 404.9 386.5
161.3 161.2 160.5 160.5 160.4 160.1 162 173.1 187.7 209.7 236 269.9 308.9 345.4 386.6 421.6 453.3 487.3 519.1 547.4 560.1 562 551.2 527.3 505.9 477.5 445.3 421.6 391.2 358.1 331.4 314.2 292.4 271.8 250.9 240.6 239.4 244 260.8 282.3 306.9 330.4 357.8 389.3 424.4 460.9 501.9 550.4 597.6 647.2 669.4 661.1 632.8 606.4 583.1 551.6 522.9 493.9 467.9 453.9 435.9 423.7 423.7 423.7 423.7 423.7 423.7 425 438.7 454.8 469.4 489.2 512.1 542.5 575.3 598.5 639.6 671.8 696.3 709.9 722.7 708.2 661.2 627.4 595.8 577.4 564.9 555.6 544.3 531.6 522.1 510.1 496.1 491.9 481.2 467.7 461.6 445.9 435.9 422.5 412.4 407.5 398.1 392.6 389 387.4 384.2 380.8 376.3 374.1 370.1 366.6 363.5 361.5 361.5 361.4 361.2 360 360.4 362.4 363.4 363.6 363.9 363.6 361.7 359.9 357.4 353.8 347.7 340.5 337 329.4 322.7 315.6 299.9 299.1 295.9 291.8 283.2 273 263.5 250.3 243.5 239.9 239.4 238.1 238.1 238.1 238.1 238.1 238.1 238.1 238.1 238.1 238.1 238.1 247.3 263.4 282.1 300.8 318.9 347.1 372.1 392.7 415.7 426.2 445 461.4 471.7 482.7 493.4 504.9 513.1 513.4 507.4 503.6 508.1 508.8 500 497.6 497.7 498.6 496.3 501.3 511.7 513.5 516.2 526.2 529.9 530.4 534.1 539.7 534.1 523.5 499.3 466.8 438.7 412.2 391.5 373.4
161.9 160.9 160.6 160.5 160.4 160.7 168.9 176.9 196.6 217.7 242.5 275.9 315.7 355.4 393.4 429.4 463.4 497.8 529.7 551.4 567.1 579.5 578.9 558.8 533.7 500.7 468.1 439.4 401.7 370 342 326.2 305.2 283.8 259 245.7 241.1 243.4 256 280.1 292.9 320.5 350.9 383.5 410.3 452.3 494.8 544.1 603.1 637.7 670.2 679 676.6 634 602.8 572 542.4 510.2 483.9 462.9 440.6 430.3 423.7 423.7 423.7 423.7 423.7 423.7 432.3 444.8 460.6 480.5 502.6 529.6 559.7 596.4 635.5 667.1 691.2 710.2 724.7 729.4 695.2 658.8 636.7 621.6 607.3 592.3 555.4 536.4 526.8 514.3 501.8 487.3 461.5 450.2 438.5 425.7 412 401.5 395.9 390.7 381.7 377.5 373.9 372.4 369.1 365.6 364 361.4 358.1 355.7 351.9 349.5 347.4 347.6 346.3 346.4 349 349.1 349.3 350.7 350.4 349.8 349.3 347.5 344.1 340.9 337.5 332.1 327.6 320.1 315.3 308.6 293.3 282.4 279 273.8 269.9 262.8 250.8 244 241.3 238.1 238.1 238.1 238.1 238.1 238.1 238.1 238.1 238.1 238.1 238.1 238.1 238.1 241.1 256.9 276.3 299.7 319.4 343.2 367.5 389.2 412.1 426.2 438.8 453.4 467.6 483.6 489.5 493.5 497.2 503.7 501.9 499.4 502.1 502.9 497.2 492 493.2 492.5 494.8 501.4 510.8 516.5 521.3 533.7 538.9 542.1 546.1 547 534.8 512.2 486.3 454.3 425.2 400.5 382.7 366.2
162.1 161.3 161.4 160.5 160.4 161.8 171 181.8 201.9 228.3 259 292 326.4 364.8 399.7 437.5 474.3 504.1 531.2 558.5 574.6 598 598.5 585.5 555.4 519.8 485.2 456.7 422.5 392 359.5 335.9 314.4 293.3 275.4 254.5 245.3 244.8 255.4 272.4 291.9 313.7 341.3 367.2 402.5 443.9 498.9 547.3 586.1 627.6 661.7 681.1 685.9 658.6 628 596.1 562.6 530.2 499.5 473.1 450.4 432.4 423.7 423.7 423.7 423.7 423.7 423.7 428.8 436.5 451.9 472.8 498.6 527.4 560.3 593.8 633.6 664.2 688.9 708.8 726 735.6 727.7 693.6 665.3 644.4 627 587.6 546.6 527.2 515.3 506.1 491.5 472.6 453.5 433.5 420.7 408.5 401 389.4 379.9 374.9 365.9 365.4 361.2 360.9 358 355.7 353.1 350.6 346.8 344.6 339.9 338.1 334.4 334.3 334.5 334.4 336.9 335.5 337.2 338.6 338 338.2 337.5 335.3 329 326.7 324.4 320.9 315.5 310.3 305.2 297.1 289.3 270.2 266.7 263.5 262.5 255.6 246.5 238.1 238.1 238.1 238.1 238.1 238.1 238.1 238.1 238.1 238.1 238.1 238.1 238.1 238.1 238.1 238.1 249.9 275.9 300.9 323.4 342.9 367 387.4 408.8 423 436.6 450.5 463.4 474 482.8 487.1 491 491.1 489.6 491.7 493.8 493.2 493 491.3 497.8 495.8 494.4 503.7 512.2 517.9 527.3 541.5 548.2 552.5 550.2 529.5 506.6 485.7 464.6 439.8 409.5 389.1 373.2 355.7
162.2 161.6 160.9 160.7 160.6 164 173.6 184.5 206.3 235.3 275.8 297.9 332.5 368.2 403.1 439.3 474.6 504.4 534.7 560.5 585.9 608.2 610.6 601.7 571.1 536.9 505.4 471.6 440.1 405.8 373.4 348.3 323.5 305.6 285 264.2 258.2 247.6 252.1 266.2 285.6 308 330.6 354.7 391.4 426.7 465.2 514.3 566.7 617.4 661.9 683 689.8 689.4 669.3 626 587.1 553.2 518.3 490.3 467 452.7 435.6 423.7 423.7 423.7 423.7 423.7 423.7 427.3 446.8 463.2 489.8 519.7 555 593.2 629.9 660.9 686 710.9 730 738 742.1 702.4 659.1 620.8 584.3 556.4 532.6 517 503 490.5 475.9 458.1 436.4 416.5 410.1 397.2 385 375.1 366.8 360.1 356.3 352.2 352.4 346.7 346.8 344.8 341.6 337.4 334.4 331.5 327.2 324.4 322.8 321.1 321 321.6 322.6 322.2 326 327.2 328.4 327.2 324.4 319.9 317.7 314.7 309.3 306.4 303.1 299.1 291.4 282 275.8 268.9 257.2 253.1 250 245.5 238.1 238.1 238.1 238.1 238.1 238.1 238.1 238.1 238.1 238.1 238.1 238.1 238.1 238.1 238.1 238.1 238.1 246.9 278.6 300.8 328.7 343.4 363.3 386.8 407.9 421.2 437.5 444.7 456.7 468.3 474.1 477.5 477.3 477.2 480.4 483.4 486.1 488.8 493.6 490.4 497.3 496.8 495.8 504 511.4 521.4 535.1 548.8 555.3 551.6 530.7 503 479.2 457.4 439.5 418.3 394.8 377.4 363.5 345.5
162.6 161.7 161.4 161 161.9 165.6 177 187 209.3 238.2 272.7 305.7 338.8 371.1 406 441.4 472.2 507.1 541.2 573 594.6 611.5 617.6 612.6 588 552 519.1 487.8 453.5 418.8 386.9 359.7 337.5 316.3 297.6 280.5 267 258.1 252.1 261.2 280.2 299 322.5 348.7 381.8 415.6 454.7 498.7 549 591.1 644.7 679.6 692.5 696.8 687.9 644.3 605.8 572.9 544 506.1 478.9 459.6 442.2 426.7 423.7 423.7 423.7 423.7 423.7 427.6 439.1 457.6 482.2 513.3 548.5 589.9 624.6 658.5 688.5 716.8 733.9 738.5 731.8 687.7 641.4 604.8 571.3 544.1 524.6 509.6 493.4 476 461 442.8 421.4 403.5 390.4 380.4 370.7 361.2 357.1 350.1 343.1 341.8 338.8 336.8 333.5 329.7 327.8 325.7 322 317.6 314.4 312.3 310.6 309.4 311 311.7 312.3 313.9 316.2 317.1 317 314.4 308.7 305.9 303.4 303 299.8 296.2 290.5 284.4 278.9 272.6 265 259.3 251.8 247.4 242.7 238.1 238.1 238.1 238.1 238.1 238.1 238.1 238.1 238.1 238.1 238.1 238.1 238.1 238.1 238.1 238.1 238.1 238.1 241.5 269 290.3 317.7 338.3 359.6 382.5 399.7 406.5 423.7 436.3 449.9 457.6 463.1 464.9 467.1 470.9 474.9 479.3 483.6 485.9 489.3 489.8 498.1 503.1 504 507.7 514.5 533.6 546.5 557.4 561.2 542.2 514.8 488 469.2 445.8 422.8 401.8 383.2 364.3 351.9 330.5
162.6 161.9 161.6 161.3 166.7 171 178.6 192.8 212.9 241.5 273.8 309.1 343.6 376.3 409.8 444.6 475.2 509.5 542.6 573.5 595.4 606 615.9 616.6 611 569.9 532.4 500.2 467.9 432.2 401.5 375.7 352.7 326 307.8 289.3 272.2 268.5 258.9 261.5 272.7 288.4 311.8 337.2 366.5 404.6 446.9 485.5 526.1 568.3 617.3 667 689 694.6 690.8 657.4 624.2 590.5 558.5 525.4 493.5 470.6 452.6 436.5 428.9 425.4 424.1 424.2 424.2 428.7 438.3 460.2 482.6 510.5 545.4 584.4 619.7 657.9 693.8 723.3 740 743 726 680.3 631.9 596.4 566.5 542.3 520.9 505.5 489.7 469.9 449 425.2 405.6 389.7 378.9 369.7 364.3 352 345.5 339.7 338.6 333.3 331.9 327.1 324.4 323.5 322.9 315.4 311.4 309.3 307.1 306.4 305.2 304.4 304.4 304.7 303.9 304.9 304.8 305.1 304.1 301.2 294.3 290.6 294.5 294.8 292.1 285.2 279.2 273.4 269.3 264.7 259.2 252.8 246.1 240.7 238.5 238.1 238.1 238.1 238.1 238.1 238.1 238.1 238.1 238.1 238.1 238.1 238.1 238.1 238.1 238.1 238.1 238.1 238.1 238.1 262.4 282.6 304.2 325.7 349.2 357.3 360.4 372.1 400 430.2 441.7 450.4 455.6 459.2 462.4 466.3 472.1 475.3 480.5 484.8 488 490.8 496.9 504.8 510.8 518.7 523.1 543.2 557.9 565.9 565.4 537.9 505.9 484.1 465.2 438 409.3 387.7 367.1 352.6 342.4 324.7
163 162.8 166.5 166.1 176.1 177.7 186 197.3 216.4 246.5 277.9 311.4 341.6 377.4 411.3 443.8 474.1 507.6 540.4 573.9 589.5 601.3 613.4 614.2 612.5 589.4 553.6 518.6 480.5 449.6 425.2 397.2 370.8 341.2 316.5 295.8 271.9 263.5 261.3 264.2 267.4 280.5 308 330.8 359.6 390.5 427.8 480.1 526.2 559.9 594.9 630 668.8 692.4 696 670.1 639.2 607.1 574.7 542 513.7 486.1 462.5 446.5 434 427 425.9 425.3 425.7 431 440.6 460.1 483.1 510.7 543.9 583.4 618 659.5 699.4 730.3 746.4 752.2 729.8 682.4 634.1 601.1 572.8 544.7 518.6 496.7 482.2 462.3 440.2 419.1 400.9 386.6 375.2 363.7 356.4 349 341.2 339.7 333.9 331.6 330.1 329.4 324.7 322.3 322.2 315.2 310.1 307.3 306 304.8 304.1 302.7 301.7 301.4 299.9 300.1 298.5 298.6 294.8 293.2 291.7 294.9 282.9 282 280.4 273 267.5 268.1 258.7 253.9 247.9 243.9 242.6 238.9 238.1 238.1 238.1 238.1 238.1 238.1 238.1 238.1 238.1 238.1 238.1 238.1 238.1 238.1 238.1 238.1 238.1 238.1 238.1 239.5 250.9 271.4 289.2 299.6 315.7 342.1 370.6 395.9 417.6 432.1 442.2 447.7 452 454.6 458.8 461.9 468.4 476.4 482.5 488.8 498 499 503.3 506.3 520 530.3 538.3 555.5 568.2 574.4 570.3 543 505.4 486.9 462.1 433.4 399.3 372.6 352.5 340.9 329.4 318.2
165.3 166.2 174.3 179.7 184.8 183.6 189.1 204.2 224 251.3 283.3 314.7 346.4 377.9 407.6 440.4 473.4 506.5 541.5 569 581.2 596 606 614.3 611.7 603 575.9 539.4 503.1 478.8 451.4 418.7 391.1 355.6 325.6 302.8 281.5 271.7 279.3 264.1 267 277.6 299.2 321.2 347.1 378.7 415.9 457.9 507.8 543.8 583.3 621.2 659.7 686.5 695.8 686.1 653.6 623.9 589.1 562.2 535 504.8 477.7 456 440.6 429.5 427.1 427.7 427.8 431.8 444.4 462.5 486.1 514.4 547.8 583.8 621.5 663.8 707.2 738 751.2 758.1 751 705.6 667 634.3 592.3 553.2 522.6 496.4 480.2 458.3 437.9 419.6 404 391.1 375.7 366.3 360.4 353.9 348.5 343.4 338 333.4 332.4 330 329.2 327.9 322.9 318.8 311.9 309.4 305.9 304.5 302.8 302 300.5 300.2 298.6 298.6 298.4 296.4 299.1 299.9 298.1 296.6 292.3 279.4 273.3 274 268.3 262.9 260.5 256.7 251.9 247.2 248.2 243.1 238.1 238.1 238.1 238.1 238.1 238.1 238.1 238.1 238.1 238.1 238.1 238.1 238.1 238.1 238.1 238.1 238.1 238.1 238.1 241.4 253.4 271 291 312.2 335.7 345.9 384 409.8 426.8 437.8 444.8 449.5 453.5 458.1 461.7 465.1 469.6 477.4 486.1 491.8 499.4 503.8 509.5 516.8 533.2 543.7 554.9 567.7 571.9 580.1 577.2 559.2 514.6 491.3 464 429.3 389.5 362.9 345.5 336.3 327.4 311.6
167.6 169.2 175.3 184.7 184.1 190.2 195.9 209 229.9 254.1 286.8 314.6 344.4 376.5 408.7 435.6 468.6 501.2 532.7 553.8 567.9 586.3 597.8 601.4 606.3 609.4 598.1 561.2 530.4 505 472.3 436.2 402.7 359.9 333 313.3 298.8 284 282.9 271.9 268.3 275 293.7 311.1 338 368.2 403.6 443.8 482.3 532.4 576.4 610.3 639.9 669.2 687.8 696.4 668.6 639.2 606.6 577.6 551.7 525.2 492.7 467.9 449.6 435.7 429.1 428.9 432.4 437.5 451.3 467.7 489.2 518.4 553.5 589 628.2 672.2 707.8 741.5 757 765 769.5 735.8 699.3 664.9 612.3 568.2 536.1 506.8 485.2 464.9 445.9 431.1 413.1 396.6 384.9 378.6 372.5 365.6 358.6 352.3 346.2 340.1 336.7 335.2 335.4 331.4 325 320.7 318.5 314.7 311.6 307.6 307.6 304.6 302 300.9 299.9 298.2 301 300.5 301.5 301 298.9 297.1 293.1 288.5 283.2 277.7 274.2 271.4 269.3 265.2 257.1 252.9 250.3 245.4 242.8 242.4 242.3 238.1 238.1 238.1 238.1 238.1 238.1 239.4 241.9 242.4 243.6 249.2 240.7 238.1 238.1 238.1 238.1 238.3 253.8 275.7 303 332.6 361.7 370.7 388 416.4 431 440.2 447.2 452.7 457.6 462.8 469.1 472.8 479.1 483.8 486.8 492.9 500.3 508.2 516.9 531 544.1 554.1 569.4 577.3 582.2 584.9 582.4 557.7 517.3 495.1 457.5 418.7 388.9 364.9 344.1 329.6 316.9 306.1
170.2 172.1 177.1 182 189.6 197.1 205.2 216.6 233.1 259.6 285.6 313.7 343.5 373.1 397.3 428.7 458.2 488 511.9 533.3 552.3 565.1 579.4 590.5 598.2 606.2 608.3 584.2 555.8 528.7 487.6 450 407 371.4 344.5 321 306.4 294.5 283.7 279.1 287 276 292.5 308.9 334.1 361 391.8 425.2 466.3 508.9 553.5 593.2 627.8 655 676.7 688.3 684.2 655.9 624.7 595.5 569.5 540.6 510.6 481.5 461.5 442.9 432.8 434.3 436.4 444.5 455.8 474.1 495.2 521.8 556 595.1 632.1 677.1 725.2 752.7 765.9 771.8 777.1 772.5 742.2 704.4 660.3 599.1 563.8 524.3 495.8 476.7 458.4 443 427.1 415.1 404.3 396.3 390.9 377.9 373.5 369.1 361.8 352.6 349.9 347.8 345.2 342 337.7 332.9 330 321.5 322.4 317.6 315.3 310.3 304.6 303.7 304 305.1 307.3 305.2 306.2 305.5 302.1 300.8 300.3 298.7 293.1 287.9 280.2 275 268.1 263.8 256.8 251.6 250.4 250.6 249.6 250.9 249.4 243.6 240 238.1 238.1 238.1 246.1 257.7 269.3 268.3 268.8 259 241.8 238.1 238.1 238.1 238.1 246.7 263 289.9 320.9 347.5 376.6 397.1 401.9 421.9 432.5 441.9 450.3 456.2 461.3 466.9 473.7 479.2 485.5 493.4 500.4 500.2 507.1 511.6 526.7 544.2 554.7 568.8 584.7 591.1 589.3 591 575.1 545 517.1 505.5 451.6 415.1 387.2 368.6 350 340.1 328.1 306.6
169.6 175.8 177 182.3 190.9 198.8 209.5 220.3 238.4 263.6 286.8 311 338.4 359.7 381.9 405.5 436.7 465.2 488.4 513.3 533.7 546.3 562.3 577.4 586.5 598.6 608 595.2 570 547.7 500.3 458.9 414.6 383.5 355.9 333.9 315.8 302.6 298.1 296.6 291.5 283.6 290.4 307.2 330.4 354.6 379 411.7 447.9 488.6 535.4 571.9 606.5 642 666.3 682.2 686.6 674.8 643.5 612.5 583.9 557.7 527.4 496.7 467.8 455.9 441.2 437.9 441 450 463.2 478.4 499 525.9 558.5 596.4 633.9 679.5 725.3 761.2 773.4 780.3 785.7 791.8 769.5 727.8 687.9 625.1 579 551.7 518.3 493.2 479.2 460.9 457.9 439.7 426.3 416.6 410.5 400.8 399.5 392 379.8 372.9 368.9 366.7 360.4 361.1 360.4 353.8 345.4 344 337.2 340.7 329.2 324.4 323.9 321.2 319.6 320.4 321.7 314.6 315.4 318.8 314.4 309.9 309.6 308.7 307.4 294.2 284.8 278.6 271 264.3 260.1 257.2 257.9 256.4 256.5 254.9 252.4 250.3 248.9 251.3 252.9 253 261.9 271.9 276.6 278.4 267 246 238.1 238.1 238.1 238.1 238.1 256.1 278.7 304.3 338.1 372 392.7 410.8 418.2 425.8 437.4 446.3 453.5 458.7 465.8 472.2 477.6 483.9 491.5 499.7 508 517.2 527.9 537.9 539.4 553.6 573.1 586.3 595.2 597.7 596.8 594.1 568 535.7 514.5 503.9 452.5 418.4 391.9 380.4 367.3 353.4 332.3 309.3
167.4 182.6 193.5 188.1 189.4 197 210 221.6 236.6 254.5 275.1 296.4 319.7 341.6 361.1 383.1 407.7 432.8 469.1 490.5 512.4 527.3 543 559.6 575.3 586.7 601.9 600.3 584.8 557.8 514.9 476.1 433.3 396.7 389 352.9 333.4 328.1 320.1 312.7 302.9 295.7 287.7 304.2 324 345.9 369.2 400.8 437.4 475.6 520.7 555.4 594.7 627.6 655.2 674 683.4 681.9 658 627.6 598.2 569.4 541.7 511.1 485.3 473.1 455.5 439 449.8 453.2 473.9 487.5 505.7 529.1 561 599.1 638 681.4 729.4 765.3 778.8 788.2 794.1 798.3 779.2 728.5 681.5 639.2 598.6 568.9 542.4 528.4 501.5 486.9 476.3 469.4 454.1 443.4 437.8 431.2 427.8 414 403.6 392.8 390.8 385.9 382.5 385.5 384.2 379.7 369.8 367.7 363.7 358.8 352.5 347.9 347 345 342.7 345.9 341 331.6 325 320.6 323.5 324.8 321.8 324.4 316.1 309.4 299.4 289.8 283.7 277.3 271.9 266.7 264.8 265.2 263.9 263.8 264.3 259.9 263.3 273.8 273.7 275.9 277.4 279.1 275.5 262.5 246.6 238.1 238.1 238.1 238.1 238.1 249.6 270 293.4 326.7 355.1 384.6 415.7 425.2 429.9 432.4 441.4 450.4 458 463 470.9 482.4 486.4 495.5 500 509.4 522.9 535.4 543.7 556.6 560.5 570.2 584.5 598.5 603.1 603.9 604.4 597.4 566.3 537.5 513.9 497.4 457.5 426.4 406 394 388.1 363.2 341.4 315.9
168 178.2 192.4 192.8 197.9 204.6 215 228.9 245.8 262.3 268 279.6 298.4 317.5 340.4 361.8 379.3 408 437.6 465.5 487.9 506.5 524.8 542.6 559.5 575.2 592.5 598.2 594.3 575.5 532.3 492.7 454.3 415.3 399.9 376.3 360.2 346.5 339.7 330.8 318.9 307.5 296.8 297.2 319.1 340.8 363.9 392.1 425.7 467.6 500.7 539.3 579 614.3 641.3 661.5 678.1 685.4 669.8 641.7 611.1 579.7 552.2 521.6 498 488.6 462 447.2 456.4 473.3 472.2 494 513 537.5 567.7 598.1 637.3 679.3 726.2 769.7 786 796.3 804 808.2 779.3 733.6 685.4 647.2 617.9 587.1 572.8 580.2 550.3 528.3 505.5 494.8 487.9 480.8 473 468.7 459.2 451.7 434.3 422.5 417.6 415 412.9 417.6 411.6 407 400.9 394.9 393 386.3 388.9 376.9 375.9 373.2 367.7 369.7 375.8 357.2 344.5 335.5 337.6 338.4 334.6 331.8 330.6 328.7 330.2 312.3 298.9 293 287.5 280.7 277.8 275.7 276.7 275.7 275.5 276.8 277.4 279 286.8 283.1 278.2 268.4 255.9 242.9 238.1 238.1 238.1 238.1 238.1 243.3 262.2 283.5 309.2 345.5 381.3 404.3 421.1 438.1 441 442.8 445.6 455.7 463.8 469.1 477.3 489.4 505.5 515.2 521.4 529 540.1 555.9 567 577 583.1 593 603.6 607.4 611.1 612 608.1 596.7 577.8 558.4 532.5 502 464.4 438.4 424.6 422.4 412.2 385.8 347.5 325.2
167.8 186.9 191.1 195.2 199.6 208.7 221.1 235.4 252.4 274.5 293.4 308.7 315.7 312 320.4 338.9 360.9 384.4 412.3 434.9 460.8 486.1 505.8 524.2 543 562.1 580.3 590.8 595.4 586.3 548 507.9 470.3 443.6 420.5 410.7 394.5 378.4 359.6 351.4 336.4 324.9 321 302.4 317.9 338.6 364 390 419.3 455.3 490.2 524.6 557.8 594.9 630.5 656.7 674.2 687.2 680.2 654 621.8 589.8 560.2 530.1 507.9 496.1 470.3 451.2 457.5 468.1 485.6 496.9 517 544.7 581.2 620.5 649.5 685.7 721.4 752.9 786.6 801.7 810 813.1 788.2 757.4 723.1 668.5 637.9 618.8 619.1 626.5 607.6 579.5 545.1 537.3 518.8 512.3 517.5 517.9 500 490 476.1 465.2 455.2 457.7 455.3 454.6 450.5 452 442.6 433.8 423.7 417.5 416.3 411.1 410.9 404.8 399.8 395 394.9 384 375.3 359.5 359.6 360.9 356.3 352.4 349.6 347.7 340.1 331.3 318.5 310.8 305.2 297.2 294.9 291.8 292.4 290.6 290.4 284.4 282.4 288 287 275.6 264.9 252.9 238.1 238.1 238.1 238.1 238.1 238.1 246.8 259.1 279 299.8 325.6 356 391.6 414.9 436.5 448.6 452.2 450.5 449.8 459.6 467.4 473.9 483.4 499.6 517.7 531.7 543.1 551 565.4 575.1 586.7 596.8 604.8 612.8 618.6 620.1 619 615.9 613.1 604.9 596.8 578.6 545.4 509.3 485.2 461.6 450.9 446.7 429.2 396.7 358.9 338.9
169.5 186.6 190.7 194.7 202.2 211.2 224.3 242.3 259.3 278.9 301.9 325.7 341 340 329.5 347.3 353.9 363.6 388.8 413.1 438.4 462.3 486.2 507.2 527.9 548.5 567.7 581.6 593.3 595 571.2 527.3 490.3 463.8 446.1 444.9 447 414.1 388 371.7 360.1 347 339.3 325.1 319.5 344.9 369.4 394 419.9 450 480.1 511.6 547.3 585 621.6 656.6 673 689.9 687.8 664.2 630.5 597.1 566.5 538.5 517.4 504.5 477 460.9 462.1 468.3 488 508.7 521.9 548.7 590.2 628.2 661 702.9 743.5 775.6 794.8 804.9 813.9 817.1 809.6 774.6 735.1 705 688.5 660.4 656.2 663.4 649.8 612.2 586.8 574.8 566 552.1 552.9 560.1 550.4 544.6 533.5 513.2 509.9 512.2 518.8 504.3 509 501.5 491.2 480.9 465.4 464.2 467.4 453.8 446.6 443.2 441.6 441.3 431.4 419.7 421.2 402.5 393.5 393.1 392.5 388.9 380.2 377.7 364.3 356 343.2 334.9 331.4 318.9 319.3 308.8 308.5 308.2 304.9 310.5 302.7 290.4 277.3 261.8 245.8 238.1 238.1 238.1 238.1 238.1 238.1 243.1 259.7 275.5 292.6 317.7 349.5 381.2 409.4 435.1 461.5 467.6 462.2 456.3 455.5 463.4 470.7 479.1 492.5 511.2 528.9 546.2 556.8 573.2 585.5 599.2 606.5 610.9 620 625.6 628.3 629.5 628.9 623.8 618.7 609.8 605.5 590.4 561.7 553 505.2 488.5 478.6 479.8 461.9 420.1 381.4 359.7
178.3 190.8 188.2 190.9 202.8 214.6 230.5 247.5 265.4 287 311 335.5 357.4 367 346.5 358.3 380.6 383.8 380.5 394.7 416.1 438.9 465.6 491.5 512.6 534 556.8 575.5 592.1 596.4 588.2 546.2 509.5 485.4 472.1 466.2 477.5 457.1 432.3 396.8 387.4 373.4 357.4 351.4 330.7 352.7 375.8 399.6 422.6 445.5 471.1 499.9 534.4 571.8 609.9 645.1 672.9 685.3 688.9 671.3 638 604 572 543.3 526.2 507.1 480 465 475.5 481.2 486.6 510.6 526.7 555.7 598.5 633.1 670 714.2 758.7 784.5 799.6 809.3 817.5 819.7 818.1 801.5 765.3 749 735.4 697 686.5 692.4 677.1 655.4 629.9 620.1 612.5 600.9 597 587.4 590.6 587.2 584.3 574.5 554.3 566.8 581.6 559.3 557.9 555.1 552 548.4 535 543.3 537.3 516.1 491.2 488.6 494.6 493.1 472.9 470.4 467.2 441.2 430.4 443.5 435.1 429.4 420.3 432.1 402.4 380.8 372.6 365.5 369.6 348.2 344.7 333.3 332.9 333.3 321.5 314.3 291.3 277.6 261.8 241.2 238.1 238.1 238.1 238.1 238.1 238.1 238.1 252.4 272.5 294.1 311.9 336.8 365.8 403.7 429.9 458.4 469.6 475.5 470.9 461.4 461.4 467.1 474.2 482.2 497 517.5 534.9 552.3 572.7 589.2 603.5 616.2 620.9 623.2 629.1 631.3 634.7 635.8 634.9 629.5 621.7 615.7 608.5 594 575.9 571.9 560.6 526.5 519.5 516.8 500.5 458.5 412.7 392.7
178.6 193.9 188.9 190 201 216.6 235.1 255.1 276.5 297.9 324 347.3 368.4 385.7 374.4 356.8 386.5 401.7 405.6 402.5 404 424.3 450.4 477.5 501.5 524.4 547.5 568.9 588.9 597.4 598.4 576.9 537.7 512.5 500.5 491.6 498.5 495.8 485.4 448.2 417.7 398.3 381 372.7 357.8 353.3 374 399 421 441.9 461.9 489.7 523.4 558 595.9 633.7 669.8 686 688.6 676 642.9 609.2 577.2 547.3 531.9 501.4 485.9 472.3 477.8 488.9 502.1 510.3 535.7 565.1 604.4 643.2 681.4 726.5 772.5 793.7 806.3 815.8 820.3 822.7 821.2 817.6 797.6 784.2 759.9 733 717 706.3 691.4 678.4 659.1 641.2 624 618.1 604.5 597.4 594.9 599.5 607.4 614.8 610.2 614.4 619.7 610.7 608 600.3 598 596.6 582.9 587.3 580.8 574.1 541.3 543.7 541 534.4 526.4 521.6 514.3 487 470.8 489.9 484.3 482.9 467.4 466.3 456 418.4 415 407.3 408.8 389.8 381.8 376.6 363.9 334.6 309.6 290.8 274.3 257.9 242.7 238.1 238.1 238.1 238.1 238.1 238.1 238.1 249.9 270.4 290.1 307.2 330.8 355.8 385.4 413.8 431.7 460.8 474.5 479.3 473.5 468.2 465.2 472.2 476.9 485 501.3 520.3 540.9 560.1 580.6 597.2 613.7 623.9 632.6 636.2 641 641.9 641.6 639.8 636.4 630.2 623.7 620.3 615.7 605.8 591.3 580 568.9 551 535.3 521.8 506.8 489.7 459.3 425.4
171.6 179.1 187.5 190.8 203.9 219.9 241.6 266 287.9 310.4 333.4 359.1 382.7 401.5 400.1 380.5 385.9 413.8 425 426.4 426.3 423.7 445.3 471.1 495.3 516.9 539.4 563.2 585.3 598.5 602.3 599.4 574.9 544.2 528.1 523 522.9 530 536.9 488.3 450.9 432.2 406.9 392.1 377.8 367.1 372.6 393.8 416.1 434.3 457.3 482.3 510.7 551.2 595.4 633.1 666.3 691.2 695.7 683 649 614 580.8 556 530 504.9 479.9 472.6 473.8 481.2 503 525.5 544 575 613.8 653.3 691.9 733.5 776.9 800.2 810.8 819.5 823.7 826.1 824.3 815 772.4 744.1 736 722 691.9 674.3 653.3 634.9 623.9 615.6 604.2 598 594.7 593.3 595.1 594.3 594.6 601.6 607 612.5 614.6 617.2 616.4 607 603.7 600.7 592.2 596 592 588.6 567.1 556.9 558 554.9 547.4 543.2 530.1 523.6 507.8 512.6 503 496.3 490.3 484.8 471.9 466.9 450.6 446.6 435.4 419 398.9 367.3 341.3 307.8 289 269.4 251.1 241 238.1 238.1 238.1 238.1 238.1 238.1 238.1 248.4 265.3 287.5 307.6 326.9 350.7 374.7 404.2 433.3 455.4 470.6 479.2 482.3 475.8 471.4 470.8 475 479.2 489.1 502.5 521.5 542.1 562.9 582.6 601 617.9 629.8 639.8 645.1 649.8 650.2 648.8 643.7 636.4 631 623.8 619.1 613.4 603.4 587.7 576.2 561.9 548.3 529.9 512.3 499.2 486.2 469 448.7
172.7 178.3 193.3 197 209.1 223.1 246.9 269.5 294.9 320 343.2 371.5 398 419.4 424.8 407.8 392.3 411.4 434.8 445.3 451.5 449.7 444.9 466.1 493.5 515.6 536.9 560.9 583.7 600.3 606.3 611.4 604.8 574.5 557 562.3 550.9 578.2 574.2 502.3 479.9 466.2 438.1 412.1 401.4 384 368.7 389.2 402.7 422.2 442.9 472.4 505.1 546.3 593.5 634.5 668.3 695.9 700.2 690.5 653.1 617.7 582.9 549.8 525.8 502.8 485.8 481.3 480.9 485.5 507.4 526.9 553 585.2 621.3 661.6 703.1 753.6 789.3 808.8 816.4 822.5 826.8 827.9 825.3 787.4 740.8 711.9 695 679.6 652.8 636.3 608.9 594.8 590.5 589.7 588.3 586.1 585.1 585.4 587.2 585.3 581.5 581.9 586.4 592.6 589.2 588.7 578.8 568 560.8 557.4 553.7 560.8 558.3 555.9 545.7 552.3 551.7 546.8 545.8 540.6 532.7 527.8 521.5 522.2 503.7 493.5 484 476.8 470.5 463.1 455 440.7 413.2 390.3 366.8 342.4 312.8 289.1 269.5 247.4 238.1 238.1 238.1 238.1 238.1 238.1 238.1 241.9 252.7 262.7 282.4 302.9 321.2 344.4 367.4 395.9 420 451.7 472.9 481.5 486.7 484 476.4 472.5 474 478.2 485.5 494.8 510.6 528.7 543.2 561.2 580.7 598.7 615.3 630.4 641.3 649.4 654.4 654.3 650.9 644.7 634.5 629.3 622.1 613.7 608.8 594.8 580.8 569.6 559.7 547.8 522.4 506.6 495.3 484.3 470.4 456.2
175.5 178.6 183.9 192.7 211.1 226.2 248.6 272.6 298.8 326.4 354 386.1 416.6 443.2 448.6 433.7 421.1 421 447.2 457.9 465.6 471.6 472.9 472.1 491.3 515.6 538.6 559.9 582.9 602.4 612.7 620.7 625.1 614.3 595.8 594.9 589.1 603.7 591.5 540.8 505.5 479.5 453 434.1 415.4 392.1 377.7 385 395.8 412.7 437.7 467 499.8 543.8 583.4 623.9 660.4 694.1 703.6 695.6 656.2 619.6 584.3 553.3 527 499.7 484.5 480.8 481.9 492 505.5 529.5 555.7 588.7 630.3 668.1 708.3 748.6 790.8 815.5 821.2 826.1 828.4 827.8 818.9 763.6 722.9 694.4 682.8 655.9 634.8 615.2 578.3 569.1 571.9 569.4 567.5 565.9 565.8 567.3 568.8 567.3 562 558 554.2 545.6 545 540.9 530.2 520.3 512.8 509.8 510.5 513.6 519.7 518.5 516 518.3 516.9 516.9 524.5 522.7 522.3 512.1 508.7 508.2 490.8 480.3 468.4 467.1 463.8 457.5 436.1 404.6 381.5 360.9 337.7 312.4 285.1 264.8 246.3 238.7 238.1 238.1 238.1 238.1 238.1 238.1 238.1 251 265.5 284.5 298.9 318.6 338.2 365.9 390.9 421 445.4 469.6 493.7 492.4 491.8 485.3 478.6 474 472.2 476.4 485.2 494.1 512.6 531.3 543.3 558.5 574.9 591.5 608 622.7 637.3 647.2 653 652.8 648.5 641.4 632.8 624.9 616.6 606.7 598.2 587 571.7 562.3 554.9 538.6 517.3 501.5 489.9 480.7 470.6 454.2
178 184.3 183.4 195 209.8 228.2 253.5 278.5 303.8 333.3 364.5 396.5 431.1 462.4 473.6 461 450.2 433.4 455.3 468.9 479.6 488 492.2 489.8 501.2 516 541.9 562.2 584.4 604.5 617.7 627.8 635.4 640.2 638.1 635 623.9 613.2 591.5 550.9 520.9 498.4 463.5 443.4 421.3 397.9 380.8 380 389.3 408.8 434.2 463.3 493.5 531.4 574 613.8 653.7 693 704.8 695.1 656.8 620.2 585.6 552.1 523.7 501 485.8 481.7 491.5 511.4 518 539 564.3 599.3 636 676.5 715.1 761.1 798.9 819.9 825.4 827.8 827.4 825.6 818.4 759.7 714.1 690.4 668.9 632.6 605.7 574.4 549.9 545.9 550 543.9 545.1 544.9 545.1 548.6 546.9 544.5 537.5 532.5 527.1 513.8 505.3 504.5 491.1 484.5 486.7 484 482.4 483.5 486.3 487.2 490.5 489.4 488.8 486.6 490.5 496 488.7 482.7 477.8 475.8 472.2 461 453.1 443.7 442.5 432 401.8 371.4 351 330.7 308.1 287.9 259.3 243.1 238.1 238.1 238.1 238.1 238.1 238.1 238.1 241.5 247.6 260.4 278.6 297 312.4 330.8 354.2 381.1 408.6 439.9 469.3 489.7 499.6 499.9 498 489.7 483 479.1 477.6 482.9 487.4 495.6 512.2 526.6 537.8 551 567.4 584.9 600.6 615.7 629.7 640.8 646.3 645.9 641.3 634.1 625 617 607.6 597.6 588.3 576.8 566.6 557.6 548.6 535.2 512.8 499.1 485.3 476.6 471.9 454.9
182.7 186.1 188.8 192.6 213.2 230.9 255.6 281.1 309.9 341.2 371.9 406.3 443.5 479.8 499.7 485.3 474.2 460.9 463.8 478.2 490.7 502.2 507.9 508.5 516.5 530.3 546.8 567.8 587.4 607.7 622.3 633.6 642.5 649.4 654.1 655.8 643.7 627.7 590.3 550.6 527.8 494.2 469.1 446.3 422.8 403.7 384.8 380.3 386.9 406.2 430.1 457.9 492.2 527.5 577.1 619.6 658.2 693.7 706.6 699.6 660.4 623.2 586.6 552.5 524.6 503.7 487.5 485 501.9 520.6 534 549.3 576.5 614 652.4 695.9 737.2 778.5 808.9 822.9 827.1 827.7 826.1 821.7 816.1 784.2 716.3 684.8 657.1 610.6 569.8 546.5 532 527.2 522.3 519.7 518.6 516.7 523.6 530.7 534.3 526.6 518.7 517.6 511 497.9 487.5 482.8 483.5 473.3 468.7 464.4 462.2 464.9 467.4 461.5 467.4 461.8 459.9 466.6 466.6 466.2 465.1 457.3 455.9 454.2 448.5 441.4 435.5 429.6 414 395.1 369.8 342.2 324.2 304.5 283.7 261.4 241.8 238.1 238.1 238.1 238.1 238.1 238.1 238.1 238.1 251.4 260.1 272.3 290.7 308.6 324.9 348.8 374.7 402.7 430.8 463.1 490.6 504 508.6 509.9 505.4 496 488.9 481.9 486.6 492.7 496.8 503.9 516.2 528 538.9 552.1 563.3 576.5 592.3 607.8 623 631.8 635.7 635.8 629.8 622.3 613.3 604.9 594.6 588.7 579 572 557.2 545.3 537.5 522.8 504.4 489.2 476.5 467.5 462.1 454.2
190.5 189 193.1 194.3 212 234 260.2 287.4 315.7 346.8 380.4 417.3 453.6 489.8 520.1 511.5 493.4 480.3 468.9 487.2 500.7 511 518.1 521.7 527.8 539.5 555 574.6 594 610.6 625.2 638.6 647.6 656.2 661.7 663.1 657.8 634.1 592.8 552.5 522.6 492.2 471 448.4 425 404.3 388.2 383.4 385.4 402.2 425 453.8 485.5 522.8 565.5 615 663.1 690.3 702.2 702.5 664.6 626.5 591.1 557.7 528.4 506 492 495.1 508.2 523 533.6 558 585.4 630.1 665.5 710.3 752.7 796.8 814.7 822.4 826.3 826.6 823.5 818.3 814.2 798.9 744.9 687.5 642.3 585.5 552.8 522.1 511.2 501.1 496.4 492.8 493.3 492.5 498 506.2 518.3 522.2 505.1 497.9 492.1 478.5 464.2 456.4 454.7 454.9 451.4 450.4 451.3 452.6 452.5 454.4 451.7 455.1 450 445.8 447.5 445.1 444.5 438.1 437.9 434 427.8 421.5 417.3 408.1 386.3 369.1 346.6 320.7 299.1 279 260.7 242.8 238.1 238.1 238.1 238.1 238.1 238.1 238.1 238.1 238.1 261.4 272.2 286.3 303 321.9 340.2 370.3 400 428.7 456.8 486.7 509.9 519.1 525.4 526 515.1 505.2 499.2 495.7 497.7 503.9 506.2 512 523.6 534.7 546 554.7 562.9 573.3 585.4 601.9 616.1 626.3 629.2 626.3 621.4 613.3 604.5 592.5 583.2 577.3 566.9 554.4 541.5 528.2 516 502.1 489.4 475.9 465.7 458.2 454.7 452.1
193.3 191.3 197.6 199.6 213.2 237.1 262.4 289.7 320.1 353.6 392.6 430.4 464.7 499.5 534.7 534.8 513.9 502.2 479.9 498 509.8 518.8 526.4 531.5 537.3 547.3 561.1 581.8 600.4 617.3 630.4 643.3 654.2 663.5 668.3 672.5 667.9 643.9 592 559.5 515.4 491.4 469.5 449.7 427.3 407.7 389.7 384.4 387.5 399.4 422.6 449.1 481.4 520.6 566.3 605.4 648.7 679.5 697.5 701.2 670.5 632.9 599.2 563.8 531.8 509.3 497 507.3 507 521.8 538.7 561.8 593.6 628.4 668.1 718.6 761.8 801.2 815.1 821.3 824.6 824.2 820.9 814.9 807.9 795.4 756.9 701.2 644 574.2 536.9 509.7 493.2 483.9 483.2 483.2 483.2 483.2 483.2 483.2 494.3 507.7 500.5 492.9 480.4 466 449.8 434.3 431.1 432.4 434 435.6 440.3 442.2 443.7 443.7 445.2 438.2 438.8 437.7 434.1 428.3 423.5 419.9 417.8 414.5 412 404.4 399.6 387.4 360.8 339.8 314.2 292.8 273.6 254.5 242 238.1 238.1 238.1 238.1 238.1 238.1 238.1 238.1 244.6 252.2 270.9 283.1 304.4 322.4 345.3 371.1 397.5 423.6 451 479.5 509.9 528.7 539.4 538.7 532.9 521.9 513.5 507.1 505.2 507.7 513 519.8 526.7 532.8 544.2 555.9 563 568.5 577.2 588.6 602.7 613.9 619.8 623.4 618.5 613.3 608.7 600.8 591.1 580.5 570.4 562.8 551.8 536.1 517 502.3 485.3 469.6 462.5 462.1 457.2 453.8 453.6
195.1 189.3 194.5 199 213.4 237.3 264.2 293.2 324.8 359.4 396.9 437.4 471.1 508 543.7 555.7 534.9 519 498.6 506.9 516.7 525.1 532.7 539.2 544.5 554.2 566.6 586.3 608.6 624.9 638.6 651.3 660.6 669.3 676.1 678.6 677.5 634.5 590.2 545.5 509.6 488.1 468.7 447.6 431.6 413 395.9 387.9 390.7 401.4 420.1 448.9 478.9 516.5 558.6 597.3 633.5 668.3 690.8 699.3 684.2 644.7 610.1 572.1 540.2 517.4 508.3 505.7 509.5 528.5 548.6 569.9 602.3 638.5 674.4 719.3 762.6 798.8 813.2 819.6 822.6 821.6 817.8 809.6 801.5 793.1 757.3 703.9 641 575.1 531.8 501.2 483.2 483.2 483.2 483.2 483.2 483.2 483.2 483.2 483.2 483.3 494.3 489.2 475.5 465.9 456 439.8 423.1 418.6 423.4 420.2 425.5 430.9 432.7 432.6 431 429 420.8 420.9 419.5 410.2 405.8 405.9 402.9 400.2 396.7 393.8 379.8 355.8 331 312.7 290.1 271.7 250.8 243.2 238.5 238.1 239.2 238.1 238.1 238.1 238.1 241.9 251 257.9 265.8 281.9 301 320.6 340.4 369.3 390.9 417.5 450.8 474.2 504.6 532 547.4 555 554.5 543.1 531.1 521.8 516.8 512 519.1 522.4 529.1 536.7 545.2 554.6 566.4 572.2 578.7 587.1 596.1 608.7 614.8 618.5 619.4 614.8 609.7 606.3 598.1 586.1 577 566.7 559.9 551.3 534 511.5 492.2 479.6 474.6 460.3 457 455.7 454.7 454.3
187.3 189.9 191.2 199.5 215 237.6 265.2 295.6 328 364.4 404.2 441.1 474.7 511.8 547.2 575.5 547.6 538.5 515.8 507 519.8 528.1 536.4 543.5 549.8 559.2 572.2 589 615.3 632.5 645.9 656.9 667 675.5 681.5 685.8 687.3 641.6 588 541.7 509.1 487.7 468.4 451 437.9 425.6 401.9 393.1 393.4 404 423.4 448.7 479.6 514 548.3 587.9 632.3 670.7 685.7 695.9 696.8 664 630.9 586.5 553.3 527.4 512.8 510.9 514.9 532.1 560.4 583.6 612.3 645.3 680.4 719.3 757.8 792.2 809.1 816.1 819.2 817.3 811.9 800 792 781.3 753.5 706.5 644.9 589.8 530.6 502.8 483.2 483.2 483.2 483.2 483.2 483.2 483.2 483.2 483.2 483.2 483.2 484.3 487.5 480.9 466 442.8 421.1 411.9 413.4 410.4 409.9 416.6 419.6 415.7 414.8 408.7 405 400.2 397.5 396 391.7 388 388.5 387.8 380.9 366.7 345.7 324.7 303 283 266.3 255.1 243.1 241.5 241.3 241.8 242.1 240.9 238.1 238.1 238.1 252.3 259.2 273.1 281.9 297.7 318.5 342 366.6 394 419.8 444.7 473 503.2 527.6 551.9 565.9 571.9 567.2 554.5 543.7 532.6 526.9 524.2 528.5 532.9 540.6 548.1 563.4 573 578.8 585.1 588.5 594.1 604.3 614.3 619.4 623.4 623.1 613.5 606.4 603.3 594.5 580.7 573.3 562.3 554.2 543.1 529.9 499.8 489.4 484.4 476.6 467.7 461.7 457.3 455.3 456
188.6 191.8 193.9 200.9 217.9 241.1 267.1 296.6 330.4 368.3 407.5 444.7 481.2 516.4 552.3 586.4 573 550.8 528.2 519 520.8 527.9 536.1 544.3 552.6 562.3 576 593.3 619.3 642.4 655.4 664.1 673.3 682 688.1 693.3 693.1 654.7 587 548.9 511.6 490.7 470.1 453.6 444.5 434.1 411.7 397.1 395.1 407.8 425.7 450 479.2 515 554.5 598.3 643.2 669.5 682.1 691.6 697.9 689 641.3 598.4 567.2 542.8 520.9 517.3 531.4 545.9 566.4 592.6 622.9 656.6 694.9 739.4 771.2 798.3 808.7 814.3 815.4 813 805.2 793.6 779.5 770.1 755.9 708.1 646.3 589.2 537 507.8 483.3 483.2 483.2 483.2 483.2 483.2 483.2 483.2 483.2 483.2 483.2 497.6 501.7 489.7 459.2 427.6 411.2 407.8 406.6 406.7 402.7 402.6 404.6 405.3 400.7 394.2 386.2 382.4 381.3 375.7 377.4 375.9 372.4 373.4 358.6 338.3 318.8 300.3 275.2 258.1 251.4 247.3 245.3 244.8 245.6 248.1 246.6 246.1 251 262.6 263.9 269.1 281.2 289.1 301.4 316.7 338.1 366.9 394.7 420.1 443.2 468 494.4 524.7 551.8 575.1 585.4 585.1 578.8 569 558.4 547.2 533.2 534.3 538.1 544.1 551.4 561 576.7 585.1 590.3 594.8 598.2 603.5 611.3 622.5 627.2 632.3 631.3 617.5 607 599 590.9 580.8 569.1 558.4 554 542.9 517.1 505.2 494.8 492.8 487.6 484.2 474.2 463.1 457.8 458.2
190.5 193.9 196.4 203.6 220.4 244.6 269.4 298.7 332 372.9 409.1 448 487 525.3 555.9 593.5 595.5 566.1 540.7 528.4 531.1 534.5 539.3 546.2 552.5 564 578.6 599.7 622.7 650.1 663.8 672.8 679.6 687.2 695.6 697 689.8 648 593.5 559.1 526.4 498.8 478.8 461.4 454.8 442.6 423 409.7 406.4 408.5 428.2 452 479.8 514.6 550.4 596.3 646.3 664.4 679 689.9 697.1 700.5 661.3 618.4 582.8 556.6 534.6 527.1 549.6 562.9 576.6 602.1 633.5 666.3 701.3 753.4 784.8 803 808.7 811.3 811.3 808 799.6 787.1 770.4 765.2 759.2 706.9 646 604.7 553.4 514.3 483.3 483.2 483.2 483.2 483.2 483.2 483.2 483.2 483.2 483.2 497.5 507.6 508.9 489.9 447.2 420 409.1 407.6 399.7 402.8 401 397.6 398.5 398.7 395.8 391.4 377.1 369.9 361.6 356.6 351.7 353.9 357.3 350.7 332.7 308.7 288.2 272.4 257.6 250.6 250 250.3 249.7 249.3 251.9 253.9 252 257.3 265.9 277.3 289.7 296.4 307.2 320.5 328.7 340.7 364.3 393.3 419.8 445.3 470 492 521 548 574.2 592 599.8 599.2 589.4 578.7 566.2 554 543.9 545.4 547.7 553.6 562.1 571.9 584.5 595.3 598 602.4 606.6 612.8 625.2 631.7 636.5 638.4 635.2 627.9 607.7 598.9 590.6 581.3 570.1 562.9 555.6 546 521.9 518.9 514.4 516.5 506.6 494.6 482.2 473.9 469.6 467.8
197.7 194.8 199.9 205.2 221.6 243.4 268.6 300.8 332.1 371.7 408.8 445.5 484.8 526.5 551.5 597.1 614.4 585.7 558.3 538.8 536.4 532.4 536.6 543.6 550.8 563.2 579.4 600.5 629.6 658.9 671.8 680 687.9 693.8 700.1 703.1 695.8 654.4 599.8 573.5 548.4 519.2 495.3 477.3 468.2 458.5 439.2 424.7 420.8 420.5 434.4 458.1 488.3 523.4 558.9 601.3 640.5 661.7 678.6 692 699.7 704.4 672.3 633 596.9 570.3 547.5 540.3 558.1 577.4 592.4 621.2 649.3 678.4 717.7 758.9 792.6 802.8 806.3 807.4 807.3 804.6 797.2 783.3 763.9 756.1 749.4 739.8 665.4 620.7 578.7 524.4 490.7 483.2 483.2 483.2 483.2 483.2 483.2 483.2 483.2 483.2 505.9 515 511.5 487.5 442.9 418.4 406.6 401 397.6 396.4 395.1 393.7 395.4 395.3 395.8 386.9 390 369.5 350.1 339.8 335.7 335.8 332.9 320 304.3 285.6 268.8 258.2 261.6 257.8 253.7 255.8 257.7 261.3 261.3 259.5 258.2 267.5 282.8 293.9 302.4 312.8 328.6 344.8 360.4 371.4 394.3 419.9 444.1 475.2 501.4 524.2 550.1 573.4 597.6 611.1 616 615.2 605.8 590.5 577.3 564.6 555.6 553.5 557.7 565.1 568.8 579.9 591.9 600.1 608.8 615.2 619.9 624.4 634.8 641.7 644 642.4 638.7 631 617.4 600.1 593.5 586.4 582.2 574.5 567.7 545 538.2 545.2 545.4 531.8 519.5 505.9 498.3 491.4 486.6 481.9
206.8 201.1 200.4 207.1 219.3 241.9 268.4 300 331.1 368.4 407.9 447.4 483.6 521.4 560.7 600.9 632.2 608.4 578.6 550.5 538.7 534.9 540.4 545.1 552.4 563 577.9 599.3 632.7 667 680.6 688.2 695.8 700.3 704.7 704.4 702.6 668 626.8 596.6 574 541.9 515.7 496.1 485.7 474.5 453.9 439.1 433.7 438.5 448.7 469 499.6 531.3 572.2 609.4 640.1 662.2 678.4 693.3 703.5 711.2 684.8 645.1 610.6 583.8 558.8 554.5 573.2 593.9 613.4 641.8 667.3 697 738.1 777.3 795.1 799.4 802 803.2 803.2 800.3 792.6 781.4 768.9 751.1 739.5 729.7 694.9 650 602.3 547.5 509.3 483.2 483.2 483.2 483.2 483.2 483.2 483.2 483.2 503.2 518 514.3 504 477.8 445.3 425.6 410.9 401.1 396.5 395.1 394.6 393.3 392.7 395.2 398.1 401.3 391 365.3 354.8 333 326.5 312.7 307.9 299.7 286.7 277.1 276.2 273.5 275.6 259.9 265.9 268.5 269.1 267.2 272.9 271.9 269.1 280.6 294.3 309.5 318.4 332.7 348.7 367.3 385.3 402.3 418.4 445.8 472.5 501.4 527 555.4 581.9 603.1 620.1 627.6 630.6 626.1 614.4 598.8 586.1 576.9 566 565.5 568.3 571.8 578.6 589.6 601.4 616.4 626.8 631.5 633.3 641.7 647.7 648.5 649.5 645.8 638 628.2 617.1 606.3 596.9 591.9 588.1 581.4 569.6 557.9 563.8 564.6 559.6 546.9 534.2 522.4 521.9 516.4 506.1 497.1
209.4 211.3 201 211.1 219.5 245 271.5 298.9 329.4 366 405.3 446 482.9 521 561 604.4 639.6 636.6 604.1 569 550.7 539.8 543.8 550.5 555 564.5 577.5 601.3 633.5 671.9 687.5 696.8 700.7 703.4 707.1 708.9 709 698.6 660.7 613 594.3 572.9 546.6 517.4 507.1 490 475.8 456.7 451.2 457.5 466.5 484.5 514.6 543.3 579.6 611.3 640.7 662.9 679.8 694.6 705.9 715.4 702.6 659.3 626.5 598.7 573.4 577.2 593.2 615.4 636.5 662.2 687.8 720.6 758.7 785.6 792.9 796.4 797.8 798.4 797.9 795.5 789.6 780.5 767.1 754.6 740.8 727 701.2 662.6 615.7 574.4 532.4 495.1 483.2 483.2 483.2 483.2 483.2 483.2 493.5 511.5 527.1 526.3 496.7 468.5 450.5 432.6 409.4 404.5 402.6 403.7 408.4 396.3 394.1 396.3 403.2 412.6 379.4 375.4 347.2 332 320.9 306.4 301.5 290.6 288.7 286.9 285.7 286.3 285.6 270 279 277.4 279.4 275.7 281.3 276.9 283.7 295.4 313.2 326.6 340.5 354.3 370.3 388.4 408.1 428 450.3 460.5 500.5 532 557.9 583.8 609.9 624.2 633.2 637.8 635.6 628.9 619.1 605.3 594.9 585.6 577.6 574.8 578.1 582 590.8 602.5 618.9 632.5 638.6 645.1 651 654.5 656.2 656.7 653.9 648.2 638.3 629.4 621.2 615.4 605.2 598 594.6 588.2 578.6 578.9 579.2 576.6 572.6 558 548.5 547.7 551.7 546.2 536 517.3
219.6 219.2 207.3 214 224 240.9 268.8 298.8 329.5 363.9 403.6 441.6 479.4 517.1 555.4 600.2 639.8 667.8 641.7 610 571.8 555.9 555.1 557.6 560.4 569.7 587.9 606.5 636.9 676.2 695.3 700.4 704.3 708.9 711.9 715.5 713.9 709.2 686.4 650.1 608 588.9 570.3 539.2 528.1 511 498.4 481.2 474.1 479.2 487.6 508 530.3 555.1 588.5 618.4 641 662.1 681.3 697.1 708.8 719.2 722.8 678.5 642.7 613.7 588.2 596.3 615.3 639.2 661.2 683.7 713.7 748.2 775.7 785.9 789.5 791.2 793 793 791.8 790 784.2 778.4 769.6 759.4 748.1 731.2 716 670 633.8 600.4 570.5 522.1 500.7 483.2 483.2 483.2 484.5 496.1 507.8 525.8 536.5 537.5 507.1 480.5 470 449.6 425.1 421.5 420.9 425.2 408 405.2 404.1 403.4 404.5 401.1 386.1 366.2 349.8 331.1 310.5 304.2 298.5 293.9 295.1 294.7 297.7 292.7 282 282.9 284 284.4 289.5 287.2 283.7 289.4 298.2 313.6 331.8 345.3 360.8 375.6 397.5 416.7 435.7 453.8 477.1 502.1 517.6 532.1 571.3 607.1 623.7 635.2 641.2 643 640.3 637.7 625.1 613 603.8 594.8 590 586.1 588.8 595.4 608 620.7 637 643.9 649.8 653.6 659 662.7 663.7 662 658.1 651.7 644.9 638.3 629.6 619.9 611.2 606.7 598.8 590.2 587.1 587 586.4 586.6 576.8 566 558 563.6 575 569.2 552.2 533
229.6 222.6 218.4 211.5 225 239.2 266.9 295.5 326.9 363.2 404.7 441.3 479 515.1 553.2 594.3 635.5 666.8 678.2 647.8 605.1 578.3 569.9 572 570.6 582.1 596.7 619.9 650 684 698.9 709.1 712.4 715 718.1 720.3 720.9 717.5 707.8 691 650.2 609.1 590.7 569.8 549.1 538.5 523.2 508 503.6 501.4 511 530.4 549.3 576.8 598.4 618.6 638 660.8 685.6 701.9 714.6 725.3 729.5 691.2 659.2 630.8 603.2 614.7 636.8 659.2 681 707.4 741 766.3 778.4 783.4 785.9 787.1 787.5 786.7 785.1 781.9 778.3 774.5 768.3 763.1 752 734.6 721.2 694.6 661.2 627.1 601 564.6 532.9 529.4 504.9 501.5 508.6 524.2 533.8 541.7 552.1 556.5 524.2 513.6 481.4 466.1 456.6 448.8 452.5 442.5 416.1 413.7 416.8 409.2 406.9 408.1 379.2 359.7 340.2 322.1 310.4 307.4 308.9 303 302.6 303.9 302.3 294.6 290.7 290 291.1 293.3 294.1 291 292.6 298.6 311 331 348.1 366.4 384 399.9 421.2 440.3 459.9 478.9 502.8 529.6 547.4 564.2 583.2 605.3 631.8 643.8 649.2 652.7 650.1 645.7 635.5 625.1 617.5 613.2 606.4 599.7 603.1 611.5 626.1 638.9 648.6 651.9 656.5 661.9 665.9 667.2 667.2 664.4 662.7 657.5 651.9 647.3 644.1 634.7 622.1 613.7 605.1 598.1 592.7 589.4 591.8 589.4 585.4 579.3 574.5 582.9 581.2 571.2 554.5 543.1
245.4 233.9 227.5 216.1 226.4 238.1 265.2 291.1 325.1 364.4 403.8 440.7 477.2 514.3 553.7 593.1 633.4 665.2 690.6 669.1 632.5 600.8 585.5 587.3 590.8 597.6 612.8 634.8 662.7 700.2 713.5 718 721.9 724.4 726.1 725.2 726.1 723.7 719.4 708.6 674.6 637.4 622 606.1 578.2 564.6 552.9 538.4 535.8 531.7 532.8 551.1 572.5 586.5 607.9 621.5 637.7 665 690.1 706.6 721.3 732.4 739 710 674 645.7 614.4 632.4 657.8 683.7 707.3 735.6 761.8 770.9 777 780.2 781.4 781.8 780.9 780 778 776 773 770.8 766.7 761.4 751.6 739.6 728.8 726.2 691.4 658.1 623.8 595.9 567.1 548.9 536.6 532.5 536.9 544.5 552.5 561.8 568.3 576.5 552.6 533.5 499 494.4 495 495 486.6 476 435.9 437.7 434 418.6 422.2 408.9 382.2 358.4 341.3 328 322.7 323.3 318.2 310.5 312.2 322.3 311.9 301.9 296.9 297.8 299.2 299.5 297.1 295.2 301.6 311.9 328.5 345.3 361.8 385.6 405 424.3 441.8 463.1 486 511.1 536.9 560.8 578.4 595 611.6 626.9 639.4 649.6 656.7 658.3 657.8 654.6 648.1 635.9 627.4 620.8 614.4 611.7 616.1 625.3 639.4 649.7 651.9 658.4 664 666.9 668 668.2 669.5 667 664.9 661.7 657.6 651.6 647.5 640.2 629.9 621.9 614.1 606.1 598.5 591.9 591.5 588.2 584.5 582.3 581.4 580.6 578.5 575.7 575 561.7
265.2 251.1 240.6 230.1 228.7 241.3 263.2 292.2 322.4 360.7 401 440 476.7 514.1 551.1 589.2 627.1 662.7 693.8 694.5 654.6 620.8 606.3 606.5 612.4 618.9 638 651.1 679.6 714.2 723.6 727.2 729.2 731 732.3 733.1 731.8 729.2 726.4 720.3 707.7 676.4 653.6 640 607.3 595.3 596.9 590.9 583.4 567.8 558.4 571.9 582.8 594.7 613.1 625.5 641.4 668.6 693.5 712.6 727.3 739.5 745.1 724.4 688.2 656.4 637.9 652.5 679.3 707.4 733.3 752 762 769.7 773.4 776.2 777.3 775.6 774.1 771 769.9 768.5 767.7 765.3 762.6 758.4 753.6 749.8 740.6 731.9 715.3 693.2 661 632 603 575.7 564.2 560.2 556.9 560.3 571.6 587.2 595.3 599 576.3 546.9 527.1 520.6 517.3 516.7 512.9 481.5 451.3 450.9 439.2 434.6 426.8 407.9 384.9 358.6 351 347.3 351.7 351.9 332.2 327 329.9 331.9 321.5 307.3 305.4 307.1 307 305.5 301.9 302.2 310.4 323.8 337.9 358.1 376.1 399.7 420.8 442.3 466.1 490.2 514.1 542.8 565.9 582 599.6 612.5 626.4 639.4 649.6 660 664.7 663.7 661.7 661.3 655.8 648.4 637.8 634.3 624 625.1 625.6 633.9 647.8 652.4 652.3 659.8 666.2 670.7 670.1 670.4 669.2 666.2 666.2 661.8 658.2 654.1 648.3 641.4 631.3 624.9 622.6 616 605.2 594.2 586.2 585.1 580.6 577.8 579 584.8 588.3 582.1 579.3 570.5
286.9 273.6 256.6 238 230.5 243.4 262.2 289.9 320.9 358.4 394.7 435.2 475.2 511.2 547.5 585.7 622.1 655.9 682.5 702.9 684.7 661.5 636 636.2 633.7 642.6 662.4 675.3 704.7 725.8 731.2 733.9 736.3 737.1 736.7 737.4 736.8 734.4 731.8 727.3 719.5 709.8 691 672.8 647.4 638 644.1 628.7 633.7 616.8 595.5 590.2 597.1 593.8 606.9 624.3 640.4 670 698.3 721 735.6 747.9 751.3 743.2 708.9 676.1 661 665.4 692.3 721 741.4 754.2 763.4 767.3 769.9 771.5 771.9 769.3 766 762.6 759.5 759.1 759.9 759.4 758.3 752.5 749.2 748 746.1 751.9 739.5 733.7 711.6 699.2 666.2 618.1 599 588 589.8 604.7 605.8 618.3 633.4 628.2 590.3 573.6 554.4 542.2 534.2 532 510.4 478.3 460.3 456.3 452 438.9 433.8 404.7 376.7 373.6 371.9 374.2 386.8 396.5 359.2 350.4 353 344.6 333.5 322.5 316.9 319.8 314.6 308.9 309.9 317.1 325.9 332.1 347.6 370.3 388.5 412.7 436.6 463.9 485.8 512.5 540.3 564.1 579.2 594.9 609.3 624.6 639.5 653.6 661.9 667 671.5 670.9 666.1 662.8 660.5 654.6 647.7 641.3 634.4 633 634.5 638.4 648.2 650.7 654.4 660.4 666.4 670 672.3 671.7 669.4 666.5 662.7 661.1 656.4 651.3 647.3 640.3 631.9 626.9 624.6 621.3 611.4 598.6 584.7 578.3 570.4 572 576.3 582.2 581 575.2 572.1 563.5
314.7 299.2 270.7 249.8 234.5 245.1 263.3 288.8 321.3 354.7 390.7 428.6 469.6 506.6 545.4 582.1 621.4 655.8 684.9 701.5 712.8 695.4 671.6 662.6 658.9 671.5 694.4 706.9 724.7 734.1 736.4 738.7 740 742.4 744.1 744.2 742.1 739.5 735.3 730.4 724.5 721.2 720.8 708 696.2 685 684.2 671.6 659.9 643.4 618.3 592.3 594.9 602.1 603.5 613.5 633.6 670.5 703.2 730 743.9 755.4 758.7 750.2 728.3 698 680.7 674.2 701.8 727.8 744.2 755.6 762.4 765.3 765.1 765.6 765.2 762.3 756.1 752.5 746.7 748.4 750 750.5 746.5 743.6 741.5 742.9 746.7 750.7 749.5 748.4 749.1 746.9 728.1 688.2 649.3 639.1 640.3 649.1 652.5 656.6 658.6 647.9 613.5 591.1 577.4 560.7 530.1 516.6 499.7 472.4 462.1 456.6 455.8 440.1 422.1 399.3 391.1 396.5 402.9 410.3 419.4 404.2 389.4 384.6 372.6 358 349.7 341.4 332.6 329.2 320.3 317 323.5 334 339.4 339.5 356.9 380.7 398.9 422.7 444.7 473.9 499.6 521.7 550.7 570.4 590 606.7 623.7 640 655.6 666.9 674.1 675 677.2 678.9 675.7 670.5 664.9 660.7 654.2 648 644.8 641.7 642.2 645.1 649.3 649.6 656.4 661.9 665.7 668.1 668.5 669 667.6 665.9 662.1 656.6 652.6 651.2 644.5 638.3 633.5 629 623.3 614.2 604.8 595 585.5 572.8 564 566.7 568.8 569.6 570.1 570.2 569.5 557.9
334.8 307.7 279.1 257.9 240.9 244.4 263.8 289.4 320.6 354.2 390.2 426.8 465.5 504.5 542.8 579 616.6 653.8 685 701.4 716.5 727.1 708.8 699.5 699.1 710.4 724 730 736.5 739.2 740.3 742.1 743.6 746.1 747.1 751 751 746.1 741.6 735.6 730.6 721.4 718.4 715.9 710.6 706.6 706.8 690.5 676.8 654.4 624.7 589.1 581.8 581.5 589.7 597.6 625.2 669.1 707.7 737.2 754 765.4 767.1 759.8 743.3 722.7 702 687.5 710.1 733.1 746.6 754.9 759 761.4 759.1 757.4 755.4 752.6 746.2 741.9 736.3 740 739 737.3 735.5 733.5 730.6 732 741 745.6 752.5 752.5 754.6 755.8 750.3 737.5 701.5 680.2 680.9 682.9 683.3 672.6 663.6 649.6 624.6 586.5 563.2 540.5 509.5 495.1 483.9 468 462.2 460.8 468.6 434.8 418.3 413.3 418.3 426.3 432.8 458.5 437 424.6 418 416.9 397.6 381.6 376.8 362.2 351.2 335.2 324.9 325.8 334.4 347.3 350.7 352.7 367.2 392.5 410.1 430.6 450.8 475 501.1 528.3 552.3 578.4 600.6 615.6 627.7 649.5 667.1 681 683.7 681.6 680.5 683.3 687.3 689.8 682.9 671.9 663.9 657.3 653 650.2 649.3 649.6 650 650.1 655.4 658.6 662 663.7 665.1 666.1 663.8 663 660.6 657 651.1 646.5 640.3 635.3 633.9 628 622.5 617.1 608.2 597.3 582.7 570.2 559.2 558.4 558.4 557.6 559.3 554.7 549.2 541.8
348.1 318.5 286.1 266.3 249.6 248.2 268.7 291.7 321.9 353.5 387.9 422.9 461.6 501.9 540.9 579.7 614.6 649.8 679.4 702.4 715.3 729.7 732.4 739.5 738.2 736.6 743.2 741.1 739.9 741 742.4 743 744.7 750.2 753.2 754.5 755.5 754.8 744.2 736.8 731.3 722 712.6 712 709.1 709.7 710.6 693.7 676.4 642.8 602.5 575.3 560 562.2 565.6 581.5 610.2 649.4 697.8 734.9 757.1 771.8 774.4 767.9 751.9 733.7 718.4 709 716.9 738 749.1 754 756.4 753.8 752.2 747.4 743.6 742 734.3 729.7 724.9 729.5 729.7 724.6 721.2 717.6 718 722.2 730.3 743.2 752.3 753.9 757.5 756.6 757.1 752.6 740.3 716.4 710.8 701.4 687.4 670.5 659.5 641.1 589.3 559.2 532.3 508.1 481 469.4 470.4 464.7 461 462.4 452.6 432.5 428.7 437.9 449.8 454.9 466.3 479.3 466.4 458.2 465.8 463.1 445.4 422.5 403.2 384.1 367.7 348.7 339.3 343 351.2 356.8 365 370.9 378.7 399.3 417.1 435.5 455.4 471.1 500.3 524.6 551.7 578.9 602.5 618.4 635.9 660.6 681.7 693.1 693.9 689 684.5 686.6 692.5 693.4 690.5 684.2 672.8 664.3 658.1 656.1 652.6 650.6 648.7 649.6 651.9 653.6 657.4 658.9 660.5 661.2 659.6 658.5 659 658 650.6 643.8 638.5 635.1 631.6 627.8 625.6 623.3 618.8 611.4 593.2 579 559.2 552 547.7 545.1 544.2 539.2 533.5 527
366.7 331.6 301.9 278.1 258.5 249.7 269.8 294.5 325.3 356.1 386.8 423.3 461.4 501.7 543.6 581.5 616 651.3 676.5 700.3 713.6 727.6 738 743.6 748.6 749 749.7 745.9 743.6 743.3 743.7 745 749.1 753.2 757.2 759.6 757.9 756.3 748.4 738.6 730.9 721.8 708.2 702 704.9 697.7 705.8 691.1 648.2 615.7 583.8 557 540.7 536 547 567 593.9 630.1 675.4 719.5 759 776.8 779.7 773.5 758.4 744 729.6 723.4 728.3 743.6 750.3 752.9 753.1 743.3 732.9 736.4 730.9 722.4 716.3 715 710.6 713.2 711.2 704.7 701.1 696.7 699.5 709.7 720.8 730.9 747.1 750.4 756.2 758.1 756.8 755.9 745.6 728.4 714 705 682.9 666.4 647.9 624 568.2 534.6 502.1 474 455.5 451.4 457.2 461.6 457.4 454.2 451.1 440 449.9 463.6 474.2 489.1 506.1 514.4 506.8 505.3 532.9 526.5 492.5 455.1 436.6 412.6 408.3 381.6 375 375.1 375.6 374.7 378.3 385.5 392.6 402.8 418.8 437.2 455.1 474.8 494.6 522.9 554.6 579.3 605.1 628 654.8 677.9 693.2 701 701.6 697.3 692.9 692.7 695.7 694 690.7 687.5 682 672.8 664.9 659.1 653.9 650.2 647.3 647.1 648.5 649.9 649.9 651.2 652 652.7 652.4 652.4 652.9 652.2 646.8 638.9 634.1 629.5 628.2 624 624 623.1 620.4 612.9 600.2 585.3 567.8 549.5 537.4 532.4 529.3 524.5 517 512.4
380.3 345.8 315.9 289.6 267.7 252.1 274.2 298.3 329.6 361.1 390.6 428.9 468.9 507.8 550.1 583.9 615.9 646.8 672.4 695.3 711 724.3 737.2 743.3 749.8 753.8 750.1 747.5 745.3 744.1 744.6 746.9 752.1 754.9 758.2 760.6 758.2 755.2 752.7 740.4 730.8 719 704.4 692 687.6 682.9 693.7 675 627.8 594.6 565.3 540.7 527.4 520.5 534.2 555 584.2 618.4 666.4 720 758.8 773.2 782.1 776.4 766 754.8 743.5 735.6 739.3 748.7 752.9 754 749.6 739.1 713.3 714.4 703 690.5 681.2 692.7 686 688.7 685.2 674 675.3 667.1 668.1 680.5 692.1 707 727.4 743.9 753.3 755.4 756.3 756.9 743.7 727.5 709.3 691.7 678 655.2 632.9 581.2 541.5 510.5 485.3 459.1 451.4 451.4 451.4 451.4 451.4 454.2 454.5 459.4 476 487.7 502.3 514.7 532.8 541.3 550.7 556.2 564.1 564.7 523.1 502.9 479.7 448.1 453.3 427.3 411.3 412.3 399.2 396.5 397.6 399.7 407.7 408.5 421.7 435.3 453.9 475.7 492.4 521.3 552.8 584.4 610.5 638 667.4 685.4 698.3 703.6 706.1 705.8 703.7 701 700.9 699 695.9 691.5 684.6 679.6 672.3 663.1 654.1 647.2 642.6 638.8 639.7 639.5 640.1 641 641 640.3 642.3 643.3 643.8 642.1 636.8 632.5 629.5 627.4 624.1 623.3 622.7 621.6 618.4 611.4 596.2 582.5 565.6 551 533.5 519.5 513.3 508.4 503.9 497.3
397.1 361.5 328.6 304.5 278.5 259.4 275.9 300.7 330.8 362.1 394.9 433.5 473.6 512.8 549.6 586.5 618.6 646.2 669.6 690.7 707.5 725.1 734.9 744 748.3 753 751.3 749.3 745.2 744.8 745.3 749.3 753.8 757.1 760.2 762.5 761.1 759.3 754.5 742.4 724.4 707.9 690.4 676.1 672.9 664.6 675.7 657.3 608.9 581.8 550 523.9 511.1 508.3 523.3 544.6 571.9 609 659.4 704.7 748.1 772 781.4 776.8 771.3 762.4 754 746.7 749.1 752.5 755.9 755.5 750.1 741.1 727.1 694.9 684.9 665.5 651.6 651.6 640.2 644.1 636.5 632.9 627.5 617.7 622.3 642.9 655.7 680.3 707.1 726.9 739.8 745.2 745.5 743.9 736.5 727.2 712.1 686 665.4 634.4 600.8 562.6 531.1 498.9 471.8 458.8 451.4 451.4 451.4 451.4 451.4 456.9 470.1 483 497.1 509.5 526.9 540.1 553.4 556.7 562.5 571.5 580 574.2 572.3 559.4 508 482.3 500.9 493.9 470.5 448.5 429.9 423.9 417.9 413.8 414.5 418.7 423.2 436.3 450.6 468.9 491.1 515.3 547.7 583.1 613.2 644.9 672.2 686.4 694.9 703.8 708.5 709.8 709 706.3 704.2 701.4 698.7 693.3 687.6 681.6 673.1 663.4 651.8 643.7 637.2 631.2 627.2 626.3 628.2 628.5 628.6 629 630.7 632.6 633.6 632.4 629.9 627 625.6 622.2 618.7 616.9 615.2 611.1 606.4 597.7 588.5 574.8 553.6 537.3 522.7 508.8 499.7 494.6 490.5 488.7
