ncols 200
nrows 200
xllcorner 230000
yllcorner 930000
cellsize 50
68.6 70.8 72.1 66.6 63.5 86.7 115.7 162.2 171.7 175.6 181.8 189 192.1 194.6 201.9 206.3 206.2 200.9 198.6 192.6 201.3 214.3 223.7 227.7 221.6 214.8 194.1 186.9 180.3 164.6 161 159.1 141 165 169.6 180 185.6 185 185.1 185.1 187.2 186.4 182.8 179.4 182.8 183.5 180.4 178.6 181.3 183.9 189.1 195.3 193 192.6 200.2 203.5 201.2 197.1 200.5 208.7 215 219 220.2 223.8 222.4 222.3 231.6 240.5 248.2 252.2 264.1 269.8 271.6 274.6 280.1 283 287.5 291.1 295.7 301.3 311 314 321.4 324.8 331.2 334.6 339.2 342.8 348.3 359.1 366.2 370.9 374.6 385.3 391.5 394.1 394.4 398 404.1 415.9 424.6 436.2 440.5 443.5 449 459 478.6 498.1 515.9 530.9 548.2 560.4 575 591 610.3 633 657.5 681.7 713.7 722.4 709.2 694.7 682 667.9 658.7 655.1 652.8 653.4 655.1 661.5 666.7 654 637.9 622.9 607.4 593.2 579.5 559.5 542.2 534 518.7 505.1 492.8 485.8 479.3 472.4 466.8 460.4 451.6 444.8 435.2 424.9 411.2 393.5 374.1 346.8 323.8 293.6 268 257.1 251.6 247.2 246.4 247.8 255.9 269 289.3 304.1 331.6 370.9 404.8 442.8 484.3 504.2 512.7 519.1 526.2 530.7 533.9 535.5 538.3 541.7 544.6 547.4 548.5 551 553.7 558 565.4 572.8 578.7 583.4 586.4 584.4 577.5 572.4 569.6 564.5 556.1 535.9
66.3 69.8 75.3 65 64.4 83.4 115 163.9 180.5 184 193.7 207.4 207.7 204.5 208.6 214.1 215.2 213.2 204.5 201.2 210.3 232 237.2 237.2 232.3 221.9 214.2 192.3 187 173.3 175.9 169.8 160.3 159 170 170.9 185.9 184.4 182 183.6 186.6 185.7 183.6 180.5 178 182.1 180.5 178.3 179 186.3 192.2 193.6 195.1 198.8 206.8 212.3 209.4 207.1 200.2 205 210.3 213.4 221.9 227.1 223.2 222.2 227.6 241 249.2 255.2 261.6 271.6 278.7 283.9 284.8 285.8 286.3 291 295.4 305.5 315.6 317.9 325.6 327.4 332.9 337.1 339.8 340.4 348.5 358 366.3 369.8 372 379.3 384.5 388.3 393.6 391.9 389.4 409.7 417.7 420.5 422.7 424.9 429.8 450.4 462.8 480 489.1 503.1 517.8 532.2 545 562.2 582.5 608.5 636.8 662.3 693.9 718.2 724.5 720.8 710 697.3 690.7 685.8 683.2 679.4 676.8 672.9 654.4 633.3 614.5 593.1 575.5 560.3 546.5 530.5 516 506.7 496.2 487.1 480.8 471 465.1 462.8 456.7 451.9 445.5 438.9 431 421 407.5 385.3 360.5 344.6 322.9 299.8 277.4 269.4 261.5 249.5 247.6 251.3 259.6 269.2 295.9 315.2 356.6 396.6 438.4 474.3 507.9 517.6 523.1 527.7 532.2 536.5 538.4 541.2 542.9 545.8 548.7 550 551.6 553.3 556.2 563.4 572.1 581.2 588.8 592.9 593.2 591.5 585.6 578.4 572.5 565.7 551.4 518.2
65.3 66.9 68.2 63 59.3 76.2 109.4 154 189 193.3 209 222.7 221.1 216 217.1 217.9 219.1 216 212.4 213.6 227.4 242 252.8 249.2 238.7 227.3 229.1 217.5 201.6 180.6 180.5 175.7 167.3 146.6 161.2 166 179.4 186 184.1 181.2 183.2 186.3 185.7 181.4 176 175.3 176 173.9 174.9 183.1 197.5 205.8 207.3 207.1 210 215.7 213.5 210.2 201.9 202.7 208.6 210.5 217.4 225.3 226 223.2 225.2 233.9 249.9 259.2 256.7 270.5 278 287.6 291.5 286.6 285.7 292.5 292.5 305 313.4 323.4 329.4 328.8 331.9 334.6 337.2 341.6 347.4 355.8 364.2 367.9 374.8 377.4 380.1 383.5 388.3 383.7 387.1 393.1 400.2 408.6 408.3 409.3 417.3 431 446.3 459.8 469.3 477.4 488.8 500.2 515.6 535.6 557 583 611.2 638 669.5 700.3 727.6 740.1 737.3 725 720.8 717 710.5 707.3 692.7 662 633.8 610.9 587.9 564 543.9 527.5 514.3 502.9 493.7 488.2 475.9 472.2 468.7 463.1 457.7 454.5 451.4 448.5 447.5 443.3 435.4 426.2 407.5 384.3 362.8 341.6 320.7 306.2 291.5 284.7 272 258.1 253.2 270.5 281.9 291 309.3 335.4 384.2 425.6 472.3 503.6 520.1 529.4 531.9 535.9 539.2 541.3 543.6 545.2 546.7 548.3 548.3 549.7 551.3 554.5 558.3 569.5 579.4 587.4 595 601.8 602.1 599.8 594.6 585.1 574 559.6 537.7 507.2
62.7 63.7 63.8 58.5 58 69.7 100.5 131.9 195.7 205.6 219.2 235 235.8 229.8 229.8 226.8 225 222 225.3 228.5 244 248.2 261.4 262.2 247.9 240.2 241.8 231 222.7 204.4 182.3 176.6 164.6 150.5 154 157.7 165.4 178.9 180.6 179.3 175.7 179.1 181 178.3 171.8 170.6 174.4 172.7 174.2 180.3 198.4 212 210.8 214.8 214.9 217 218.7 217.8 208 201.8 206.8 214.2 217.1 217.5 220.5 223.6 226.3 238.4 247.3 255.5 261.9 267.5 271.7 279.1 283.4 283.7 290.4 293.8 291.9 303.5 311.5 325.4 333.5 329.5 330.3 332.7 336.7 342.6 350.7 356.5 362.2 368.4 374.4 375.4 384.3 385.9 383.7 383.7 385.1 386.5 387.6 393.7 397.7 397.2 409.4 416.6 429.1 438.3 448.7 459.1 470.2 481.4 495.3 512.9 534.9 557.8 586.2 617.9 650.6 680.3 710.8 740.8 758.5 746.8 743.6 740.2 728.4 697.9 661.4 629.9 605.8 581.7 558.4 531.8 517 502.4 492.7 483.2 476.3 471.3 467.6 463.7 460.7 455.1 453 452 452.2 451.9 449.6 445.3 436.5 424.5 402.7 382.6 361.2 344.4 332.1 316.5 308.9 302.5 292.5 281.4 280.6 291.6 297 308.6 341.2 381 414.8 457.5 503.4 520.5 532.1 537 539.9 543.5 549.9 549.7 550.1 549.6 549.7 546.4 546.4 546.4 549.9 552.7 560.6 573 583 590.3 599.9 607.3 607.9 606.3 599.6 590.7 575.3 551.6 533.5 507
58.3 60 60.3 55.6 58.6 65.7 88.3 126.5 190 209.9 225.3 245.1 244.6 242.2 241.4 236.4 235 230 231 238.2 245.7 256.8 260.9 265 251.9 255.4 251 244.1 234.3 224.4 198 176.4 164.8 158.8 154 152.5 158.7 166.4 177.4 177 175.2 173.7 174.1 173.2 170.4 167.9 169.3 173.5 177.6 179.1 189.3 208.5 211.8 212.2 213.2 218.1 221 220.7 215.4 208.4 205.2 211.2 216 218.9 221.5 225.5 231 235 239.7 251.7 265.4 268.2 270.5 278.6 283.4 291.7 292.6 292.2 294.4 304.5 312 325.5 333.4 329.4 330 332.1 332 339.3 348.8 356.7 362.9 370.4 376.1 381.2 387.8 386.4 383.7 383.7 383.7 383.7 383.7 389.3 390.9 391.2 398.1 405.7 413.9 421.8 434.3 444.7 458.6 470.1 484.2 499.2 520.3 540.9 564.3 592 624.1 657 688.1 722.5 755 756.4 754.1 748.1 712.7 671.3 629.8 600.6 578.1 552.1 529.7 506.6 495.9 484 476.5 468.4 461.5 459.1 459.1 454.1 451 451 455.1 457.1 455.8 453.3 450.6 445.7 437.8 428.4 410 383.3 365.1 359.5 355.9 340.5 335.4 324.7 313.8 300 301.5 308 312.1 346.1 382.3 413.6 452.7 505.3 525.6 533.1 540 544.3 550.7 553.4 555.5 555.3 553.5 554 550.9 548.5 546.4 546.4 546.4 551.7 563.7 572.5 583.9 593 601.5 607.9 610.1 609.4 601.9 591.1 570.7 546 526 506.5
57.7 58.6 56.1 55.6 61.6 58.6 73.3 116.2 168.8 201.9 222.6 253 249.2 251 249.8 244.3 236.9 232.2 232.2 241.2 246.3 265.8 267.5 261.3 255.6 264.9 258.7 257 245.8 231.1 219.3 188.7 174 163.6 158.2 155 155.9 162 167.3 174.7 172.1 171.3 169.8 167 163.6 163.6 163.6 163.6 175.4 179.2 184.2 193.6 204.4 210 211 216.2 220.7 214.6 214.2 210.5 205.3 208.6 213.2 217.5 222.1 224.5 230.3 237.2 242.1 257.7 262.8 271.8 271.3 277 290.8 297.3 296.2 294.5 299.7 306.3 312.4 319.4 329.3 325.8 326.4 331.4 326.1 339.2 346.2 356.6 368.1 372.5 377 382.8 383.9 383.7 383.7 383.7 383.7 383.7 383.7 387.8 387.5 389.9 394.6 402.3 410.3 419 427.5 435.7 445.1 461.5 473.7 489.3 512.3 527.7 549.4 571.8 601.4 628 665.4 702.2 734.6 745.8 751.9 718.2 676.2 634.8 591.3 565.7 546 519.5 499 487 474 463.9 458.1 454 451.4 451 451 451 451 456.6 460.7 462.2 458.4 453.1 448.3 444.7 438.9 430.7 415.2 395.6 377.9 374.8 373.8 371.9 366.8 363.2 358.2 334.5 326.7 329.2 344.8 377.2 417.5 449.9 487.8 528.5 535.9 542.5 549.5 556.7 561.7 561.4 561.1 559.7 556.9 555.2 552.5 546.4 546.4 546.4 546.4 554.9 562.1 573.4 582.8 593.7 602.3 608 610.2 608.8 601.3 582.5 562.3 539.4 526.1 514.1
54.4 51.7 51 51 54.9 55.1 67.9 99.5 136.2 190 222 253.5 254.2 255.3 253.9 249.2 244.2 242.5 247.1 246.4 254.9 263.7 267.9 263.6 269.7 274.7 275.7 268.1 254.1 237.8 221.6 203.8 182.2 168.9 162.2 158.9 155.4 158.7 162.3 168 170.1 169.4 164.7 163.6 163.6 163.6 163.6 163.6 166.6 175.9 180.3 187.3 198.8 206 208.2 212.5 217.8 213.4 213.5 216.1 210 207.6 211.7 216.3 219.6 225.8 231.4 236.1 250.3 260 263.9 271.9 277.6 277.6 290.7 298.2 300.7 300.1 305.7 307.9 311.6 314.8 323.8 324.3 323.4 322.8 326.9 342.2 352.9 362.2 372.4 377.8 381 386.9 387.8 391.8 388.3 383.7 383.7 383.7 386.5 386.1 386.9 390.2 396.5 401.7 406.6 411.5 422.1 429.3 438.7 449 463 484.1 502.6 521.9 538.6 561.1 582.2 605.6 651.9 691.9 720.2 737 735.9 691.2 645.2 604.7 564.7 540.8 521.1 494 475.6 462.1 451 451 451 451 451 451 451 451 456.9 464.3 465.1 463.3 457.7 453.7 447.3 444.6 443.2 429.7 413 398.6 390.3 392.1 393.5 408.6 415.6 418.1 403.8 407.9 381.1 362.5 371 405.5 447.8 482.1 522 534.5 545.1 554.1 563.8 566.7 566.9 566.8 565.8 563.7 561.8 558.7 552.8 546.4 546.4 546.4 552.7 559.9 566.3 574.4 584.9 594.2 604.6 610.4 610.3 607.2 597 571.2 554.5 533 526.4 523.6
51.9 49.9 47.9 56.1 60.4 57.4 66.7 85.6 115.2 175.1 220.2 250.5 254.6 259.5 261.1 259.3 260.5 261.1 253.6 258 270.6 267.9 265.4 275 280 283.9 283.3 276 261.6 251.4 232.8 210.9 192.9 173.6 166.7 161.8 159.2 154.9 161.1 165.1 169.8 168.1 163.6 163.6 163.6 163.6 163.6 163.6 163.6 169.9 177.2 184.7 191.7 199.1 202.5 206.4 211.5 212.4 211.2 216.7 213 210.4 208.9 213.5 218.3 223.7 232.4 234.3 254.9 262 264.9 272.4 284.8 289.9 293 295.7 300.6 303.8 306.2 307.3 310.3 313.7 321.7 321.6 322 324.2 331 345.2 357.3 370.3 382.1 380.1 388 389.7 394.2 394.8 392.3 383.7 391.1 390.1 390 390 389.3 394.6 397.9 402.8 408.1 410.8 421.9 429 439.8 455.5 473.7 491 498.7 515.9 535.3 552.4 569.1 598.3 639.9 677.1 708.4 728.9 698.1 658 618.5 580.9 548.8 523.8 500.6 474.9 459.2 451 451 451 451 451 451 451 451 453 464.1 466.6 464.7 458.5 452.7 453.1 452 445.8 440.3 428.9 414.7 401.2 400.9 411.3 421.8 425 429.5 437.5 441.2 445.8 460.5 415.2 411 435.2 481.2 516.3 532.9 547.2 555.3 566.2 569.7 570.2 569.8 570 569.4 567.1 565.1 560.7 552.1 547.4 546.4 554.5 566.3 572.9 573.1 576.1 587.9 600.9 608.9 611.7 610.2 608.5 591 566.6 555.5 534.2 528.4 523.6
51.1 49.9 46.1 49.7 55 55.5 55.1 72.6 99.8 139.8 214.8 244.1 256.4 264.4 268.4 266.3 276.6 274 263.3 273.4 280.4 279.2 279 287.8 286.3 287.6 285.1 275.3 264.7 262 236.4 227.1 209.6 184.6 170 164.5 160.3 157.4 159 165.1 167 166.9 170.2 165.5 166.2 169.3 164.6 165.4 168.5 171.7 176 184.7 186.6 194.5 198.4 203.1 207.1 208 212.5 213.1 212.1 211.4 210.8 215.9 219.8 220.1 226.9 232.9 250.8 261.1 266.2 274 287.5 292.9 298.6 302 305.2 309 308.1 307.4 311 317.5 320.3 322.6 325.2 328.7 341.9 355.1 367.1 373.6 388.9 385.6 398.5 400.6 397.2 400.7 391.4 391.4 399.3 396.6 396.6 393.8 398.7 406.5 404.5 411.4 414.2 417.7 430.7 433.8 453.7 467.3 494 509.7 518.8 525.8 539.8 552.4 566.8 588.3 625.4 657 692 716.1 692.3 633.2 596.8 564.3 535.6 508.8 481.3 452.4 451 451 451 451 451 451 451 451 451 462.1 466.9 467.7 462.9 460.7 454.6 457.8 453.3 448.9 443 434.5 422.4 417.1 416.2 423.6 425.9 424.6 427.6 440.5 456.6 467.3 473.4 442.8 438.8 462 491.1 521.1 540.9 555.8 565.3 570.2 572.1 572.2 571.8 572 570.9 568 566.4 562.7 555.8 555 563.2 571.4 578.9 581.3 582.8 589.2 603.3 613.3 617.1 615.7 614.7 612 582.9 561.4 548.1 539 529.4 524.8
51.8 45.6 38.1 38.1 40.7 41.7 45.1 58.7 84 127.7 209 234.4 252.3 261.3 270.4 271.7 278.3 287.3 287.5 292.1 300 298.2 297.3 292.6 286.2 284.9 279.1 274.7 265.7 262.3 248.6 246.3 223.7 205.4 181.9 169.6 165.9 162.5 156.9 161.3 164 163.2 165.6 165.1 161.1 166 170.7 177.3 175.3 177.5 181.3 181.4 183.9 187.1 193.6 198.7 201.2 204.3 212 212.7 210.8 210.2 209.8 208.9 217.7 220 224.7 228.4 243.9 255.8 262.4 271.5 277.9 294.5 301.4 304.7 304.1 308.8 307.9 307.8 309.7 316.9 318.5 327.5 335.2 337.3 344.8 359.9 366.3 380.2 390.6 393.7 405.3 409.2 407.5 401.6 397.3 402.1 404.4 402 400.9 404.9 411.5 419.7 418.4 424.3 428 434.9 439.7 453.2 470.7 488.7 511.6 525.4 544 549.9 557 561.5 576.4 595.3 616.8 643.8 670.3 695.7 669.6 627.2 591.1 558.2 522.1 491.7 468.1 451 451 451 451 451 451 451 451 451 458.9 467.9 469.7 466.2 467.1 464.8 457.2 458 453 450 445.2 445.8 438 434.4 429 431.7 425.5 424.3 426.4 437.8 453.2 467.5 467.8 457.7 457.6 475.2 498.8 524.4 542.2 563.1 570.1 573.5 575.3 574.4 572 571.3 569.2 566.8 565 562.8 558.9 563.2 574.5 587.4 589.8 596 601.2 612 616.2 621.6 624.1 625.9 623.7 616 596.1 573.8 553.1 544.8 538.1 531.3
38.1 38.1 38.1 38.1 38.1 41.3 42.7 47 72.7 125.4 187.4 215 246.6 260.9 270.9 275.5 282.2 297.2 300.2 309.4 309.1 307.2 305.7 294.1 284.8 284.1 281.4 274.7 273.8 270.2 262.9 257.2 240.7 218.6 193.3 174.5 169.7 163.7 158.2 159 159.6 161.2 161.1 160.4 160.2 163 166.3 171.5 178 179.4 181.3 183.6 185.8 187.2 191 197.2 198.7 199.8 207.3 206.5 209.5 205.8 203 205.7 212.8 218.6 220 223 233.2 248.4 258.8 269.3 281.3 294.1 302 305.7 304.9 307.9 306.5 307.4 316.8 321.5 321.3 328.5 338.2 351.8 359.8 362.5 373.1 389.2 401.4 404 413.6 418.5 417 412.3 412.4 410.2 411.9 410.9 410.1 416.9 429.2 433.7 436.7 443.3 453.1 458.4 463.1 478.7 491.7 516.5 535.2 557.7 577.5 584.2 581.3 592 599 618.7 626.6 648.5 664.2 687.3 682.8 643.2 611.1 574.6 532.1 488.9 456.9 451 451 451 451 451 451 451 451 459.4 465.3 472 474.3 466.1 465.4 463.4 459 456.3 456.2 452 459 453.6 442.5 442.5 433 434.1 429.3 425 427.9 435 443.2 450.2 451.9 455.9 465 478.1 500.2 525.2 544.7 562.2 568.5 577.6 578.5 574.3 569.5 566.5 563.7 558.5 561.8 562.5 566.5 579.2 593.3 604.6 610.3 620.9 623.4 629.7 631.1 633.3 637.8 640.1 639.5 629.1 610.3 590.1 580.6 562.5 544.5 536.6
38.1 38.1 38.1 38.1 38.1 42.5 43.1 42.5 64.4 107.9 160.6 195.7 226.7 256.8 271.5 273.8 289.3 301.9 309.7 320.8 319.6 311.8 306.4 305.1 289.8 284.8 285.2 283 284.2 280.4 268.6 262.9 255.3 230.9 203.1 179 170.3 164.9 159.5 155.7 155.7 159.9 155.7 155.7 158.5 159.6 163.1 168.9 173.6 175.7 182 184 186 185.5 188.6 192.8 198.7 199.2 197.7 199.9 201.7 200.9 202.5 208.6 215 215.7 216.7 215.9 225.1 244.8 251.4 262.3 283.9 291 300.5 302 304.9 304 301.7 311.3 317.7 322.5 324.7 332.1 341.8 367.4 385.1 379.1 380.7 395.7 405.8 412.2 420.8 429.5 429.4 426.7 422.6 422.9 421.7 426.5 424.9 432.7 450.7 454.7 458 468 480.4 488.2 496.3 510.1 524.3 549.1 570.9 599.8 608.9 619 624.4 631.4 646.6 657.8 653.5 658.6 669.7 683.7 693.9 680.1 632.3 583.3 543.5 510.3 465.4 451 451 451 451 451 451 451 456.7 467.8 472.4 480 476.7 471.2 468.6 462.6 466.5 463.3 461 463.7 468.2 463.8 465 456 453.7 453.1 439.4 429.7 431.6 432.9 438.4 441.4 443.1 448.1 459.1 478.8 496.6 521.8 541.3 559 573 580.1 574.1 568.8 564.1 560 556.2 558.7 558.5 569.3 580 596.1 610.7 627.1 640.6 646 650.3 647.2 640.5 645.2 653 656.7 662.3 654.3 631.2 606.4 593.7 589.4 580.2 546.1
38.1 38.1 38.1 38.1 41.3 43 43.5 42.8 63.2 91.5 124.6 172.1 207.9 239.8 266 265.9 283.9 299.9 314.9 332.1 322.1 311.4 304.6 311.1 305 291.2 287.7 283.2 283.4 287.1 278.6 271.1 271.5 257.7 221.5 185 172.6 168.9 162.3 155.7 155.7 157.4 155.7 155.7 155.7 155.7 158.8 166 172.4 177.2 179.1 179.4 181.8 182.5 188.4 189.5 191.9 194.8 195.7 197.7 197.2 199.2 203 208.2 213.5 213.9 210.6 213.2 218.4 234.7 249.5 261.6 276.8 292.9 297.9 298.6 301.4 300.4 305 313.7 316.7 319.6 328.5 331.9 349 378.8 386.9 395.8 397 404.1 407.1 419.4 436.8 442.6 440.8 442.8 437.1 436.5 436.4 447.1 447.5 458 480.9 487.8 496.3 500.2 510.3 520 533.2 548.4 578.1 599.9 616.8 630.1 642.7 653.1 660.8 673.9 695.4 706.5 687.5 681.1 680.7 691.4 699.8 702.4 662.2 610.9 568.6 520.8 483.8 451 451 451 451 451 451 451 462.8 471.6 473 481.9 481.3 482 481.4 478.4 477.7 477.6 480.5 486 481.8 481.7 488.7 484.2 483.6 476 483 460 446.4 437.6 435.9 439.5 442.2 444.8 450.4 464.9 488.7 517 539.7 558 572 572.4 568.8 563.3 558.1 551.8 549.9 552.8 553.1 570.8 595.6 614.3 635.1 648.2 662.9 670.6 670.5 661.1 663.6 668 672.2 679.2 682 681.2 669 627.6 608.1 599.4 599.5 583
38.1 38.1 38.1 38.1 39.2 42.7 43.9 43.8 46.4 79.6 101.1 141.3 180.2 230.2 253.6 260.4 283.2 301.8 319.6 327.2 321.7 316.6 312.7 314 322.2 302.5 292.6 285 283.7 288.2 282.2 278 278.8 269.7 249.7 213.2 181.9 173.1 172.2 171.7 158.1 155.7 155.7 155.7 155.7 155.7 155.7 161.3 170.3 175 177.1 177.4 178.2 183.2 188.6 188.2 189.2 190 196.3 198.8 198.1 202.6 200.8 207.6 207.9 209 206.4 216.5 214.5 227.7 242.4 260.1 275.5 289.8 294.5 294.3 295.9 298.9 310.7 317 319.8 321.3 324.9 333.9 358.6 379.2 389.8 411.6 413.9 415.9 415.7 441.4 453.3 454.9 466.3 462.8 462.1 457.5 462.4 469.6 474.5 493.1 516.6 542.9 534.2 543.7 543.4 553.4 573.7 598.7 625.1 646.1 654.3 662.9 680.4 695.2 705.1 706.1 730.7 730.3 713.9 704 701.2 702 707 708 689.5 643.2 597.6 547.6 506.4 482.6 464 451.6 451 451 451 451 471 477.5 489.2 491.5 493 498.4 501.2 508.4 505.4 499 507.8 516.6 514.2 517.7 511.1 506.3 504.7 505.9 508.9 495.3 458.7 444.2 440.5 440.4 444.6 447.9 452.9 462.5 482.7 504.2 533.7 554.5 567.7 567.8 562.5 554.9 548.3 542.8 544.2 545 551.3 577.7 605 634 655.1 673.1 684.2 685.8 684.8 681.3 684.7 688.5 693.7 700.3 698.8 693.5 686.2 659.3 628.5 623.3 616.5 602.1
38.1 38.1 38.1 38.1 40.6 43.6 44.1 44.1 43.4 71.3 85.9 122.6 153.8 195.8 229.3 249.5 285 300.9 316.2 322.4 315.9 313.3 319 316.2 316.5 308.2 295.2 289.1 284.9 286 284.2 280.2 283.6 281.2 266 233.5 198.2 185.4 180.3 176 165.5 161 155.7 155.7 155.7 155.7 155.7 155.7 165.3 173.4 175.7 174 175.9 182.4 185.2 187.4 189.7 186.7 192 195.4 196.4 201.1 202.2 203.7 201.9 201.7 206.3 217.5 217 221.5 236.7 263.7 279.5 289.6 289.4 289.6 295.4 299.8 310 315.5 320.6 322.6 327.6 343.9 365.5 381.3 414.4 437.5 447.3 441.9 434.1 456.8 464.7 478.1 479.1 481.8 479 488 488.8 499.3 510.3 533.4 556.7 580.1 582.4 589.9 589.4 593.2 607.1 640.8 667.9 681.8 688.1 701 721.4 741.3 753.6 749.9 748.2 739.6 723.5 716.8 712.3 711.4 713.7 712.5 708.3 670.2 622.5 581.1 539.3 519.9 499.8 481.4 472.3 460.9 457.9 465.8 486.2 496.6 512.4 506.7 515.6 519.6 525.2 525.1 522.1 529.8 543.4 554.2 554.7 556.9 545.8 538.7 535.6 536.3 524.7 518.6 488.3 459.6 450.6 446.2 446.1 452.6 455.4 463.2 486.1 505.4 531.8 550.8 559.8 559.8 551.5 541.9 535.8 535.7 534 546.2 560.8 588.4 615.8 652.2 676.9 696.6 705.3 704.8 705.8 708.8 708.2 708.8 711.4 711.8 707 699.2 696.6 684 657.5 642.6 629.5 608.5
38.1 38.1 38.1 40.1 43.4 43.7 43.6 44.4 43.7 61.6 76.2 95 120.7 160.1 191.9 222.1 267.8 290.6 305.7 313.1 312 308.1 310.2 307.4 305.8 296.5 294.4 294.8 291.2 293.7 285.6 283.1 289.4 288.3 269.7 248.9 212 191.8 186.1 179.2 171 161.8 155.7 155.7 155.7 155.7 155.7 155.7 155.7 165.9 171.5 171.2 176.3 177.5 181.1 183.8 186.4 184.6 185.4 188 190.2 196.8 202.6 198.6 194.8 194.4 200.7 213.7 216.9 218.5 228.3 244.4 280.2 286.4 285.2 289 293 299.8 308 311.1 318.6 322.9 331.5 347.9 371.7 391.1 427.3 455.4 471 467.7 462.2 470.9 476.9 488.4 491.7 484.9 491.1 502.6 514.7 517.9 535.2 558 582.2 601.9 617.4 628.4 632.8 635.2 645.1 667.4 702.5 720.1 726.1 740.1 773.2 782.3 774.7 762 754.2 736.8 725.1 719.8 714.3 711.8 712.9 713.7 714 701.9 652 610.8 576.8 549.3 526.7 500.1 492 477.6 477.2 488.5 508.7 520.4 527.6 534.4 546.2 556.7 557 555.7 553.4 564.5 580.7 594.1 603.7 610.7 597.5 595.6 574.6 569.2 572.9 545.4 521 488.4 479.7 463.9 462.2 456.5 459.2 468.8 485.7 509.2 530.6 549 553.7 547.6 537.9 529.5 529.5 529.5 530.3 544.2 571.1 597.9 627.2 666.1 697.4 717.9 724.5 723.7 724.7 727.7 722.8 720.2 719.3 715.8 706.8 702.9 696.8 689 672.4 652.1 635.6 617.4
38.1 38.1 38.1 41.4 41.9 38.1 38.1 38.1 38.1 48.7 60.9 80.1 96.2 115.6 142 193.7 229.4 270.9 290.1 301.8 303.9 300.2 302.1 301.1 298.5 291.1 293.7 301.6 300.9 299.8 295.2 293.4 295.7 294.6 270.9 244.7 224.2 211 197.9 188.3 179.9 171.2 163.8 155.7 155.7 155.7 155.7 155.7 155.7 155.7 163.1 167.4 169.4 171.3 177.2 180.3 182.5 181.9 182.1 183.4 186.2 193.9 197.4 194.6 193.2 194.7 200.2 210.5 221 218.8 230 240.1 265.2 283.7 283.9 287.9 291.5 295.5 305 310.3 319.5 325.5 337.4 353.9 389.1 414.7 432.7 464.7 485.3 483.6 478.4 475.6 481 487.5 489.5 485.9 496.2 507.3 519.5 524.7 543.3 565.7 588.6 618.5 645.6 659.6 674.2 688.1 687.1 693.9 724.6 755 764.2 776.6 796.7 792.2 779.7 763.8 751.2 732.9 722 714.4 709.5 708.9 710.2 711.9 714.9 715.7 679.7 639.9 602.3 576.3 543.2 518.2 508.4 494 499.7 509.8 527.7 543.4 550.8 562.4 577.7 589.4 593.7 601.7 604.2 611.8 619.3 633 641 648.3 644.6 656.5 653.9 636.3 641.7 610.7 564.8 528 504.9 487.7 485.7 472.5 473.1 474.4 487.5 509.7 536.5 549.6 546.6 534.1 529.5 529.5 529.5 529.5 529.8 556 581.2 608.2 638.9 675.7 714 733 739.6 741.1 740.5 736.6 731.9 727.9 723 716.6 705 699.4 695.8 686.3 666.8 651.7 632 621.6
38.1 38.1 38.1 39.5 38.1 38.1 38.1 38.1 38.1 38.1 39.8 54.8 75.9 91.8 120.7 167.4 202.7 243.6 274.7 288.8 296.5 292 295.4 296.8 300.9 289.5 294.1 306.5 306.6 308.8 303.9 307.5 301.9 293.8 275.3 251.7 242.1 229.8 208.8 196.4 193.2 184.6 170.5 159.5 158.2 155.7 155.7 155.7 155.7 155.7 155.7 162.6 164.4 165.3 169.1 175.6 178.4 177.8 179.5 181.5 183.9 191.6 193.9 192.8 193.6 193.3 199.4 210.1 221.1 218.9 231.1 238 248.5 276.3 280.9 287 289.1 296 303 314.3 321.2 329.3 344.9 367.4 397.8 424.1 448 467.9 489.1 485.3 477.8 478.2 476.2 482.7 484.1 484.3 490.4 507.2 516.7 525.6 540.9 560.5 591.7 620.8 651.5 673.3 694.4 718 734.3 730.2 748.1 774.1 790.9 800.4 798.2 786.4 771 756.1 742 725.3 715 705.6 700.7 702.4 704.9 708.8 714.9 718.5 699.5 660.9 629.9 596.2 562.5 537.8 520.8 515.1 515.6 528.6 544.1 560.9 572.1 590.5 604.4 620.7 631.5 642.8 646.9 654.7 657.2 665.5 675.9 679.1 682.1 692.5 695.8 685.5 688.9 652.3 591.1 552.5 527.4 505.5 499.2 495 495.1 497.1 516.2 536.4 563.8 561.4 545 529.5 529.5 529.5 529.5 529.5 537.8 565.7 586.1 616.9 652.6 691.1 732.5 746.2 751.6 754.1 749.3 744.4 738.9 732 723.3 711.4 697 691.8 687.2 675.3 658.9 643.8 632.4 621.4
38.1 38.1 38.1 38.1 38.1 38.1 38.1 38.1 38.1 38.1 38.1 38.1 52.5 68.1 93.5 145 180.6 219.6 249.8 273.8 286.3 286.9 289.9 285.9 292.8 294.3 291.1 299.8 309.6 310.4 307.3 307.3 299.7 291.4 278 254.5 243.9 233.5 219.9 213.9 204.8 192.3 183.7 172.9 160.8 155.7 155.7 155.7 155.7 155.7 155.7 155.7 160.7 161.9 162.1 166 172.8 174.2 174 174.5 176.6 187.7 191.7 194.5 195.8 197.6 202.5 213.9 220.8 218.3 222.9 237.3 248.1 253.9 277.2 284.6 289.6 296.7 305.7 313.9 322 334.8 344.7 368.7 396.1 424.4 448.2 463.3 482.1 482.9 477 475.3 472.4 474.2 479.7 481 486.9 498.7 509.6 521.5 535.3 553.3 589.4 623 654.5 673.4 690.2 711.2 729.6 749.9 766.6 780.1 790.8 791.9 786 773.5 759.2 744.1 729.9 714.6 703.8 691.6 687.7 692.6 697.6 703.8 711.9 720 719.3 678.1 643 610.4 577.9 552.6 531.3 523.6 528.9 539 556 577.6 598.6 615.7 633.8 650.2 665 676.6 685.7 692.6 698 700.1 710 716.1 718.8 726.3 728.6 723.8 723.1 671.8 622.3 577.4 547.6 536 527.8 522.7 521.2 532.9 548.9 561.7 579.3 558.5 540 529.5 529.5 529.5 529.5 529.5 546.5 572.1 595.3 626.1 660.6 699.1 743.3 752.4 757.6 757.1 752.3 747 738.1 728.9 712.4 697.4 686.8 679.9 673.5 660.7 647.6 636.9 624.2 618.2
38.1 38.1 38.1 38.1 38.1 38.1 38.1 38.1 38.1 38.1 38.1 38.1 38.1 48.8 72.7 109 143.9 184.2 218.8 243.2 271 275.6 277.4 277.1 282.4 292.2 289.4 293 303.3 308.5 303.4 299.3 296 289.8 281.8 261 252.8 240.4 230.5 221.3 211.8 201.2 200.1 181.5 165.7 161.3 158.6 155.7 155.7 155.7 155.7 157.3 159 157.3 157.3 162.2 165.7 169.9 169.8 167.9 180.7 190.3 191 194.8 196.2 198 207.1 214.6 219.7 217.7 218 231.1 234.6 248.1 268.5 282.4 291.7 301.9 304.5 307.4 326.5 334.7 345.4 364.1 388.2 417.5 436.8 451.6 466.8 480.2 472.3 473.4 469.5 469.5 475.2 480.2 484.7 490.6 498.4 510.3 526.4 549.5 587 618.3 644.7 665.1 680.5 699.8 717.1 737.3 756.8 772.5 778.4 779.7 769.7 758.7 745.3 730.5 715.9 702 688.8 676.1 674.1 680 690.1 697.8 707.1 720 732.9 700.7 664.7 638 592.8 567 540.7 534.8 539.3 548.7 569.7 598 619.8 638.1 658.4 676.9 693.2 709.6 720.5 728.9 734.1 740.3 743.6 750.8 756.6 761.6 761.4 756 739.2 700.3 675.5 621.3 585 560.8 555.2 559.2 561.3 573.1 577 589.5 585.7 562.8 533.9 529.5 529.5 529.5 529.5 535.1 548.5 573.5 601.4 631.4 666.3 703.5 739.8 755.2 759.1 756.2 751.5 742.8 732.8 714.7 694.9 681.7 671.3 664.2 655.5 649.2 635.9 625.3 618.1 612.2
38.1 38.1 38.1 38.1 38.1 38.1 38.1 38.1 38.1 38.1 38.1 38.1 38.1 38.1 50.9 73.9 105.8 136.2 188 209.5 248.7 261.3 267.7 274.1 278.9 282.2 286.3 294.5 296.2 304.9 301.4 295.5 292.6 283.9 271.9 262.8 253.2 246.4 235.3 227.4 221.9 209.1 197.9 188.6 175.7 165.5 160.9 155.7 155.7 155.7 155.7 155.7 155.7 155.7 155.7 158.2 162.5 164.9 167.3 166.6 173 179.4 182.8 187.8 195.2 197.1 210.1 215 216.2 214 217.4 223.3 238.3 254.2 264.8 278.4 290.3 301.9 302.8 310.8 326.7 338.1 348 359.4 381 404.3 422.4 438.9 450.7 468.4 469.1 470.6 470.4 469.5 472.8 481.8 484.5 485.5 489.7 500.4 515.8 542.5 581.1 607 632.6 649.7 670.2 690.1 705.4 723 742.9 764 769.4 764.1 755.3 743.5 730 713.8 700.7 687.3 671.7 660 661.1 669.9 678.5 688.8 700.3 718 731 740.3 690.4 649.4 609.2 577.4 554.3 547.5 550.2 561.1 589.4 617.1 640.9 662 681.3 701 720.2 735.4 748.2 759.7 764.8 769.8 774 776.3 781 784.4 785.3 783.4 766.5 734.3 704.4 653.1 623.3 609.6 597.3 588 594.2 610.4 606.2 614.2 590.9 561.1 534.7 529.5 529.5 529.5 537 543.9 557.9 579.5 610.2 646.3 683.3 718.3 746 755.3 756 753.2 744.8 736.4 712.9 692.7 676 663 652.3 644.7 640.5 634.9 626.3 617.8 610.1 603.1
38.1 38.1 38.1 38.1 38.1 38.1 38.1 38.1 38.1 38.1 38.1 38.1 38.1 38.1 38.1 44.5 68.9 96.7 130.7 172.6 216.2 233.7 248.6 262.6 269.1 272.9 278.4 285.8 293.9 299.2 299.2 294.9 280.5 277.6 269.5 261.9 253.7 249.9 244 238.8 231.7 226 209.9 188.8 177.9 168.5 162.9 155.7 155.7 155.7 155.7 155.7 155.7 155.7 155.7 155.7 159.8 163.1 163.2 164.4 166 168.2 174.5 178.5 188.4 198.7 208.9 213 212.5 216.8 219.7 230.8 243.5 254.4 261.6 275.2 287.9 297.1 309.3 314.2 323.5 330.3 341.3 353.7 369.1 388.3 404.8 426.7 434.9 448.3 463.4 464.1 473 469.5 471.7 478 484.8 485.8 487.6 490.5 507.5 532.3 568.4 594.4 612.8 631.9 654.8 678.2 692.6 709.6 730.4 759.3 762.7 751 741.8 731.3 717.6 701.6 686.2 671 654.9 650.7 650.6 659.9 668.3 678.6 692.5 709.1 725.5 738.1 730.7 671.5 633.5 593.3 575.2 561.9 566.9 582 610.9 637.1 663.2 683.7 704 724.7 743.8 759 770.9 780.3 786.7 790.4 791.2 792.1 794.7 796.2 797.5 794.1 788.3 767.1 713.7 687.9 653 649.9 640.2 633.5 638.6 639.2 633.2 622.3 587.6 558.9 537.6 529.5 529.5 529.5 538.4 548.3 565.7 595.5 627.9 664.8 710.8 739.3 750.3 754.5 753.5 748.7 734.1 705.8 685.6 669.7 652 640 629.5 627.1 624.8 620.4 610.6 605.7 601.5 593
38.1 38.1 38.1 38.1 38.1 38.1 38.1 38.1 38.1 38.1 38.1 38.1 38.1 38.1 38.1 38.1 38.1 65.5 87.3 128.3 176.2 213.4 235.2 236.6 251.9 258.1 270.7 279.9 290.1 298.6 292.1 287.1 277.6 268 263.8 259.5 254.1 249.4 243.1 240.7 239.1 232.3 222.5 199.3 187.4 174.8 165.8 161.1 155.7 155.7 155.7 155.7 155.7 155.7 155.7 155.7 155.7 160.3 160 162.4 162.9 164.7 169.9 176.5 186 194.9 203.8 212.1 210.1 222.2 229.8 236.2 245.2 254.6 262.6 278.6 291.8 303 306.4 308.8 317.3 324.4 339.5 343.7 354.5 371 389.9 408.1 420.9 432.9 448.1 458.2 464.2 470.3 474.4 481.4 481.7 483.1 482.4 489.8 497.8 518.9 550.2 575.7 598.4 611.6 636 660 678.9 697.3 718.3 746.9 754.6 742.6 731.2 719.2 705 690.1 675.1 657.5 643 639.3 641.7 647.9 656.1 668.2 682.9 699.9 715.8 729.9 732.3 703.6 660.9 622 598.5 583.8 590 610.3 635.7 663.2 685.6 707.4 729.6 746.7 763.1 775.3 785.3 784.2 782.4 777.5 776.7 777.9 778 779.1 780.4 781.7 782.5 775.7 736.9 702 683.5 679.6 679.6 681 670.1 661.8 640.4 618.4 586.3 554.7 537.2 529.5 532.8 530.6 543.5 559.5 583.9 612.9 647.1 685 726.6 742.1 749.6 751.7 750.3 744.4 712.3 678 661.8 651.3 629.6 617.7 615.2 610 609.3 601.8 600.5 593.7 588.3 583.7
38.1 38.1 38.1 38.1 38.1 38.1 38.1 38.1 38.1 38.1 38.1 38.1 38.1 38.1 38.1 38.1 38.1 38.1 51.7 87.9 126.9 173.8 200.2 218.3 221.1 235.8 251.7 266.8 277 289.7 289.4 280.4 272.6 261.6 258.4 257 253.3 251 247.2 237.6 235 228.9 221.4 209 197.9 178.4 168.2 163.7 155.7 155.7 155.7 155.7 155.7 155.7 155.7 155.7 156.3 157.3 158 159.1 160.7 162.3 165.8 175.9 182.3 183.5 190.4 204.2 217.2 224.8 234.7 239.8 246.2 253.2 262 271.3 298.6 313.8 311.8 308.8 313.6 321.2 330.8 334.3 339.9 352.9 370.4 385.5 403.6 414.7 430.6 445.2 456.6 469.5 479 477.5 476.9 481.9 480.7 483 494.6 503.1 524.3 554.4 582.4 596.4 617.7 640.4 663.4 682.4 704.9 742 743.6 733.4 721.1 709.9 695.8 682 664.1 645.6 633.1 629.5 633 637.6 644.3 656.4 668.5 687.2 704.1 715.5 721.9 722.7 682.1 661.5 632.2 619.4 621.4 639.1 663.8 688.1 711.4 734.2 753.7 767.9 776.2 772 757.7 750.8 745.7 744.6 743.4 744.7 745.7 749.8 754.4 757.7 761.7 762.9 756.7 732.8 712.5 709.1 719.5 711.3 697.5 672.9 640 613.9 583.4 555.8 543.1 531.8 532.7 537.8 552.5 568.5 597.4 630 665.5 700.1 728.3 739.5 745.8 747.6 745.3 737.3 701.4 660.9 639.7 626.5 611.7 606.4 599.8 593.1 593.8 589.2 589.2 583.6 576 571.1
38.1 38.1 38.1 38.1 38.1 38.1 38.1 38.1 38.1 38.1 38.1 38.1 38.1 38.1 38.1 38.1 38.1 38.1 38.1 49.1 71.9 111.9 163.6 186.5 198.7 205.1 229.6 243.1 256.5 262.3 276.8 275.9 267 258.2 249.3 251 250.4 246.9 243.5 241.7 236.8 225.4 218.7 211.5 202.8 186.8 174.7 169 162.4 155.7 155.7 155.7 155.7 155.7 155.7 155.7 155.7 156.5 157.1 158.3 160.6 162 164.7 177.2 188.6 192.6 189.3 196.4 208.6 222.6 231.6 243.3 248.7 246.4 261.5 283.7 298.1 308.4 310.9 308.5 308.9 318.8 323.1 320.3 332.9 344.9 356.3 369.8 389.2 401 415.1 432.2 446.5 465 478.1 477.5 474.2 474.7 475.7 479 480.8 488.5 511.5 533.7 561.2 583.9 603.3 624.8 646 666.2 688 715.8 730.4 723.3 713.5 702.6 687 674 656.3 638.6 626.1 620.4 626 628.3 630.5 637.4 654 669.8 689.4 701.7 710.1 712.5 707.7 695.4 683.2 672.9 665.9 679.1 695.8 716.2 735.8 754.4 769.1 773.7 750 732.8 722.6 714.2 709.1 707.9 705.6 708.7 710.8 718.2 723.9 729.9 735.6 740.3 740.2 738.8 733.5 731.3 724 712.8 695.3 669.4 637.3 610.5 579.3 557.9 542.9 531.7 531.9 538.2 552.1 576.2 608 643.2 678.6 704.4 724.3 734.9 741.1 742.4 739.2 710 677.3 647.5 628.5 605.5 597.8 593.8 585.3 578 579.3 576.9 575.3 570.2 562.1 565.2
39 38.1 38.1 38.1 38.1 38.1 38.1 38.1 38.1 38.1 38.1 38.1 38.1 38.1 38.1 38.1 38.1 38.1 38.1 38.1 38.4 54.7 96.3 144.6 167 182.1 203 218.7 234.2 242.8 248.2 249.9 254.8 252.4 238.7 240.8 244.9 243.2 239.8 237.8 240.2 231.2 220.1 211.9 208.2 212.1 186.1 177.5 171.1 163.1 155.7 155.7 155.7 155.7 155.7 155.7 155.7 155.7 155.7 157 160 162.2 165.9 175 189 194.5 198.8 195.6 195.1 214.5 226.3 245.8 247 246.2 268.4 289.4 296.5 308.2 308.8 310.2 302.1 306.7 305.2 307.7 325.3 337.5 344.6 357.1 374.5 390.9 404.9 418 434.9 458.8 479.5 477.4 473 469.5 467.8 471.8 471.9 476.5 495 521.2 545.2 565.3 587.1 605.5 630.3 651.7 672.1 697 717.9 712.5 705.6 696.6 680.7 668 647.8 631.4 619 615.6 618.1 617.6 616.7 621.3 631 649.6 666.8 682.2 691 695.3 699.2 703.9 705 711.8 712.8 717.7 730.9 747.5 760.5 770 767.6 731.9 705.6 692.1 683.3 677.3 673 671.6 668.4 669.8 674.4 681.6 689.6 697.2 704.2 709.9 715.3 718.3 720.5 720.5 714 693.7 673.3 655.6 631.5 607.2 575 555.2 538.6 529.7 529.7 539.9 557.3 580.3 616 652.3 683.7 705.5 719.3 729 734.3 735.2 709.1 683.4 657.4 638.1 610.7 589.9 574.1 573.4 566.1 565.8 565.3 560.9 557.1 556.9 555.2 561.6
43.9 43 41.6 38.1 38.1 38.1 38.1 38.1 38.1 38.1 38.1 38.1 38.1 38.1 38.1 38.1 38.1 38.1 38.1 38.1 38.1 38.1 54.6 77.1 105 143.8 178.5 200.1 209.1 216.7 220.1 227.9 231 236.3 223.1 227.2 231.2 241.8 244 234.5 228.6 228.1 216.9 209.6 207.9 206.2 191.3 186.4 177.1 165.9 155.7 155.7 155.7 155.7 155.7 155.7 155.7 155.7 155.7 155.7 160.6 164.9 168.4 176.6 185.5 199 205.7 206.1 206.3 211.4 224.5 239.1 251.3 263.2 277.2 281.4 294.5 307.2 309.5 309.4 300 298.5 297.9 304.3 315.9 328.4 336.9 344.3 359.6 373.9 393.4 409.4 429.1 449.4 467 473.3 470.7 468.3 465.7 465.7 467.5 467.3 494.2 516.3 538.3 556.6 568.4 585.2 607.4 630.4 650.4 674.5 703.2 702.6 697.9 689.8 672.3 660.1 641.1 624.6 613.1 609.2 610.6 607.2 609 610.4 618.5 628.1 646.2 657.2 667.5 679.8 692.4 699 704.1 715.6 728.7 735 747.2 757.2 764.8 768.2 745.3 702.9 675.5 656.6 649.2 642 634.5 627.9 625.6 627.3 636.1 643.4 653.8 660 667.1 673.2 680.6 689.9 696.7 701.9 690.1 664.4 640.5 631.8 617.4 595.9 571.1 543.3 536.1 525.7 526.7 540.9 558.8 588 623.5 657.8 683.5 701.3 713.9 722.9 727.6 725.2 680.7 658.1 636.1 613.6 595 572.5 561.4 560.3 557.2 552.2 549.7 546.6 545.4 544.8 546.2 547.8
51.3 47.6 45.7 43.8 42.2 38.1 38.1 38.1 38.1 38.1 38.1 38.1 38.1 38.1 38.1 38.1 38.1 38.1 38.1 38.1 38.1 38.1 38.1 38.1 53.3 82.2 107.8 166.6 181.4 197.9 197.7 202.5 203.6 210.8 205.1 207.9 217.2 228.1 227.5 226.7 221.8 217 217.4 208.9 203.7 201.5 196.7 190.9 182.3 167.3 156.5 155.7 155.7 155.7 155.7 155.7 155.7 155.7 155.7 155.7 157.2 168.6 173.4 177.4 184.8 194.9 205.1 206.3 218.5 213.7 216.7 238.3 250.4 279.7 286.6 288.3 296.7 305.8 304 301 306 296.3 295.4 301.2 310.5 318.1 326.1 338.1 349.5 362.2 377.4 401.2 419.7 444.8 457.7 461.9 469.2 465.6 464.4 465.2 462.2 462.2 482.7 506.2 532.3 549.8 557.8 566.1 582.8 604.5 626.6 653.6 688.1 689.9 686.5 678.4 666.9 652.2 639.4 621.2 608.7 604.2 603.1 599.6 599.9 602.1 603.2 609.9 620.7 634.7 647.5 665 682.1 690.5 698.9 712.2 722.4 730.8 741.6 748.1 751.2 754.1 739.9 683.6 656.5 638.1 624.8 608.6 598 588.3 584.1 588.5 595.9 603.7 614.5 621.2 628.5 634.3 643.8 656.1 670.1 680.7 657.9 634.4 613.1 600 591.8 578.2 550.3 531.4 523.8 518.7 526.9 540.3 561.3 589.7 627.2 658.6 680.1 695.7 708.3 716.8 721.1 701.8 663.7 636.8 619.8 598.8 578.2 566.6 554.9 551 549.9 535.8 529 534.4 535.4 540.6 534.6 543.3
62.2 56 51.2 48.8 46.1 43.2 39.6 38.1 38.1 38.1 38.1 38.1 38.1 38.1 38.1 38.1 38.1 38.1 38.1 38.1 38.1 38.1 38.1 38.1 38.1 38.1 54 105.4 134.6 161.5 168.8 172.9 180 186.1 190.6 187.3 195.9 202.8 205.9 204.8 208 206.3 206.6 209.9 203.6 199.3 197.1 192.3 187.8 178.2 171.8 165.8 155.7 155.7 155.7 155.7 155.7 155.7 155.7 155.7 155.7 165.3 174.5 179.8 196.9 193.1 203.3 213.6 227.4 223.7 224.8 222.8 260.1 281.8 291.1 294.1 299 303.5 299.5 299.8 302.9 295.1 294.9 301.4 308.7 313.5 321.7 332.4 345.2 354.2 367.7 385.8 404.4 435.1 449.1 451.9 457.3 461.2 463.2 462.2 462.2 462.2 475.1 496.7 527 546.5 550.4 554 564.7 583 603.7 637.4 670.8 673.2 672.2 664.1 656.9 647.1 639.5 621.1 607.8 599.4 597.9 592.8 592.5 593.9 595.7 597.1 597.9 608.4 627.7 652.3 667.8 678.3 686.1 694.6 703.3 711.2 719.8 728.7 735 739.2 737 682.6 641.2 617.9 596.1 582.7 573.6 558.4 557.3 558.2 559.5 566.4 577.9 582.9 588 595.5 605.1 623.1 640.3 652.5 637.3 607.7 588.5 580.3 570 556.2 536.2 515.3 507.5 505.8 522.4 537.2 561.1 592.3 627.8 655.7 672.2 689.7 702.7 710.7 713.2 685.3 657.2 634.8 605 584.9 575.5 565.7 553.9 547.2 538.8 525.4 520.5 520.5 521.7 520.8 530.6 540.5
75.2 66.5 62.7 55 51.8 51.3 49.6 44.1 38.2 38.1 38.1 38.1 38.1 38.1 38.1 38.1 38.1 38.1 38.1 38.1 38.1 38.1 38.1 38.1 38.1 38.1 38.1 55.3 86.5 115.1 133.5 142.8 158.3 161 166.8 168.4 175.1 184.8 188.7 192 194.5 194.1 193.1 194.5 200.5 195.3 193.5 194.8 190.3 190.6 190.4 182.7 173.8 158.1 155.7 155.7 155.7 155.7 155.7 155.7 161.4 164.5 176.6 181.9 198.9 201.9 205.4 214.5 224.3 230 232.2 247.8 253.5 270.4 293.5 294.6 293.3 295.8 299.3 300.6 299.6 295 297.1 302.2 307.3 312 316.6 323.4 340.7 351.4 361.8 374.1 391.4 415.3 435.6 444.6 448.1 451.7 461.5 465.2 462.2 462.2 471.1 493.5 517.8 534.9 548.8 549.4 561 573.7 586 610.9 638.9 653.8 652 648 644.5 642.3 635.9 620.9 608.7 595.7 588 587 581.6 581.2 584.6 587 585.2 595.7 607 635 650.8 660.4 668.4 677.2 681.5 687.5 694 702.5 710.2 718.3 723.7 680.2 639.2 594.7 576 562.4 545.3 542.9 536.5 541.8 544.6 540.8 538.3 545.6 552.7 558.2 567.9 588.8 604.4 619 610.7 589 570.4 558.7 551.7 528.3 518.1 506.7 496.6 501.4 514.6 534.3 558.3 594 626.2 649.3 666.8 685.1 698.7 707.2 708.6 679.3 654.2 629.2 604.1 587.9 577.9 560.5 553.3 536.2 526.5 516.2 516.6 518.7 515.6 515.1 527.5 530.1
96 83.8 77.7 70.2 64.5 60.6 56.5 50.1 46.1 38.6 38.1 38.1 38.1 38.1 38.1 38.1 38.1 38.1 38.1 38.1 38.1 38.1 38.1 38.1 38.1 38.1 38.1 38.1 46.1 70.9 88.1 103.2 118 126.9 146.2 150.7 151.3 174.9 178.3 178.9 178.1 179.7 180.7 183.8 187.8 188.6 192.5 188.5 185.7 188.8 197 198.2 195.1 183.1 174.7 164 155.7 155.7 155.7 159.6 169.4 172 175.3 183.6 194.7 212.4 216 223.1 222.5 229.2 238.1 261.3 270.6 263.3 286.5 288.5 287.2 296.5 300 299.6 293 294.5 298 298.4 302.2 308.1 316.5 319.5 329.8 342.6 353.4 364.6 379.7 399.8 420.3 429.5 437.7 444 455.3 466.8 462.2 462.2 469.9 490.5 508.5 534.9 548.6 547.7 553.3 563.3 576.9 587.7 605.4 620.9 626.3 628.5 629.8 633.8 628.2 616.8 606 591.3 579.6 579.8 575.1 571.7 571.6 567.6 565.4 576.7 591 610.3 628.7 636.5 645.3 654.5 660.1 665.1 669.5 674 684.7 696.5 708.5 681.8 623 589.3 552.8 533.4 523.7 521.2 520.5 523.2 521.7 522.4 520.2 523 525.1 530.8 536.6 553.9 561.9 573.2 572.6 567.5 555 542.8 524.2 508.4 501.7 491.2 489.2 497.8 514.1 536.3 556.2 593.2 621.7 645.8 664.9 683.4 698.5 705.7 709.1 693.1 665.8 626.2 603.2 592.6 576.5 565.6 549.2 531.6 524 509 509.2 511.9 512 518.7 525 534.1
117.8 109.9 98.8 88.4 78 71 65.4 56.9 56.5 49.1 44.2 38.1 38.1 38.1 38.1 38.1 38.1 38.1 38.1 38.1 38.1 38.1 38.1 38.1 38.1 38.1 38.1 38.1 38.1 38.1 46.7 66.9 85.8 94.9 110.2 117.7 130.2 142.6 164.9 171.9 173.5 174.8 172.7 173.9 178.1 177.9 180.7 179.6 178.3 183.8 193.2 203.6 199.3 190.2 186.6 175.6 173.5 160.9 156.6 160.6 170.7 181.5 177.4 188.6 194.1 212.2 222.3 230.9 232.4 240.8 245.3 254.1 271.1 271.5 268.1 283.5 285.5 297.3 304.5 299 294.4 291.8 292.3 293.8 301.4 306.7 308.3 315.2 324.7 337.1 343.2 357.4 370.1 388.3 400.5 414.4 421.6 434.2 449.5 462 466.6 462.2 465.8 484.5 505.3 523.9 546.2 546.6 551.4 555.9 564.4 576.2 583.2 593.9 598.2 604.2 612 619 615 608.4 599.5 585.8 572.9 565.2 563.7 559.1 556.5 551.2 552.3 559.6 568.5 589.6 603.6 616.3 625.4 630.8 638.4 643.6 649.6 655 664.8 679.1 687.6 659.6 606 568.9 543.7 523.2 511.9 514.2 509.8 506.7 507 502.3 502.1 500.8 502.7 501.2 505.9 523.3 522.8 525.5 530.1 532.2 526.9 515.4 503.3 494.3 488.3 479.5 487.5 494.7 512.9 534.6 561.7 593.7 624.3 648.3 669.4 687.8 699.7 705.3 711.4 704.2 671.1 637 605.8 591.6 583.3 565.8 548.4 532.6 515.1 506.8 505.3 506.1 510.9 518.2 527.3 539.8
129.4 118.7 108.2 98.5 89.9 83.8 73.9 68.3 60 57.7 51 45.1 41.1 38.1 38.1 38.1 38.1 38.1 38.1 38.1 38.1 38.1 38.1 38.1 38.1 38.1 38.1 38.1 38.1 38.1 38.1 44.1 59.5 71.6 86.5 93.9 103 115.8 127.1 148.1 162.2 165.1 166.2 171 174.8 171.7 170.3 169.1 171.6 180.7 183.8 184.2 192.5 192.5 195.7 205 193.4 195.6 171.3 159.7 169 181 182 193 199 211 227.3 229.6 248.5 249 256.1 260.5 271.5 273.7 267.7 282.5 283.9 293.2 304.9 295.6 296.5 292.6 290.4 295.1 299 305.2 308.1 308.4 318.1 328.1 336.7 352.5 361.6 375.7 387.6 396.8 409.8 426.8 441.8 459.2 464.5 464.7 466.1 478.7 494.9 511.2 526.8 541.6 548.7 550.8 555.5 564.1 573.3 577.4 582.3 583.4 587.5 596.6 596.4 594.6 587.1 578.2 564.5 546.9 546.6 542.2 537.5 542.3 541.1 543.3 545.3 560.7 576.6 587.2 603.8 610.4 618.8 631.1 631.6 637.3 649 663.4 668.9 633.4 590.2 555 533.1 516.1 505.5 503.2 501.6 497.3 493.4 489.1 485.1 480.4 477.8 476.8 475.2 471.6 476.3 485.7 491.6 490.3 487.2 480.1 478.5 475.9 463.3 474.1 487.8 496.6 517.8 538.4 568.7 603.2 633.6 657.2 676.3 691.9 702.6 710.4 715.2 703.9 669.5 648.5 618.6 598.2 576.2 558.8 541.7 525.9 511.8 502.1 502.3 502.6 508.8 518.9 529.1 536.7
137.1 124.1 117.6 107.4 99.6 96.8 86.5 77.9 71 67.7 57.4 51.3 48.8 41.8 38.1 38.1 38.1 38.1 38.1 38.1 38.1 38.1 38.1 38.1 38.1 38.1 38.1 38.1 38.1 38.1 38.1 38.1 38.1 38.8 53.4 64.5 74.8 87.2 101.3 114.6 142.3 146.6 147.3 151.9 155 158.1 161.6 159.3 160.4 168.9 175 181.1 180.5 179 190.3 210.1 214 209.6 202.2 172 165 182 187.6 189.4 198.3 203.5 220.7 232.6 246 256.5 268.6 273.2 277.6 278.7 268.3 279.4 283.3 285.3 289.2 294.1 293 289.9 288.6 296.5 299.5 306.1 307.7 310.1 321.3 326.9 333.6 346.8 354.7 365.3 372.7 382.7 397.7 415.9 435.7 446.9 455.7 459.7 464.6 470.9 485.1 500.1 514.5 528.3 540.8 550.9 553.7 553.2 557.1 560.7 563 563.7 574.8 579.6 576.9 574.7 571.3 564.3 558.2 544.4 534 528.6 523.6 532.5 524.7 530.4 533 540.8 551.8 561 575.9 584.2 599.3 612.1 617.3 622.4 635.1 649.4 649.2 617.6 579.2 543.3 521.8 502.2 495.2 491.8 490.8 490.2 483.2 478 472 462.5 455.1 454.4 451.2 449.4 448 452 465.7 464 461.3 458.3 456.6 455.7 454.2 472.8 484.7 501.8 523.3 549.4 580.1 613.3 644.5 666.4 683.3 698.7 708 714.9 717.6 698.3 666.3 635.1 620.1 596.4 567.7 539.5 528.7 516.8 505 496.9 501.9 505.4 510 524 532.1 544.9
149.4 138.2 129.9 122 113.5 109.2 98.9 91.1 81.1 79.1 69.8 61.7 55.7 51.8 45.3 38.4 38.1 38.1 38.1 38.1 38.1 38.1 38.1 38.1 38.1 38.1 38.1 38.1 38.1 38.1 38.1 38.1 38.1 38.1 38.1 38.1 48 60.1 75 90.8 107 118.6 122.1 128.4 133.5 140.4 142.9 151.2 154.7 154.6 162.7 167.6 175.3 173.5 178.9 198 216.6 219.9 210.9 188.5 175 175.1 193.2 188.5 194.1 197 217.4 237.7 243 262.8 273.2 293.5 314.7 310.8 298.3 285 277.5 281.2 285.3 291.1 294.7 292.9 288.3 290.2 301.8 302.9 306 312.8 319.7 325.9 332.1 343.2 352.7 362.1 370.2 375.4 389.3 404.8 425.6 437.7 446.3 457.1 464.4 469.9 479.2 485.8 502.1 512.7 524.2 541.8 549.2 547 545.3 545.4 547.9 551.2 567.5 570.4 563.9 559.1 554.6 552.9 546.1 536.4 529 518.5 512.1 514.6 513.3 521.4 524.4 525.7 528.3 536.5 549.3 554.9 578.7 589.7 601.8 614.2 627.2 640.3 637.2 602.1 568.8 535.6 512.3 490.5 483.3 479.6 478.5 479.4 473.9 463.9 455.6 441.1 432.7 430.6 433.2 429.1 428 430.6 443.8 439.4 442.9 440.8 441.9 442.8 459.4 476.1 487.4 510.8 532.9 560.1 594.1 627.5 656.5 677.6 694.6 705.7 714.6 718.9 719.2 692 657.8 629.6 602.8 583.2 556.8 530.1 507 499.9 496 495.3 500.4 503.7 514.1 527.6 538.9 550.9
167.2 155.5 146.9 139.2 128.1 117.7 110.4 100.2 99.3 88.4 77.8 73.1 64.4 58.5 48.3 44.3 39.4 38.1 38.1 38.1 38.1 38.1 38.1 38.1 38.1 38.1 38.1 38.1 38.1 38.1 38.1 38.1 38.1 38.1 38.1 38.1 38.1 38.1 47 65.3 80.8 89.5 98.9 104.8 112.8 121.6 126.4 136.4 145.5 147.3 146.1 156.8 160.7 168.7 170.3 181.3 194.7 212.6 213.7 199.2 178.2 174.8 187.4 193 193 195.3 221.2 250.1 254.9 263.2 281.8 301.7 321.7 320.8 311.4 302.3 282.2 278 282 285.5 293.2 290.4 288.6 290.4 297.4 305.7 307.9 312.6 316.3 319.7 329.1 341.1 351.8 362 372.2 375.4 387.3 403.5 421.8 436.7 445.4 454.6 466.4 472.5 474.8 479.9 485.2 493.8 511.2 529.3 535.7 538.5 532.8 533.8 534 538.5 554.4 553.6 552.3 548.2 546.7 541.5 532.8 529.2 521.2 509.8 504.3 500.5 501.6 510.5 512.6 508.1 511.8 520.3 529.6 537.5 557.5 572.9 592.1 604.5 615.4 624.9 624.6 586.4 550.9 522.3 501.6 481.7 475.7 469.8 468.1 465.9 462.7 452 435.3 424.9 417.7 414.8 410.1 413 409.4 420.3 421.5 422.5 428.4 427.7 428.7 443.8 462.6 481.9 499.5 520.9 545.5 575.6 609.4 642.3 668.9 689.5 703.3 713.5 721 723.2 712.6 681 643 622.5 595.3 563.8 547.7 521.8 499.4 485.8 484.8 489.1 496.5 504.5 519.1 533.1 546.8 557.8
191 173.4 159.1 154.5 147 132.9 118.4 118.8 117.1 98.5 90.6 82.8 74 64.7 56.8 52.8 45.8 42.6 41.2 38.1 38.1 38.1 38.1 38.1 38.1 38.1 38.1 38.1 38.1 38.1 38.1 38.1 38.1 38.1 38.1 38.1 38.1 38.1 38.1 38.1 53.1 61.1 74.5 82 90.1 99.5 110.1 118.1 136.9 141.5 143.1 146.5 152.6 159 169.5 177.4 190.9 203.2 204.2 195.4 183.1 175.9 176.1 181.7 195.8 196.8 221.4 255.3 267 272.1 288.1 304.2 324.1 320.1 315.4 308.5 296.1 279.6 277.7 280.3 283.3 289.7 286.8 295.6 301 308.4 312.8 311.5 312.7 315.4 327.5 340.7 353 361.9 372.9 380.1 386.4 400.3 416.1 429.2 444.4 456.1 465.5 475.2 472.7 476.7 482.8 491 500.7 522.5 521.7 525 525.2 526.6 525.2 525.9 536.1 538.5 541.2 538.1 537.6 531.9 524.3 519.9 512.4 506.3 497.2 492.2 493.9 489.8 494.2 491.4 501.5 507.7 512.3 525.1 545.5 567.4 580.5 585.7 598.3 607.2 604 574.3 530.5 506.3 484.8 473.6 465.9 461.4 460.2 452.6 450.5 436.2 422.7 416.4 404.1 401.7 396.7 401.2 401.4 407.3 405.7 412.9 417.8 416.7 424.6 447.2 464.9 485.8 509.3 533.4 559 595.1 625.9 655.3 680.8 700.3 712 722 726.6 725.7 695.7 671.2 641.2 619.5 587.3 556.5 530.6 511.7 485.1 475.3 475.9 480.8 496.1 509.9 525.4 538.6 550.4 565.3
203.7 186 170.8 168.8 162.2 148.4 149.9 141.8 124.9 109.8 100.8 91.4 84.9 76.4 69.6 61.6 56 52 44.4 42.9 38.1 38.1 38.1 38.1 38.1 38.1 38.1 38.1 38.1 38.1 38.1 38.1 38.1 38.1 38.1 38.1 38.1 38.1 38.1 38.1 38.1 38.1 47.5 59.9 67.6 76.2 88.1 100.4 109.9 131.9 135.9 139.5 140.2 149.3 152.2 169.9 191.7 201 198.4 190.6 185.9 180.5 177.9 178.2 181.9 196.6 218.8 248.8 266.1 281 293.1 299.3 325 324.6 320.8 318.4 313.5 299.2 285.7 279.8 277.2 281.1 280 296.2 303.7 310.5 313.5 313.2 313.8 316.8 327.7 342.1 354.6 361.3 374.7 380.5 389.4 403.2 408.9 425.9 441.1 455.5 463.7 472.9 474.3 474.1 479.8 478.3 492.8 507.6 515.2 511.7 511.4 512.4 512 512.2 518.8 527.8 528.1 527.1 526.6 521.3 513.3 509.2 506 501.3 492.2 489.2 485.9 483.7 482.8 483.9 486.6 500.4 501.4 514.5 535.7 554.9 569.1 568.1 575 579 582.2 565.5 526.1 495.9 475.5 465.5 457.6 453.2 450.2 444.6 431.9 421.1 410.9 405.1 391.3 387.3 386.7 389.5 394.1 395.1 396.4 404.2 404.5 404.5 424.5 450.5 470.9 491.8 516.1 544 578.3 610.8 641 670.8 692.1 708.6 720.5 728.1 730.7 724.4 685.2 659.7 640.4 618.6 584.6 551.6 519.3 496.1 474.1 462.5 466.5 475.8 491.1 511.1 528.4 543.6 556.3 568.2
233.3 215.2 201.2 187.5 176.6 175.3 160.7 146.7 135 130.7 119.8 108.5 98.9 89.3 80.7 74.3 67 58.9 54.5 53.3 48 41.7 38.1 38.1 38.1 38.1 38.1 38.1 38.1 38.1 38.1 38.1 38.1 38.1 38.1 38.1 38.1 38.1 38.1 38.1 38.1 38.1 38.1 38.1 41.6 50.9 64.8 80.3 93.7 108.8 122.4 127.4 128.9 140.5 145.1 152.7 185.1 194.3 201.7 200.1 190.6 188.6 187.7 185.3 181.8 185.6 202.2 230.6 255.5 276.3 298.3 296.2 297.2 314.8 320.8 321.8 317.2 307.6 293.2 283.7 280.7 278.1 280.2 287.5 304.4 314.9 317.6 319.2 320.7 325.7 329.5 340.8 356 364.5 376.2 385.6 388.9 410.1 412.9 424.4 437.2 450.4 463.7 467.9 475.1 476 476.1 474.5 480.8 497.7 495.8 494 496.1 489.1 495.4 494.8 503.8 511.2 517.6 512 515.6 512.2 506.8 498.6 497.7 494.9 486.7 483.6 485.3 480.6 478 479.8 482.6 489.1 500.1 505.1 528.1 540.9 557.7 557.1 562.8 565.9 567.2 554.7 525.3 490.2 474.7 462.3 453.9 443.1 439.5 433.7 418.3 411.1 402.3 393.5 383.7 377.4 378.7 380.5 386.4 385.4 389.1 393.6 394.6 402.6 421.6 448.5 475.3 497.4 528.2 558.9 593.5 626.5 657.7 683.5 701.2 716.2 726.8 732.1 735.7 729.9 694.2 661.6 618.9 605.4 573.9 545.5 513.7 484 463.5 453 458.8 469.8 486.3 506.1 529.2 545.4 559 569.8
250.9 236.1 221.6 208 209.1 203.2 192.4 176.1 172.4 162.4 145.1 129.6 116.6 102.5 97.1 85.4 78.6 69 64.6 65.8 61.6 49.8 46.1 43.1 38.1 38.1 38.1 38.1 38.1 38.1 38.1 38.1 38.1 38.1 38.1 38.1 38.1 38.1 38.1 38.1 38.1 38.1 38.1 38.1 38.1 38.1 40.5 55.6 71.3 89.2 106 112.7 118.9 126 133.7 137.7 155.3 188.8 192 193.7 188.2 185.2 192.2 191.2 187.8 190.8 194.3 200.5 227.7 255.8 285.4 288.5 291 296.8 315 314.2 317.7 310 302.7 286.4 287.3 280.9 278.5 280.1 289.7 313.9 319.6 326.1 329.8 329.4 333.9 339.9 355.1 365.2 372.9 384.5 387.2 405.3 418.9 430 438.6 448.9 457 465.4 475.7 476.5 474.8 472.9 471.9 476.8 479.9 477 476.8 471.1 472.8 482.8 488.8 499.4 505 499.4 500.7 501.5 493.4 488.2 486.9 485.3 478.5 476.6 478 477.3 472.2 476.1 483 487.9 495 504 516.9 535.5 540.6 545.7 554.6 557.3 555.4 542.7 512.2 487.3 466.8 455.7 441.8 435.8 428.3 418.8 411.6 400.4 392 385 377 371.8 371.1 374.1 377 374.6 382.8 387.6 383.9 400.7 420.1 448.4 478.7 508.7 542.6 573.1 609.4 639.4 669.3 690.4 707.6 721.6 731.6 738.1 740.4 736.6 700.7 663.2 631.5 587.2 563.8 536.9 503.5 470.4 451.2 443.9 452.2 465.2 479.9 502.8 527.4 543.9 557.6 571.9
296.7 281.7 267.4 252.7 236.2 226.4 217.9 202.9 192.6 179.2 164.1 148 135.2 123.8 114.1 101.2 89.4 81.8 76.3 73.2 68.9 62.1 53.1 48.2 45.4 41 38.1 38.1 38.1 38.1 38.1 38.1 38.1 38.1 38.1 38.1 38.1 38.1 38.1 38.1 38.1 38.1 38.1 38.1 38.1 38.1 38.1 38.1 47.3 65.6 83.4 99.3 107.2 114.4 120.4 128 134.9 153.4 175.9 180.8 181.6 182.3 195.5 199.4 194.5 193.6 196.1 195.4 196.8 223.2 256.2 269.9 277.1 281.8 300.6 306 310.5 309.7 307 289.8 296.1 288.2 280.4 278 278.5 304.4 314.5 324.5 332.3 338.1 334.4 338.5 352.6 362.2 369.6 378.5 384.9 402.1 417.6 431.6 442 447.6 456.4 459.2 470.1 473.7 474.7 472.4 468.5 465.6 463.2 462.5 459.7 458.7 460.1 461.6 471 481.5 489.1 483.1 484.1 484.7 483.8 478.9 480.5 473.8 470.8 469.7 470.4 470.6 468.7 475.1 491.2 492.9 495 497.1 512.4 526.2 530.9 539 544.4 547.3 548.2 537.1 505.7 479.3 459 446.5 429.1 428.5 422.5 406.9 398 390 382.8 378.2 369.7 363.2 365.1 368.8 367.9 373.3 379.7 377.5 383.6 401.3 421 450.3 488.5 519.7 555.5 588.3 620.6 650.2 674.8 695.5 712 725.5 734.7 740.9 744.2 742.7 703.4 664.5 630.9 589.2 552.1 523.7 492.6 462.5 444.2 438.5 446 458.4 472.8 498.4 523.1 540.8 555.7 570.6
310.4 301.3 290.6 278.9 264.2 243.6 233.4 217.1 207.5 195.5 180.4 165.3 151.4 139.7 131.3 120.2 108.5 95.8 91.9 84.5 78.2 70.9 64.2 57.1 50.9 46.4 43.8 38.1 38.1 38.1 38.1 38.1 38.1 38.1 38.1 38.1 38.1 38.1 38.1 38.1 38.1 38.1 38.1 38.1 38.1 38.1 38.1 38.1 38.1 40.4 65 78.7 89.9 101.2 108.2 113.6 116.6 128.5 151.6 159.6 161.7 176 202 211.2 214.2 200.2 198.7 198.8 199.2 203.6 231.8 252.9 262.3 273.7 289.1 294.4 298.9 300.6 301.5 294.3 289 290.8 280.3 278 279.8 286.2 302.7 318 330.6 341.5 340.4 338 351.4 361.4 367 373.9 382.1 401.3 409.5 427.8 437.7 445 451.9 456.6 464.1 469.1 470.4 472.1 467.6 461.1 460.1 456.8 449.9 448.5 451 450.9 458.7 458.1 468.8 469.7 465.5 465.2 469.8 469.3 465 465.3 464.2 464.1 466.7 465.8 467.8 475.4 494.5 497.3 498.3 501.9 513.7 526.6 530.9 536.2 538.5 540.4 543.1 525.6 502.7 474.8 448.4 432.8 421.6 426.8 412.6 400.6 390.1 384.2 374.7 371.9 364.4 363.2 363.2 363.2 363.2 371 374.6 373.3 381.5 398.4 420.5 453.8 495 531.6 561.9 595 626 654.8 677.9 698 715.2 727.9 736.7 742.5 746.1 746 710.4 671.9 634.4 596.1 567.7 532.6 478.1 454.4 435.8 436.8 442 455.1 468.5 493.1 518.4 536.7 549.6 565.5
323.5 311.5 302.2 293.4 282.9 265.1 249.7 239.4 228.2 211.5 200.1 186.9 167.9 152.7 147.5 135.5 120.6 116.4 113.3 97.9 93.7 83.3 77.4 71.9 67.5 59.9 52.6 48.2 42.3 38.1 38.1 38.1 38.1 38.1 38.1 38.1 38.1 38.1 38.1 38.1 38.1 38.1 38.1 38.1 38.1 38.1 38.1 38.1 38.1 38.1 48.6 56.8 65.3 79.3 93.4 99.7 103.8 112.5 126.8 136.2 147.8 158.6 192.9 215.2 222.7 221.7 212 209.9 207.5 206 224 245.7 253.9 262.4 276.3 286.4 295.1 299.1 298.2 298 288.5 283.9 281.9 279.4 280.3 292.1 305.5 318.3 324.7 331.3 336.1 338.6 347.6 369 367.1 370.7 375 391.9 408.2 420.3 431.9 440.8 446.9 452 458.7 464.6 466 466.4 462.1 458.2 452.1 449.3 445.9 445.2 442.9 442.1 446.3 448.6 452.8 453.3 452.7 449.7 454 453.7 457.8 456.8 460.9 460 461.4 461.3 462.3 476 494.3 498.2 503.6 513.7 524 538.9 540.2 535.6 538.1 544.8 536.2 513.7 494.8 472.4 441.8 425.1 416.5 411.4 400.9 390 382.5 377.5 370.9 363.2 363.2 363.2 363.2 363.2 363.2 367.1 368.6 374 384 401.4 424.5 453.8 504.7 538.8 569 599.9 629.5 655.4 677 700.1 717.4 729 738 743.6 746.9 748.2 715.5 677.2 639.4 599.9 569.9 530.9 490.4 452.3 436.4 432.2 438.7 448.3 466.7 488.6 513.2 530.3 543 558.2
327.5 317.7 312.6 303 290.1 275.3 264.5 254.7 242.5 229.7 217.6 200.3 185.2 173.4 163.1 146.3 145.6 132.9 128.4 121.3 108.8 98 92 84.3 77.4 72 65.5 59.6 51.1 47.8 42 38.1 38.1 38.1 38.1 38.1 38.1 38.1 38.1 38.1 38.1 38.1 38.1 38.1 38.1 38.1 38.1 38.1 38.1 38.1 38.1 38.1 41.5 56.9 74.1 86.1 91.6 100.4 110.2 118.8 129.4 138.6 159 185.4 210.7 224.8 227.8 218.9 218.9 212.3 219.1 238 254.5 254.2 261.3 277.7 290.8 297.7 303.8 308.5 296.5 287.7 281.7 281.8 279.6 288.1 309.1 325.3 329.2 333.2 335.3 337.4 344 371.3 380.9 375.4 373.8 392 402.1 415.7 425.2 435.6 446.6 451.6 455.1 460.7 463.1 460.1 452.7 451.3 447.4 444.9 440.6 437 435.3 435.9 435 435.5 437.8 438.5 441.6 441.3 442.6 440.9 449 448.4 454.1 453.6 458.5 462.7 463.2 469.4 481.1 493.1 508.9 521.7 531.6 538.3 544.1 546.4 547.5 544.8 536.8 506.8 484 457.9 435.5 421.5 409.3 397.3 387.1 382.3 378 372.6 363.2 363.2 363.2 363.2 363.2 363.2 363.2 365.8 368.3 374 383.4 406.2 434.8 468.3 507.1 542.3 578 607.8 631.6 655.7 678.6 700.7 718.5 730.2 737.4 743.1 746.9 749.9 726.9 681.9 645.3 609.4 567.7 526.4 488 450.3 434.1 430.9 433.6 447.7 464.1 490.8 506.5 521.1 536.9 549
329.1 320 317 311.2 306.1 294 283.8 271.9 262.6 256.1 234.4 215.2 200.2 181.9 178.1 169.5 162.9 151.8 143.7 136.1 127.1 113.3 105 95.5 86.1 82.2 76.7 68.1 58.3 57.6 53.8 48.3 42.6 38.1 38.1 38.1 38.1 38.1 38.1 38.1 38.1 38.1 38.1 38.1 38.1 38.1 38.1 38.1 38.1 38.1 38.1 38.1 38.1 38.1 49.5 66.3 76 85.6 94.6 102.5 111.2 121 132.1 159.2 176.9 197 220.1 222.6 219 217.2 216.3 223.4 245.2 253.3 252.3 265.1 279.5 290.1 305.4 314.9 307.7 299.2 286.7 284.2 282.2 285.6 306.2 319 335.8 342.6 344.6 339.7 343.3 368 383.8 381.4 374.5 389 400.3 407.2 417 431.6 443.1 448.6 451.7 455.2 457.1 455.2 449 447 444 440.6 436.4 433.5 429.2 432.9 427.4 429.1 430.3 433.1 434.1 436.8 436 437.2 440.3 443.4 448.1 446.7 459.5 462.8 464 471.4 484.9 498.9 515.8 529.8 537 544.4 550.9 555.2 553.6 551.7 527.9 497 475.8 443.3 430 420.6 402.4 387.6 376.3 375.5 372.7 368.5 363.2 363.2 363.2 363.2 363.2 363.2 363.2 363.2 363.2 372.9 385.1 407.9 448.7 478.1 528.4 564.1 593.4 619.3 641.1 660.4 682.2 703.8 717.4 729.3 736.3 740.9 744.8 747 739 679.6 642.2 606 564 521.1 487.2 446.9 432.8 430.3 433.5 445.8 463.8 485.7 500.9 515 529.3 542
327.9 322.5 319.5 313.9 309.5 299.5 290.6 280.6 272.6 262.3 247.7 228.9 209.2 196.7 185.6 181.5 174.2 167.5 157.8 148 137 129.4 120.2 109.7 96.4 93.4 86.9 78.6 69.5 68.7 64.3 58.3 53.3 47.7 38.4 38.1 38.1 38.1 38.1 38.1 38.1 38.1 38.1 38.1 38.1 38.1 38.1 38.1 38.1 38.1 38.1 38.1 38.1 38.1 38.1 38.1 53.8 68.3 79.9 87.8 95.3 105.5 116.5 132.8 148.6 171 181.9 197.2 214.6 215.5 213.6 211.9 222.1 240.3 247.1 249.2 270.8 277.8 295.3 308.6 311.3 308 303.3 288.2 285.7 283.3 297.5 316.2 329.4 340.8 348.3 345.3 348.2 352.3 377.8 378.1 375.6 379.7 395.4 400 409.8 420.9 437.6 443.7 450.8 451.2 449.4 447.7 446.3 442.4 442.6 439.1 436.2 432.9 424.9 425.6 422 422.6 424.4 426.1 427.8 429.8 429.8 434.1 439.5 440.2 440.9 443.4 456.4 464.6 467.1 475.6 486.1 499.1 520.6 543.1 547.9 548.7 558.4 563.3 559.1 548.5 524.3 490 462.8 440.6 428.5 415.2 400.3 383.5 374.7 371.6 370.2 366.3 363.2 363.2 363.2 363.2 363.2 363.2 363.2 363.2 363.2 373.9 390.2 412.5 447.3 493 543.1 584.9 611.6 633.3 652.9 674 692.8 708.1 718.9 727.6 732.9 737.6 740.6 741.2 739.1 681.5 642.3 605.9 563.4 519.3 480.8 446.1 434 429.4 431.2 444.6 458.7 479.7 495.9 508.6 521.5 536.5
328 325.9 320.9 317.3 310.9 303.6 292 284.4 278.1 268.4 254.1 232.4 228.6 220.5 211.2 199.4 186.7 173 164 154.4 147.6 139.4 131.7 119.7 110.1 103.9 99 88 82.9 79.6 74.9 68.4 61.1 54.8 47.3 38.9 38.1 38.1 38.1 38.1 38.1 38.1 38.1 38.1 38.1 38.1 38.1 38.1 38.1 38.1 38.1 38.1 38.1 38.1 38.1 38.1 38.1 41 58.1 71.8 80.6 90.4 101 110.3 122.8 139 150.5 167.2 187.7 206.8 204.7 203.4 202.4 219.9 242 246.4 252 266.3 283.5 301.4 311.7 314.2 310.7 298.5 291.5 285.2 288.5 304.8 320.4 335.4 346.8 349.5 357.8 365.5 367.2 371.4 373.9 378.3 389 394.7 401.9 413.8 426.5 437 441.9 445.1 442.7 441 440.8 438.8 438.2 435.4 435.9 435 424.4 420.6 420.8 422.9 420.2 418.7 421.7 425.2 422.8 428.7 435.6 440.8 441.3 445.1 456.7 468.8 472.3 483.6 491.3 504.7 526.5 548.6 551.3 553.1 559.7 558.3 552.2 545.3 519.7 489.3 463 443.4 428.7 411.8 397.3 382.8 374 368.9 369 365.7 363.2 363.2 363.2 363.2 363.2 363.2 363.2 363.2 367.3 376.9 391 416.5 450.2 491.8 538.3 587.8 622.2 647.6 668.6 686.5 699.1 712.2 719.2 725.7 729.5 733.5 735.1 734.8 731 681.1 641.4 601.6 559.3 520.4 474.6 450.3 433.9 427.1 428.9 439.7 455.5 473 489.9 500.7 513 528
329.4 325.8 323.3 319.2 313.6 303.2 295.6 288 280.2 270.1 260.2 250.5 239.5 230.8 229.3 220 203.7 188.7 181.9 174.2 163.4 155.6 145.1 133 119 113.4 104.5 97.5 91.1 88.3 82.6 78.3 71.9 64.5 59.8 48.6 42.4 38.1 38.1 38.1 38.1 38.1 38.1 38.1 38.1 38.1 38.1 38.1 38.1 38.1 38.1 38.1 38.1 38.1 38.1 38.1 38.1 38.1 38.1 48.6 63.4 74.7 83.4 91.6 102.2 114.7 127 140.9 164 177.2 193.5 190 193.1 201.2 221.3 229.6 234.5 247 278.7 295.1 310.7 314.7 312.7 309.1 300.5 289.5 285.3 294.3 306.6 325 341.4 347 357.3 373.2 377.7 374.8 374.4 376.7 384.5 390.7 396.2 402.4 416.3 424.1 434.6 438.3 435.7 438.4 437.3 436.8 431.1 431.8 430.1 431.1 425.4 417.2 417.4 420.3 418.2 416.1 415.2 421.3 421.2 425.6 427.8 443.2 445.7 454 463.9 475.1 483.4 483 489.9 504.5 521.4 541.8 550.9 559.2 562.5 556.6 548.2 535.5 514.2 486.9 464.3 440 423.9 407.8 394.9 381.3 374.3 369.1 368.5 366.8 363.2 363.2 363.2 363.2 363.2 363.2 363.2 363.2 368.1 378.4 390.3 418.3 452.1 492.2 547.9 604.2 627.9 663 683.2 696.5 707.2 714.1 720.4 724.5 726.6 728.2 728.4 727.6 718.6 677.6 636.8 594.7 549.9 513.3 477.6 451.7 429.6 425.1 426.2 434.2 448.4 466.5 482.6 494.4 506.3 519.5
334.7 326.5 324.4 321.2 314.8 306.7 299.7 292.4 283 274.9 266.7 256.7 248.1 241.2 238.8 230.2 221.2 208.8 196.9 187.3 179.1 166.9 157.6 151.1 136.6 125.9 119.4 113.3 101.7 96.1 90.2 84.9 78.6 72.3 64.5 55.8 51 43.7 38.1 38.1 38.1 38.1 38.1 38.1 38.1 38.1 38.1 38.1 38.1 38.1 38.1 38.1 38.1 38.1 38.1 38.1 38.1 38.1 38.1 38.1 38.1 53.4 67.8 78.8 85.6 91.3 106.8 119.3 133.1 152.7 163.5 170 182.9 192.1 204.7 212.9 220.7 230.6 251.8 284.6 298.1 309.1 310.4 310.6 303.7 295.2 289 288.1 294.9 308.5 333.4 346.4 356.1 373.4 389.8 385 379.6 380.1 381.9 388.9 392.6 395.8 404.9 418.1 421.5 427.2 426.1 430.1 432.1 432.9 432.1 428.4 426.2 427.4 422.9 417.4 414.4 416.5 418.2 414.2 413.5 418.9 423.4 424.6 431 453.2 468.8 479.3 489.5 495.4 498.9 494.6 496.5 508.7 518.8 538 549.9 559.6 563.5 553.8 544.5 533.1 513 487.3 460.9 438.7 419.3 402 394.9 382.9 376.2 370.8 371.3 370.1 368.4 363.2 363.2 363.2 363.2 363.2 363.2 363.2 368.4 375.3 393.4 419.9 455.4 492.3 546.2 622.2 659.1 678.6 692.8 702.7 710.8 715.6 719.4 721.1 722.2 722.3 721.9 720.1 712.2 671.7 636.8 588.7 544.6 506.7 476.2 441.2 421.5 415.2 421 431.1 444.1 458.5 475.3 487.2 498.2 510.4
330.4 325.5 322.2 320.5 315.2 309.3 303.4 295.5 289.7 278.1 273.6 264.8 260.4 253.9 247.3 240.4 229.1 219.5 210.7 196.8 184.5 175.8 168.7 160.8 150.2 140.5 132.6 126.3 117 106.9 96.3 91.3 86.5 80 71.1 64.8 58 51.5 42.6 40.6 38.1 38.1 38.1 38.1 38.1 38.1 38.1 38.1 38.1 38.1 38.1 38.1 38.1 38.1 38.1 38.1 38.1 38.1 38.1 38.1 38.1 38.1 45.6 60.3 75.3 83.4 89.8 100 111.6 126.7 140.3 154.1 170.4 179.8 190.7 198.4 204.6 213.8 234.7 249.5 283.1 299.3 305.9 306.2 305.5 300.9 293.6 287.2 285.4 291.6 320.4 343 355.2 365.3 392.7 402.4 400.8 396.4 387.4 392.6 392.8 394.6 397.7 409.3 410.6 415.9 420.7 425.5 429.3 431.9 432.4 427.7 427.3 424.2 421.8 419.4 414.4 413.9 417.7 416.6 409.9 414.9 421.5 425.3 438 466.8 479.6 489.1 498.1 500.4 507.9 511.8 513.1 515.7 519.2 533.1 545.2 556 557.6 552.4 542.5 529.5 509.9 486 462.2 441.2 420.8 401.4 391 388.6 381.1 377.2 375.1 372.7 369.3 363.2 363.2 363.2 363.2 363.2 363.2 363.2 367.2 376.5 394.1 423.4 460.8 496.8 546.4 619.5 662.6 686.9 698.3 705.1 710.4 712.5 713.9 715.3 716.1 715.9 714.9 713.4 709.2 674.4 633.3 580.6 537.6 500.3 464.9 431.3 415.3 413.7 414 427.2 438.9 449.7 467.8 480.4 492.8 504.6
328.7 323.8 321.6 318.4 313.5 309.5 305.6 301.1 292.1 283.3 279 272.4 266 262.7 254.9 248.4 237.5 230.5 217.7 207 197.4 185.3 175.7 171 160.7 149.4 144.6 141.6 132.6 120.4 108.1 100.5 94.4 86.5 78.6 69.8 65.5 55.6 48.6 43.9 42.1 38.1 38.1 38.1 38.1 38.1 38.1 38.1 38.1 38.1 38.1 38.1 38.1 38.1 38.1 38.1 38.1 38.1 38.1 38.1 38.1 38.1 38.1 38.4 52.5 66 77.1 86.6 99.1 108.6 118.9 132.9 147.6 159.5 173.8 186.3 188 201.4 223.7 241.5 249.5 274.4 297.1 300.3 301.6 303.8 295.8 287.9 285.8 286.4 301.2 332.1 350.2 357 384.7 406.6 412.1 410.1 398.6 399.4 404.2 405 406.8 404.7 406.7 411 417.9 425.4 427.9 427.9 429.7 429.9 428 425.2 420.9 416.7 415.1 412.5 415.5 414.7 411.7 409.1 417.7 429 442.5 461.5 477.9 487.7 492.3 498.9 511.7 518.2 519.5 523.3 533.6 540 546.3 554.3 552.8 550.1 539.3 527.3 507.2 485.6 460.8 442.1 422.9 406.8 391.5 387.7 385.3 390.5 387.4 381 371.1 365.3 363.2 363.2 363.2 363.2 365.9 366.6 368.1 374 392.6 424.5 453.8 512 563.5 622.7 666 691 699.8 704.2 705.2 705.5 706.6 707.8 707.3 708.3 708 707 704.7 671.6 629.2 580.9 529.3 493.1 447.6 420.9 410 406.5 413.9 420.5 434.3 446.5 463.6 475.9 488 500
327.8 324 319.8 315.9 311.6 307.4 302.7 301.8 297.4 290 282.3 279.4 273 269.6 262 254.2 248.6 240.9 227.9 213.9 203.5 191.1 183.6 175.3 166.6 159.4 154.1 151.4 144.4 132.6 120 110.9 104 98 88 77.2 69.4 63.4 59 52.1 54.9 45.8 38.1 38.1 38.1 38.1 38.1 38.1 38.1 38.1 38.1 38.1 38.1 38.1 38.1 38.1 38.1 38.1 38.1 38.1 38.1 38.1 38.1 38.1 38.1 45.5 57.8 71.1 83 94.6 105.3 116.7 128.4 140.9 152.6 161.5 173.2 184 208.1 222.3 238.3 248.3 268.2 289.6 288.3 292.4 293.7 286.8 285.2 286.2 296 324.4 343.3 353.2 374.7 398.7 410.2 412 405.3 405.6 413 419.1 419.1 421.8 422 417.9 421.8 424.8 426.5 426.5 428.5 428.6 431.5 426.6 422.4 419.4 414.9 412.1 414.5 413 408.1 404.1 411.9 424.5 433.7 451.6 466.8 481.2 485.6 494.6 510 519 527.2 527.6 542.8 549.1 558.2 559.3 552.7 544.3 535.6 524.9 505.2 486.5 464.6 442.1 423.2 406.9 395.3 393.2 391.4 398.6 397.7 390 374.6 363.8 363.2 363.2 363.2 365.2 365 365.7 367.8 375.3 392.1 422.4 454.4 514 559.7 597.3 652.3 690.2 697.4 699.1 698 696 694.7 692.3 695.6 699.5 700.7 703 701.3 672.6 614.6 575.7 526.5 488.5 431.8 407.6 402.9 401.7 408.4 419.1 430.2 445.4 460.6 471.4 482.2 497.1
327.3 323.5 319 315.7 311.3 305.9 303.9 301.4 297.8 291.4 288.4 282.8 280.5 275.6 266.2 260.6 257 251 241.1 224.1 218.6 203.3 196.9 186.1 182.2 172.9 163 157.9 152.1 142.1 132.2 120.9 113.2 105.9 96.8 90.1 79.9 72.2 64.4 62.8 59.5 55.1 46.4 39.3 38.1 38.1 38.1 38.1 38.1 38.1 38.1 38.1 38.1 38.1 38.1 38.1 38.1 38.1 38.1 38.1 38.1 38.1 38.1 38.1 38.1 38.1 38.5 51.8 67.1 79.9 89.8 100.1 113.4 124.6 136.4 144.4 152.2 165.8 182.6 205.3 219.4 233.7 249.5 267.9 279.7 282.1 285.9 285.7 283.8 286.7 297.7 318.4 341.2 351 361.2 391.5 401.8 413.4 408.1 404.3 417.7 424.5 433.8 436.9 444.2 441.4 436 432.1 426.9 426.7 426.3 425.8 426.7 428.5 425.9 420.5 417.4 413.2 412.1 410.3 406.8 402.6 406.9 419.2 426.3 439.7 454.9 471.4 480.1 493.7 507.1 521.5 534.2 536.6 542.2 552.8 563.6 560 551.2 541.6 528.6 513.1 499 485.1 465.9 447.6 419.9 406.8 402.6 395.4 394 400.6 400.6 391.3 379.3 374.8 372.3 370 364.9 365.7 366.4 365.5 368.6 374 391.3 422.2 456.6 506.4 556 600.4 648.1 686.1 691.2 689.7 682.9 676 672.9 677.6 684.9 690.7 695.6 698.7 698.9 673.3 615.3 557.4 523.7 483 423.4 411.1 398.8 396.7 408.3 412.9 425.2 441.8 457.5 467.5 481.7 493.7
328.3 322.4 317 313.9 310.2 306.4 302.4 300.8 295.9 295.6 293.1 289.7 286.6 282.1 276.4 270.5 269.8 259.3 253.6 244.5 234.5 225.5 220.1 206.3 198.6 193.5 185.7 176 166.9 155.5 144.4 134.4 125.6 117.7 108.7 99.2 91.2 83.5 73.5 71 65.4 65.5 56.7 47.3 40.8 38.1 38.1 38.1 38.1 38.1 38.1 38.1 38.1 38.1 38.1 38.1 38.1 38.1 38.1 38.1 38.1 38.1 38.1 38.1 38.1 38.1 38.1 38.1 48.6 63 77.1 89.4 97.7 109.5 119 129.5 140.1 150 165.8 181.8 206.5 216 228.9 243.3 260.5 271.6 278.7 282.4 280.9 283.5 294.2 308.4 329.4 350.5 355.9 377.5 394.2 412.4 412.5 405 413.3 428.5 442.4 447.6 449.9 451.4 447.1 445.7 435.8 428.5 427.3 428.5 427.2 427 423.2 424.9 419.4 416.1 411.5 409.8 406.2 401.7 401.6 411.5 423.9 429.3 446.9 459.7 470.8 488.7 505 517.8 527.9 531.2 542.9 553.2 560.3 555.4 547.3 538.1 526.3 507 495 482 465.7 440.5 419.5 412.2 406.4 403.2 396.2 396.6 394.6 395 385.3 382.1 378.8 375.2 372.2 369.1 366.4 364.6 367.1 371.9 383.2 421.9 459.3 506.9 575.9 622 651.2 679.8 680.9 671.5 662.9 657.6 655.6 662.1 673.8 683 689.8 693.9 695.3 680.5 619 556.5 497.1 462 428.4 409.6 395.9 393.8 404.2 411.8 423.2 437.1 449.7 461.8 476.1 487.7
326.9 320.8 315.9 313.8 310.5 308.1 304.2 302.9 301.1 297.4 297.2 294.2 291.2 286.7 282.1 277.7 274.9 269.8 262.2 257.1 248.7 237.3 235.9 225.7 215.4 206.9 199.1 192.4 183.7 176.3 165.7 153.4 143.3 132.3 120 109.2 102 94.3 86.9 77.6 74.5 75.2 67.5 60.5 50.1 47.5 44.6 38.1 38.1 38.1 38.1 38.1 38.1 38.1 38.1 38.1 38.1 38.1 38.1 38.1 38.1 38.1 38.1 38.1 38.1 38.1 38.1 38.1 38.1 42.5 60.2 75.1 84.9 94 102 112.3 123.3 134 153.9 162.2 182.7 196.9 211.9 229.9 241.2 255.2 271.9 281.2 276.6 281.6 288.6 300 313.8 333.4 351.9 370.2 386.9 398.4 412.3 409.3 410.7 427.3 439.9 449.2 451.4 454 450.3 448.7 440.7 433.2 429 430.3 428.4 425.9 423 421 419 418.5 412.8 410.6 405.9 403.8 399.7 403.4 417.3 421.4 438.2 451.9 459.6 481 493.4 507.7 520.8 529.5 539.6 554.7 551.3 543.5 536.1 532 522.2 505.7 487 471.9 466.6 439.4 422.9 416.7 410.1 406.5 405.3 402 395.8 393.4 391 386.7 383 377.5 372.8 372 367.2 365.2 366.4 370.7 379.5 410.2 455.4 504.1 568.6 626.5 660.5 671.5 666.7 655 644.4 639.9 642.5 652 665.7 675.2 684.1 689.7 692.8 673.8 617.9 554.8 501.4 458.8 431.9 409 396.7 391.8 399.6 407.5 416.6 430 442.4 456.5 469.2 482
327.3 321.2 315.4 313.5 311.9 308.2 305.2 304.7 303.4 300.6 298.1 295.7 293.1 290.7 286.8 283.5 282 278.9 269.4 267.3 258.4 251.2 244.1 239.8 229.1 220.8 211.6 201.9 194.4 186.4 182 175.6 161.8 146.7 135.2 127 116.4 109 99.7 90.3 86.9 80.4 76.2 70.1 65.2 59 53.3 47.3 40.6 38.1 38.1 38.1 38.1 38.1 38.1 38.1 38.1 38.1 38.1 38.1 38.1 38.1 38.1 38.1 38.1 38.1 38.1 38.1 38.1 38.1 38.1 53.5 69.1 82.3 91.9 98.3 108.6 118.6 131.7 151.1 160.4 173.3 194.2 212.5 223.3 235.3 255.8 263.6 268.8 273.9 284 295.5 309.9 322.3 339.9 362.4 387.6 396.9 406.9 409.7 407.7 425.6 440 452.2 455.2 454.9 453.4 447.8 442.5 436.7 434.7 432.8 432.3 429.3 425.3 422 419.1 417.4 413.8 409.2 408.3 404.4 398.9 401.7 407.7 414.4 426 442.9 454.8 470.6 485.1 499.4 509.5 518.5 530.3 542 542.4 535.6 525.6 521.3 514.8 500.1 484.3 466.4 453.7 438.1 431.9 425.6 417.3 410 410.2 405.5 400.7 397.4 393.8 389.6 386 379.7 372.2 370.5 364.6 365 366.2 368.9 374.3 397.7 448.1 496.9 540.5 620 645.6 659.9 652.5 639.7 628.9 625.9 632.8 646.1 658.9 670.5 679 685.5 690.3 681.7 627.4 573.2 532.3 475.5 430.1 405.8 392.6 391.1 396.1 406.8 414.4 427.9 438.6 450.5 461.8 474.9
326.2 322.1 318.9 316.1 313.1 309.1 305.6 304.7 302.8 301.2 298.2 296.7 295.4 296 292.9 290.4 288 282.5 278.2 274.5 268.8 267.3 254.2 248.2 248.1 238.9 228.5 218.9 213.7 203.6 193.1 186.1 177.1 169.3 159.4 146.6 131.7 123.2 114.5 104.9 98.4 91.9 85.1 80.1 74.4 69.7 62.5 55.1 47.3 38.4 38.1 38.1 38.1 38.1 38.1 38.1 38.1 38.1 38.1 38.1 38.1 38.1 38.1 38.1 38.1 38.1 38.1 38.1 38.1 38.1 38.1 38.1 49.7 66 79.4 88.8 96.2 105.8 117 129.3 143.9 156.1 172.6 189 199.5 214.9 240.8 239.8 242.9 263 275.5 288.2 304.8 319.3 327 346.8 377.7 390.5 408.2 408.1 407.3 422.3 434.4 444.9 452.6 454.3 452.2 446.8 440.7 435.5 433.9 432.9 431.1 428.1 426 423.8 423.9 414 412.8 407.8 402.7 396.8 399.1 402.5 410 415 419.1 430.3 445.2 461.1 471.3 490.7 504.4 515.2 520.6 531.6 528 526.9 519.9 510.7 506.5 489.8 483.7 469.8 453 444.9 440.3 431.2 420.9 414.2 411.9 404.6 401.5 398.3 394.6 392.5 387.1 377.9 370.7 369.4 366.1 366.9 367 367.2 372.4 397.9 431 478.8 548.8 618.7 638.7 646.9 635.2 622.4 613.5 615 626.4 640.3 653.3 664.5 673.9 680.6 685.2 686.9 669.8 602.9 544 491.2 435 406.8 393.2 391.5 393.5 403.3 411.7 424.5 433.5 446.1 457.4 467.9
332.3 327.2 322.1 317.3 313.7 308.6 306.4 304.9 302.1 300.1 298.8 297.6 300.3 299.2 298.1 296.3 292.9 288.2 284.2 281.4 277.5 276.5 267.3 263.4 263.9 257.1 245.6 243.9 235.1 225.5 218.6 211.5 201.4 187.9 178 163.4 148.7 136 125.7 118.4 111.4 109.4 100.5 90.8 84.3 79.4 74.5 69.1 58.3 51.2 42.4 38.1 38.1 38.1 38.1 38.1 38.1 38.1 38.1 38.1 38.1 38.1 38.1 38.1 38.1 38.1 38.1 38.1 38.1 38.1 38.1 38.1 38.1 45.2 61 73.6 85.5 95.6 105.6 116.3 125 137.5 148.1 159.8 171.4 186.7 208.7 219.9 225.3 243.6 267.3 278.5 293.7 315.6 320.8 330.8 355.5 381.8 393.1 407.6 405.9 411.2 429.5 437.1 449.5 453 450.7 442.7 437.7 439 435 433.5 432.1 432.4 429.7 424.6 418.8 416 410.4 404.8 402.1 397.6 393.9 402.4 411.1 422.7 428 435.7 437.2 455.8 468.9 484.4 495.1 509.6 515.1 519.7 519.7 516.7 511.4 502.9 495.5 481.5 476.7 466.9 453.4 449.9 441.6 431.4 422.7 416.1 411.3 405.2 401.1 397.4 393.6 392.1 383.9 373.9 371 369.4 366.2 366.9 367.3 366.3 372.6 385.6 411.4 457.9 528.5 570.6 605.7 631.2 621.2 606.4 600.1 609 620.3 633 645.7 656.9 665.6 673 678.4 682.4 680.6 622.4 553.9 496.8 439.6 409.7 393.9 389.2 392.2 400.1 408.1 417.8 429.5 439.8 453.4 462.7
333.6 332.3 328.7 321.5 316.5 310 305.3 303.2 302.3 300.2 298.8 299.2 301.8 303.3 303.4 301.2 298.8 293.2 291.1 289.6 284 284.3 278 277.6 275.7 268.3 260.4 253.4 247.9 241.9 234.6 227.3 220.5 212.7 207.6 189 170.7 155.2 141.3 134.6 125.9 119.2 113.2 104.2 93.3 91.5 85.4 77.6 72.9 64.5 54.9 48.3 46.5 38.1 38.1 38.1 38.1 38.1 38.1 38.1 38.1 38.1 38.1 38.1 38.1 38.1 38.1 38.1 38.1 38.1 38.1 38.1 38.1 38.1 41.8 58.6 70.5 81.7 91.3 104.2 114.8 123.8 131.3 143.2 153.5 168.1 182.8 189.7 213.3 235.3 254.2 272.1 282.6 297.9 318.4 323.5 344.1 373.1 381.6 393.2 404.2 404.2 413.1 426.1 436.4 447.1 448.4 441.1 433.8 438.2 436.3 432.2 430.4 430.5 427.1 422.8 417.6 413.2 407.1 400 396.2 393 387.1 400.8 412 427.9 433.3 440.7 446.4 450.4 461.5 478 487 498.9 508.2 513.7 514.6 504 500.9 497.5 488 476.9 468.2 459.2 454.8 447.9 439 432.6 424.4 417.6 411.9 405.7 401.7 394.2 392.3 389 380.5 372.7 369.4 368.6 365.5 368.4 367.7 365.8 370.9 379.2 385.1 439.9 495.1 540.4 602.4 615.7 605.8 591 588.6 599.9 612.9 625.2 636.1 647.9 657 663.8 670.8 675 676.7 629.1 555.9 493.2 444.1 414.6 396 388.2 391.6 397.4 407.3 414.4 425.4 434 447.1 456.7
331.8 334.8 332.7 325.5 317.7 310.4 305.1 300.9 300.4 299.5 298.4 298.3 304.9 304.5 308.4 308.8 306.8 301.4 299.5 295.4 290.5 289.3 282.7 288.9 289.5 282.6 278.4 273.4 264.7 254.3 244.6 241.2 234.3 222.6 216.3 205 194.4 179.6 163.1 153.1 143.4 131.2 127.9 123.2 112.9 105.5 100.1 93.6 84.8 78.8 69.4 59.9 51.8 45.3 42.5 38.1 38.1 38.1 38.1 38.1 38.1 38.1 38.1 38.1 38.1 38.1 38.1 38.1 38.1 38.1 38.1 38.1 38.1 38.1 38.1 39 48 63.8 78.3 92.2 100.8 109.6 118.5 129.8 142.2 149.4 173.9 188.5 215.1 237.6 248.7 265.2 274.4 285 302.2 315.3 330.8 360 370.3 377.5 391.5 395.7 403.6 416.4 427.4 437.7 437.6 431.7 427.3 428.6 430 430.8 430.3 427.8 425.1 416.6 409.9 403.3 396.2 392 392.5 391.4 387.1 397.2 409.9 421.1 432.4 438.7 448.1 457.9 466.2 471.5 475.4 483.5 500.7 510.3 510.5 500.7 490.9 486.3 479.1 471 465.5 454.9 450.3 442.7 436.5 430.8 422.9 416.4 409.1 405 401.1 393.9 390.7 385.5 379 372.7 369.4 367.1 365.8 367.7 368.3 366.1 369 376 381.8 414 479.2 522.7 564.1 603.8 591.6 576.4 578.6 590.5 602.8 613.9 625.2 636.6 646.7 654.1 659.8 664.5 669 638 558.3 492.6 447.8 411.8 400.6 388.7 391.4 395 403.6 410 416.6 430.1 442 454.1
329.1 333 333.1 324.7 313.6 307.9 303.6 300.5 297.5 298.7 297.9 297.7 303.1 307 310.7 311.5 312.3 308.3 307.2 302.9 299.3 295.4 287.9 294.4 295.6 294.1 288.9 288.1 282.7 274.3 262.5 253.6 248.4 239.7 230.4 218.1 212 197.1 187.1 174.2 163.2 154.5 148.7 142.3 136.7 129.7 118.8 107.8 96.1 89.7 79.3 70.9 62.5 54.3 49.9 42.8 39.7 38.1 38.1 38.1 38.1 38.1 38.1 38.1 38.1 38.1 38.1 38.1 38.1 38.1 38.1 38.1 38.1 38.1 38.1 38.1 38.1 44.3 64.4 78.6 88.8 97.9 105.4 115.9 128.1 144.8 164.3 181.7 203.3 223.3 235.8 253 269.1 279.1 292.5 311.8 319.6 345.1 361.9 368.2 377.3 385.1 386.8 399.9 415.6 425.2 422.3 416.2 414.9 419.4 419.8 421 421.5 419.3 415.5 406.6 395.5 389.9 385 385.6 387.5 381.1 390.9 406 407.5 415.7 423.8 438 445.8 461.2 473.2 472.2 477.2 481.8 491.6 505.9 503.4 497.3 487.7 479.6 473.2 468.1 462.9 450.7 444.9 436 433.6 428.7 422.1 412.7 406.8 401.3 398.3 394.1 389.1 382.9 377.4 370.2 366.6 366.3 365.1 368.1 367.7 366.1 369.5 372.8 378.2 403.6 462.2 498.1 549.3 593.2 579.3 564.4 568.4 579.1 589.1 601.4 612.7 622.6 631.5 640.2 646.8 652.1 658.9 646.5 568.9 497.3 452.4 418.4 397.8 387.3 390.6 391.8 399.4 407.2 415.1 425.5 436.3 448
321.6 323.3 322.1 315.4 309.5 307 305 299.6 298.1 295.7 295.4 295.4 302.3 307.4 312.9 314.2 314.8 313.6 313.1 311.3 307.6 303.7 297.8 295.6 298 295.5 289.7 292.9 291.7 287.9 281.4 272.3 260.4 252.5 249.7 243.2 228.1 214.6 204.8 190 190.1 184.1 180.3 173.1 183.8 198.3 152.9 141.9 127.8 115.1 99.5 91.1 79.9 73.6 66.9 58.7 48.3 41.4 38.1 38.1 38.1 38.1 38.1 38.1 38.1 38.1 38.1 38.1 38.1 38.1 38.1 38.1 38.1 38.1 38.1 38.1 38.1 38.1 49.7 63.5 76.4 86.6 90.4 106.1 120.3 133.9 152.1 164.9 180.8 199.3 219.7 235.7 249.5 269.1 279.8 296.2 311.6 322.5 341.9 353.8 366.9 374.8 375.6 383.9 397.2 407.6 403.9 403.7 407.5 411.2 413.4 407.9 407.2 403.6 394 381.5 377.5 376.8 373.7 380 381.6 382.4 395.7 412.3 427.2 428.7 434.9 447.6 451.4 459 471.2 479.1 485.3 492.4 492.1 500.2 494.3 491.5 484.8 475.4 468.5 465 456.7 443.8 439.1 432.9 428.6 426.1 418.1 409.8 405.6 399.5 395.1 391.8 386.9 381 374.3 369.6 364.8 363 359.3 364.8 366.9 368.7 369.6 369.9 375.1 394.2 448.1 498 556.2 581.4 569.6 552.7 557.5 564.3 576.5 585.9 595.8 603.6 614.1 622.4 632.1 639.9 647.9 641 577.3 506.7 460.9 422.7 397.1 389.7 385.9 391.8 397 403.7 411.5 420.3 432.4 444.9
312.3 315.3 311.3 306.8 305.9 303.9 303.4 301.3 300.6 296.4 296.5 295.5 299.5 305.4 313.4 316.2 315.9 315.9 315.5 314.4 310.4 306.6 303.7 302.6 297.8 297.7 291.3 292.1 294.5 292 291.7 288.6 280.9 269 258.4 257.5 255.7 237.8 227.2 211.8 207.1 207.4 202 210.1 217.8 224.9 214.2 191.5 159.1 138.9 124.6 111.2 102.3 96.2 87 76.2 63.9 56.2 43.6 38.1 38.1 38.1 38.1 38.1 38.1 38.1 38.1 38.1 38.1 38.1 38.1 38.1 38.1 38.1 38.1 38.1 38.1 38.1 38.1 49.9 63.8 73.5 86.1 98.4 109.5 120.8 134.5 152.1 164.6 176.3 195.5 211.8 227.9 248.4 262.6 275 289.2 303.9 322 328.1 343.3 361.5 366.9 373.6 378.5 384.6 387.5 391.8 396.1 398.2 397.1 394.1 388.3 379.9 366.8 358.1 359.4 359.2 367.2 364.4 367.8 381.8 403.6 424.4 441.3 450.6 454.4 456.9 465.4 478.2 489.9 492.6 504.1 507.2 502.8 502.2 497.8 487.2 481.7 470.2 461.2 461.7 453 439.9 436 430.9 426.1 421.7 414 409.1 405 399.7 393.6 389.6 384.8 378.7 373.6 367.8 364.2 361.5 353.1 362.2 363.2 369.3 366.6 368.5 375.3 391.5 439.5 473.8 524.3 567.8 560.7 545.4 547.2 553.9 561.3 568.6 577.5 587.4 597.3 608.3 617.7 627.5 637.3 638.1 579.8 515.7 459.3 420.9 395.8 389.2 385.4 389.3 395.7 398.3 406.7 418 428.5 438.9
310.8 311.6 305.2 302.5 301.8 300.1 299.5 298.4 297.4 294.3 294.3 295.8 299.6 305 309.1 312.4 313.6 315.5 316.9 314.9 311.5 307.2 303.9 301.9 299.7 298 292.1 290.6 291 291.3 292.3 290 286.9 283 276.7 268.1 259.1 259 254.6 244.1 231.8 223.8 217.2 219.9 223.7 230.4 222.8 217.8 203.4 169.8 148.3 137.6 129.8 121.6 106.7 100 85.4 72.9 61.5 49.6 38.6 38.1 38.1 38.1 38.1 38.1 38.1 38.1 38.1 38.1 38.1 38.1 38.1 38.1 38.1 38.1 38.1 38.1 38.1 38.1 49.9 60.8 75 88.3 98.5 110.5 120.4 133.5 147.6 160.9 174.2 192.1 207.9 222.3 239.4 251.2 265.1 275.1 292.8 302.9 314.3 333.2 345.7 348.5 358.3 367.4 363.7 367.6 375.4 381 376.7 366.9 357.2 339.3 334.4 340.5 344 345.5 353.6 365.5 376 380.3 400.6 428.3 452.9 464.5 462.4 463 470.1 481.3 493.4 505.5 517.3 521.5 517.3 511.9 501.4 493 482.4 471.8 461.3 457.3 448.1 438.5 435.6 430.5 427.4 422 413.9 408.6 403.8 397.3 393.4 388.4 382.8 376.6 370.3 365 360.8 357.7 352.2 356.7 357.7 366.2 364.8 366.5 373.2 385.9 421.2 465.2 506.5 542.2 550.7 536.8 537.1 542.1 547.1 554.1 564.2 574.8 583.2 594.5 606.6 618 628.7 636.4 581.3 518.3 466.1 421.4 395.9 386.1 382.2 386.3 389.6 393.7 402.4 411.6 423.6 432.7
293.3 305.1 298.6 297.7 297 296 296.1 296.6 296.6 292.8 291.9 293.8 294.8 300.7 307.1 309.2 310 311.8 312.7 312.2 310.6 306.3 301.7 300.1 298.5 295.4 291.8 289.4 286 283 284.5 285.1 284.4 284.3 284.7 282 274 266.8 258.8 256.4 251.3 244.7 231.7 237.2 236 245.4 241.3 232.7 214.5 204.8 192.4 175.1 159.7 144.7 129.5 110.4 102.2 91.7 78.8 63.6 52.7 39.4 38.1 38.1 38.1 38.1 38.1 38.1 38.1 38.1 38.1 38.1 38.1 38.1 38.1 38.1 38.1 38.1 38.1 38.1 42.1 50.7 64.4 76.3 89.7 95.9 106.4 118.2 131.7 146.3 158.3 170.7 184.7 202.8 216.3 234 244.8 254.9 267.9 284.9 296.3 315.6 326.3 331.3 334.9 339.6 342.4 343.2 346.6 348.6 342 327.6 318.1 308.4 318 333.8 339.7 350.1 360.1 369.1 375.1 383.8 408.9 429.8 455.5 467.9 468.4 468.8 472.6 479.2 495.6 506.7 521 524.6 518.9 520.1 511.5 500.2 487.2 476.3 466.2 456.5 445.3 439.2 435.7 433.7 427.5 421.2 416.5 408.6 405 398.4 393.1 385.8 377 368.5 367.2 361.9 356.8 353.8 344.4 352.9 353.6 361.7 360.6 362.4 368.9 377.5 417.8 456.4 495 523.5 535.3 527.2 523.2 527.1 531.9 541.1 550.2 560.4 572.1 585.9 599.8 610.7 622.2 632.9 584.5 522.1 469 429.7 395.1 387 383.1 382.1 386.3 389.3 396.8 406.2 417.5 427.8
263.3 273.6 280.2 289.7 290.7 291 292.6 293 293.2 292.2 289.5 290.7 292.4 291 298.6 304.2 305.5 305.7 306.8 305.7 302.8 299.6 297.6 293.6 292.2 292.1 287.9 284.7 280.7 277.5 277 274.1 275.9 278.5 278.8 282.5 281.9 275.3 268.7 265.2 260.4 260.1 263.4 262.7 261.5 251.8 258.5 249.8 245.1 226.9 216.8 208.7 194 175.4 149.6 129.3 116 104.4 91.2 78.4 67.2 55.9 44.8 38.1 38.1 38.1 38.1 38.1 38.1 38.1 38.1 38.1 38.1 38.1 38.1 38.1 38.1 38.1 38.1 38.1 38.1 38.1 46.6 60.5 72.6 83.4 92.8 106.1 118.2 130 144.8 158.7 167.9 181.4 199.3 213.4 227.1 237.9 245 261.6 281.4 293.3 303.8 318.9 318 318.6 323.6 325.4 327.8 324 305.7 290 289.6 318.6 348.6 356.1 358.9 362.1 362.4 368.2 372.6 388.2 412.6 439.1 456.6 468.6 472.9 474.6 478.9 492.1 500.3 509.3 517 521.1 517.7 519.5 514.3 504.2 493.5 481.8 467.7 460.1 452.3 437.8 435 433.4 426.8 421.7 415.7 409.9 403.9 399.1 392.5 387.4 379.4 371.4 365.2 356.6 351.7 347.7 340.4 348.2 348.9 356.1 357.7 358.9 364.4 366.7 377.5 423.9 467.3 495.9 511.5 511.9 506.3 512.2 518.8 528.2 538.4 551.6 565.6 580.6 594.6 605.9 619.5 627.4 571.6 520.6 470 428.1 396.1 385 379.3 380 382.6 385 391.3 400 411.3 422.8
246 253.7 266.2 280.3 284.6 286.3 286.8 288.5 288.1 288.2 288 291.7 297.4 299.7 299.7 300.3 301.3 301.8 299.4 297.8 296.6 293.3 290.7 286.2 281.4 281.6 283.9 279.7 275.4 273.2 271 267.6 267 270.4 273.5 273.4 276 274 272.9 270.7 270.1 269.3 280.7 294.1 298.2 288.4 273.5 263.5 258.4 249.3 244.9 231.9 215.4 205.7 186.5 159.5 131.5 115.3 102 91.4 79 71 58.3 45.8 38.1 38.1 38.1 38.1 38.1 38.1 38.1 38.1 38.1 38.1 38.1 38.1 38.1 38.1 38.1 38.1 38.1 38.1 38.1 48 59.9 71.3 82.3 93.5 106.4 117.8 130.3 143.2 154.8 166.6 183.3 195.2 207.8 219.6 226.2 237.6 257.2 273.8 283.8 286.9 290.4 292.6 299.2 304.2 306.5 297.8 276.2 285.7 312.1 337.1 354.1 357.4 363.9 364.8 363.9 371.2 373.3 396.9 420.2 444.3 463.1 473.2 473.1 472.4 484 494.7 501 510 520.2 519 516.2 515 512.4 504.9 493.5 482.9 470.1 461.2 452.3 440.7 432 429.5 426.3 423.2 416.4 409.6 404.8 399.6 392.6 384 377.4 368.7 360.8 352.1 347.7 343.4 337.6 340.9 345.6 348.8 354.5 354.4 356.5 363.5 368.6 389 413.6 446.4 470.5 493.5 489 498.2 503.5 513.3 529.6 543.9 559.6 577.5 591.5 603.9 615.7 614.7 564 516.3 471.4 434.7 396.5 382.1 377.2 379.9 379.5 380.6 384.3 394.5 404.3 415.6
233 234.4 260.1 281.1 279 283.3 288 288.8 287.1 287.6 286.6 288 293.4 303.1 305 306.7 306 300.3 297.2 296.6 293.5 289.8 286.1 283.2 278.3 278 282.1 277.7 272.9 273.6 269.6 267.2 264.8 262.4 263.4 264.5 266.7 267.4 267.4 268.5 271 274.3 282.9 302.8 320.1 324.9 311.6 299.8 272.9 262.1 258.9 248 235.8 221.7 206.7 188.9 174.1 136.8 116.2 106 92 83.6 73.3 58.7 49.3 38.1 38.1 38.1 38.1 38.1 38.1 38.1 38.1 38.1 38.1 38.1 38.1 38.1 38.1 38.1 38.1 38.1 38.1 38.1 46.5 56.1 69.4 80.2 92.6 104.1 115.6 125.4 137.1 149.8 163.6 177.1 185.6 199.1 208.3 220.1 229 242.4 249.6 256.2 259.2 260.5 263.1 271.6 273.2 264.7 263.5 297.5 329.9 349.2 355 359.6 364.9 365.2 370.3 374.9 386.1 405.5 427.7 451.6 464 481.1 475.9 473.4 487.1 494.2 499.6 505.1 516.5 517.4 512.4 508.8 505.2 505.8 496.8 485.5 473.8 463.5 454.4 449.2 432.9 429.1 427.1 423 420.5 410.7 405.2 399.3 393 386.8 377.2 369.9 361.2 350.9 340.5 339 334.8 338.8 341.8 342.9 350.1 351.1 350.9 361.7 371.6 376.9 398.7 420.3 446.2 467.8 470.9 485.9 492.2 504.2 520.8 537.9 556.1 574.7 590.8 602.2 614.2 602.4 559.6 511.7 472 429.7 392.7 377.3 373 376.8 376 376.1 379.9 388.9 399.7 410.6
218.4 219.2 245.6 263.9 270.2 272.5 280.5 285.1 286.4 286.5 287.6 285.1 285.1 290.9 299.3 303.9 305.3 305 302 297.7 291.3 285.1 282.2 280.2 277.3 276.7 279.6 277.5 274.3 272.2 268.6 266.5 263.7 260.5 257.7 258.4 261.6 265.4 263.6 265.8 272.1 278.2 287 297.5 328.6 352.3 345.4 335 318.4 309.1 291.6 279.8 260.1 246.6 236 213.3 186.9 167.6 154.7 117.6 104.1 91.6 81.8 74.1 61.7 49.6 38.1 38.1 38.1 38.1 38.1 38.1 38.1 38.1 38.1 38.1 38.1 38.1 38.1 38.1 38.1 38.1 38.1 38.1 38.1 46 56 66.4 81.1 92 102.5 113.9 121.2 131.4 144.8 157.9 169.1 179.8 190.1 200.1 207.5 217 218.8 222.5 225.3 227.5 227.3 238.2 240.4 244.3 273.6 312 337.9 347.9 349.7 359.5 364.6 365.5 376.3 394.1 408.5 433.3 446.4 461.3 467.9 476.6 479.6 478.2 489.6 494.1 500.5 501.4 508.8 509.2 503 501.7 497.9 499.2 493.5 481.1 471.9 459.3 458 450.1 443.5 432.5 429.4 425.3 419.6 411.6 404.3 398.6 391.1 384.7 376.6 368.4 358.5 348.4 340.5 333.8 337.4 338.4 335.9 343.2 347.4 349.4 348.3 353.4 363.1 366.7 377.7 402.2 417.6 441.8 459.7 474.4 487.9 499.6 515 531.8 551.3 571.5 588.3 600.3 607.3 594.2 549.8 505.3 470.2 431.3 393.8 375.5 371.1 374.8 371.8 370.3 374.2 381.8 392.5 403.6
201.9 209.7 230 261.1 263.6 264.8 274.1 281 286.1 288.2 288 285.6 281.3 283.2 285.2 290.7 292.7 293 292.9 292.2 286.6 280.6 277 273.7 270.6 272.3 273.8 274.3 271.4 270.5 267.4 265.3 261.6 259.6 257.8 258.1 259 262.1 265.5 266.6 268.8 282.4 292.3 305.6 313.6 344.2 357 351.9 344 332 317.4 306.1 285.3 268.5 249.3 236.3 214.1 192.8 164.7 147.8 122 106.8 93.1 83.8 75.6 61.9 49.3 38.1 38.1 38.1 38.1 38.1 38.1 38.1 38.1 38.1 38.1 38.1 38.1 38.1 38.1 38.1 38.1 38.1 38.1 38.1 46.5 57.3 68.7 80.6 89.7 100.5 109.9 118.3 127.9 140.8 152.2 163.7 173 181.6 192.2 194.6 193.6 195.1 195.9 192.3 187.5 199.3 232 261.9 297.9 323.4 336.3 342.9 350.5 356.8 361.9 367.4 387.7 409.3 437 466 485.6 494 487.7 483.7 484.9 482.3 487.2 494 494.9 495.9 503.2 500.9 494 489.3 489.2 489.2 484.1 472.7 460 451.6 453.3 453.7 449.8 440.9 433.1 427.1 416.4 411.7 402.9 396.3 392.1 384.7 376.4 367.2 357.6 346.3 337.3 331 334.4 335.5 334.2 344.1 342.8 346.4 347.3 349.9 361.7 363.2 371.6 381.7 409.5 429.5 450.8 468.1 481.7 495.9 508.3 525.9 546.3 568.6 584 594.8 599.9 579.6 537.7 493.9 462.7 421.2 391.8 377.7 369.5 370.3 368.9 367.8 369.4 377.4 387 395.9
195.1 201.1 219.4 236.8 244.6 256.4 266.5 273.7 279.7 284.4 288.1 287.6 282.6 278.3 277.1 275.5 274.4 275.2 275.3 274.1 272.5 271.4 268.7 268.3 265 265 266.6 265.4 264.1 264.1 263.2 262.3 260.4 258.6 257.2 255.6 255.3 261.2 266.2 271 271.5 276.5 289.2 307 313.3 328.8 344.8 361.7 359.2 350.3 332.9 319.3 304.1 292.3 276.1 251.5 238.3 223.1 204.6 175.9 151.7 128.7 108.6 96.1 84.1 70.7 62.5 49.1 47.5 38.1 38.1 38.1 38.1 38.1 38.1 38.1 38.1 38.1 38.1 38.1 38.1 38.1 38.1 38.1 38.1 38.1 38.1 43.5 52.1 65.5 78.8 87.1 98 106.4 115.9 124.7 135.6 148 156.8 162.9 171.8 168.9 159.5 161.5 165 182.8 211.4 226.1 258.1 281.1 303.4 325.1 335.7 340.5 348.6 355.4 359.4 370.7 397.8 419.4 455.9 488.1 504.2 507 502 496.2 492.4 488 484.1 485.3 486.3 489.5 492.8 489.3 483.7 481.7 480.3 479.5 472.5 461.8 449.3 443 447.2 446.5 449.2 445.2 440.6 429.3 416.4 411.6 403.7 396.2 392.3 383.6 374.9 366.6 354.9 344.4 335.2 330.1 325.5 328.1 332.6 338.7 341.7 347.7 347.8 349.3 352.5 364 375.8 385.4 395.3 420 445.1 463.1 476.3 490.5 504.1 520 541.2 563.5 581.7 591.2 596.4 575.6 530.3 488.9 452.5 416.5 387.6 367.3 366.5 363.3 361.1 361.5 366.6 372.4 381.1 389.1
192.4 197.2 208.2 217.5 219.5 231.3 238.1 256.3 265.1 267.5 275.5 277 278 274 264.4 260.7 258.6 258.8 257.5 256.5 255.6 255.3 254.3 254.6 253.5 256.7 256.3 256.3 257.2 257 256.7 255.7 256.7 255.7 251.4 253.7 256.4 259.7 263.1 270 273.8 276.7 283.8 300.8 309.3 336.7 349.7 353.8 366.2 360.7 348.9 336.7 317.7 304.2 293.5 279.7 259.2 236.3 217.3 204 187.1 156.8 137.7 114.5 99.7 89.1 74.6 62.2 53.6 46.4 38.1 38.1 38.1 38.1 38.1 38.1 38.1 38.1 38.1 38.1 38.1 38.1 38.1 38.1 38.1 38.1 38.1 38.1 38.8 49 64.2 75.8 85.9 95.7 103.1 113.4 124.7 131.5 140.6 147.9 142 146.5 153 166.8 182.9 205.2 224 244.4 267.9 284.6 304 321.4 333.2 336.9 345.4 356.8 355.5 373.6 406.2 434 466.4 494.5 512.1 511 504.4 504.2 500.1 496.7 491.5 484.1 482.1 477.9 480.9 475.6 467.9 468.4 466.8 464.2 457.4 450.1 442 438.2 436.2 438.1 442.4 443 438.6 426.2 414.7 409.9 406.3 402 391.9 383.9 373.9 362.9 353.8 342.6 333.6 327.2 319.2 328 338.3 334.2 336.6 347 346.8 349.8 355.1 361.7 375.8 389.8 409.6 428.3 442.2 460.5 475 487.4 502.5 517.7 537.2 563.2 578.8 591 593.9 574.7 528.1 489.8 458.4 416.8 384.9 365 357.3 357.5 359.3 354.8 360.7 366.7 374.8 385
190.3 193.3 198.8 202.6 207.4 213.9 216.9 225.6 237 241.1 244.5 248.2 248 246.4 248.2 246.9 243.5 243.3 243 241.3 241.9 242.7 242.2 242.8 243.7 244.5 245.4 246.3 248.9 250 251.2 250.7 251.4 250.6 244.4 252.8 255.3 257.3 258.9 269.4 276.9 277.4 282 291.9 304.9 327.4 346.1 355.4 359.6 358.8 359.9 352.9 344.5 326.4 310.4 292 273.1 252.1 231.3 215.3 203.6 188.7 160.3 141.9 116.5 98.8 87.8 71.3 63.9 53.9 46.8 41.7 38.1 38.1 38.1 38.1 38.1 38.1 38.1 38.1 38.1 38.1 38.1 38.1 38.1 38.1 38.1 38.1 38.1 38.1 51.3 63.4 76.1 81 93 102.3 111.4 118.2 123.4 125.3 132.1 137.9 162.5 178.1 195.2 207.3 223.8 245.7 268.2 279.1 299.4 315.1 325.6 334.9 338.4 351.2 354.6 373.3 404.5 438 473.5 496.9 515.7 510.4 505.6 506.1 502.3 498.4 497.7 492 481.9 474.7 471.9 466.3 458.8 454.8 452.9 451.3 445.1 445.7 435.3 427.8 424 428.3 437.1 437.5 432.9 418.1 413.8 414.1 414.6 406.3 391.9 382.1 372.4 361.3 350.4 341.7 332.8 326.3 318.2 320.2 332.6 325.8 331.6 339.5 348 349.1 356.7 363.9 364.2 384 413.3 426.5 439.7 457.5 471.7 485.6 500.8 517.7 536.9 560.5 578 590.9 589.9 575.1 531.1 492.2 453.5 412.2 387.3 359.3 360.2 352.1 350.9 350.7 354.5 359.9 367.8 379.5
189.5 191.4 194.2 196.6 199.9 201 205 210.2 214.8 219.1 223.1 226.6 228.5 231.4 231.6 233.3 233 233.5 232.1 231 231.8 232.2 233.9 235 235.2 237.2 237.3 239.2 239.3 242.8 243.2 242.9 243.8 243.6 243.6 246.7 250.6 255 257.7 264.6 273.2 279.5 283.1 294.7 303.4 326.2 340.9 350.7 361.4 366 358.6 358.8 357.9 346.1 335.8 313 293.5 270.3 249.1 228.1 216.6 198.8 182.8 161.8 143 117.9 99.3 84.6 71 65.3 57.8 47.2 40.1 38.1 38.1 38.1 38.1 38.1 38.1 38.1 38.1 38.1 38.1 38.1 38.1 38.1 38.1 38.1 38.1 38.1 38.5 53.8 64.6 71.4 84.5 92.4 97.3 100.8 108.7 115.3 128.7 152 169.7 185.8 190.7 201.6 218.9 239.4 259.5 273.1 289.3 308.9 322.9 331.8 341 350.3 353.8 366.5 400.1 428.9 469.4 499.9 512.1 508.1 507.6 504.9 502.5 497.1 494.6 493.9 488.9 478.4 468.7 459.6 453.8 446.6 442 438.4 433.2 431.3 424.5 415.3 417.3 416.5 419 429.7 422.9 410.1 404.6 408.1 412.2 407.3 392.9 381.4 371.1 359.3 348.6 340.5 331.8 323.4 319.5 314.4 317.3 315.3 316.4 334.5 346.2 342 353.3 356.3 365 375.4 394.9 420.2 436.4 453.5 469.6 485.7 501.2 518.1 537.1 556.7 575.3 585.8 587.5 578 536 496.6 454.6 407.7 378.4 355.7 352.6 344.6 343 350.9 350.1 355.5 362 372.1
188.4 188.3 193.4 194.2 193.8 194.9 199 204 206.4 210.9 213.8 217.8 218.7 220.6 221.8 224.6 226.3 226.3 224.5 225.1 225.8 227.9 228.4 228.8 229.7 230.8 230.6 230.5 229.4 231.9 232.2 233.1 234.4 230.3 232.2 236.9 246.3 252.3 258 259.6 268.9 277.3 283.6 291 304.7 319.9 337.6 355.1 371.1 371.7 367.3 365.2 353.1 352.3 347 331.5 314.9 287.5 266.2 245.1 227 211 191.8 174.3 153.9 136.6 115.5 99 85.6 75.6 68.1 52.6 47.2 38.1 38.1 38.1 38.1 38.1 38.1 38.1 38.1 38.1 38.1 38.1 38.1 38.1 38.1 38.1 38.1 38.1 38.1 45 54.4 69 76 80.8 89.3 96.6 94.3 115.4 128.6 145.8 163.2 182.7 193.5 200.3 211 228.8 247.1 260.3 277.4 298.7 315.9 332.6 345 345.6 352.4 366.3 390.5 423.8 458 493.5 506.1 510.6 507.2 504.7 500.7 494.9 492.7 491 486.8 480.9 470.5 459.8 450.1 440.3 435.7 432.6 426.5 422.9 417 407.9 408.3 403.8 409.2 409.9 410.4 401.8 391.2 402.3 401.2 399.1 392.7 382.3 368.7 355.2 345.2 337.5 332.1 323.4 318.7 313.8 313.4 314.3 316.4 329.2 337.1 341.5 347.4 348 356.7 374 388.1 412.1 430.9 451.3 469.3 486.1 501.8 518.7 536.4 554.2 570.1 583.5 586.4 581.2 545.4 502.8 453.8 413.6 375.8 355.5 348.8 335.9 340.2 341.7 346.2 350.3 356 365.1
185.8 187.5 189.2 190.3 191.7 192.6 196.1 199.4 201.3 206.2 208.7 212.1 213 213.7 215 217.6 218.5 220.5 219.9 220.5 222.1 223.7 223.9 225.1 225.6 226.4 225.6 225.9 225 226.6 227 226.6 225.8 226.1 226 232.5 237.3 246.2 253.4 259 263.4 276.6 284.5 291.6 303.8 326.8 339 351.7 370 377.6 379.2 370.9 365.7 357.9 346.5 340.2 329.5 311.4 288.9 272.2 247.3 226 203.5 181.3 164.9 148 129.6 114 97.3 83.9 75.6 67.4 56.6 46.6 38.1 38.1 38.1 38.1 38.1 38.1 38.1 38.1 38.1 38.1 38.1 38.1 38.1 38.1 38.1 38.1 38.1 45.4 50 56.9 66.8 77.8 83.8 95.3 102.2 111 124.1 137.2 150.4 166.9 181.5 192.3 203.8 220.1 239.1 246.1 267.2 289.2 310.3 325.4 339.4 345.8 352.2 360.9 387.5 414.4 448.8 473 494.6 509.8 509.6 503.2 497.3 491.6 488.4 485.1 480.1 475.3 468.5 456.9 443.8 435.3 429.8 426.1 421.1 414.4 408 401.6 397.3 398.6 394.7 399.7 404.1 394.1 385.2 385.9 393.7 398 388.6 380.9 368.5 352.7 342.6 334.7 329 323.8 318.7 313.4 311.6 313.1 317 331.3 330.7 336.7 334.6 343 356.2 373 386.5 410.9 426 445.2 465.4 482.3 500.4 514.9 529.2 549.8 566.9 579.3 580.5 577.5 551.1 512.1 450.5 407.5 372.1 354.5 343 334 336.1 338.6 340.4 345.2 349.2 359.7
184.7 186.3 187.3 188.7 190.1 190.5 191 194.9 198.1 200.5 204.1 208 208.8 205.9 209.3 212.7 213.5 213.9 215.1 214.3 218 221.7 222.7 223.7 223.2 223.3 221.8 222.5 220 220 220 220.6 222.4 222.2 223.4 227.2 231.3 238.2 243.7 250.5 259.3 267.3 274.6 285.7 298.2 313.7 337 359.9 371.3 376 380.1 380.7 376.6 365.1 362.3 351.4 329.9 324.3 308.1 290.7 273.4 241.8 219.9 195.5 176.9 161 141.6 123 109.1 96.4 83.5 75.1 65.4 57.9 47.4 41 38.1 38.1 38.1 38.1 38.1 38.1 38.1 38.1 38.1 38.1 38.1 38.1 38.1 38.1 38.1 44.8 49.9 54.2 60.3 69.9 80.5 89 97.3 104.9 116.9 130.3 140.9 152.1 172.4 186.6 201.7 215.8 231.7 249.6 266.9 286.3 306.5 319 330.7 342.2 349.6 358.9 380.3 407.7 433.3 465.8 485.6 502.2 505.1 500.8 492.4 484.3 480.9 477.4 471.2 464.9 459.9 449.2 437.7 428.7 422.7 417.7 413.1 407.4 400.6 394.5 388.3 384.7 389 395.8 399.7 388.9 382.3 379.5 383.2 391.4 383 373.6 366.2 350.9 340.9 336 330.5 323.1 316.3 311.4 310.3 312.2 316.6 325 329.5 330.9 331.6 338.9 353.2 371.9 385 399.4 415.9 441.1 460.9 480.4 495.5 509.2 524.9 540.6 559 573.4 576.5 572.6 545.8 501.5 441.3 401.5 372.5 352.2 344.1 335 331.5 332.5 331.1 341.8 343.7 352.7
188.3 185.5 185.9 187.2 186.6 188.1 190.1 191.6 194.1 196.3 197.7 199.1 200.1 202.1 203.6 205.6 207.9 209.9 212.5 215.5 218.9 220.6 223.6 221.3 221.5 220.1 219.9 218.4 217.8 217 216.9 217.3 218.6 217.6 219.8 222.2 227.2 230.8 234.6 241.7 251.9 259.5 268.4 279.1 289.2 304.9 320.7 342.4 370.6 376.2 382.2 387.6 383 375.3 366.7 359.9 349.3 331.9 320.8 309.2 288.4 264.9 232 209.7 190.2 171.7 153.7 135 119.7 106.7 94.6 83.6 73.1 65.8 54 50.1 45.4 38.1 38.1 38.1 38.1 38.1 38.1 38.1 38.1 38.1 38.1 38.1 38.1 38.1 38.1 42.9 47.6 52.4 59.1 70.4 79 85.8 91.2 99.4 109.3 123.5 139.2 147.5 159.2 172.5 189.6 211 226.1 242.7 263.3 282.4 305.3 321.4 333.7 343.4 352 363.4 379.3 403.6 427.8 454.8 477.9 490.8 498.5 494.8 489 481.6 472.1 467.4 460.1 454.1 447.8 438.4 429.4 421.1 416.9 413.8 404.5 403.7 397.5 390.6 381.1 376.6 377.6 388.1 393.7 385.1 375.2 375.4 380.8 382.2 373.7 367.7 358.5 347.3 336.3 329.2 327.5 320.8 313.5 309 312.6 313.6 310.8 313.4 326 324.3 328.8 338 348.9 362.9 377.1 393.5 412.2 434.8 459.1 477.3 490.4 505.1 518.2 530.9 546.5 561.7 571.9 567.5 534.5 485.1 440.3 395.8 369.9 350.8 341.1 331 320.1 325.9 332 334.4 340.5 347.2
193.5 189.5 188.3 187.2 188.3 188.5 190.5 190.5 192.8 195.6 194.4 196.7 198.6 199.8 201.9 209.3 211.6 214.2 214.6 216.4 217.2 219 219.3 219.4 219 217 216.5 216.7 214.9 215.7 217.6 218.3 218.1 219.3 222.2 223.1 223.2 228.9 233.4 239.4 245.6 252.5 261.1 275.8 287.2 298.7 313.9 331.7 349 364.9 374.1 383.2 389.4 381.8 374.3 370.2 364.4 358.9 342.8 318.6 306 283.1 258 220.3 198.6 180.8 165.5 146.7 127.8 114.5 103.9 93 81.2 73.9 61.5 55.2 50 42.3 38.1 38.1 38.1 38.1 38.1 38.1 38.1 38.1 38.1 38.1 38.1 38.1 38.1 42.2 46.2 49.8 53.2 59 68.4 78.3 84 95.6 106.7 117.1 127.6 139.1 151.5 163.7 179.3 198.6 217.1 236.2 255.2 278.8 300.8 316.8 330.4 346.7 351.2 366.2 382 402.1 430.5 468.7 482 488.7 492.8 490.7 484.4 477.9 469.3 461.5 453 445 438 430.8 422.5 415.2 412.3 410.8 398.8 396.8 394.5 390.6 377.8 373.6 372.2 375.9 380.5 374.9 370.3 367.1 370.1 371 362.5 356.6 350.2 342.8 331 324.5 323.1 317.3 307.2 312.1 312.2 311.7 311 312.9 321 322.4 327.2 338.8 348.8 362 377.5 386.4 411 432.7 455.4 475.2 488.4 501.5 514.9 526.6 538.5 551.2 563.4 562.2 536.7 470 427.1 391.4 364.1 348.3 333.8 323.5 316.4 319.8 326.9 331.6 335 341.4
199.3 193.7 191.9 190 188.6 188.6 189.2 191.3 191.2 191.9 194.1 194.9 197 200.3 203 207.9 210.6 214.8 214.7 214.3 214.5 215.3 217.8 217.5 214.7 215.3 214.7 214.9 215.8 217 217.3 218.2 221.3 222.3 223.3 224.4 225.6 227.5 227.9 240.4 247.9 260.2 266.5 275.9 288.9 301.6 310.5 332 347.6 361.4 376 383.8 387.2 389.2 380.5 376.2 379.2 373 357.3 340 319.8 293 253.8 230.7 207.5 189 173.8 155.6 140.4 126.3 117.2 105.8 91 79.5 72 62.8 55 50.2 43.5 38.1 38.1 38.1 38.1 38.1 38.1 38.1 38.1 38.1 38.1 38.1 38.1 39.2 42.6 45.2 49.4 54 57.5 70.4 75.1 85.6 96.3 111.1 123.8 136.8 148.1 158.4 174.4 189 209.1 228.2 248.3 270.8 291.2 310.6 319.3 346.1 352 361.1 378.6 399.5 428.9 471 504.2 508 495.4 487.1 478.6 470.4 462.2 453.9 444.9 439.1 433.3 425 417.4 409.3 410.3 403.1 397.3 392.6 388.7 382.4 374.3 370.2 365.7 368.8 365.6 368.2 368.2 364.2 357.9 362.5 356.1 344.9 339.2 337 326.4 320 320.9 314.4 306.2 311.4 315.3 311.2 311.8 314 321.1 323.3 332.4 338 350.7 363.9 371.8 388.3 409.8 427.3 452.8 472 488.9 499.9 511.1 522.3 532.6 538.2 546.8 551.5 529 477.1 421.2 389.8 363.3 343.8 325.9 321.4 318.3 315.4 320.1 324.7 329.2 334.1
200.7 200.2 194.9 192.7 191.7 189.8 188.7 191.2 191.6 194.7 195.7 196.2 196.6 198 202.1 204.8 210.1 211.5 212.1 212.6 213.3 213.8 214.8 214.6 214.3 215.5 216.4 216.2 217.4 218.7 219.6 221.8 225.3 226.6 227.2 227.9 231 232.9 230.2 234.8 252 261.7 269.5 282.4 291.3 301.9 314 325.2 348.3 365.2 384.2 395.3 398.2 398.3 394.4 388.7 382.7 375 360.1 343.8 330.5 306.7 270.7 239.5 219.9 199.4 183.1 171.4 151 134.6 125.8 114.6 102 89.1 77.6 70.5 61.7 56.3 51.9 43.2 38.1 38.1 38.1 38.1 38.1 38.1 38.1 38.1 38.1 38.1 38.1 38.1 38.1 40.7 42.9 47.2 51 58.2 65.7 76.5 87.5 102 117.1 129.6 143.7 155.2 167.3 179.9 202.8 226.6 248.1 264.7 284.2 301.6 317.9 341.2 352.7 361.7 371.9 397.2 424.1 461.5 496.3 509.7 501.4 491 476.5 465.5 456.6 447.8 439.5 432.2 428 420 411.3 405.3 401.1 396.7 393.6 390.6 383.7 381 374.7 366.7 362.9 359.8 362.6 360.5 357.9 361.4 356.2 346.8 345 337.2 329.4 326.8 323.5 316.5 311.9 308.1 300.2 308.1 309.2 310 314.8 317.6 323.3 330 337.4 345.3 350.1 361 376.2 386.9 407.1 431.2 451.6 471.2 488 498 507.2 515.6 523.7 528.7 532.1 535.2 516.4 468.7 427.7 389.5 355.5 330.5 315.8 315 316.7 308 311.4 313.9 322.2 328.2
208.8 204.7 201 195.8 194.1 192.1 190.4 191.8 194.3 195.1 194.2 197.7 200.2 201.7 200.8 202.3 209.6 211.8 208.6 210.3 214.7 213.2 213.1 213.9 213.9 216.1 217 217.9 220.3 222.6 228.3 233.9 234 232.5 237.9 241.4 242 242.2 238 236.5 245.3 269.1 280.3 287.8 298.4 306 314.8 328.4 347.4 371.3 393 409.1 412.3 413.9 410.6 404.9 402.6 393.6 383.3 362 332.5 307 275.7 252.9 230.6 210 192.8 177 164.1 142.8 131.8 122.6 109.9 100.7 88.9 76.5 70.2 63.4 56.5 52.9 45.8 41.8 38.1 38.1 38.1 38.1 38.1 38.1 38.1 38.1 38.1 38.1 38.1 38.1 40.4 43.4 46.3 51.6 59.2 70.7 79.8 93.5 107.6 119.8 134.6 147.8 157.3 173.1 201.7 212.5 243 263.2 273.9 293.6 313.5 330.4 347.7 358.1 369.2 391.2 415.9 443.1 470.3 494.9 497.5 490.3 477.9 465.1 453.7 443.4 434 427.3 419.3 413.6 407.7 399.2 394.9 385.2 386.8 385.1 379.7 375.4 374.1 364.7 357.9 356.3 356.6 360.3 350 340 347.3 338.2 337.8 335 330.3 326 316.8 311.5 308 301.5 300.7 298.8 304.9 307.9 313.5 319.7 327.4 334.3 343.7 349 354.2 363 378.5 397.1 411.6 428 451.6 469.9 485.8 495.7 502.2 510 516.5 519.3 522.5 523.1 511 470.1 421.8 391.9 350.6 320.9 309.3 307.5 309.9 303.8 301.5 306.8 310.9 314.5
216.5 210.6 203.8 202.8 200.1 194.4 192.4 194.4 196.2 195.4 196.6 201 202.6 204.9 207.2 207.9 206.2 206.5 211 213.1 216.8 218.2 219.2 217.3 216.8 219 220.1 227.5 230.2 235.9 242.2 245.6 247.6 244.3 239.2 249.8 251.5 253.2 250.1 247.4 261.5 276.9 284.1 292.5 298.4 306 318.8 327.9 350.9 376.5 400.1 413.5 421.5 427.7 426.2 419.5 420 415.2 405.8 382.3 349.1 317.6 287.6 264.9 241.2 221.6 203.4 185.9 171.1 154.6 141.6 133.2 121 107.7 99.4 88.6 77.5 71.2 63.5 56.7 50.6 47.2 40.3 38.1 38.1 38.1 38.1 38.1 38.1 38.1 38.1 38.1 38.1 38.1 38.1 40.2 43.4 46.4 51.6 62.4 71.6 82.6 94.8 107.2 121.1 134.6 151.6 166.9 189.6 213.8 239.3 272.5 285.9 290.5 303 321 335.4 348.5 363.5 384.7 406.6 430.5 455.8 476.6 482.6 481.8 473 463.1 451.5 439.8 431.1 424.1 415.5 405.7 400.5 392.9 387.6 378.2 379.8 378.8 373.7 367.4 367.5 367.4 361.2 352.1 352.1 350 344 337.9 333.2 331.1 332.4 331.3 325.9 320.6 310.6 304.8 300.8 292.2 295.8 300.7 303.6 308.2 312.7 322.3 332 335.4 345.3 350.4 348.6 365.1 387.4 402.2 413.1 428.5 451 469.9 483.2 491.6 498.3 504.4 508.1 511.1 512.7 510.4 501.3 461.7 418.1 393.9 351.4 312.3 303.1 304.3 304.2 296.9 288.5 294.6 297.1 305.1
226.4 215.4 209.5 206.5 206.9 200.1 196.5 196.4 198.7 197.5 197.6 203.7 207.5 209.2 211.6 211.5 212.4 215.3 213.6 212.2 214.3 221.8 227.7 229.9 231.6 234 236.2 239.7 243.5 250.1 257.2 266 265.9 258.8 253.5 258.1 263.6 261 262.9 259.6 266.5 274.2 287.6 298.8 303.6 305.5 317.8 329.4 361.6 385 398.9 412 424.9 434.9 435.4 431.7 433.3 431.8 422.7 408.9 379.5 346.3 310.5 281.1 256.8 227.3 210.7 193.7 177.9 169.5 149.7 143.3 131 122.4 109.3 98 86.5 79.4 69.9 62.7 56.5 52.8 46.2 38.1 38.1 38.1 38.1 38.1 38.1 38.1 38.1 38.1 38.1 38.1 38.1 38.1 41.5 43.5 47.9 52 64 77.3 85.5 96.8 110.5 127.8 143.1 159.4 178.7 204.9 229.7 265.7 289.5 305.3 310.5 309.1 327.6 343.9 354.6 372.9 396.4 417.1 438.3 451.4 464.5 464.2 459.7 452.3 443.2 433.3 426.4 419.9 414.4 402.3 394.1 387.9 380.9 377.4 373.1 374.6 370.3 363.4 361.2 359.4 358.4 356.5 350.7 345 341.1 336 330.9 325 329.8 328.7 323.3 316.8 305.4 301.7 294.1 295 300.4 302.1 301.9 307 314.3 320.7 331.5 337.5 338.3 344 349 361.6 382 397.8 414.8 431.9 453.3 470.9 481.1 487.1 492.5 497.2 501.3 503.6 502.9 499 489.5 459 417.7 387 346.8 306.8 297.7 297 295.5 291.8 287.7 282.1 287.3 289.6
238.9 226.8 217.2 214.7 211.6 207.5 205.4 200.7 203.2 201.5 199.7 205.1 210.1 214 217.4 216.8 218.2 218.3 217.4 218.7 224 229.5 233.7 232 243.2 244.9 248.2 252.8 269.3 277.3 276.1 273.6 269.9 269.4 261.6 270.1 274.8 279 287.5 280.5 266.4 284.8 289.9 302.4 313.3 315.5 320.5 331.6 370.6 390.6 408.7 415.6 427.3 435.4 440.4 439.2 442.9 442.4 434.6 420 401.9 373.9 340.1 300 268.3 240.3 216.5 201.7 185.9 175.8 160.1 148.3 139.5 127.8 118.1 110.1 101.9 90.1 80.8 72.8 64.7 56.9 51.2 42.4 38.1 38.1 38.1 38.1 38.1 38.1 38.1 38.1 38.1 38.1 38.1 38.1 39.3 41.8 43.2 47.9 56.1 64 75.6 88.5 102.6 117.4 136.3 150.1 169.7 197.9 223.9 260.1 291 317.2 326 330.3 329.9 338.9 351.1 364.9 381.9 402.3 418.7 433 442.9 444.7 442.8 437.6 429.7 422.8 417.7 412.6 407.4 397.5 391.9 385.2 378.8 371.5 368.4 368.6 363.5 360.3 359.1 355.6 350.3 349.5 343.1 340.1 336.9 330.9 326.2 317.4 318.6 324.3 316.3 310.4 303.5 295.6 289.1 290.5 297.5 299.6 300.2 305.4 311.5 318.5 335 337.7 338.6 341.4 348.5 362.4 374.6 394.9 414.6 431.6 452 470 477.4 481.5 487.6 489.6 492 492.7 491.1 487.5 472 451.6 419.9 377.5 329.3 307.3 291.7 290.4 288.2 286.8 283.2 275.9 279.9 278.5
263.1 245.7 229.9 219.5 220.6 214.1 212.3 208.3 207.5 208.5 211.2 213.8 215.2 218.8 221.4 221.7 224.2 222.9 221.8 223.8 234.9 245.7 237.9 232.6 239.2 248.1 254.8 264.6 272.8 278.8 280.5 284.2 279.7 272.6 268.3 275.6 281.8 289 296 296 287.8 289.7 297.9 308.4 314.6 318.4 322.6 332.4 351.4 377 404 419.1 426.5 433.9 438.3 441.9 447.6 450.5 440.9 425.6 409.2 392.1 361.4 322 290.2 260 230.8 212.5 195.4 181 167.5 159.2 142.9 131.6 126.7 118.5 108.8 98.4 88.7 80.9 71.4 66.1 57.1 49.2 39.6 38.1 38.1 38.1 38.1 38.1 38.1 38.1 38.1 38.1 38.1 38.1 38.1 40.6 42.4 45.1 50.4 57.9 68.5 83.4 95.8 110.4 127 142.6 162.4 184.6 213.7 247.9 285.5 318.5 338.5 342 344.9 347.1 346.9 356.9 369.6 384.5 400.7 409.1 417.7 424.9 423.8 418.8 413.5 410.1 405.5 401.5 396.6 390.1 383.1 381.4 378.1 366.9 365.1 364.4 357 356.1 349.6 347.6 345.3 343.5 334.7 337.5 332.8 322.6 315.7 307 308.7 311.7 304.5 302 295 290.8 288.3 285.6 294.1 297.1 299.4 299.8 300.7 318.1 330.4 333.1 334.7 345.4 350 359.4 377.7 393.5 411.3 429.6 447.4 462.3 471.5 476.1 479.1 482.1 484.3 483.9 477.6 467.9 447.6 423.8 404.3 364.8 321.9 296.9 287.3 287.4 283.4 279.4 275.8 268.6 272.3 273.3
280.4 267.1 249.4 235.6 228.1 225.7 222 218.4 218.8 219.2 220.4 221.9 222.8 226.9 228.5 228.8 228.9 226.7 226.4 234.7 251.4 249.2 239.3 240.5 251.9 256.3 263.2 269.3 272 282.7 285.4 288.4 286.2 279.5 280 282.7 288.5 291.9 299.4 300 296.9 292.5 294.5 303 315.3 320 323.6 331.8 340.9 362.2 393.7 412.2 425.6 432.5 438 441.3 447.4 451.1 447.6 432.9 417 402.8 387.6 347.3 311.4 278.4 251.5 223.7 198.7 184.1 176.3 161.5 152.4 139.3 134.8 123.8 116.6 111 99.8 88 80.5 77.4 66.6 54.1 46.2 38.1 38.1 38.1 38.1 38.1 38.1 38.1 38.1 38.1 38.1 38.1 38.1 38.1 41.3 43.9 48 53.3 61.6 73.5 86.7 101 116.4 135.9 153.5 171.9 199.3 232.9 276.1 306.9 335.3 354.1 359.5 362.7 362.8 359.5 360.6 369.2 384.6 389.1 393.3 397.9 399.5 398.5 395.6 395.4 394.9 387.6 384 375.5 372.8 377.4 372.6 365.5 362.1 359.8 352.1 351.3 344.2 340.4 335.9 332.2 328.7 329 324.5 318 310.1 307 303.8 306.3 296.3 289.3 285.4 288.3 286.6 286 290 291 295 294 300.6 313.2 325.4 323.4 330 347.2 350.5 357.3 372.7 384.8 401.4 422.4 441.9 454.8 462.7 466.8 470 472.3 472.6 471.9 464.9 447.4 425 403.1 378 343.5 313.6 294.5 283.4 282.5 281.4 277.2 273.9 267 266.6 269.8
297 283.6 266.7 252.8 241.8 238.1 232.8 232.4 228.9 225.8 227.9 231.4 235.9 236.2 235.7 235.8 233.1 233 235.4 246.6 256.3 255.5 244 249.2 267 274 278.9 280.5 283.9 287.3 293.6 293.8 294.9 302.8 296.3 297 299.3 304.6 307.2 305 303.6 300.2 302.2 298.8 311.8 318.7 324.2 334.2 344.3 354.7 377.5 403.3 424.4 432.4 439.4 439.8 445.3 448.9 447.3 438.7 426.4 413 400.7 383.5 338.6 302.8 270.4 250.4 216.3 193 182.9 170.9 156.9 144.4 138.4 129 122.9 116.4 108.1 98.1 86.3 82.9 72.7 61.8 49.6 43.4 38.1 38.1 38.1 38.1 38.1 38.1 38.1 38.1 38.1 38.1 38.1 38.1 41 42.9 45.4 49 55.4 65.1 76.3 91.7 109.2 125.5 144.9 160.2 183.2 218.7 264.5 290.4 322.4 350.4 364.8 374.3 375 373 368.6 362.4 367.9 378.3 380.3 381.1 382.3 385.2 383.9 380.8 377.3 376.4 372.9 365.9 365.7 364.9 362.3 361.7 353.4 354.2 351 339.7 337.3 334.2 330.4 324.8 322.2 322.9 316.5 313.3 306.4 299.9 300.8 299.1 294.3 288.2 279.8 283.7 283.4 282 286.5 287.2 289.5 292.2 298.3 308.1 317.2 317.8 324.6 339.6 352.4 361.8 375.5 377.9 396.3 418.2 435.9 447.1 450.8 455.4 458.8 461.3 460 456 445.5 428.7 403.6 379.5 360.9 341 310.4 293.4 281.6 279.9 278.5 273.8 270.1 264.2 262.5 265
308.5 297.4 281.5 266.7 252.7 247.1 243.7 244.5 239.7 233.1 236.2 239.9 244.9 249.4 246.9 244.2 241.9 246 247.7 252.9 261.6 255.6 253.5 268.2 288.2 285.9 291.2 293.4 308.8 317 314.4 310.9 314 310 306.4 310.1 311.1 317.9 317.5 314.8 309.3 308.5 305.6 301.7 305 315.8 324.9 335.3 342.7 349 370 389.7 418 431 436.5 440.2 440.5 447 445.7 441 433.2 425 412.7 396.7 360.3 326.7 292.1 266.9 244.8 211.6 196.1 180.2 161.6 155.5 143.9 135.4 131.3 123 113.8 104.4 94.3 90.3 79.4 71.2 57.9 46.3 40.3 38.1 38.1 38.1 38.1 38.1 38.1 38.1 38.1 38.1 38.1 38.1 38.1 41.8 43.2 45.8 52.8 59.1 70.3 80.8 96.6 114.3 132.4 150.1 166.8 195.3 228.8 261.5 298.4 334.8 364.4 374.1 380.9 380.9 378.2 374.5 372.6 370.9 371.8 374.2 373.6 376.7 374.2 370.1 367.6 368.2 363 356.9 353.5 349.5 347.1 348.5 349.7 348.5 337.8 336.2 327.8 326.4 321.6 314 316.2 316.4 307.3 306.3 304.3 297 293.3 286.7 283.1 285.7 276.5 279.4 284.9 284.5 288 288.5 290.2 291.5 295.3 302.3 314.2 316.7 324.2 336.6 344.3 361 371 382.2 393.7 410.4 426.6 435.9 440.9 444.9 449 449.6 446.3 440 422.4 402.6 384.9 367.8 351.9 333.1 302.1 286.9 273.9 275.8 272.7 270.2 266.1 260 259.6 263.8
315.2 305 290 274 263.4 257 255.1 253.3 248.4 245.6 244.8 249.7 252.8 256.4 254.6 252.2 250.5 256.7 258.8 272.6 271.5 266.7 276.4 291.4 301.2 304.4 310.4 310.8 332.1 338.5 325.9 317.7 320.4 313.6 319 319.2 328.1 329.5 327.3 320.1 316.2 315.6 321 308.4 306.4 311.6 325.7 335.3 346 352.5 363.4 378.6 407.9 428.3 434.5 440 441.1 441.7 444.3 442.2 434.9 429.2 420.8 407.4 380.5 352.2 318 288.7 261.6 242.9 224.9 204.4 181 167.9 157.5 144.3 136.2 127.5 121.4 111.5 102.9 94 86 77.6 64.5 51.8 41.8 38.1 38.1 38.1 38.1 38.1 38.1 38.1 38.1 38.1 38.1 38.1 38.1 39.9 41.7 43.5 47.7 53.9 62 76.7 89.4 100.4 118.2 139.2 156 181.4 209.5 240.4 271.9 307.8 351.6 373.2 382.1 384.2 383 384.7 379.9 374 369.2 369.9 368.3 370 368.4 365.2 363.7 364.3 355.4 348.5 345.3 339.8 336 336.1 342 342.9 328 326.8 322.4 316.6 312.6 309 308.4 306.7 304.4 299.1 300.7 291.2 294.4 286.7 282.8 277.5 276.6 280.3 285.7 283.5 287.3 291.6 289 286.9 298.7 305.9 312.2 316.9 320.8 333.2 338.1 352.9 369.5 377.1 392.9 405.2 418 425.3 431.5 434.2 435.5 435.8 431.7 420.8 399.2 385.7 368.8 357.7 342.7 313.3 295 281.3 270.1 269 268.7 266.3 262.4 255.8 260.7 261.6
321.4 313.8 297.8 286.2 271.6 267 265.5 267.6 261.2 253.7 252.8 261.2 259.9 259.9 261.3 258.8 269.9 267.5 274.7 286.3 284.2 291.3 316.8 323.6 319.2 318.8 323 325.7 340.3 344.4 337.9 334.4 334.2 321.5 321.9 340.3 339.4 335.9 332.8 325.9 322.4 326.4 326.9 324.5 319.3 319 327.6 343.4 348.1 353.3 358.8 372.4 387.6 414.6 433.2 438.6 446.2 445.2 447.6 444.8 437.8 430.4 422.6 413.1 401.2 375.9 348.3 316.4 288.3 277.5 263.1 244.7 211.2 193.9 176.6 160.8 147.3 132.7 124 118.4 109.8 98.5 93.8 82.9 75.8 64.4 49.9 40.5 38.1 38.1 38.1 38.1 38.1 38.1 38.1 38.1 38.1 38.1 38.1 38.1 39.5 41.4 45.9 52.1 56.6 67.6 79.4 92.2 111.7 125.8 144.9 166.8 193.7 224.9 252.5 279.6 323 360.6 378.6 384.7 385 385.5 386.8 380.6 370.9 368.6 365.8 364.7 360.8 359.2 358.5 356.6 351.3 348.5 343.5 335.8 329.6 326.2 330.8 330.4 320.5 317.8 312.2 308.3 304.7 293.4 295.9 296.1 293.8 292.6 295.5 289.6 294.2 285.5 283.7 278.7 276.2 275.1 279.4 284.4 286.9 291.4 286.3 285.4 298.4 305.7 308.2 314.6 321.3 331.4 341.4 353.3 362.7 372.6 393.3 404.4 411.3 419.2 423.1 423.6 423 416.8 412.5 403 380.5 368.8 353.3 339.4 323.3 299.5 283.7 274.9 264.6 264.4 262.7 261.3 257.2 257.6 260 260.6
327.2 318.8 308.9 292.4 278.3 272.8 270.3 271.2 269.3 262.1 265.1 268 273.1 269.5 269.3 272.8 277.9 278.6 296 298.8 315.4 330.9 335.9 342.6 340.9 338.9 337.4 343.7 356.4 361.6 356.3 358.3 352.4 332.3 327.2 343.6 344.3 340.5 332.9 329.5 333.4 328.5 326.5 327 326.6 327.8 334.3 336.1 342.5 350.9 354.9 363.3 376.8 394.5 418.5 430.7 437 445.3 449.6 449.3 443.2 435.4 425.8 416.3 405 391.9 373.2 347.8 327.4 311.5 297 285.8 256.1 221.8 206.4 175.3 159.3 147.3 131 122.1 112.7 105 93.4 90.2 84 74.4 60.9 46.9 39.5 38.1 38.1 38.1 38.1 38.1 38.1 38.1 38.1 38.1 38.1 38.1 38.1 39.1 42 48.9 54.1 63.6 74.9 85.5 100.8 118.2 134.6 152.7 174.9 208 232.8 260.2 293.3 341.6 364.5 380.3 384.1 385.6 385.9 381 370.8 364.2 363.9 363 358.8 348 348.8 350.4 348.6 347.3 340.9 333.3 328.3 322.9 317.3 318.6 312.3 310.8 307.3 302.4 300 291.8 288.9 287.5 287.9 283.5 283.3 284.5 290.8 285 279.5 280.8 277.2 276 275.4 284.2 285.7 284.4 283.2 287 293.4 299.8 303.3 316.1 322.7 325.6 338.2 351.7 357.2 371 384.6 398.9 405.6 411.4 411.3 409.6 406.8 403.5 395.1 379 365.1 352.3 334.1 321.5 304.1 289.8 276.5 266.7 261.7 257.4 258.2 258.9 249.1 256.3 257.5 255.4
334 329 318.1 301.6 293.8 284.2 278.7 276.7 275.1 273.1 274.8 280 286.1 285.1 278.3 286.4 289.9 304.7 315.4 335.2 341.5 349.6 360.9 360.5 362.2 360.7 358.8 361.8 364.5 362.9 357.8 354.7 351.4 344.9 337.2 342.7 345.1 341.5 333 342.3 336.6 329.8 326.5 326.5 328 331.1 335.2 342.6 340.7 347 355.2 359 368.1 377.9 394.2 411.8 428.9 439.9 444.8 446 442.9 438.2 431.1 419.6 409.4 392.5 382.2 363.5 347.9 331 313.8 294 275.2 251.3 233.1 208.7 178.2 157.1 142.1 130.1 119.2 111.8 102.3 99.9 91.3 82.1 69.9 57.6 45.3 38.1 38.1 38.1 38.1 38.1 38.1 38.1 38.1 38.1 38.1 38.1 38.1 38.1 40 43.5 50.5 56.6 65.4 76.4 94.2 107.8 122.8 140.1 160.4 183.9 212.7 237.3 269.5 313 342.8 363.5 375.8 379.4 381 379.8 365.9 358.8 358.6 358.1 353.4 349.4 343.5 341.1 341.4 339.3 334.4 326.7 324.3 316.5 310.4 311.8 307.3 305.8 299 295.7 292 289.1 282.1 280 280.7 281.8 277.2 282.9 291.8 285.1 278.4 278.9 277.4 272.6 278.3 277.4 279.7 279.6 276.8 286.6 291.2 294.5 301.6 310 316.3 330.7 336.4 350.5 352.5 366.6 380.1 390.5 399.2 402.9 401.3 397.2 394.6 388.6 373.2 360.3 349.7 334.5 322.6 309.8 299.1 280.3 271.2 260.4 253.9 253.2 252.9 251.8 246.8 251 251.1 256.4
347.9 337.4 327.4 317.7 304.9 298.8 288.2 284.2 280.5 287.3 285.7 289.5 297.5 293.1 298.5 310.5 320.9 337.1 351.7 362 376.4 379 375.7 378.6 381.3 388.5 377.2 376.9 370.5 364.9 359.8 356.1 351.6 351 345 340.6 348.9 344.9 347.5 345.5 342.5 334 327.3 327.4 329.7 326.5 327.8 340.6 344.6 349.1 354.5 357 365.5 370.5 380.8 395.5 414.8 439.3 448.2 448 445.8 440.7 433.2 423.6 412.1 402.4 389 378.7 357.4 342.5 326.2 305.1 286.3 267.6 249.7 226.6 195.6 167.7 150.2 138.2 125.4 123.4 112.1 104.8 94.6 86 77.1 67.8 56.9 44.1 38.1 38.1 38.1 38.1 38.1 38.1 38.1 38.1 38.1 38.1 38.1 38.1 41.1 43 47.8 52.9 57.9 70.2 87 101.8 113.3 128.7 145.6 167.2 192.6 218.2 243.3 274.2 313.2 331.5 351.1 370.4 377 375 368.5 359.2 353.5 352.8 351.7 349.9 346 341.5 333.2 333.3 330.8 320 314.8 317.8 303.2 302.2 303.7 299.8 289.7 285.3 285.7 277.7 277.9 273.2 273.8 273.9 269.8 270.3 272.8 278.3 275.7 274.2 270 276.2 281 283.8 278.2 273.1 274 280.5 285.5 290.6 298.2 308.5 312.1 325.2 336.4 339.8 350 357.2 369.3 376.5 386.1 388.4 387.4 384.5 380 371.3 358.7 346.8 334.3 322.1 310 302.3 287.7 276.2 269.3 256.2 247.7 244.6 246.7 246.1 243 244.6 250.6 262.2
361.2 350.8 341.5 333 319.1 314.8 309.1 296.1 292.4 295.3 299.9 304.9 306.2 311.6 325.3 339.2 365.9 374.6 387.4 399.2 406.5 396.4 390.3 395.6 396 402.9 395.5 389.3 376.9 369 367.8 362.3 355.8 352.5 349.9 342.6 348.2 356 356.2 352.4 344.4 334.8 328.6 329.4 326.9 326.5 326.5 328.3 346.9 348.5 354.8 355.1 360.5 364.7 368.3 379.4 409.3 438.7 447.7 453 453.4 446.9 438.9 427.4 416.1 406.4 397.6 385.5 371.4 362 346.8 327.9 304.7 283.5 260.8 235.7 203.8 176 155.8 140 134.1 128.8 116.7 107.5 98.8 90.2 82.5 72.3 64.1 56.1 43.5 38.1 38.1 38.1 38.1 38.1 38.1 38.1 38.1 38.1 38.1 38.1 41.9 42.2 46.3 49.8 53.9 62.1 76.1 90.9 105.5 118.1 132.8 152.1 174.1 192.9 216.9 243 272.1 294.1 316.4 340.6 358.9 367.9 363.5 357.9 351.3 346.2 346.4 345 344 341 336.1 329.3 323.8 316.9 307.5 304.9 305.9 296 296.7 292 284.9 277.9 273.8 272.7 271.1 270.6 271.7 275.2 264 261.7 266.2 271.3 271.8 271.1 272.4 279.8 279.9 283.5 275.5 269.5 271.4 276 279.8 281.3 289 299.5 308.9 322.7 325.8 327.9 339.2 346.3 355.5 359.9 367.7 371.5 373.4 370.1 362.1 355.5 345.8 333.7 321.8 309.3 300.9 296.1 282 268.8 254.2 246.9 238.3 235 238.4 236.6 238.6 248.3 262.5 273.5
380.7 375.8 369.8 353.6 334.2 329.1 317.1 308 302.2 303.3 307.2 315.2 325.4 336.7 356.1 369.1 382.9 391.1 409.6 418.6 416.8 408.9 407.8 410.7 410.3 408.4 405.3 399.5 384.4 378.3 378.7 371 365.6 353.7 354.6 347.5 354.1 360.6 361 355.5 346.3 336.2 328.5 326.5 326.5 326.5 326.5 326.5 348.1 345 348.9 351.8 355.8 363 368 375.5 400.2 434 447 457 458.8 453.9 444.9 432.2 421.5 410.9 399.1 393.8 376.4 370.9 362.6 341.8 319.6 299.7 275.2 241.7 210.7 183.4 161.8 146.8 138.4 131.6 122.2 111.7 100.2 89.4 81.4 83.2 75.6 65.5 47.1 38.1 38.1 38.1 38.1 38.1 38.1 38.1 38.1 38.1 38.1 39.3 41.8 42 43.1 49.1 54.4 57.1 65.5 78.2 94.7 109.6 122.7 139.9 156.8 176.6 195 213.6 235.7 257.2 282.2 303.6 328.9 343.9 352.1 353.2 349.6 341.1 343.7 339.7 336.5 333.5 330.6 329.5 320.6 310.7 303.8 296.2 302.1 291 290.3 288.4 282.1 274 271 267.1 265.8 270.1 270 270.6 265.9 259.9 262.5 264 267.7 264.6 270.1 275.4 276.1 278.8 270.2 266.3 266.8 270.2 270.7 275.8 282.5 296.3 302.9 314.8 318.7 320.9 325.3 333.3 340.9 346 351 353.1 354.1 349.8 347.9 341.7 332 322.9 309.3 301.2 293.9 283.7 269.1 255.7 247.2 240.6 232.9 231.4 233.2 235.5 245.7 259.9 277 292.2
409.3 401.2 388.4 378.9 356 340.7 328.1 315.9 312.5 313.6 321.5 329 342.9 371.8 385.3 396.8 401.6 412 431.8 436.7 435 428.9 432.9 435.2 426.2 416.1 409 404.4 394.6 388.3 392.5 381.9 369.9 361.7 350.6 351 348.6 361.7 365.9 360 346.4 338.4 331.7 326.5 326.5 326.5 326.5 327.8 338.8 341.7 342.8 347.5 355.2 361.4 364.8 370.5 389.5 425.9 442.8 460.4 463.4 459.6 449.2 438.2 425.3 416.5 401.6 398.5 386.1 375.9 369.7 351.7 327.7 310.7 286.4 254.1 222.8 193.4 168.9 154.2 141.7 133.4 124.2 114.1 101 100.1 91.9 88.9 79.5 68.8 51.6 38.1 38.1 38.1 38.1 38.1 38.1 38.1 38.1 38.1 38.1 42 42.1 41.5 41.7 43.7 51.4 54.6 61.5 71.3 83.9 100.9 116 126.3 145 161.6 180.6 196.9 213 232.8 254.8 278 308.7 325.4 331.9 338.8 340.5 338.9 334.9 332.9 330.9 330.1 327.4 325 322.4 313.9 302.2 288.1 289.1 284.2 285.7 281.7 276.7 270.6 262.6 262.8 263.5 265.3 266.8 270.7 266.4 260.2 258.9 260.3 262.5 254.2 263.5 269.1 266.7 267.1 263.5 263.1 263.3 265.8 265.3 266.7 274.6 286.8 294.5 299.3 302.4 307.9 314.4 321.4 327.3 335.1 336.6 338.5 337.4 336 330.6 326.7 320.3 308.9 299.4 292.2 279.4 267.5 254.1 245 238.5 232.8 229.3 229.7 231.8 241.5 257 275.7 287.5 304
430.3 421.5 409.5 396.7 383.2 358.3 343.4 327.6 321.7 322.8 329.7 345 363.8 393.1 406.5 419.5 419.4 429 443.8 449.4 456.4 460 464.3 457.7 439.3 423.7 416.2 408.7 399.4 394.2 407.6 397.5 386.2 365.7 356.3 357.1 358.9 354.1 363.4 364.8 347.5 337.2 333.1 326.5 326.5 326.5 326.5 331.3 337.7 339.4 340.7 345.8 351.4 359.2 362.7 367.8 382.1 415.9 439.3 458.9 465.8 462.8 455.4 441.5 428.7 420.6 407.6 403.2 395.6 383.5 377.3 363.7 342.8 319.4 290.7 260.9 237.8 208.7 180.7 163.6 149.1 142.7 126.7 116.8 107.2 103.4 96.4 91.1 80.8 73.8 62.7 48.7 38.1 38.1 38.1 38.1 38.1 38.1 38.1 38.1 39.9 40.8 40.5 41.8 43.3 44.2 47.7 53.7 58.3 65.3 73.1 88.9 105.5 114 133.2 145.6 164.1 179 198.1 212.1 231.6 256 290.6 309.4 321.4 331.4 339.6 337.1 333 328.6 325.2 324 321.1 320.2 320.1 310.2 300.6 297.8 278.3 274.2 278 277.8 270.7 265.3 262.6 262.6 262.6 262.6 268 270.5 264.5 260.4 257.3 256.2 255.5 249.7 252.6 258.7 262.1 263 261.9 259.8 260.5 262.8 260.7 263.2 268.8 275.1 283.5 288.6 290 296.1 305.3 309 316.7 319.8 320.6 322.7 322.8 322.1 317.9 314 307.5 300.3 290.2 284.8 274.5 257.5 243.9 237.4 230.5 226.8 226.9 231.2 238.1 255.8 264.9 285.3 301.6 316.8
449.9 446.2 429.8 414 396.9 372.5 354.3 336.1 331.1 329.4 337.7 354.3 377.5 400.1 415.9 423.4 433 441.4 455 454.9 461.6 469.9 481.2 470.9 457.5 442.1 422.5 409.8 402.9 407.6 411.1 402.1 393.1 373.1 358.7 363.7 371.9 368.5 360.6 361.8 354.5 341.7 335.3 329.7 326 326.5 330.6 339 338.3 339.2 338.9 342.2 349.3 364.5 365.7 369.2 376.6 396 435.1 447.3 467.6 467.9 460.6 449.5 435.4 421.4 414.8 409.2 399.7 389.2 381.2 371.5 356.1 333.9 298.2 269.8 245.3 225.4 196.9 178.6 167.9 159.6 141 124.9 112.3 109.3 102.6 92.3 85.4 77.1 67.8 60.5 40.6 38.1 38.1 38.1 38.1 38.1 38.1 38.1 38.1 40 40.1 40.9 42.1 44.3 46.4 52.7 55.5 61.7 69 77 91.5 104 120.7 131.7 147.9 162.3 178.6 195.5 211.1 237.4 258.7 283.4 305.9 318.8 330.3 334.4 332 330.2 326.2 319.6 318.1 317.9 315 308.9 300.6 295 283.5 270.5 270 266.1 262.6 262.6 262.6 264.8 265.8 264.9 265.8 266.5 265.9 260.1 258.6 258.6 250.9 245.8 249.6 249.9 257.5 259.2 260.6 261.7 259.6 258.5 256.3 261.3 266.9 271.9 280.1 278.1 281.2 290.4 296.8 301.1 302.7 306.1 306.4 307.1 307.1 309.9 307.9 302.9 298.7 289.6 283.9 277.2 260.4 245.4 228.5 227.3 223.1 224.6 229 237 248.1 264.7 282.2 295.1 311.2 327
462.4 456.4 445.2 428 408.3 388.2 368 348.2 341.1 340.9 344 361.1 381.8 399.8 418.5 427.2 433.7 447.6 454.1 459.3 467.3 483.2 495.3 485.4 472 451.7 429.4 414.4 407.9 413.8 408.8 404.2 393.1 382.2 364.9 363 365.9 375.2 366.2 358.9 354.6 345.9 339 337.3 336.9 335.1 342.1 340.9 338.2 340.1 339.6 339.5 348.4 367.9 365.7 370.4 375.9 388.6 414.8 436.9 463.4 467.6 461.6 453.7 441.7 430.3 423 415.5 407.6 395.3 388.1 378.4 365.7 344.6 321.6 285.5 255.1 231.9 211 189.5 175.3 165.1 156.6 137.5 120.2 118.9 109.3 99.7 92.1 82.3 70.7 61.4 52 40.3 38.1 38.3 38.1 38.1 38.1 38.1 38.1 39.8 40.4 40.9 41.8 43.3 47.9 50.2 54.5 57.4 63.9 71.6 84 97 108.1 118.2 134.2 145.6 159.6 173.4 191.4 211.5 233.9 257.1 283.3 302.9 313.9 320.1 327.2 329 324.6 320.6 317.3 310.5 307.9 307.7 301.4 295.5 283.3 276.4 264.7 262.6 262.6 262.6 262.6 266.1 265.8 263.6 263.6 269.7 268.8 262.9 261.1 265.3 257.5 250.6 244 244.5 247.3 253.1 259 258.6 256.7 255.6 252.8 259.6 266.2 269.2 273.1 273.7 279 284.9 290.5 294.7 297.1 296.6 297.7 297.8 297.9 297.6 295.3 291.3 285 279 271.9 259.6 240.8 226.1 220.3 221.7 224 230.1 236.6 248.9 261.4 278.1 292.9 305.3 320.3 335.4
471.7 462.6 454.3 453.6 437.1 422.3 400.9 381.6 370.2 361.9 360.7 366.3 383.4 399.8 417 429.3 437.4 447 450.6 457.5 474.4 498.1 497.6 485.3 472.6 457.5 440.6 424.6 417 411.9 410.4 405.6 390.9 381.9 372.8 364.4 364.9 373.5 368.9 356.5 353.1 351.6 350.2 345.5 343.6 342.5 346.6 349.5 349.5 346.2 346.4 342.3 342.7 363.2 366.8 369.3 374.5 385.5 397.3 413.4 437.3 461.3 462.5 455.4 445.8 436.7 430.4 420.4 412.4 407.3 400.5 392.9 374.3 353.7 336.9 301.3 269.9 241.4 222.2 201.5 185.7 180.8 173.4 154.3 125.2 125.4 117.1 106.1 96.8 86 72.3 63.9 60.6 44.3 41 40.9 39 39.3 38.8 38.1 38.1 40.6 40.3 40.7 42.2 43.1 45.1 49.7 52.7 57.8 61.3 68.6 79 87.8 98.7 105.5 122.9 133.5 143.7 157.3 172.9 191.3 208.3 225.7 248.3 272.7 291.2 305.4 309.1 315.2 318.3 316.4 315.4 309.9 306.7 299.4 296.6 292 285.4 278.3 263 262.6 262.6 262.6 262.6 265.9 265.4 268.1 268 267.6 274.4 268.1 262.2 267.1 261.2 251.4 246.1 240.2 239.7 248.3 250.4 248.1 250 253.2 254.4 257.8 263.3 263.9 267.7 274.9 281 278.9 280.5 282.6 284.7 288 288.3 288.9 291.1 290.6 286.2 282.9 274.7 264.7 254 242.1 228.4 220.6 218.9 224.4 226 234 247.9 259.3 272 283.7 299.8 314.6 328.2 342.8
477.7 475.7 485.2 478.1 464.1 451.3 434.5 421 410.8 405.3 389.9 381.3 386.1 398.6 412.2 430.6 439.8 445.5 453 459.9 477.7 502.1 501 490.7 479.3 466.2 450.7 436.2 425.8 417.8 414 412.5 402.1 389.6 382.1 376.7 371.9 374.4 374.6 356.4 355.6 359.2 356.3 355.3 355.5 351.8 354 352.4 351.6 351.1 347.9 341.9 343 355.9 366 362.9 365.5 376.8 388.4 398.7 411.4 433.2 453.3 454.2 447.9 440.7 436.5 427 421 416.9 412.6 406.2 388.4 366.1 346.3 319.9 284.8 253 233.4 211.4 195.1 188.3 175.3 162.7 139.2 132.4 122 108.5 95.4 83.7 79.2 71.9 64.5 49.8 43.9 41 41.3 41.2 41.5 40.2 38.1 40 39.8 40.7 41.7 42.6 43.5 49 52 56 60.6 66 71.8 78.3 89 99.3 108.7 119.8 131 143.6 157.6 171.8 188.2 203.4 219.6 235.3 252.5 271.2 288 295.9 304.2 305.7 305 303.6 301.1 296.6 295.7 284.5 283 268.9 262.6 262.6 262.6 262.6 262.6 262.6 264.6 269.2 275.7 277 275.7 275.5 267.5 268.1 263.7 254.2 247.4 244.2 240.1 239.1 242.7 243.9 240 245.3 248.2 252.6 259.2 259.9 263 267.7 270.4 267.9 268.8 275.5 276.4 278.4 276.7 279 279.9 276.2 272.8 266.9 259.2 251.6 238.8 234.2 226.9 216 220.5 225.1 229.6 233.8 250.7 269.9 281 293.9 307.2 320.3 332.1 350.3
502.6 500.2 500.3 498.3 492.9 485.9 488.4 474.7 450 439.7 432.6 414.3 393.8 399.7 413.8 428.1 440 447.8 456.7 471.7 482.1 512.3 507.2 499.9 491 477.3 464.3 450.2 438.2 431.2 419.5 416.6 409.8 406.6 396.5 390.1 388.8 384.3 382.4 365.7 358.5 359.1 364.6 366.1 364.5 359.5 356.8 355.1 354.6 354.1 348.3 342.9 345.6 352.5 356.7 359.8 362.1 371.5 382.5 390.3 397.6 409.4 435 446.5 444.5 444.9 441 436.8 431.9 429.4 421.5 416.7 401 383.6 358.9 328.4 300.1 265.6 244.7 214.8 197 185.7 176.2 157.3 142.8 139.7 126.5 110.3 95.9 83.3 76.4 72.7 64.2 53.3 45.3 42.5 41.7 42.5 42.4 41.9 42.2 41.6 40.4 41 41.6 42.4 43.6 44.7 47.4 54.9 60.9 65.1 68.7 75.3 84.9 90.7 101 112.1 119.8 132.5 143 155.6 169.2 179.5 192.3 211.4 220.9 235 253.3 272.7 279.9 286.8 293.5 293.5 293.9 291.6 288.4 281.6 270.4 262.6 262.6 267 264 262.6 263.2 262.6 262.6 271.3 280 284.5 281.3 277.3 270 280.3 270.2 257.6 245.6 244.2 242.7 237.4 232 238.8 234.8 237 239.1 242 245 245.9 250.3 256 258.1 261 264 266.5 268.7 267.7 270.3 267.5 268.4 266.4 258.8 252.3 249.2 239.7 231.5 224.1 216.9 219.3 221.2 226 234 241.6 259.1 274.1 286.2 300.6 314.7 326.1 339.4 358.6
523.9 524.6 532.8 532.9 527.5 517.7 518.1 506 477.8 470.8 464.9 440.2 411.9 409.5 419.1 427.1 440.7 447.8 459.5 473.3 486.8 510.4 509.6 509.6 503.7 495.8 486.7 470.3 452.7 446.2 444.8 438.6 429.6 419.8 414.4 408.4 398.5 397.2 393 374.8 364.7 359.5 368.9 372.3 371.5 363.9 359.7 357.1 354.9 350.3 348.1 349.7 348.6 352.2 353.3 354.3 359.8 368.9 378.4 385.4 393.1 402.9 418 435.5 440.7 445.1 445.1 446.9 444.6 439.9 433.7 428.9 416 397.2 374.5 338 312 276.9 254.3 223.9 205.9 184.5 171.6 159.5 150.3 143.1 137.2 121.2 101.7 87.5 77.2 70.2 62.1 51.6 42.9 43.9 42.5 43.8 43.7 43.8 44.4 45.5 46.5 42.7 44.5 44.8 45.2 46.3 46.9 52.3 57.4 61.6 67.8 72.3 78.8 83.7 91.3 102.8 110.2 117.6 128.4 139.5 151 162.9 174.3 183.9 197.4 207.3 220.9 237.4 254.6 273.5 275.7 280.5 285.2 284 278.8 271.7 268.7 266.1 266 268.8 267.2 262.6 262.6 269.3 269 272 278.4 285.7 284.9 281.1 278.8 277.3 276.4 266.4 248.6 244.1 240.5 237.1 230.5 231.1 231.3 231.5 233.6 234.4 235.5 238.7 246.9 246.3 248.2 257.8 258.6 258.1 255.3 255 254.2 254.7 253.9 249.2 245.4 240.8 237.1 225.2 216.2 214.6 208.7 213 217.7 223.1 233 250.6 266.5 280.5 290.7 308.1 318.6 331.9 346.6 368.2
537.7 534.2 542.1 541.8 534.5 526.4 521.7 516.4 507.7 497.3 481.3 459 437.1 427.1 429.6 433.5 442.4 450.4 456.4 470 486.2 502.1 505.5 509.1 510.5 509.5 505.8 494 472.3 458.6 460.1 451.1 440.2 430.1 423.2 416.4 407 402.9 398.4 385.7 371.4 368.2 366.5 376.5 369.7 363.6 359.8 355.6 351.9 349.3 349.3 350.4 352.4 351 350.5 354.4 351.1 362.7 370.5 378.9 388.2 397.2 406.8 423.5 428.8 453 453.3 459.3 458 450 446.9 438.2 427.7 414 393.5 345.3 321.3 288.5 262.2 234.8 209.4 189.5 174.4 167 155.6 144.5 141.6 128.5 109.8 95 80.5 69.2 58.5 51.2 46.7 44.1 44.5 44.7 45.6 46.1 47.8 50 49.6 48.8 50.3 49.3 49.6 48.7 48 53.2 57.1 60.9 64.6 68.4 72.8 78.3 86.3 96.6 101.3 114.3 120.2 126.6 134.9 142.2 151 161.9 174 184.6 197.7 208.3 223.9 237.1 255.4 271.7 270 270.9 272.1 263.6 260.5 267.6 272.7 273.5 269.5 268.5 270.1 274.6 272.8 277.2 279.4 283 284.7 282.8 285.6 283.1 280.5 272.2 255 243 234.5 231.1 226.1 226 226.7 228.1 226.6 230.3 230.4 233.8 237.4 237 238.2 242.9 242 244.4 244.5 246.3 247.6 244.2 243.7 241.2 235.5 229 222.5 214.4 209.2 208.5 206.3 214.4 217.2 222 238.3 254.7 269.6 284.6 297 312.1 324.9 338.6 352.7 376.1
533.1 537.6 537.3 530.7 522.6 518 523.9 531.2 523.3 512.9 494.2 479.4 456.4 443.9 439.4 443 444.9 452.3 458.3 463.4 484.5 495.5 501.4 505.1 505.6 507 506.6 501.2 496 482.4 464.4 457.6 448 441.2 434.4 426.1 416.1 409.4 401 398.7 379 375.6 367.3 373.8 369.1 362.3 358.4 353.2 350.2 349.9 352.8 351 352 348.8 350 348.8 348.8 359.5 366.2 374.7 383.6 391.2 396.8 406.5 417.1 458.1 459.5 470.1 468.2 460.5 466.5 457.2 442 422.2 405.3 365.5 330.6 300.8 274.2 245.5 218.3 198.6 186.2 177.7 162.1 154.8 145.8 129.7 111.7 99.2 84.5 70.6 59.6 52.7 47.7 45 45.6 47 46.4 49.1 51.3 56.7 56.5 58.1 58.2 54.9 54.7 56 52.6 52.2 54.1 58.8 66.1 66.6 68.7 73.3 79.9 85.6 96 102 110.4 117.8 122 128.7 134.6 143.7 151.8 157.8 171.8 186.6 198.1 210.2 229.9 250.5 256.5 257.6 255 256.3 266 273.1 279 282.4 276.8 275 279 283.8 287.5 288.6 288.6 287.3 287.6 289.3 290.9 292 283.7 273.8 261.4 243.7 232.1 227.1 227.1 218.2 223.4 224.6 223.4 227 227.9 230.2 230.7 229.8 228.7 230.3 227.9 231.9 233.6 230.9 237.1 237.9 234.1 234.2 226.6 217.2 208.9 207.7 205.3 204.5 208.3 213.8 222.6 229.3 243.3 257.9 272.3 286.1 303.3 315.1 329.1 338.8 358.9 381.7
519 521.8 519.5 513.1 510.3 515.6 530 525.8 520.9 511.3 500.1 487.3 473.1 457.2 450.4 452.1 454.4 459.3 460.9 461.9 475.8 483.3 492.1 498.8 499.7 501.6 502.5 497 493.2 488 477.1 464.4 453.3 446.3 440.9 433.7 425.8 414.2 402.3 399.2 385.6 382 377 374.4 368.1 358.3 355.7 354.7 351.8 353.8 354.1 354.7 351.5 350.9 348.8 348.8 348.8 354.9 362.6 365.5 375.2 383.3 387.3 397.8 410 445.9 459.9 472.4 473 467.1 478.7 470.3 456.5 433.6 415.3 381.3 350.1 320.7 293.5 257.2 229.9 212.5 192 181.6 171.6 161.9 148.2 133.2 117.6 101 85.4 70.9 61 54.8 49.6 46 46.6 49.8 51.6 52.4 56.1 62.3 66.2 67.2 67.3 66.5 64.2 63.9 60 58.1 62.3 60 59.7 63.6 67 68.7 72 78.2 87 94.7 96.2 102.7 110.2 115.2 118.5 125 122 151.3 169.5 178.7 184.1 196.9 213.1 229.8 236.8 240.5 248.2 259 273.5 278.8 283.1 291.2 287.1 289.3 294.6 298.5 300.8 303 304.9 306.5 305 301.2 299.3 298.2 291.6 279.2 267.7 255.4 240.4 225 221 213.8 223.1 222.4 218.5 222.1 221.9 218.6 220.2 220.5 222 222.7 221 226.4 221.7 221.7 224.3 221.1 221.3 218.2 212.3 207.1 203.1 201.2 200.7 198.1 204.5 210.4 221.2 230.2 248.3 263.3 273.1 287.3 304.3 315.6 325.1 345.2 362.6 383.9
505.5 509.5 501.8 499.7 501.5 509.4 526 517.5 510.7 507 502.1 495.3 485.4 474 467.1 462.8 460.9 462.4 465.1 461.1 466.3 474.7 480.8 487.4 492.2 494.7 496.7 493.3 488 484.8 478.9 465.2 455 448.2 443.2 437.6 430.4 417.9 408 404.4 390.8 386.2 384.8 379.7 371.4 366.5 362.7 357.4 357.7 355.4 353 353 353.1 348.8 348.8 348.8 348.8 353.3 360.4 357 366.4 375.4 384.6 391.1 402 432.2 451.1 471.5 471.5 476 481.5 477 465.4 444.8 426 404 369.6 336.4 303.1 275.7 242.8 220 199.4 187.1 176.2 161.7 149 135.2 116.7 101 86.9 72.3 60.8 56.3 48.3 47.5 47.6 52.9 55.5 57.2 61.8 69.6 72 77.7 76.7 75.4 74 74.6 69.2 68.6 68.7 67.6 70.8 73.4 70.2 77.9 79.6 82.7 87.1 89.3 95.9 100.2 106.4 112 125.6 129.2 135.6 153.7 173.2 183.5 196.8 210.5 214.7 218.9 237.3 246.5 252.9 262.9 273.7 282.4 291 300.9 305.2 314.9 313.7 319.1 334.5 330.6 323.3 324.4 322.3 316.9 312.6 310.4 302.1 292.1 281.7 271.1 257.9 241.8 223.4 213.9 214.1 214.5 216.7 217.1 216.7 213 216 216.3 218.4 215.5 212.6 215.5 216 215.3 211.3 210.4 209.7 207.9 204.7 201.9 200.1 197.8 196.6 193.2 199.6 212 219.5 231.9 247.6 262.8 277.3 291.2 306 316.5 328.4 342.5 364.6 385.1
489.8 490.1 489.1 486.9 491.9 500.9 517 506.9 503.9 503.7 499.2 499 493.2 491.9 488.9 486.3 471.2 464.7 462.3 462.1 460 467.3 471 476.4 482.6 487.3 490.2 488.9 483.8 478.6 475.6 466.5 456.5 450.5 446 443.7 433.7 424.6 414.3 406.9 397.1 394.2 392.7 388.3 373.9 374 370.9 364.9 359.9 357.1 353.9 351 350.8 348.8 348.8 348.8 348.8 353.6 355.6 355.4 359.1 365.8 376.2 382.2 392.5 421.5 437.6 463.1 471 472.7 482.6 479.4 469.4 453.3 439.8 426.8 396.7 353.5 319 288.1 259 232.6 213.2 198.2 182.5 168.4 151.6 137.2 119 105.4 90.4 75.6 59.6 54.4 49.5 48.7 49.4 53.9 57.3 60.4 66.5 76.6 84.1 91.4 90.5 87.3 88.7 83.2 81.1 78.5 76.1 74.5 76.1 78.1 74.8 80.8 85.5 89.1 92.2 99.4 103.3 108.8 119.7 128.9 134.8 144.7 151.1 160.2 180 191.2 202.4 209.6 223.3 230.7 239 249.6 259.6 268.8 276.9 283 296.2 311.7 321.9 328.8 328.6 340.4 346.4 350.3 344.6 339.2 332 326 323.1 321.1 312.9 303.3 292.6 286.1 274.1 259.9 242.5 224.3 207.4 206.2 212.6 215.2 214.1 211.2 212.9 212.3 213 210.3 208.5 207.3 207.5 207.6 202.5 201.7 199.2 200.3 197.2 194.7 194.7 196.4 193.7 195.7 200.5 207.4 223.6 234.6 248.2 263.6 278.3 293.2 306.1 315.6 332 347.8 365.2 383.2
478.9 475.2 477.4 475.6 479.6 488 499.2 496.2 496 497.5 496.6 492 491.9 493.7 494.1 496.8 487.6 472.3 465.9 461.2 458.9 459.8 463.6 467.1 473.7 477.4 480 480.6 476.7 472.2 471.2 465.5 457.5 454.9 448.3 444.4 437.2 429.4 418.6 417 405.2 401.9 401 392.9 382.7 378.8 374.2 370.1 363 356.5 353.7 353.1 353.5 353 352.6 348.8 348.8 353.3 355 350.3 350.8 358.2 371.4 376.4 384.6 407.4 431.2 442.8 465.9 470.3 477.9 477.5 469.4 457.9 447.5 434.2 414.4 380.3 345.2 304.6 275.3 248.8 221.9 205.7 189.1 172.8 158.8 139.9 122.6 107.1 94.1 79 63.3 56.2 51.1 50.1 53.8 56.6 59.4 64.7 73.3 88.2 97.1 101.3 101.2 102.6 100.6 100.1 98.7 95.7 90 85 85.8 83.4 82.9 85.6 89 92 95.3 104.2 111.7 118.3 123.1 137.4 151 155.6 162.1 173.1 177 181.2 203.6 214.4 231.1 239.2 245.8 254.5 263.3 275.4 277.1 285.6 300.9 314.9 332.1 335.5 337.8 352.2 350.6 354.3 353 349.3 346.1 342.7 333.3 326 322 310.5 304.3 296.4 284.5 273.1 256.2 238.9 223.8 210.6 202.4 206.8 207.5 207.2 209.6 207.1 206.5 206.1 204.2 203 200.7 197.8 196.4 196.2 195 193.6 191.8 189.6 190.4 192.5 190.1 192.8 204.4 212.5 222.5 233.7 248.5 259.8 276.5 291.6 304.5 320.7 334.2 346.4 365.7 380.6
468.1 462.7 466.6 467 467.5 476.4 484.6 479.6 477.9 483.3 483 483.4 486.2 491.3 491.4 496.1 490.5 476.7 466.1 460.2 455.9 452 455.1 457.1 463.3 465.2 468.9 470.4 470.6 467.8 467.1 463.9 463.4 457.9 451.1 445.2 442.1 435 430.4 425.4 415.5 409.3 405.2 395.1 390.9 386.7 377.4 372.2 364.6 359.8 357.6 357.7 356.7 356.1 352.9 348.8 348.8 353.7 349 349 349 354.9 365.8 370.5 378.1 398.8 422.2 437.2 451.1 466 471 472.1 467.3 459.7 450.3 440 427.3 405.6 377.5 337.4 297.4 262.6 233.6 215.8 197.8 179.5 163 145 127 112.7 96.3 80.1 66.7 57.9 53 51.4 56.2 58.9 61.1 66.4 75.9 92.8 104.3 117.1 116 115.1 121.2 116.9 111.4 107.5 102.9 102.6 95.8 90.7 90.3 86.8 90.4 94.8 101.8 111 114.5 121 134 147.4 155.6 161.4 172.8 180.4 193.8 195.5 192.1 214.9 233.9 245.1 253.7 258.9 269.5 278.1 279.5 284.6 298.8 316.5 336.8 339.2 341.5 352.3 350.7 359.2 359.6 358.6 356.9 351.4 344.6 341.5 328.8 318.5 309.2 305.1 297.3 285.6 271 253.5 239 227 213.5 198.9 199.7 201.1 202.6 201.9 199.6 197.8 195.5 197.4 194.8 193 192.7 190.6 189.8 189.9 188.2 188.1 186.1 186.3 187.3 195.1 202.1 214.7 226.5 236.8 250 261.8 276.4 289.8 303.9 321 337.3 345.2 363.8 378
444.1 449.6 452.3 456.3 456 463.7 469 469.7 467.1 471.5 466.4 471 481.3 484.1 486.3 491.9 488 475.4 464.4 459.4 453.4 449.2 445.5 451 454.2 458.4 459.3 460.5 461.5 462.7 463 461.4 459.2 458.5 454.5 451.6 447.7 441.1 437.1 432.8 425.1 422.3 413.4 410.2 398.1 390.1 381.7 375.7 369.2 367.4 362.8 360.8 358.8 355.3 351.7 350.8 350.6 353.4 349 349 349 349 363.9 368.7 375.2 392.9 420.5 430.9 446.6 459.7 465.3 466.2 463.1 457.9 451.8 443.8 433.4 421.3 400.1 362.4 328.1 284.8 251.9 222.2 202.3 183.1 167 149.8 132.5 119 102.3 82.8 69.8 61 54.8 52.9 58.5 61.8 63.6 70.6 80.1 93.2 114.7 132 137.3 138.3 140.3 140.2 129.9 121.4 116.8 116.8 108.2 107 108.3 101.3 92.4 99.2 107.2 114.9 121.8 126.4 133.4 141.3 157.1 165.3 181.3 192.1 204.9 209.5 215.2 214.8 219.6 242.1 251 258.4 271.9 275.3 280.7 283.1 295.7 314.3 339.6 343.8 348.1 351.8 352.5 364.3 364.5 364.2 362.1 359.2 354.9 347.2 340 327.5 319.3 315.2 307.3 296.6 282.7 268.1 255.6 242.4 227.3 211.5 198.1 193.9 194.4 192.4 193.7 194.4 189.8 189.4 190.4 187.7 187.5 186.7 183.9 185.6 186.5 186.3 184.8 185 191.4 192.7 199.7 214.5 219.4 234.6 248.3 259.5 279.3 291.6 309.1 320.5 332.8 348.9 359.9 372.5
431.4 430.2 440.8 441 443.4 446.2 456 459.2 456 459.5 453.6 458 466.9 468.2 476.6 478.2 476.3 469.2 463.2 454.6 450.3 446.4 445.3 442.8 445 447.5 450.4 455.5 456.6 457.2 457.3 456.4 456.7 459.8 460.9 455.7 450.6 446.3 443.1 441.1 438 430.5 419.3 412.8 404 394.6 386.5 378.5 370.7 367.7 363.7 362.7 359.6 358.8 355.8 355.9 353.6 349 349 349 349 350.5 360 362.7 372 389.2 417.9 430 454.1 462.6 464.3 460.9 457.3 454.9 450.3 445 435.7 425.7 412.7 383.3 345.1 311.1 267.4 238 208 187.5 172.5 155.2 139.5 123.5 104.6 85.2 70.3 61.2 55.4 56.1 58.6 63.2 67.1 74.3 82.6 95.2 127.1 158.9 176.2 169.2 161.5 151.4 142.8 134.8 133.5 128 128 118.2 120.3 115.1 110.1 103.5 111.9 123.2 125.5 132 137.8 148.5 158.1 171.3 187.2 200.7 210.6 220.2 225.9 230.1 233.4 226.5 247.9 256.7 274.9 279 281.6 285.8 290.1 310 331.5 342.4 343 347 352.3 364.3 363.6 364.1 368.9 366 360.8 357.7 348.5 338.1 327 323.2 318.7 304.8 290.3 280.5 269.1 255.3 240.6 224.7 212.4 200.8 191.8 187.1 187.7 186.7 184.2 184.8 187.2 182.3 183.1 184.2 183.8 181.8 183.6 181.3 181.7 183.7 190.3 192.8 197.2 208.3 218.5 231.8 245.2 257.5 276.6 292.2 309.4 319.4 331.7 345.5 356.4 368.9
427.5 427.5 431.6 435 430.7 432.9 443.4 442.8 441.1 442.8 441.1 446 456.3 458.6 460 464.4 463.1 458.5 451.4 449.5 448.7 444.3 441.4 441.1 439.7 438.6 443.5 445.8 451 454.6 454.4 453.9 454.7 456.9 456.6 454.2 451.3 449.9 447.7 447 447.3 440.4 431 420.7 408.9 400.9 391.3 381.9 372.2 370.7 366.2 364.8 362.8 361.1 358 357.5 355.1 349 349 349 349 353.1 358.5 362.4 373.6 394.4 415.9 424.3 447.4 458.1 465.4 459.9 454.4 450.3 446.4 443.2 433.8 425 413.5 396.5 362.5 327.5 280.7 253.6 222.2 195.2 176.9 162.3 142.2 129.5 108.6 88.3 72.5 62 57 56.4 62.9 66.1 70.4 77.6 88.1 102.6 133.6 191.2 205.6 195.9 183.7 168.1 158 152.3 148.2 151.2 144.4 139.1 130.6 128.2 126.3 122.9 125.5 121.8 134.7 138.6 143 153.9 164.4 175.1 201 217.9 221 228.9 236.6 237.6 245.1 249.8 254.9 257.5 276.1 282 284.5 291.6 293.8 309.7 318.9 328.8 333.4 338.5 349.4 350 356.6 362.1 371.5 369.5 364.2 359.9 355.3 344.2 337 331.1 326 314.6 301.8 291.4 278.8 266.3 252.2 238 223.9 214.5 206.1 196.4 188 182.1 180.3 182.1 180.1 176.8 178.1 178.1 182.5 182.4 180.9 185.2 185.1 184.3 190.1 192.8 197 208.1 220.2 228.8 244.8 257.1 271.8 293.2 308.3 318.7 330 340.6 353.1 363.8
427.5 429 427 426.1 430.8 427.5 430.9 425.4 420.5 418.3 431.3 438.1 444.7 448.7 450.8 450 450 446.1 438.8 443.1 447.5 443.5 438.8 434.9 437.1 434.4 432.1 439.8 444.6 449.2 450.7 450.4 449.6 451.3 451.5 451.7 452.3 452 449.2 449.8 448 441.9 434.9 426.6 416 402.4 393.7 385.5 377.5 372.1 371 368 364.2 361.9 358.2 355.2 352.1 351 349 349 349 351.7 358.6 365.7 377.8 398.3 415.9 426.4 438.6 452.4 458.8 457.3 454.8 447.4 441.9 437.8 431.6 423.2 413.3 401.2 384.4 345.7 311 267.1 234 205.2 181.3 164.2 147.2 137.7 113.9 91.9 74.6 65.3 59.8 58.2 63.2 68.1 73.9 83.3 92.6 113.2 152.7 203 221.1 216.4 201.7 188.9 181.3 177.8 169 163.6 159 151.6 144.8 145.4 144.6 141.6 142.5 138.6 143.1 146.6 150.1 157.8 170.8 180.3 200.9 227.7 236.6 237.5 245.2 248.9 252.3 263.6 274.2 272.3 267.7 282 287.9 298.7 296.1 306 313 320.8 328.4 331.9 343.6 344.5 348 358 368 366.8 365 362 358.4 352.4 345.8 336.6 330.6 322.6 313 300.6 286.1 272.7 261.3 246.7 233.7 223.7 214.5 204.1 194.4 185.6 181.2 177.4 177.3 176.7 174.7 175.6 177 175.1 178.8 180.6 183.1 187.1 192.3 195.2 196.2 206.3 219 230.3 244.4 259.5 270.5 289.8 298.9 316.5 327 333.5 345 355
427.6 431.9 430.4 420 425.1 421.3 420.3 417.9 406.6 409.9 421.2 430.4 434.5 436.3 440.3 440.2 436.9 434.1 429.8 437.2 441.9 440.2 435.5 431.3 427.4 431.7 429.2 428.7 438 443.3 442.9 442.8 444 444.4 447.3 449.9 451.1 452.1 452 449.9 444.8 437.2 433.3 427.2 417.5 406.7 397.6 390.4 383.4 377.4 372.2 368.5 364.3 361.6 357.1 354.2 352.6 352.2 351 349 349 354.2 359.2 367.8 373.4 399.3 409.3 420.7 439.2 444 450.2 452.7 452.5 446.6 438.3 432.3 425.2 419.3 412.8 403.5 392.8 376.8 336.6 289.1 243.7 214.1 189.8 170.2 152.8 139.3 119.8 94.5 78.3 68.8 62.7 59.4 66.7 72.1 81 88.4 103 169.8 196.8 204.7 225.6 227.4 226.7 213.4 198.6 192.9 187.9 179.3 171.2 164.4 161.4 162.9 157.1 156.9 158 156.4 152.7 151.6 160.6 171.7 177 185.7 207.2 234.7 242.9 244.3 249.5 256 262 271.8 281 281.7 280.2 280.2 288 300.3 299.2 304.4 306.4 311.9 316.7 327.1 335.8 335.9 344.1 354.2 360.4 368.4 367.5 367.1 358.9 354.3 349.4 346 338.7 326.9 319.5 310 297.1 278.6 267.4 255.2 242.4 231.8 220.5 209.3 198.6 189.4 181.4 178.3 177.5 175.1 173.6 175.6 176.8 173.2 177.4 177.4 181.6 187.4 189.9 196.1 198.6 204.4 217.4 225.8 235.7 249.8 264.2 285.1 297 311.3 318.4 324.7 334.4 342.9
437 436.9 430.2 418.6 417.6 414.8 409.7 409.5 404.5 416 416.6 424 427.4 426.8 427 427.1 427.1 417 420 425.5 438.8 438.7 434.3 431.6 427.1 423.7 423.3 423.7 424.3 432.9 434.3 436.3 435.8 438.8 443.7 447.2 445.3 448.5 449.4 443.9 440.8 433.7 428.5 424.3 418.8 411.9 404.9 396.7 390.5 384.2 377.1 370.6 364.5 359 355.9 355.9 355.9 352.9 351.5 351.3 352.2 357.6 364.7 368.4 373.1 391.8 406.8 424.2 433.8 439.5 441.4 444 445.6 441.8 437 427.7 421 416.7 409.5 401.6 393 376.5 353.4 318.6 275.8 226.5 199.6 178.8 156.3 138.4 121.2 100.5 81.4 69.9 64.9 60.4 68.9 74.5 84.5 95.1 138.7 203.7 213.4 216.5 228 234.6 238.7 234.3 224.5 210.4 200.4 195.9 191.4 197.4 182.4 183.5 175.3 172.3 172.7 171 175.4 170.6 166.7 178.7 188.6 193 211.7 236.7 247.7 252.5 261.6 264.2 269.3 279.5 287.7 287.5 287.7 289.6 287.5 292.6 298.1 306.6 307.6 305.3 306.8 314.9 323.6 331 337.7 349.5 354.2 358.9 363.8 363.7 364.2 358.1 350.6 348.8 344.8 331.9 323.8 317 303.3 285.1 273 261 248.8 237.3 225.4 212.8 202.2 191.4 182.3 180 173.8 173 172.5 172.7 173 172.7 174.3 178 181.3 185.1 189.7 195.8 200.9 206.6 212.3 218.4 232.8 244.8 255.7 272.2 284.4 296.5 300.1 305.6 312.8 316.9
448.8 436.8 432.6 420.9 411.2 404.7 404.5 406.8 403.7 410.9 405.5 428.2 426.7 422.1 422.2 421.5 420.1 412.7 409.3 411.6 422.2 426.1 423.3 430.8 435.5 426.8 423.1 419.4 417.2 424.2 428.1 426.5 432.7 437.6 442.4 440.1 440 441.3 442.4 440.4 436.5 432.1 427.7 423.8 418.1 415 409 400.2 393.9 388.4 378.8 373.2 366 360.3 357.6 356.6 355.6 355 353.3 352.7 352.6 361.5 366.5 369.2 374.5 389 403.9 429.4 436.5 434.2 435.1 435.6 436.2 435.5 432.6 428.6 418.5 412 406.3 398.2 388.5 372.3 355.4 331.2 293.9 260.4 213.6 184.4 161.8 144.9 126.3 108.6 93.7 78.9 69.6 67 68.7 78.4 90.2 102.3 150.3 207.9 223.4 226.9 225.6 232.3 243.7 239.5 229.6 221.5 220.7 221.8 220.4 213.8 205.2 198.2 188.7 187.6 188.3 195.1 214.5 203.9 194.5 182 194.8 206 221.2 240.5 257.5 262.3 271.6 272.8 277 283.4 292.3 293.5 292.7 294.3 293.6 292.7 291.4 298.6 302.9 302 304.1 307.6 312.1 323.2 331.3 341.1 346.5 353.9 358.1 357.5 356 353.2 350.3 348.7 346.4 336.8 327.4 318.6 308 289.6 278.5 267.6 252.7 241.3 229 215.4 203.7 192 183.2 179.3 176.4 173.8 170 173.2 170.9 171.5 174 175.7 179.3 184.9 189.4 196.2 202.7 209.1 216 223 228 236.9 245.6 254.2 263.7 272.4 279.5 289.1 296.2 307.2
458.2 442.3 434 421.7 411.3 404.5 404.6 404.1 399 396.8 391.8 405.4 413.4 417.5 420 418.4 414.6 408.3 399.2 397 405 409.7 405.9 412.4 421.4 424.6 423.8 422 417.1 415.1 419.7 422.1 420.1 428.1 434 430.8 428.6 432.7 438 438.2 432.9 429.6 427.7 425.2 420.1 417.2 411.9 403.5 395.8 389.5 381.9 375.6 369 367.3 366.7 361.9 357.1 355.8 356.6 355 358.2 362.9 369.1 374.5 374.8 388.2 401.8 419.3 428.5 433.9 430.6 432 432.3 431.5 429.5 423.4 417.7 414.4 404.8 396.1 386.1 370.1 353.9 334.9 306.4 272.4 241.9 191.7 167.4 146.8 129.7 117.6 100.8 84 79.5 70.3 72.2 79.5 90.7 104.9 134.1 185 218.1 225.6 228 231.5 239.5 243.3 234.9 233 241.7 245.4 240.8 229.8 222.3 214.7 210.5 205.8 219.5 237 247.2 245.1 240 227.5 210 208.4 226.3 251.6 265.9 271 274.8 281.4 281.4 284.7 293.4 294.7 296.2 296.2 297.8 297.2 292.1 291.6 295 296.9 301.6 303.8 309.9 319.6 323.5 325.9 331.5 338.6 350.3 351.5 352 344.8 347.3 347 347.3 337.9 330.6 320.5 307.7 293.7 281.9 272.2 256.4 244 231.3 219.2 205.9 193.1 183.4 179.4 177.4 173 168.4 172.9 168.8 170.5 172.2 176.4 180 184.5 189.4 195.2 200.8 209.7 217.3 226.3 234.7 244.4 252.7 263.3 279.5 292.5 303.9 310.5 321.4 328.6
458.1 445.8 436.2 430.2 409.9 405.8 401.9 399.7 396.5 390.4 388.6 388.3 393.6 410.9 415.3 416.1 412.1 403.9 391.2 382.6 392.2 388.6 392.4 402.6 401.9 413 420.1 424.4 422.2 417.9 413.8 415.1 412.6 411.8 421.3 420.2 419.4 421.7 430.3 432.6 428.5 426.5 427.3 425.3 422.5 424 417.8 405.9 396.9 391.1 385.8 378.9 374.6 375.9 375.1 371.4 365.1 358.4 359 360 359 365.2 373.1 377.1 376.7 383.5 401.1 419.2 424.3 428.5 428.1 427.7 430 425.3 423.6 422.5 417 412.4 406 394.4 383.9 369.6 355.9 339.2 314.1 284.9 249.3 204.4 171.2 149 134.2 120.2 103.4 89.9 80.9 75.7 74.3 78.4 90 101.8 123.7 161.4 189 214.7 221.4 230 241.6 242.1 240.1 239.3 255.7 256.8 252.2 242.7 234.2 229.7 227.6 228.6 239.6 258.6 257.9 256.8 251.7 244.1 236.4 230.2 226.6 249.3 271.7 277.4 280.4 281.5 287.1 285.4 291.2 294.8 295.8 296 297.9 298 295.4 291.1 290.7 292.7 296.3 299.2 302.8 313.3 318.1 320.2 321.5 325.4 328.6 338 343.8 339.4 340.1 342.8 343 336.7 330.7 321.8 307 294.7 282.1 271.8 257.7 244.7 231.7 219.4 206.6 194.5 183.9 179.6 176.6 171.9 168.3 169.5 167.6 168.9 174.5 176.7 181.7 184.9 190.2 199.3 205.6 213.4 223.3 239.5 254.4 265.5 274 284.8 295.4 306.8 316.2 324.8 333.3 340
455.7 445.3 438.5 425.5 409.3 402.9 400 397.1 397.3 389.5 381.2 384.9 397.3 407.7 411.3 408.3 406.9 403.6 388.3 377.3 380.6 377.3 382.6 384.8 387.4 394.8 409.4 416.7 419.9 418.8 412.3 406 409 403.9 407.2 410.1 409.8 413.4 418.6 423.8 425.2 423.1 425.6 423.7 422.2 423.3 418.9 410 399.4 392.2 387.6 382.9 383.5 382.3 380.6 379.5 374.1 365.8 363.2 365.6 365.5 368.1 379.2 384.2 379.6 383.1 397.9 414.6 422.7 423 424.7 423 422.7 423 424.3 418.5 415.6 412 404.9 396.4 385.1 370.9 354.3 339.4 318.1 291.6 255 218.2 183.4 160.7 139 126.1 111 95.9 90.5 82 73.6 77.4 84.9 97.7 119.7 150.9 173.2 194.9 209.9 223.7 234 237.9 239.1 237.8 246.1 260.7 257.9 252.1 245.5 240.8 238.7 250.1 254.9 260.7 261.7 258.8 257.4 256.7 250.3 249.2 243.6 246.2 266.3 279.5 280.6 280.6 284 286.1 288.4 293.7 293.1 292.5 294.3 294.8 294.2 291.7 289.2 288.1 289.5 293.3 296.9 302.1 305.9 310.5 314 321.3 323 324.9 330.8 332.2 332.7 336.8 335.2 329.8 328.1 320.4 305 292.9 281.9 270.5 257.8 245.1 233.3 220.1 207.2 194.9 183.6 178.6 173 170.1 168 165.5 166.6 170.1 174.2 179.9 184.3 186.7 194.8 199.9 209.4 218.1 233.1 246.4 268.4 275.2 287.9 299.2 308.9 318.4 331.9 340.6 344.6 351.3
455 447.1 437.3 422.8 408.7 401 394 392 395.1 390.7 378.7 378.6 394.5 406 406.3 404.2 403.6 397.8 386.5 377.2 374 376.8 379.1 380 379.9 385 391.1 397 403.9 412.8 408.7 402.9 399.5 397 395.1 400.9 400.5 404 410.5 416.2 418.9 418.9 418.9 420.2 419.8 419.9 416.7 410.7 401.7 395 389.5 389.1 388.5 386.1 384.2 383.3 379.4 375.5 370.8 370.4 371.2 372 381 386.5 385.3 386.8 396.4 407.9 418 422.7 421.1 423.1 421.9 421.3 421.9 418.2 415.4 409.9 402.4 394.8 383.2 371.5 359.4 341.8 325.2 300.6 257.8 220.3 183.6 166.9 152.9 135.1 116.3 100.6 95.2 84.8 85 78.3 82.3 95.7 108.2 135.8 154.9 175 194.8 210.1 221.8 232.3 235.2 237.5 240.2 252.8 255 251.7 253.5 250.3 247.9 253.4 260.4 264.1 262.4 259.7 258.7 258.1 256.8 256.8 254.2 253.9 258.6 272.4 277.1 279.5 280.7 282.5 285.3 286 289.3 289.2 290.2 290.5 291.1 291.6 292.1 288.3 285 285.4 289.9 293.7 300.7 302.1 306.3 310.5 317.1 321.1 322.8 319.3 323.6 328.8 325.3 324.8 322.5 313.9 300.8 289.5 278.6 267.4 255.9 244.1 232.2 220.1 207.6 194.6 182.1 175.4 168.9 166.9 166.2 164.2 167.9 171.6 174.7 178.4 184 190.7 195.8 202 214.5 226 240.7 254.2 281.5 294.6 304.7 314.5 325.7 334.6 344.8 352.7 358.6 363.4
454.4 445.6 437.7 422.1 412.1 399.8 387.1 387.3 389.2 383.6 378.6 378.6 391.8 398.5 398.2 397.5 395 391.8 382.2 374 374.2 378.4 376.3 379 386.7 389 385.3 385.3 391.6 400 401 398.4 394.1 391.9 386 395.7 395 397.6 402.9 407.4 413.7 412.4 415.7 417.8 416.2 416.8 414.2 410 402.4 397.3 393.4 393.4 392.8 392.2 390.3 389.6 387.2 383.7 379.1 378 378 378.4 380.2 388.1 392.2 395.4 401.6 409 414.4 418.1 421.7 420 420.8 419.9 417.8 415.2 412.3 407.3 401.3 391.5 380.2 370.9 357.3 350.7 325.7 294.6 252.5 232.2 203.1 184.3 169.9 147.9 134.7 111.9 100.3 101.7 93.4 81 81.7 93.4 105.6 123.2 145 158.5 178.5 197.2 206.9 217.4 227.6 231.5 236.6 240.1 246 247.3 250.4 252.9 251.3 249.9 255.5 255.6 261 259.6 257.5 257.5 261.9 259.9 258.6 255.9 261.4 264.8 269.3 273.8 276.4 277.8 281.1 280.3 281.7 283.5 284 285.3 286 285.4 287.1 286.7 286.6 280 280.3 285.7 299.8 296.5 296.8 298.8 302.5 310.9 317.3 312.1 309.7 314.1 316.4 314.6 312 303.5 295.2 284 274.5 264 252.6 241.5 230.3 217.9 204.3 192.6 180.9 171.5 166.1 165.7 165.5 164.2 170.6 172.6 175.6 181.5 185.5 193.4 201.8 209.8 222.3 233 250.1 273.3 298.4 316.8 324.8 334.7 343.6 353.6 362.2 366.3 374.3 378.9
444.9 439.6 433.3 418.6 410.6 400.6 392.3 381.7 383.4 381.6 378.6 382 390.8 391.7 390.4 390 387.5 385.7 374.1 374 375.3 375.4 379.3 378.3 377.9 379.7 377 379.3 381.4 387.6 394.3 391 388.4 385.5 386.7 387.4 389.3 390.4 396.8 397.6 402.8 406.8 411.8 413.2 411.7 415 414.8 408.1 404.8 400.5 397.9 398.2 396 396.1 394.3 394.2 393.6 391.6 390.3 387.5 385.6 383.9 384 392.7 398 405.9 409.9 412.1 417 420.3 420.2 420.1 419.9 419 415.6 413.3 410.3 405 398.4 393.8 385.5 375 362.1 350.3 338.3 312 276.7 251.6 225 196.4 179.7 169.8 148 125.4 112.6 107.7 97.5 95.8 84.7 90.9 101.6 116.9 130.9 147.4 162.4 181.4 192.9 203 216.5 223.1 227.1 231.7 234.1 236 240.9 246 246.3 247 247.9 249.4 253.3 256 253.2 255.1 253.2 255.4 258.1 254.6 257.6 260.2 261.5 265.7 267.9 269.2 270.1 273.8 276.2 273.9 275.5 276.1 278 277.7 279.6 280.9 283.6 282.9 277.5 274.2 286.3 289.3 289.2 293.8 294.4 297.9 298.9 300.4 301.3 301.4 298.3 294.5 293.1 289.3 285.3 278.4 270.7 260.2 249.2 238.4 227.4 214 201 190.9 177.9 167.2 164.4 165.3 163.9 165 170.8 173.9 178.5 183.6 190.1 200.2 206.9 214.4 232.5 240.9 261.9 288.1 311.1 328.1 340.9 353.7 364.5 370.7 376.5 383.3 388.9 392.1
440.5 434.1 426.1 413.3 407.4 401.5 398.9 390.1 380.7 381.7 380.4 384.2 388.6 389.2 388.2 387.9 380.4 377.2 375.5 376.7 379.6 379.3 376.5 375.1 373.6 373 373.9 371.3 373.2 377.6 383.6 389.4 383.7 380.1 381.3 384.2 384.1 381.5 388.8 389.8 394.6 396.1 402.2 406.4 406.7 407.8 410 407.2 404.4 403.4 401.5 399.9 399.2 398.7 399.5 397 398.9 399.4 398.3 397.8 396.1 393.4 391.9 399 406 409.3 412.9 413.8 417.1 420.9 421.4 420.3 419.2 417.9 415.5 412.9 408.9 404.6 401.1 394.7 385.1 376.2 366.5 356.8 341.2 326.7 301.5 272.1 237.7 212.6 193.1 175.4 160.8 140.4 126.3 115.4 105.2 99.4 90.7 90.1 96.9 104.9 116.6 132.4 142.9 160.2 178.5 184.4 196.1 206.7 217.8 222.9 225.5 226.1 232 238.1 237.4 239.9 241 241.6 243.8 245.2 247.8 246.9 246.3 248.2 248.6 249.4 248.4 248.4 252.4 254.8 260.1 260.6 260.2 262.1 264.3 267 268.1 266.8 267.9 269.2 268.8 271.2 276 276.1 275.3 275.8 270.9 281.2 283 287.1 288.3 290.8 288.6 289.4 290.3 293.8 289.9 285.1 282.5 277.2 273.1 269.6 263.4 254.8 244.5 234.4 223.2 210.9 198.3 187.1 172.9 162.8 162.7 161.9 163.8 168.8 170.9 175.9 180.4 185.5 194 203 214.6 224.1 240.1 251.2 272.7 300.3 324 340.7 356.4 369.2 378.3 384.2 389.2 394.6 400 404
437.5 430.6 416.2 403.4 401.8 399.7 400.6 397.4 392.5 383.3 380.4 379.6 384.9 386.5 385.4 385 379.2 380.6 373.4 376.9 379.2 378.3 376.9 373.6 373 373 373.4 371.3 371.3 371.3 375.1 379.5 381.2 376.6 379.2 379.8 379.5 378.5 381.3 385.9 387.6 389.6 395.3 401.3 401.8 401.6 402.9 404.2 404 404.3 403.9 403.1 401.5 402.2 402.7 401.4 403.1 404.9 406.9 407.5 406.8 404.9 403.4 409.8 413.4 413.3 414.9 418.9 423.7 424.7 426.2 425.3 421.1 420.1 418.7 414.2 410.5 406.9 403.2 396 390.6 380.2 369.2 362.7 350.5 333.9 317.2 299.2 272.7 243.3 210.4 193 177.9 160.9 142.9 129.3 114.1 108 101.2 92.3 94.8 102.5 107.2 115 126.9 139.7 157.8 171.7 182.5 191.3 204.2 212.1 217.8 221 223.5 228.1 229.2 232.2 231.8 233.4 235.9 235 236.3 241.9 242.5 242 239 241.1 240 238.6 238.1 242.2 244.4 246.9 249.7 250.3 253.4 255.3 256.4 256.3 258 259.1 261.2 261.4 262.8 264.4 266.2 270.5 271.7 266.6 271.2 277.2 278.5 280.3 280.8 278.7 280.7 281.5 279.1 276 274.6 269.9 264.7 259.5 254.6 247.6 238.2 228.7 217.4 205.4 194.8 182.1 167 160.8 160.4 162.9 167.6 169.1 174.3 176.4 185.5 192.2 199.4 207.6 223.2 231.7 248.1 263.6 288.6 309.2 335.4 351.4 368.6 380.9 388.8 395.2 401.5 407.1 412.1 415.1
427.5 426.8 409.5 392.6 392.2 399.7 399.7 401.1 397.9 387.7 377.8 375.8 379.5 382.3 380.3 380.7 375.7 370.8 367.6 374.1 381 378.1 377.5 373 376 385.6 387.7 386.1 371.7 371.3 371.3 375.6 377.8 373.8 373 375.4 374.3 374 375.5 378.8 384.7 385.3 389.8 396.4 395.4 395.8 394.5 403.2 404.9 406.3 405.9 406.2 404.9 405.1 404.3 406.7 408.5 411.7 413.1 413.9 416 413.8 416.1 421.5 421.2 420.4 425.9 431.3 429.7 429.3 431.5 431.5 424.7 424.3 419.7 413.9 411 410.1 405.2 400.8 395.2 386.4 378.9 367.8 354.9 346.2 334 317.2 296.1 269.5 234.3 210.3 190.4 175.9 155.5 144.2 132.8 115.9 109.4 99.9 94.2 100.5 104.8 108.4 119 130.6 141.7 150.3 166.5 175.3 184.4 198.8 205.5 210.4 215.1 217.6 220.5 222.7 224.7 227.2 231.2 230.6 227 229.6 233 232 231.1 231.1 232 229.5 227.1 227.4 229.4 230.2 230.6 235.4 236.6 239.7 242.5 244.3 248.4 249.2 248 252.7 256.6 253.3 257.8 263.3 263.6 262.6 262.1 264.7 272.4 272.8 273.8 273.5 273.5 269.4 268.3 265.7 265.1 259.3 258.6 253.9 245.6 239.4 231.3 222.6 210.6 198.4 189.1 175.3 162 158.6 164.2 169.7 169.5 169.6 175.2 180.6 188.3 197.6 205.4 212.6 226.1 241.5 258.1 274.8 301.1 323.4 345.2 361.5 376.2 387.6 395.6 402.4 410.3 417.1 422.4 426.7
419.2 408 402 386.9 381.1 391.6 397.7 397.1 391.8 383.9 382.2 371.6 373 374.5 375.2 370.3 368.4 366 363.5 369.6 377 376.1 376.9 382.2 388.6 386.9 386.4 387.4 382.7 372.9 374.7 375.2 377.7 371.5 370 370.9 372.9 374.6 369.5 371.1 375.7 380.6 385.8 385.8 387.4 387.9 388.9 397.4 401.6 404.3 404.9 405.2 406.7 406.8 408.1 409.8 414.7 417.5 419.5 421.4 422.5 422.6 427.4 430.3 430 426.8 433.8 437 433.9 431.3 438.8 433.6 426.9 425.8 421.5 416.6 414.6 409.5 406.8 402.7 398.3 391.9 386.3 377.4 369.1 363.1 351.1 335.9 320.4 289.8 252.3 232.9 212 189.8 177.5 165.8 145.4 137.7 118.3 110.2 105.8 96.1 97.3 102.5 107.5 116.9 129.5 140.2 144.9 157 171 185.2 194.7 199.5 204.6 211.7 208.8 220.2 218.4 222 222.9 222.7 220.4 225.6 219.2 223 223 220.4 223.9 222.5 221.1 219.1 217.8 215.3 214.8 213.5 213.9 218.1 222 226.2 232.2 235.7 236.4 240.5 240.9 243.4 246.5 250.2 256.5 258.5 258.4 256.3 256.8 260.3 262.3 261.1 261.7 262.1 260 255.3 253.7 250 249.3 244.5 238.8 232.2 224 214.5 203.5 193 181.1 168 157.7 162.2 170.4 170.7 171.2 173.9 176.9 184.1 188.8 199 210 224.7 235.6 255 268.9 292.5 318.6 335.3 353.7 368.1 381.2 392.9 400 407.9 416.5 423.2 429.9 435.7
403.5 392.9 388.2 377.2 374 385.8 392.9 388.1 379.4 377.5 377.2 372 366.6 362.9 365 360 357.9 354 348.2 357.7 368.9 371.9 376.5 376.3 390.3 385.8 386.3 387.2 383.3 376.2 369.7 374.2 377.6 375.9 372.1 369.7 369.3 368.1 366.8 366.3 367.1 372.2 376 379.4 381 382 387.3 391.8 397.7 402.4 405.3 408.9 408.6 411.6 413.2 414.7 419 422.1 426.5 428.9 430.3 432.3 435 436 437.4 434.6 438 437.8 437 435.7 440.3 434 431 428.2 426.4 421.8 418.3 412.7 408.6 404.8 402.2 398.4 392.9 384.7 377.5 378.2 370.1 359.2 341.7 324.5 288.8 256 234.1 213.8 197 183.1 168.7 151.3 134.4 128.8 119.3 107.1 102.4 99 97.6 103.7 111.7 126.3 136.1 146.7 155.3 170.3 175.4 184.2 191.3 195.7 200.2 201.4 204.4 212.8 212.6 213.8 212.5 217.4 213.3 212.7 214.6 212.5 215.8 215.9 214.1 208.5 208.5 205.5 201.9 200.5 197.8 196.5 199.5 205 209.1 210.7 217.5 220.2 222.7 227.3 235.4 236.5 241.4 247 246.8 249.7 250.3 246 250.7 250.4 252.7 250.8 248.9 246.1 243.7 240.7 235.8 234.5 230.8 224.1 216.1 206.5 196.6 185.7 172 161.9 158.5 165.8 168.3 170.4 173.8 176.5 180.6 191.1 192.1 204.6 219.6 229.3 244.1 261.6 278.4 302.8 325.3 342.6 358.4 372.7 384.5 396.2 403.3 412 419.8 428.2 436.5 444.9
382.8 383 380.7 369.6 365 377.3 381.8 374.4 366.4 372.5 372.8 370.2 366.7 358.6 353.5 351.8 349.9 345.8 335.2 335.1 340 350.5 370.2 365.7 366.1 376.3 380.1 382.9 382.7 376.9 368.4 365 366.2 368 364.5 366.4 366.9 368.1 367.9 366.7 367.3 370.9 375.6 377.9 377.5 383.4 385.4 394.6 395.8 402.4 408 411.9 414.1 415 417.4 418.4 422.3 426.8 431.4 434.1 437.3 438.7 441.2 443.2 443.2 441.5 440.4 438.8 438.1 438.7 437.9 435.6 434.6 431.9 429.7 425.5 423.5 419.1 416.6 414.1 406 399.9 395.9 392.7 387 382.6 378.1 369.4 363.2 356.3 326.3 288.2 259.3 235.2 212.3 198.7 192.6 170.9 156.9 144.9 128.9 115.9 111.6 109.2 103.3 102.8 103.2 112.9 122 132.1 141 151.2 156.8 166 172 181.5 185.2 191.4 194.9 197.6 200.4 203.6 207.9 205.7 205.2 204.7 201.9 199.7 205.2 207.4 206.6 202.4 198.4 195.4 192.5 186.8 183.7 181.9 181.9 185.4 186.5 186 191.7 196.4 204 213.3 221 225 224.8 228.4 232.7 237 238.4 239.6 240.8 240.1 242.1 242.1 239.7 236 234.8 228.6 226.1 227.2 221.9 215.4 209.3 200 189.6 178.3 165.2 157.9 162.3 164.3 167.4 169.7 171.5 176.5 185.2 196.2 201.8 211.3 228.4 237 250.2 267.1 286 306.7 322.5 346.1 362 374.2 386.3 396.3 405.2 414 422.3 431.4 440.9 450.3
347.3 363.1 362.5 356.1 354.9 367.4 366.7 361.1 360.3 368.6 367.5 366.3 361.5 355.8 338.9 343.1 341.8 338.4 325 320 320.5 342.1 361 362.9 354.4 354.5 362.7 372.4 376.9 374.4 370.9 367.7 360.4 356.3 357.2 352.5 358.3 360.3 362.3 362.2 363.5 368.6 373.8 373.3 374.7 379.5 385.5 391.3 397.2 404.4 408.5 413 413.8 417.3 418.9 421.8 425.1 430 433.1 437.7 441.4 442.3 444.9 446.8 446.6 445.3 443.7 441.7 440 440.4 441.2 438.6 437.6 437.3 434.5 433 430 424.9 423.5 424.6 416.4 412.1 405.9 397.6 393.2 390.4 383.9 378.4 373.7 367 353.4 346.7 287.4 257.3 234.5 216.8 203.3 192.6 182.9 158.4 143.6 133.1 122.8 115.6 111.8 107.7 108.9 107.3 112.8 120.5 129.3 136.5 142.7 149.2 159.3 165.7 169.6 175.5 178.5 180 184.6 194.2 192.5 196.5 196.3 195.1 193.4 194.3 195.8 195.6 196.4 191.8 188.1 182.8 179.1 173.3 169.1 166.2 167.5 168.8 169.1 171.1 172.5 176.7 180.9 192.8 197.3 202.8 210.1 214.7 215.5 224.7 226.4 229.7 232.1 231.3 230.9 228 227.5 225.7 222.9 219.4 215.5 213.8 212.8 206.4 200.5 190.8 181.1 170.3 158 151.8 160.9 161.9 163.7 165.6 172.7 179.8 185.8 197.4 207 218.6 230.9 246.3 260.9 271.2 291.8 311.6 327.4 346.1 360.7 374.5 384.8 395.9 404.7 413.1 423 433.8 443.6 454.8
296.9 308.4 319.2 323 332.2 359.4 355.7 352.3 354.4 360.3 358.3 352.2 351.6 343.9 340.1 331.7 329.4 333.4 318.4 311.6 304.5 330.6 348.4 356.7 348.4 340.6 343.5 349.4 356.9 366.2 360.5 360.2 359.3 351.3 348.8 348.8 348.8 346.8 351.3 349.9 358.2 359.2 364.7 370.3 373.1 380.1 384.4 388.2 394.2 402.3 408.6 413.3 413.4 417.4 419.8 422.5 427.4 430.6 434.5 440.4 443.1 445.7 447.6 451.7 451.2 449 447.4 448.4 447.1 444.1 443.3 441.5 442.9 441.2 440.1 438.5 435.1 430.4 428.4 433.8 431.4 423.7 414.1 407.3 400.4 394.8 387.9 380.9 376.7 369 361.4 354.8 340.9 300.5 274.7 244.7 225.3 208.3 195.3 178.3 160.2 146.2 133.4 123.2 115.5 111.8 112.4 114.3 112.8 115.9 119.4 124.8 132.1 137.5 142.5 149.1 155.1 160.5 161.5 166.7 172.9 178.5 181.8 185.4 189.5 188.6 185.5 182.3 185.6 185.9 183.5 183.8 177.7 173.3 166.1 161.6 157.8 155.2 153.7 150.9 154 156.3 157.3 157.9 167.8 175.8 181.4 183.8 190.1 198.3 203.1 207.1 211.4 214 218.5 222.1 220.4 219.8 217.8 214.3 209.6 208.7 210.7 202.2 201.2 198.9 192.1 184.2 173.9 163.2 153.1 149.1 160.4 156.8 160.4 168.8 177.2 180.9 189.1 196.9 207.9 220 237.8 254.7 269.6 278.4 294.9 314.3 331.4 347 360.2 373.1 384.1 394.3 404.4 412.3 422.6 433.5 445.8 458.3
255.6 261 277.6 289.7 297.2 329.1 343.3 344.1 347 349.1 349 340.1 337.2 331.5 325.4 314.9 298.7 302 302.3 295.7 299.4 308.1 340.4 349.5 344.7 344.7 338.3 332.2 328.5 342.9 341.4 338 347.3 348.4 345.7 340.1 338.9 341.6 340.3 341.6 354.5 366.6 372.9 377.8 377 379.7 393 396.2 396.5 401.4 410.3 412.2 415 415.1 417.9 421.8 425.5 430.4 434.8 440 441.7 445.8 450.1 452.6 452.9 450.4 449 449.5 448.2 448.8 447.6 449.8 446.3 442.9 441.6 441.1 438.4 436.4 434.6 439.4 435.5 428.4 421 414.8 408.8 400.7 395.7 389 381 375.8 364.5 355.6 350.2 339.3 319.6 275.8 253.5 227.3 215.3 197.6 176.2 161.1 145.1 134.4 122.9 119.8 117.4 116.8 115.6 114.8 113.7 115 119.8 124.9 127.5 129.7 134.2 144.3 148.3 153.3 154.8 158.9 166.1 173.6 174.9 174.7 174.2 174.8 173.5 177.3 171.8 168.1 164.3 156.7 154.1 150.9 145 143.6 139.8 140.5 140.6 140.8 141.4 141.6 149.7 156 160.6 165.8 173.8 181.8 184.7 191.3 191.4 194.2 199.7 203.9 206.2 206 204.6 199.1 196.9 202.8 201.3 193.7 187.5 185.6 181.3 174.4 167.1 156.5 149.6 145.5 154.5 157.7 162.5 170 176.7 182.1 188.1 197.6 209.5 220.8 245.2 261 275.1 284.4 300.2 318.5 334.2 345.6 358.6 370.8 380.6 391.5 402.3 409.9 421.1 432.4 445.7 461.2
216.3 226.4 239.6 242.4 245 267.4 321.9 328.5 329.5 329.7 331.7 326.2 323.5 316.8 304 304.1 284.5 275.9 274.2 270.1 271 282.1 310.8 334.6 347.8 345.7 341.5 329.9 315.9 311.4 311.6 314.3 321.7 335.9 336.9 330.2 334 336 335.7 341.8 353.2 364 369.4 376.8 378.1 378.5 385.3 389.1 388 391.3 398.2 403.8 408.2 410.8 414.7 418.9 423.5 427.7 433.3 436.9 441.8 444.5 449.7 450.3 450.9 450.1 449.9 450 447 447.7 449.1 451.7 450.1 446.2 444.1 444.9 440.8 440.7 440.4 441 437.7 431.9 425.8 422.3 415.7 408.5 400.9 395.5 387.1 381 375.3 368.4 357.5 345.1 340.2 321.7 290 258.3 243.2 225.3 202.9 180.6 163.2 149.6 136.7 129.5 123.5 121.7 121.8 119.6 119.2 121.2 123.2 126 125.6 126.2 128.2 129.3 134.7 141 142.3 150.6 150.2 153.5 159.7 158.2 157.5 157.7 159.7 157.8 155.1 152.4 150.5 147.4 144.6 141.1 138.5 132.8 130.8 132.1 124.7 126.9 128.4 128.3 132.2 140.4 142.6 154.2 159.2 164.7 171.8 180.4 182.5 182 183.8 185.4 189.5 191.7 192.1 187.6 188.9 193.3 190.8 185.7 181.7 175.3 170.3 164.1 158.4 149.1 145.2 154 154.9 155 163.5 168.9 174.9 180.8 185.7 196.5 211.4 228.2 251 265.6 279.4 289.9 304.7 322 336.2 348.2 359.4 367.2 378.2 389.4 398.8 408.5 418.3 430.6 445.8 461.7
179.7 194.8 205 202 209.1 224.4 271.5 301.5 313.6 315.5 313.6 313.9 305.9 297.6 281 292.6 278.6 260.2 260.6 254.8 249.4 263 289.3 325.5 338.6 339.8 336.9 326.3 317.9 308.6 301 293.6 297.1 317 324.3 308.2 332.4 329.8 335.4 341.1 346.7 355.7 362.4 369.1 369.6 373.2 376.1 379.2 385.5 387.2 391.5 396.7 400.4 403.1 408.8 414.3 419.9 424.6 428.8 435.4 438.4 441.4 448.3 448.3 452.7 452.2 450.8 447 447 447 447 448.7 450.5 446.7 446.9 449 448.9 448.2 447.1 444.3 441.5 436.8 432.1 428.4 421.5 416.9 408.1 402.9 397.9 388.5 387.9 379.9 368.1 356.9 348.2 334.6 320.2 294.9 260.4 242.4 228.3 207.1 186.6 165.4 148 141.6 134.2 132.1 130.4 131.2 131 132 130.3 129.6 128.5 126.3 125.7 126.4 128.9 129.3 131.2 136.4 137.4 144.5 149.4 148.4 148.9 151.3 149.5 147.5 146.1 144.7 143 142.1 137.6 133.9 130.1 127.8 122.8 119 115.4 119.6 117.5 118.6 121.9 120.8 125.7 135.2 143.3 148.5 159.2 164.6 168 167.9 169.4 174.7 175.8 179.2 178.9 178.5 176.5 173.8 177.2 175.3 173.9 166.3 162.2 157.8 151.3 143.8 145.7 150 151.5 155.5 160.3 167.5 174.9 183.4 186 200.4 218.8 232.1 250.6 269.5 282.5 296.5 311.5 325 338.1 348 356.3 364.9 375.4 384.4 396.1 404.8 416.2 428.7 444.2 460.6
143.8 158 163.3 168.3 174.6 187.9 227 258.7 285.4 305 296.2 289 289.5 280.2 262.8 256.8 266.3 254 247.8 238.3 231.7 243.6 272.8 302.6 319.2 325.2 330.8 325.9 317.6 308.4 300.6 287.9 285 300.3 299.9 295.4 316 326.9 337.7 346 355.3 349.8 353.9 363.3 362 363.5 368.5 371 374.2 378.6 387.4 389.4 393.5 397.4 403.8 409.1 416 422.4 425.2 430.8 430.9 435.1 444.6 448.7 449.9 450 451 450.8 447 447 447 449.5 452.1 451 452.1 452.8 454 455.3 451.5 446.7 443.2 440.8 438.1 435.8 430.7 426.5 419.4 410.7 402.8 394.7 391.5 382.8 375.2 365.6 351.7 333.6 323.5 308.4 289.1 271.3 249.3 230.6 214.3 201.7 169.7 165.9 152.6 145.5 147.3 147.5 151 149.3 142.5 138.4 135.1 131.5 130.8 130 127.9 128 128.6 129.5 133.1 135.8 138.1 141.8 145.5 147.4 146.4 144 140.8 139.1 138.3 137.5 134.7 133.2 127.1 123.7 119.1 117 118.4 114.6 115.1 114.3 115.8 117 119.4 125.4 128.6 131.1 141.5 148.6 150.6 151 156.3 159.4 164.7 168.8 167.3 166.6 168.8 165.8 162 165 161.1 158.2 155 149.6 146.7 137.8 145.7 152.7 154.1 154.7 161.2 166.2 172.5 176.8 188.2 199.7 221.1 234.5 251.2 270.4 284 299.6 313.8 326.1 336 345.5 353.1 362.7 372 382.6 393.5 403.4 414.3 427.5 441.7 457.6
114.3 119.2 126.9 143.8 148.6 165.7 199.1 237.6 281.4 288.3 281 268.6 255.5 250 242.4 225.9 238.5 229.3 218.3 220.6 213.6 225.1 247 255.2 303.4 305.1 321.4 317.8 312.8 304.9 295.9 284.4 277.3 290.2 290.1 284.4 302.8 319.2 331.1 345.6 350.9 347.1 347.5 356.5 362.4 360.8 361.9 363.6 368.4 374.1 379.6 382 387.6 392.4 397.3 404.5 409.6 415.4 421.3 424.3 425.2 431.1 436.7 443.2 445.4 448.3 448.4 448 447 448.2 452.9 455.5 455.3 454 452.8 453.8 452.6 452.3 451.7 449 446.6 443.2 441.4 440.4 435.2 431.4 424.2 417.9 412.1 405 397.9 386.2 375 368.4 357.1 346.6 337.8 325 318.3 305.2 308.1 262.1 242.9 227.6 208 185.5 170 153.5 166.9 167.8 170.8 165.1 167.4 152.1 152.5 144.6 137.2 135.2 136.2 130.2 131.9 133.5 133.8 134.7 135.9 136.9 138.9 141.5 145.3 143.9 140.4 138.2 137.7 136.5 133.9 132.8 128.4 127.4 124.3 118.6 117.7 115.8 114.5 114.6 113.7 114.4 117 117.5 116.7 121.5 124.8 134 137.1 136.8 141.9 149.6 152.3 152.4 156.9 156.3 156.3 156.7 156.2 155.4 150.2 148.7 146.7 143.7 139.9 141.3 146.2 150.5 151 150.4 161.3 162.8 171.8 178.5 185.5 201.8 215.9 236.4 252.8 270.5 285.8 300.6 313.4 324.2 334.7 342 350.7 360.2 369.2 381.5 390.9 400.9 412.3 424.8 439.7 455.9
85.3 90 100.3 111 126.3 149.2 196.6 235.2 279.4 267.6 249.5 242.3 231.2 218.4 209.8 203.8 195.2 198.8 200.8 202.5 201.9 213.9 240.4 236.1 275.8 300.6 302.6 305.9 303.7 302.1 291 281.9 277 274.3 282.6 269.5 287.6 299.9 306 331.2 340.2 336.1 335.3 345.9 360.3 359.2 357.8 359.5 362.2 364.8 374.8 375.7 381.5 387.2 390.8 397 403.4 409.3 415 418.3 418.7 425 432.1 435 439.7 444.4 443.4 446.4 449.9 452.8 457.9 462.5 463.4 460.5 456.4 455.1 455.8 453.9 454.3 452.7 450.7 447.2 443.8 439.9 438.2 432.5 430.4 424.7 418.5 410.9 400.7 392.9 383.8 378.9 369 358.8 349.1 351.1 342.7 326.9 316.8 305.6 288.3 261.6 232.2 205.2 185.6 174.9 188.9 191.5 190.9 188.1 181.7 169.9 174.3 165.4 153.5 148.1 149.4 141.2 138.5 139.6 138.8 138.1 139.7 142.9 141.2 139.5 142.5 143.1 142.4 139.3 141.3 139.7 139.2 135.7 133.1 132.1 125.9 123 118.1 118.3 116.8 116.5 114.2 111.6 114.5 111.8 110.3 108.8 111 117 120.8 122.5 128.8 137.5 135 135.4 143.4 148 149.4 150.4 148.8 144 140.6 138 137.6 138 131 140.1 142.2 145.5 147 148.5 151 155.7 162.2 176.2 185.1 202.9 219.8 236.8 253.1 268.6 283.9 300.4 313.4 321.9 331.8 340 349.1 357 365.8 377.3 387.9 398.4 409.8 422.1 437.4 453.4
68.9 76.6 86.7 92.3 109.1 138.1 214.4 260.3 265.8 249.3 220 207.9 200.8 193.3 183.5 178.7 180.9 183.5 185.7 199.2 193.3 191.9 211.9 218 221.2 262.5 289.1 280.8 287.7 291.6 286.4 276 277.1 274.1 266.6 264.6 264.1 286.3 287.6 306.9 313.7 319.5 324.7 329.8 336.6 347 350.1 350.5 350.7 355.6 362.8 370.2 374.1 379.4 382.5 389.9 397.3 403 408.9 412.7 412.9 416.8 425.1 429.6 430.8 435.2 438.9 444 447.1 451.3 458.5 460.9 462 457 457.3 457.9 461 461 458.8 454.1 451.8 449.7 447.3 443.9 441.7 437.8 433.7 429.9 427.2 419 411.7 408.7 398.9 388 376.7 372.5 367 365.1 360.1 349.4 327.9 314.2 294.1 273.8 248.8 225.5 200.3 199.1 216.2 225.2 217.9 210 204.8 197.9 196.8 187.1 171.6 161.8 159.3 154.4 150.3 147.2 146.1 144.5 143.6 145.7 143.4 141.4 144.2 145.7 148 142.8 146.2 146 144.1 139.3 137.7 131.7 130 124.7 124.1 123.5 121.8 119.2 114.8 110.7 111.3 108.8 108.8 108.8 108.8 108.8 111.3 114 117.5 120.2 123.8 123.6 127.7 133.4 137.2 139.5 137.3 134.7 133.1 131.7 130.8 129.1 120.3 133.2 139.6 139.1 140.4 144.6 146.7 152.8 163.9 170.5 180.9 193.5 215.8 235.4 250.3 268.1 283.1 296.3 310.2 320.4 328.2 336.7 345.4 353.3 362.6 372.7 383.3 395.3 406.1 418.4 431.6 448.3
58.4 61.6 71.3 85.3 103.8 139.5 195.3 256.4 253.3 227.1 201.9 189.9 183.4 180.9 177.5 178 179.1 181.3 184.1 193.7 185.9 194.7 220.8 216.5 231.2 221.4 252.4 271.5 261.6 270.7 267.6 271.8 271.7 262.7 260.1 258.3 258.3 258.3 270.3 278.8 282.5 288.2 297.7 319.9 316.5 319.3 335.9 338.3 341 343.9 351.6 362.2 366.1 370.8 374 379.7 387.9 395.5 400.1 404.9 405.8 408.9 414.9 419 424.7 427.2 433.9 438.4 442.6 447 453.1 457.4 456.8 453 456.5 463.6 467.5 466.7 463.3 462.2 460.5 454.7 455.2 452.1 451.8 446.7 441.5 441 433.1 425.2 418.6 412.6 410.3 399.6 387.9 382.2 376.7 375.5 367.5 352.9 341.7 328.8 311.5 290.9 267.2 239.8 211.9 220.3 240.7 246 239.9 234.4 222.3 216.5 220.2 206.4 189.9 178.9 172.6 169.7 165.1 158.8 153.9 151.4 150 150.6 147.2 148.5 148.2 148.9 149.9 148.7 153.5 153.7 151.3 146 144.2 135.7 133.4 129.1 127.7 129.2 126.1 122.3 117.4 113.9 111.9 108.8 108.8 108.8 108.8 108.8 108.8 108.8 108.8 112.2 117.5 118.6 119.2 120 122.9 128.7 129.2 129.5 127.4 126.4 127.3 122.1 119.4 126.9 130 134.5 133.6 138.5 147.9 151.5 161.8 167.8 177 191.4 209.6 226.1 247 265 280.2 293.9 306.2 315.5 326.1 333.1 341.7 350.1 359.2 369.2 380.3 391.1 402.5 413.2 427 442.4
63.6 73.8 82 84.8 117 150.2 193.8 242 228.7 205.4 189.7 179.2 181.1 180 178 178 178.5 180.2 182.2 187.4 193.8 209.4 229.6 226.5 236.9 243.2 228.2 247.7 259.6 259.3 259.8 259.9 258.9 263 263.3 258.3 258.3 258.3 258.3 258.3 261.1 263 275.5 299.1 302.8 298.8 313 318.7 323.3 331 333.3 346.9 355.5 361.6 363.7 370.2 378 385.7 391.9 395.2 398.6 403.7 406.8 413 415.8 420.1 430 432.7 435.2 439.2 446.3 450.5 448 450.2 457.1 466.3 469.7 470.3 468.7 471.5 466.2 464.8 464.1 462.9 464.6 460.4 452.4 451.2 439.2 432.4 429 421.8 417.5 415.1 408.9 400 388 383.1 375.7 364.4 353.5 339.5 324.8 302.3 275.4 257 227.6 242.3 256.1 258.5 257.9 251.4 248.6 235.4 232.7 221.6 210 201.5 191.2 184.1 178.5 170 165.5 161.4 159.9 157.2 151.1 150.7 153.8 154.3 157.8 158.8 160.1 162.6 157.7 152.4 152.4 145.2 136.1 135.7 133.8 133.6 131.6 125.9 121.4 118.1 114.2 110.7 108.8 108.8 108.8 108.8 108.8 108.8 108.8 108.8 108.8 111.1 112.6 115.3 116.7 119.8 120.6 121.6 122.1 122.6 121.5 120.8 116.9 122.7 129.9 132.1 132.8 136.9 141.2 146.9 155.8 164.6 175.8 186.4 199.6 223.2 242.5 260.9 277 290.8 303.6 312.6 320.3 329.4 338 346.8 356.1 365.6 374.8 384.3 395 406.9 420.2 435
80.2 90.7 105.7 102.6 114.3 146.6 166 201.6 200.3 185 178.6 177.5 178 178.9 178 178.2 177.4 179.3 180 179.5 198.3 207.4 238.3 237.5 250.9 252.3 247.4 238.6 254.2 271.8 262.5 258.5 265.8 266.6 261.4 258.3 258.3 258.3 258.3 258.3 258.3 258.3 260.6 283.4 286.9 284.5 289.6 297.3 313.9 319.2 320 331.7 341.2 350.7 358.4 362.1 366.7 373.1 380.9 387.3 387.1 396 399.6 409.2 413.1 414.6 421.4 424.4 430 432.4 434.5 442.2 442.5 444.7 459 467.3 469.3 471.8 472.6 475.9 478.4 479.4 479.3 476.2 475 468.8 461.8 457.3 449.1 439.9 434.3 430.4 427.1 421.2 416.3 408.7 406.3 396.9 388 383.1 370 358.6 345.9 317.8 301.2 274.1 243.6 264.8 280.9 283.4 278.2 271.2 258.3 250.9 242.8 238.6 228.9 225.3 214.6 202.5 192.4 182.7 179 174 170.3 167.8 161.6 157.8 160.8 162.4 166 168.3 173.5 171 166.5 164.9 160.4 153.6 139.8 141.6 141.5 138.3 139.6 127.4 125.3 120.9 116.8 111.4 108.8 108.8 108.8 108.8 108.8 108.8 108.8 108.8 108.8 108.8 108.8 108.8 109.8 113.3 115.9 118.2 119.1 122.5 118.3 118.7 117.5 120.3 122.5 125.3 134.1 138.5 140.2 143 150.7 161 171.4 184.6 196.2 213.4 237.1 253.4 272.3 286.1 299.9 310.7 316.7 326.3 334.2 342 351 360.4 370.1 378.3 387.1 398.1 411.3 426.6
101.3 111.2 122.1 127.6 115.1 137.6 144 156 168.4 180.7 178.1 179.4 181.3 193.1 180.8 181.5 180 180.6 181.9 185.1 193.7 204.9 230.5 249.2 272.3 265 262.4 254.1 256.1 278.7 275.9 264.1 271.6 278.6 270.3 258.3 259 273.6 259.5 258.3 258.3 258.3 258.3 258.3 270.9 271.4 271.6 277.9 298.7 305.1 313.7 328.2 331.9 338.2 344.5 349.5 356.4 360.9 370.1 377.1 381.9 383.7 394.8 403.3 404.2 406.8 411.5 418.4 422.8 428.3 431.3 435.9 435.7 437.5 453.8 465.6 468.6 476.6 483.9 486.9 489.6 493.2 496.9 494.2 482.7 474.3 469.4 463 455.5 447.9 439.7 437.1 433.5 430.2 425.2 417.3 414.1 406.5 396.6 385.3 377.1 364.8 352.3 334.7 314.8 284.7 266.9 287.6 306 304.4 293 285.6 276.5 267.6 256.6 251.7 246.8 242.4 238.1 224.5 205.9 203.3 197.3 192.3 184.9 181.8 176.7 173.7 175.4 176.4 177.7 179.8 184.4 178.6 175.5 173.1 167.6 160.1 152 152.5 149.9 143.1 137.4 135.1 126.6 123.6 120.6 115.1 108.8 108.8 108.8 108.8 108.8 108.8 108.8 108.8 108.8 108.8 108.8 108.8 108.8 108.8 108.8 111.3 114 115.8 116.3 115.8 109.3 116.9 117.9 122.4 130.2 135.2 139.5 140.9 144.9 156.1 167.6 179.5 193.5 208.5 226 245.8 264.6 280.5 293.9 305.6 313.6 324.8 330.3 337.4 344.6 352.5 363.1 371.8 382.1 392.7 403.1 417.9
125.4 134.7 144.2 145.4 137.4 136.9 149.6 162.1 176.4 198.8 198.5 191.7 201.6 209 195.4 193.7 187.9 188.1 187.3 189.2 196.8 208.2 232.7 276.9 286 280.3 265.2 270.3 245.2 271.4 274.9 268.8 274.6 304 289.1 268.8 279.7 312.3 293.5 268.7 258.3 258.3 258.3 258.3 258.3 258.3 258.3 267.7 276.5 283.5 292.8 312.6 320.8 325.8 334.2 341.1 346.4 349.1 357.1 366.1 370.3 375.8 386 394.6 395.9 398.9 405.1 413.6 417.1 424.5 430.4 434.4 431.9 437.6 448.9 460.1 472.8 483 492.3 497.1 504.4 507.9 508.2 504.7 497.6 485.6 479.9 473 465.9 456.4 448.4 441.1 437.3 432.5 425.5 418.6 413.9 407.8 397.9 390.3 377.6 370.5 354.2 338.5 315.3 286.6 294.6 309.7 321.9 317.4 312.2 299.8 291.5 284 269.9 265.7 265.7 266.8 268.2 248 247.5 249.1 244 224.6 217.4 211.4 207.1 200.9 193.8 192.2 193.2 196.7 200.4 194.7 188.7 182.7 179.3 171.6 168.7 167.9 160 151.2 143.1 135.4 131.6 127.4 119.8 116.8 116 115.5 115.8 110.2 108.8 108.8 108.8 108.8 108.8 108.8 108.8 108.8 108.8 108.8 108.8 108.8 112.5 114 114.5 115.1 108.8 115.9 116 120.1 126.5 132 135.1 137.8 141.8 152 157.7 169 186.6 199.9 214.3 235 254.1 271 286.9 298.8 310.4 320 326 331.6 339.3 346.1 355 366.7 376.7 386.1 396.3 409
172.6 170.5 177.4 184.8 171.3 173.4 180.7 189 225.6 231.7 234.2 224.8 221.7 234.1 217.8 215.8 209.5 215.2 209.6 201.6 201.4 212.5 230.9 258.7 290.1 291.3 272.9 269.3 260.1 253.5 264.7 267.1 278 312.6 315.9 290.5 303.6 313.9 305.5 288.1 271.1 258.3 258.3 258.3 258.3 258.3 258.3 258.3 258.3 261.2 270.1 306.3 303 314.9 322.4 329.9 333.4 339.7 345.7 354 357.9 364.4 376.7 384 388.2 390.6 400.5 410.1 412 419 425.1 429.2 431.2 440.4 449.2 464.2 477.6 485.9 496.1 506.6 514.4 518.7 518 514.8 509.1 498.6 488.7 483.4 476.6 466.2 456 446.5 438.5 430.9 424.7 420.4 414.4 406.5 396.7 385.9 372.3 368.2 356.9 338.7 309.1 304.3 316 329.1 332.8 329.6 328.5 320.7 309.8 297.7 287.2 284.6 299.6 305.4 301.1 289.3 292.3 290.1 282.6 262.6 251 237.9 233.7 231.9 212 215.4 216 216.2 217 218.7 214.5 210.7 197.1 192.5 185.6 184.2 173.2 159.4 149.7 140 136.5 128.6 123.9 122.8 121.8 119.6 119.1 113.9 113.3 108.8 108.8 108.8 108.8 108.8 108.8 108.8 108.8 108.8 108.8 108.8 109.7 113.8 115.2 114.7 109.4 113.6 114.6 117 123.4 128.4 129.1 136.6 141.1 150 156 162.7 177.6 194.1 209.2 226 242.8 260.5 276.3 291.2 304.1 314.1 322.1 327.4 334.3 342.4 348.5 359.3 369.2 379.3 389.9 402.7
212.3 230.4 214.8 217.8 212.4 214.4 228.4 250.8 272.1 269.5 262 253.6 248.9 252.1 256.2 244 246.1 245.4 234.9 226.9 224.6 222.1 226.4 241.9 285 292.3 281.8 267.4 260.7 253.7 258.7 273.8 298 305.2 325.7 326.8 306 326.2 313.7 291.2 277.9 269 258.3 258.3 258.3 258.3 258.3 258.3 258.3 258.3 258.3 267.8 282 290.6 303.9 307.8 318 326.7 333.1 341.4 347.8 353.4 363.7 373.2 378.1 380.6 390.8 404.6 408.8 412.9 421 425.6 434.5 447.6 455.6 461 474.8 487.5 503 515.7 522.6 526.4 525.6 521.7 520 514.4 503.9 497.1 491.2 477.4 464.7 455.2 445.3 434.3 426.6 421.1 412.3 407.2 396.3 386.9 373.6 370.6 359.5 332.9 310.1 324.8 338.9 343.1 345.1 342.6 338 334.5 327.4 315.9 317.5 307.8 322.8 324.4 319.6 317.6 325.4 321.5 310.5 294.2 286.5 278.8 269.1 261.6 240.9 244.6 243.1 243.3 244.1 253.7 249.8 242.7 238.3 225.7 229.1 207.3 188.2 174.6 164.5 150.6 143.1 133.9 133 130 127.5 129.2 126.4 123.2 119.1 115.4 110.3 108.8 108.8 108.8 108.8 108.8 108.8 108.8 108.8 108.8 108.8 111.4 115.3 114.3 108.8 112.4 114.1 115.1 118.6 123.2 126.9 133.2 140 145.8 154.2 160.9 171.7 184.7 196.3 215.4 231.7 249.1 266.7 283.6 296.7 307.4 316.4 324.1 331.2 338.2 343.9 351.1 361 371.7 382.7 395
261 275.9 278.9 257.7 255.1 249.8 274.4 296 298.6 298.5 292.6 283.4 276.1 287 289.2 281.9 278.4 268 259.8 285.2 269 245.9 238 242.7 257.8 267.4 270.8 267.8 265.2 260.2 264.3 286.1 300.1 319.8 319.8 326 323.5 328.9 322.7 307.4 285.2 275.9 269.4 258.7 258.3 258.3 258.3 258.3 258.3 258.3 258.3 258.3 267.2 272.6 286.7 291.7 303.1 308.9 318.6 326.5 336.5 344.7 352.2 362.5 363.3 368.3 381.2 399 402.7 410.5 419.8 430.4 437.9 450.5 459.4 462.8 479.4 492.4 513.8 520.7 530.3 533.1 535 535 530.9 530.2 525 514.2 503 488.8 477.4 466.3 453.4 441.1 431.4 419.5 413.8 405.8 400.4 389.5 379.1 371 357.4 328.5 327.5 338.6 350.7 358.5 355.3 353.7 348.3 342.3 338.3 331.4 337.7 333.6 339.2 348.2 338.7 339.7 337.1 332 322.3 313.1 301.3 313.3 306.2 300.6 289.8 276.3 269.1 276.2 283.1 286.3 278.2 271.2 270.3 261.8 258.3 237.5 207.2 188.4 175.6 169 152.2 145.8 141.1 145.9 143.3 134.2 136.6 132.4 123.4 124.2 115.9 114 108.8 108.8 108.8 108.8 108.8 108.8 108.8 108.8 108.8 108.8 111 113.6 108.8 112.7 112.6 113.9 115.2 118.2 121.6 129.3 135.4 141.4 147.7 157.3 165.4 182.1 194.7 207.2 222.4 241.1 255.3 272.4 288 299.4 309.6 318.9 326.3 335.9 342.2 344.6 354.1 366 376.9 387.6
294.1 287.6 288.1 293.9 295.3 289.7 305.1 325.7 324.9 316.8 316.3 310.5 317 309.2 312 305.4 311.3 295.4 287.7 310 290.4 275.1 266.6 266.3 261.2 259.4 261 269.6 263.2 262.4 270.7 281 296.8 318.2 322 320.9 328.3 324.2 323 315 299 289.9 292.8 282.1 282.2 270.7 258.3 258.3 258.3 258.3 258.3 258.9 259.8 263.5 270.7 282.3 289.4 296.7 305.8 314.7 323.1 333.9 341.3 352.9 356.9 364.4 374.7 387.8 393.3 406.5 417.3 426.1 432.8 446.2 460.3 468.2 485.5 498.9 510.9 528 533.5 538.2 545.1 552 545.4 542 538.5 529.9 514.4 502.7 493.3 482.9 469.2 459 449.6 444.5 424.6 411.8 400.9 388.9 379.8 374.9 355.6 323.9 339.3 362.7 365.4 363.4 368.2 365.1 361.6 357.1 354.2 352.4 361.7 362.8 362.7 375.5 362.7 360 351.5 353.7 350.5 337.2 336.7 343 338.4 338 344 331 307.2 311.6 317.1 307.4 299 296.2 297.1 292.4 291.1 275.4 263.8 233.7 216.4 192 173.8 164.8 153.4 155.9 143.4 145.4 145.7 137.6 133.9 128.8 124.7 123.5 115.6 108.8 108.8 108.8 108.8 108.8 108.8 108.8 108.8 108.8 109.4 112.2 110.9 111.4 111.6 112.7 111.6 115 119.2 122.5 130.3 136.5 142.9 152 160.7 173.7 191.4 202.5 214.9 233.2 249.6 262.5 274.5 287 302.2 313.3 320.3 329.4 337.6 342.4 347.8 359.6 371.7 381.2
297.3 300.2 300.9 303.9 301.7 306.9 330.6 340.4 336.9 341.4 347.6 349.1 339.8 332.8 320.4 331.9 330.2 323 338.6 325.4 315.7 301.3 303.6 298.2 295.3 288.1 271.4 271.5 266.5 267.5 274.2 289 299.8 320.3 332.2 327.4 336.1 330.2 323.3 322.5 315.9 313.6 303.1 302.7 300.8 286.9 274.4 262.9 259.6 258.3 258.3 258.9 259.9 259.9 261.6 272.8 276.9 283.3 289.6 299.3 308.3 318.2 328.1 338.4 346.8 354.3 364.2 376 379.7 398.4 407.9 416.6 424.6 436.5 456.8 470.9 488.9 502.2 518.8 524.7 533.3 543 557.3 564.3 557.7 551.8 545.8 535.7 526.6 514.1 506.2 495 485.1 477 466.1 458 447.5 426.5 402.5 392.9 388.4 379.1 355.5 332.8 359.7 376.3 374.3 376.8 379.7 375.4 374.6 367.6 367.4 369.9 388 392.7 389.2 390.8 388.6 382.1 373.9 374.3 376.5 366.7 363.6 358.8 364.6 364.4 366.1 364.9 347.1 335 338.9 339.9 325.2 327.4 324.5 313.3 309.8 314.8 310.3 296.6 285.2 255.9 209.1 184.9 167.8 155.9 150.7 160.4 156.1 157.9 152 141.7 131.9 132.5 130.5 117.3 108.8 108.8 108.8 108.8 108.8 108.8 108.8 108.8 108.8 110.8 109.3 110.4 111.9 111.3 108.8 110.9 116.2 119.6 124.3 130.1 139.7 146.1 153.4 167.9 179.7 192.7 210.9 223.5 239.7 254.4 268 282.4 294.7 306.4 313.2 325.7 333.1 340.2 346.3 354.9 366.8 376.5
310.3 316.1 314 311.5 309 323.5 341.8 348.6 348.1 356.4 361.5 357.4 353 342.2 339.1 359.5 362.8 358.7 352.4 344.6 343.3 331.6 329 324 320.8 303.2 298.9 290.7 282 270.1 279.7 294.4 305.7 326.6 342.1 337.8 335.3 334.5 326.1 319.7 325.5 324.2 318.3 313.1 306 296 285.9 276.8 273.5 265.8 260.4 259.8 260 260.2 259.9 267.7 266.5 271 277.3 284 293.3 301.8 313.1 324.5 334.5 344.2 353 363.4 372.1 382.7 397.2 409.9 418.7 428.5 445.4 466.3 487.2 502.5 519.1 522.9 530.8 547.9 560.9 564.2 560.7 555.1 548.2 538.1 528.9 518.5 508.4 498.4 490.8 481.6 472.8 463.8 455.9 441.5 422 404.4 393.4 381.4 357 345.3 376.1 383.1 385.5 388.3 387.1 384.2 385.4 381.3 382 390.1 406.6 405.9 405.6 407.5 400.3 397.8 394.3 388.9 385.5 374.8 372.4 374.6 375.5 377.1 382.3 377.5 372.2 364 357.5 363.2 354.5 355.5 343.7 336.3 334.7 341.3 338.9 336.5 326.9 321.2 270.6 229 194.1 175.4 172.9 183 167.1 170.7 159.2 151.5 149.6 146.9 141 137.1 125.5 108.8 108.8 108.8 108.8 108.8 108.8 108.8 108.8 108.8 108.8 110 111.5 109.1 108.8 108.8 109.4 115.5 120.9 126.1 133.1 141.1 148.7 159 168.8 184.5 198.2 216.9 233.6 248.4 261.7 275.6 288.4 298 307.9 322.6 328.7 336 343.9 353.2 363.2 372.9
326.9 328.4 325.4 326.2 322.7 329.3 347.3 351.5 362.1 364.9 365.2 362.2 358.7 350.8 346.7 365.7 374.4 374.8 367 356.4 349.1 341.8 341.1 335 330.9 322.2 319.3 334.2 317 285.9 278.7 295.6 312 328.4 344.3 345.6 342.9 336.2 329 322.9 328 324.1 316.4 307.4 303.1 298.1 292.1 284.1 280 273.8 265.3 261.2 261.1 260.9 260.2 261.9 262.9 265.1 271.7 274.7 288.1 298.7 307.2 314.2 322.7 332.6 342.1 348.4 360.5 374.1 380.2 395.9 411 421.3 437.7 457 481.7 501.3 515.9 521.8 530.2 544.7 556.5 561.3 559.7 554.7 544.9 538.7 527.9 518.2 505.5 497.1 489.1 481.5 473.5 463.9 454.2 441.1 431.3 422.2 399.6 382.8 358 355.5 381.5 385.6 390.9 395.5 396.3 394 396.2 394.4 399.1 408.6 412.4 414.2 419.6 420 414.7 408.5 403.9 400.4 389.8 384.8 383.3 382.8 385.3 390.5 390.7 388.9 390.2 387.9 385.8 377 373.3 374.4 378.2 370.4 360.2 357.2 352.2 350.8 349.7 345.4 331 288.9 263.8 214.5 192.3 182.5 174.3 174.3 167.6 162.9 163 168.5 156.9 148.6 138.8 123.9 108.8 108.8 108.8 108.8 108.8 108.8 108.8 108.8 109.9 110.2 109.2 108.8 108.8 108.8 108.8 108.8 117.8 121.1 127.1 135.6 144.4 152.5 165.5 177.6 190.4 210.6 226.1 238.7 252.8 265.4 278.7 292.7 306 319.7 327.7 334.3 343.1 349.1 358.9 369.3
328.4 329.3 334.1 333.9 327.4 334.9 346.1 359.7 367.2 379.1 380.8 369.7 365.9 361.3 358.5 369 369.7 367.9 364.1 361.4 358.5 349.4 345.9 345.2 350.6 345.3 342.4 342 336.3 315.6 295.4 309.8 324 329.9 339.7 340.9 341.8 341.4 335.3 328.7 324.1 320.6 313.8 305 300.6 299 296.5 289.5 285.2 277.2 272.8 266.8 262.5 262.3 259.9 260.7 261.6 263.3 266.3 276.7 289.9 291.6 295.7 301.1 309.7 320.2 330 337.7 353.1 359.5 370.5 381.7 396.1 413.7 428.4 447.3 471.3 494.1 510.5 517.8 527.2 543.7 551.1 553.7 551.9 548.2 543 535.3 523.7 512.8 502.1 495.6 487.1 479 471.4 462 450.4 441.3 434.3 423.2 404.9 386 356.9 375 387.6 393.3 396.2 401.2 402.3 403.4 407.9 407 412.4 419.2 418.9 427.2 428.2 428.1 422.9 414.4 412.6 402.7 395.3 391.2 395.9 394.5 398.4 399.9 398.9 397.4 398.6 402.2 404.7 404.1 391.6 393.7 397.2 394 388.6 384.7 367.2 361.6 367.5 365.5 352.4 333.9 298.4 249.5 219.2 203.5 189 185.5 181.4 174.2 184.2 179.7 170.2 166.7 151.8 137.2 122.2 108.8 108.8 108.8 108.8 108.8 108.8 109.5 108.8 108.8 108.8 108.8 108.8 108.8 108.8 108.8 112.6 117.1 124 133 142.1 148 160.1 170.8 183.5 199.1 213.8 226.5 244.1 260.4 276.7 291.8 302.9 313.6 323.6 330.5 337.7 346 355.3 364.5
332.8 333.3 336.4 336.9 334.3 340.1 352.2 367.1 374.3 381 383.3 385.1 383.7 379.1 377.1 374.7 375.4 371.1 369.2 362.5 357.8 354.2 352.5 351 354.4 352.1 352.9 350.2 344.5 337.2 331.3 334.9 340.8 344.3 338.8 336.6 338.5 340.2 337.7 331.9 323.9 319.3 313.7 307.3 302 298.9 290.8 287.4 279.4 274.7 271.5 266.6 263.7 261.4 260.6 262.1 261 262.6 264.6 269.7 278.8 285.4 286.6 292.3 303.2 313.2 318.1 332.6 340.8 352.1 365 374.9 389.4 406.6 417.7 439.1 456.8 482.1 502.5 512.4 523.8 535.1 545.1 546 544.4 541.1 536.5 527.9 518.7 508.1 500.7 493 485.4 476.4 468.1 458.6 451.2 442.3 433.2 422.6 404.9 387.2 364.7 386.5 394.6 398.9 402.8 407.7 408.8 414.8 419 420.9 419.6 422.5 429.4 434.6 433.5 430.7 425.2 422.6 414.7 410.5 403 403.5 403.1 407.7 410.5 408.4 404.3 405.3 411 416 419 419.7 416.4 410.6 410.6 402.5 402.2 396.3 389.9 382.5 382.9 378.3 363.6 356.3 334.9 279.6 249.5 221.9 202.2 203.6 203.3 196.4 196.2 180.1 174.4 170.8 161.5 147 134.5 117.2 108.8 108.8 108.8 108.8 108.8 108.8 108.8 108.8 108.8 108.8 108.8 108.8 108.8 108.8 111.1 117.2 122 127.6 140.2 145.3 156.4 164.5 174.7 185.5 205.6 221.9 237.5 254.4 268.9 284.3 297.6 308.4 320.7 326.8 334.4 341.9 351.4 359.3
333.6 340.5 342 337.5 336.6 349 362.9 368.3 377.9 386.6 389.7 394.9 397.4 403 401 398.1 396.4 389.1 381.4 375 369.7 366.4 364.8 363.1 361 361 360 356.9 351.8 344.8 340.1 340 349.6 349.5 341.4 338.7 338.5 334.2 329.4 325.5 322.8 318 313.5 308.9 303.1 297.6 298.6 290.5 284.8 280.6 273.8 272.2 264.2 262.1 260.1 261.4 262.3 262.4 262.3 264.5 270.7 278.1 281.1 286.4 296.4 302.4 312.3 324.2 336.8 344 359.5 371.4 381.4 394.1 407.5 427.1 450.3 468.6 489.1 502.7 516.9 525.5 534.6 537 535.8 532.3 527.5 520 512.8 506.2 497.4 490.8 484.9 478 466.7 455.8 448.4 441.2 430.5 419.1 409.3 390 379 396.6 403.4 407.6 408.3 414.1 412.3 422.3 427.4 426.7 424.7 427.8 437.9 440.2 438.1 434.7 428.1 424.3 424.3 416.5 415 417.3 418.8 417.3 426.6 419.6 418.5 418.6 424.3 424.4 429.3 426.3 429.7 427.1 416 412.1 407.4 402.1 403.7 405.8 397.3 386.7 374.7 371.2 354.6 314.9 285.2 255.8 228.4 219 216.2 207.8 196.1 197.3 187.2 184.3 170.5 157.3 143.3 129.2 111.7 108.8 108.8 108.8 108.8 108.8 108.8 108.8 108.8 108.8 108.8 108.8 108.8 108.8 111.5 117.1 122.6 125.7 136.9 143.4 149.4 156.9 166.9 182.9 198.3 212 228.4 243.9 257.8 272.7 289.6 302.4 310.9 325.5 332.8 340.5 348.4 356.8
334.7 348.3 355.7 344.7 349 362.1 376.4 374.4 383.6 391 405.4 412.9 424.5 429.9 423.8 422.2 416.1 410.6 404 395.8 390.1 383 377.9 378.9 378.8 378.7 376.2 368.2 356.7 353.2 349.4 340.5 344 343.6 344.1 340.9 337 330.7 326.5 321 316.4 316 312.4 308.9 301.7 301.5 298.6 296.4 290.3 285.6 277.9 272.2 264.6 261.8 260.3 262.5 263.3 263.6 263.3 263.3 269 273.6 277.9 284.4 292 295.8 303.6 316.5 324.7 334.4 347.6 360.8 373.5 384.2 395.5 411.3 440.9 457.6 473.7 488.7 503 515.1 524.6 526.9 525.7 522.2 518.8 514.1 506.8 499.8 494.3 490.3 484.9 477.3 467.6 455.6 446.1 438.1 428.5 419.5 404.3 393.3 395.1 406.2 407.9 412.4 414.3 418.2 418.9 427.7 431 431.5 429.9 436.2 443 444.1 441.9 438.4 431.5 432.8 430.2 423.3 421.9 429.8 433.2 431.2 438.3 442 433.1 427.4 429.7 434.9 437.2 439.9 440 433 421.9 417.9 411.7 414.7 417.5 413.2 406.2 398.8 389.2 381.5 367.3 340.4 316.6 292 266.4 245.5 226.4 213 211.3 208.3 199.5 194.2 180.8 167.8 153.3 137.8 121 109.6 108.8 108.8 108.8 108.8 108.8 108.8 108.8 108.8 108.8 108.8 108.8 108.8 108.8 116 117.3 124.3 129.6 138.2 146.2 151.4 160.4 172.8 188.4 203.3 217.9 232.6 250.6 267.5 276.1 293.2 311 323.3 333.1 340.6 347.3 355.4
341.5 352.6 366.2 363.9 363.7 377.8 380.6 380.6 387.5 400.6 413.3 422.3 448.5 456.2 452 449.8 444.6 431.8 422.8 418 413.4 408.1 401.7 395.3 393.5 392.5 393.7 386.8 378.4 369 360.6 346.7 345.9 343.5 344.8 340.5 339.3 334.7 330.2 324.1 320.5 314.9 313.5 307.5 307.8 303.8 303.5 297.6 294.2 289.1 280.8 272.2 266.8 262.2 261.4 261.5 261.8 261.8 262.9 263.9 268.6 271 274.1 281.2 284 290.3 299.9 307.7 315.4 328.9 334.8 352.5 362.5 376.3 386.7 399 420.5 444.3 458.9 472.9 485.6 500.8 512.5 516.3 515.7 513.3 510.6 508 501.8 496.5 493 487.6 482.8 475.4 466.3 456.8 447.9 437.7 428.8 420.5 409.6 401.5 405.7 412 415 416.4 419.4 422.6 427.5 431.8 433.9 433.6 439 442.7 446.9 444.8 444.6 442.3 438.9 442.7 440.1 440 431.6 440 446.6 448 448 450.7 450 435.7 441.4 441.6 443.9 448.1 444.8 437.6 436.5 435.9 416.6 422.5 428.6 427.8 417.1 410.8 403.7 390.2 381 362.8 333.2 307.4 277.4 257.5 237.5 237.5 222.8 216.2 212.5 203.6 189.9 175.8 158.1 148.9 130.5 119.8 115.8 108.8 108.8 108.8 108.8 108.8 108.8 108.8 108.8 108.8 108.8 108.8 108.8 111.1 116 122.3 130.2 137.1 142.7 143.8 154.5 164.3 180.2 199.1 218 231.5 252 269.9 282.9 296.8 310.8 317.6 326.6 338.4 348.2 355.8
359.7 359.1 369 380 375.7 386.3 385.6 382.8 392.8 403.5 414.7 431 460.3 463 461.2 461.2 451.6 442.1 435.9 432 427.5 425.5 420.7 414.6 410.4 407.6 407.2 402 394.5 388.2 368.3 369 358.9 356.8 355.6 352.5 348.8 346.5 341.7 331 326 318.7 318.6 316.6 312.7 312 309.6 305.7 300.9 294.3 286.4 277.8 266.5 262.9 263.2 262.6 262.5 262.7 262 262.8 265.6 267.5 269.8 279.9 282.9 288.4 292.6 296.7 307.7 320.5 324.6 342.1 349.5 364.9 377.7 389.4 405.3 427 444.8 457.7 469.5 484.2 499.8 505.7 506 502.9 502 498.9 495.1 491.9 489.4 485.8 479.8 473.4 464.9 455.1 447.5 439.7 426.3 420.6 415 407.3 409.7 416.6 421.3 425.2 426 424.8 432.4 438.6 436.8 438.8 446.9 447.1 446.4 445.9 448.2 443.7 449.9 445.2 448.4 445.5 446.7 443.5 450.7 453.9 456.3 455.1 454 447.6 450.8 456.9 445.4 448.3 442.8 441.7 447 446.7 434.4 430.4 440.3 440.8 433.3 420.9 408.9 396.9 387.8 374.5 346 311.6 286 263.4 246 246.2 235 227.5 217.5 205.3 192.6 182.5 168.4 154.4 139.6 127.3 118.1 111.8 108.8 108.8 108.8 108.8 108.8 108.8 108.8 108.8 108.8 108.8 108.8 108.8 115 121.8 124.3 131.3 133.7 143.1 153.8 166.6 178.6 194.8 212.2 229.4 248.9 268.1 284.1 298.3 314 325.3 334.1 342.7 351.1 357.3
368.1 368.5 366.8 372.8 377.4 382.9 381.1 379.9 387.8 404.5 422.2 446.3 468.9 467.4 471.1 464.9 457 453.2 447 443.3 438.7 436.9 430.2 424.6 421.8 418.3 415.6 415.1 407 394.8 391.3 382.5 377.1 371.5 369 378.8 364.7 357.8 356.1 346.7 342.3 331.1 331.9 340.4 344.7 337.9 346.5 366.1 346.3 309.1 305.1 293.3 282.1 270.6 267.4 264.4 263.6 265.1 263.6 262.8 264.2 266.3 270.9 275.8 279.1 282 286 294.8 304.8 311.3 318.2 329.9 344.4 354.1 371.4 382.3 395.2 414.2 432 444.7 456.1 472.1 486.2 494.2 495 494 493.5 492.4 490.2 487.8 485.3 480.9 477.2 472 462.1 454.8 444.7 438.1 429.6 421.2 422.5 411.6 415.9 422 428.2 431.6 431.8 430.9 438.7 444.6 444 447 452.8 446.6 447.2 449.1 448.5 452.8 460.5 457.4 451.8 452.1 457.2 459.4 450.3 455.2 460.3 458.9 451.9 449.6 456.4 463.5 452.5 444.8 444.1 445.2 452.3 454.4 454.4 447.6 443.1 446.7 439.4 427.7 416.6 401.1 392.2 377 353.2 318.1 292.6 276.5 267.2 258.6 244 234.4 220.9 211.5 205.3 188.1 172.4 160.7 145.1 131.8 123.5 117.2 111.9 112.2 110.4 108.8 108.8 108.8 108.8 108.8 108.8 108.8 108.8 108.8 110.1 116.8 121.7 127 128.6 137.9 149.2 165.7 175.2 189.6 206.4 225.6 246.3 266.1 280.8 298.1 314.3 326.1 334.9 345.3 354.6 361.4
377.8 379 381.4 377.9 377.9 377.2 377.6 381 392.9 406.8 428.3 453.1 470.2 474.9 476.1 472.9 467.7 462.8 456.1 449.2 446.9 443.3 439.4 438.2 433.1 430.3 424.4 420.6 408.6 408.1 406.1 399.3 397.2 395 401.1 403.5 387.2 379.3 372.7 362 352.3 347.7 346.9 355.9 363.6 364.1 371.2 378.9 377.3 368.7 359 315.8 298.1 283.5 273.6 268.4 268.3 267.9 265 264.4 264.2 267.6 269.7 271.3 275.7 280 291.7 291.7 297.5 301.5 309.6 325.1 335 349.4 357.1 373.4 385.8 401.8 416.7 434.1 444.7 459.6 475 481.8 483.7 484.5 485 485.3 484.4 482 480.5 477.2 472 468.7 461.3 454.5 446.4 438.7 435 426.6 422.6 414.8 421.3 425.6 431.9 433.9 433.6 437.4 445.3 446.9 446.5 454.5 457 449.5 450 453.2 452.6 462.1 466 463.3 455 456.1 459.1 465.6 465.2 455.6 457.2 456.6 452.4 451.1 458.5 461.9 456.4 451.1 444.5 445.6 450.3 453.9 450.7 456.8 453.3 443.6 435.7 428.2 418 406.8 395.4 370.5 348.7 324 304.1 284.9 275.7 266.2 252.8 238.6 226.9 222.4 211.6 198.5 179.6 165.5 155.4 143.6 131.6 123.4 115.5 114.6 112.1 108.8 108.8 108.8 108.8 108.8 108.8 108.8 108.8 108.8 108.8 112.9 117.9 119 124.8 136.6 146.1 156.7 170.6 187.4 206.4 222.5 241.8 260.2 279.3 296.3 314 323.4 335.6 346 355.6 362.5
377.9 397.7 400.4 389.7 385.4 382.4 380.4 390.8 401.2 414.2 427.3 449.7 464 472.7 476.9 475.4 474 468.3 462.6 455.9 452.1 448.5 444.6 443.1 438.4 434.3 429.6 425.3 417.5 419.9 415.4 411.5 410.4 408.5 405 403.3 397.5 388.5 389 375.9 363.4 366.8 368.8 370 376.5 389.9 392.7 391.7 384.5 378.1 371.5 361.2 329.1 310.6 290.3 275.9 276.9 272.2 268 266.6 264.7 268.6 268.3 269.7 271.7 277.4 284.1 293.5 294.7 297.7 310.2 312.2 326 338.6 348.7 356.1 374.8 392.1 405.7 424.6 434 448.2 464.3 472 474.8 476 477.8 478.3 478.3 477.3 474.7 473.2 470.4 464.5 460.8 453.3 450 445.1 433.7 432.9 425.9 419.6 425 430.6 433.1 434.4 435.7 443.6 447.4 446.5 448.6 460.3 459.5 455.2 457.6 463.1 462.4 466.6 469.3 471.5 472.6 465.9 465.4 466.8 469.6 458.6 453.4 452.9 451.7 451.6 456 454.8 453.7 454.4 447.7 443.9 448.7 449 451.5 457.5 453.4 442.4 429.7 422.7 414.6 407.4 390.5 369.1 346 319.2 307.6 292.2 281.8 271.7 260.9 245.4 236.3 226.6 218 203.6 186.6 170.4 159.6 148.8 138.8 126.6 118.8 116.4 113.7 110.2 108.8 108.8 108.8 108.8 108.8 108.8 108.8 108.8 108.8 109.3 113.2 116.8 121.3 130 140.4 150.9 166.1 180.5 199.3 215.1 235.8 254.2 278.1 296.1 312.8 324.3 336.2 346 356.3 362.4
378.4 395.5 403.3 399.4 393.6 391.5 398.9 399.9 410.2 420.1 430.5 447.5 464.9 474.5 474.9 478.8 475.9 471.4 466.3 462.1 456.8 451.5 449.6 446.5 440.5 435.3 430.7 428.1 424.3 427.8 426 423.6 423.2 420.6 418.3 408.6 402.5 398.8 395.7 388.7 382.9 380.2 392 395.1 393.5 404.4 407 401.2 395.3 385.1 379.1 374.5 366.1 338.6 317 296.1 284 278.4 276.3 271.7 264.5 265.4 266.6 267.1 268.7 272.9 279.4 285.5 291.6 296 305.8 308.5 316.6 330.6 342 346.4 359.9 383.6 395.5 414.6 426.3 435.3 452.8 461.7 465.7 468.6 471.4 471.3 472.7 469.8 470.1 469.3 467.1 463.2 460.9 454.7 449.8 445.3 436.7 433.1 431.4 422.5 429.6 435.1 435.7 436.4 442.5 448.1 448.1 447.6 448.3 460.4 462.8 458.6 468.1 471.5 475.6 480 477.2 475.7 472 473.1 467.5 465.3 469 465.8 455.4 450 447.4 448.6 451.6 447.7 446.6 447.8 445.4 445.5 443.2 441.3 449.9 451.5 447.3 437.9 429.6 416.6 407.3 399.1 379.1 363.1 336.7 319.6 305.1 296.5 287.3 277.4 263 253.9 240.6 230.7 218.3 206.5 192.4 182 159.6 156.2 143.9 136.6 120.5 121.7 118.1 114.1 108.8 108.8 108.8 108.8 108.8 108.8 108.8 108.8 108.8 108.8 110.5 114 118.6 125.4 135.9 148.3 161.6 179.7 196 213.5 230.5 251.9 274.1 292.6 313.4 325.4 336.9 347.2 357.2 364.5
381.6 387 396.8 403.7 398.2 399.3 404.9 413.7 420.5 429.7 435.2 452.5 466.7 474.9 481.5 482.5 475.2 469.9 464.7 458.4 457.1 453.5 449.9 448.4 445.2 438.9 433.2 428.5 423.1 428.6 431.1 433.7 432.9 427.7 424.2 419 408.4 410.2 407.3 400.8 404.7 405.6 406.8 400.8 401.2 412.5 416.4 413.4 405.9 394.4 389.4 385 380.6 365.9 337.2 314.7 294.6 288.9 277.3 273.1 268.7 266.6 267.7 267.5 267.9 272.7 275 277.5 286 296.2 297.3 303.9 315.1 322.5 330.6 339.7 355.5 370.1 387.2 399.9 414.8 421.8 436.5 451.2 456.4 461 464 467.3 466.8 466.6 465.6 465.6 464.8 461.7 460 456 450.7 443.5 442 437 434.9 427.9 431.5 434.6 436.9 440.9 447.2 452.3 449.5 448.1 451 462.4 460.7 468.1 477 479.6 488.9 488.7 485.3 482 475.3 476.8 472 465 464.5 464.4 457.5 450.2 440.2 441 441.6 439 438.3 437 437.2 437.7 431.9 436.1 442.4 443 437.2 427.7 421.6 412.6 400 380.6 362.9 351.2 332.3 317.1 306.7 298.3 289.8 280.1 268.7 257.7 246.5 233.9 221.3 211 197.7 184.6 168.2 159.8 148.1 136.5 123.3 124.7 119.7 115 108.8 108.8 108.8 108.8 108.8 108.8 108.8 108.8 108.8 108.8 108.8 108.8 114.2 121.6 130.7 144.6 158.8 175 190.1 210 227.4 249.5 271.8 293.1 312.1 327 339.2 349.8 358.8 365.9
400.2 416.3 407.5 400 406.5 405.5 408.7 415 427.7 431.1 439.1 452.7 467.5 472.5 479.7 477 472.1 469.6 463 457 455.5 453.8 450.5 446.6 444.2 440.8 436.8 431.4 428.8 429 430.4 434.6 436.1 434.9 430.6 425.7 418.8 413.8 411.2 411.6 420.8 421.8 415.1 418.1 417.4 415.8 418.5 419.2 412.1 404.6 399.2 394.6 388 380.7 354.4 351.4 316.3 293.1 280.4 275.8 272.1 268.3 268.4 269.6 269.4 269.2 271.9 278.6 281.6 289.4 299.5 298.8 308.6 317.9 322.1 334.7 352.2 356.8 372.3 387.5 399.4 409.5 424.4 437.7 447.3 454.3 459.2 461.1 463.1 464.6 464.3 462.6 461.8 460.3 457.5 453.7 450.1 446 440.6 434.5 437.2 434.8 431.7 434.9 438.6 442.7 446.7 450.2 452.3 451.3 453.2 459.4 469.4 475.4 490.7 497.8 505.6 502.6 497.7 494.8 489.5 482.2 471.1 464.2 466 459.6 452.5 444.3 437.2 430.5 428 430 429.4 427.7 427.6 425.3 423.9 433.1 433.3 431.2 424.6 417.2 410.7 404.6 390.1 369.3 352.4 339.2 327.5 315.2 306.9 298.7 287.5 278.7 271.7 262.1 249.7 235.6 222.7 213.9 201.1 187.7 173.7 160.7 144.1 137.8 133.2 133.6 130.2 121.8 113.8 108.8 108.8 108.8 108.8 108.8 108.8 108.8 108.8 108.8 108.8 108.8 110 117.6 127.7 140.8 152.2 167.8 183.1 199.8 217.5 243 268.8 289.8 310.4 327.6 341.1 351.7 358.6 367
438.7 439.5 430.3 419.7 413.4 417.4 419.2 421.1 429.3 440.6 441.9 455.4 467.9 474.8 475 471.2 469.4 468.7 466.2 463 457.9 453.8 450 445.5 442 440.6 438.1 435.7 430.2 432.3 430.5 429.8 430.3 432.7 431.8 426 421 417.9 416 414.1 419.6 421.7 421.7 423.6 422.3 422.4 421.8 420.2 417.2 414 409.9 404.8 397.4 385.7 378 372.2 357.1 310 300.2 285.8 280.7 276.1 275 271 272.3 271 273.8 276.2 276.4 282.8 291.2 295 302.3 309.7 315.7 321.9 342.2 350.4 359.9 373.2 386.4 397.7 412.6 428.4 437.4 444.8 452.2 456.9 460.1 462.8 462.4 461.2 461.6 460 457.6 456 450.9 446.8 441 439.9 436.9 436.5 432.6 435.4 441.1 441.3 447.2 450.4 451.3 451.6 454.1 456.7 473.5 482.1 500.4 511.4 519.1 514.1 506.7 504.8 503 491.4 473.3 459.5 454 451.7 445.9 440.6 435.5 423 415.5 415.9 412.5 414.3 413.8 412.9 416.8 423.9 424.3 419 412.2 405.7 397.7 392.3 376.9 359.4 347.1 332.7 323.1 313.7 305.4 297.9 289.3 282.3 269.4 264 250.7 241.2 230 214.2 198 182.2 172.6 161.1 156.2 151.7 148 147.4 137.3 129.3 120.7 108.8 108.8 108.8 108.8 108.8 108.8 108.8 108.8 108.8 108.8 108.8 108.8 118.8 127.4 134.7 147.1 159.5 174.7 192.1 212.1 236.8 261.7 288.3 308 327.5 342.4 350.6 358.2 366.4
452.1 453.3 446.8 434.4 430.6 425 425.7 431.6 441.7 444.8 449.5 457.4 466.2 476.3 477.2 473.1 470.3 465 461.7 458.6 455.3 451.8 447.4 443.5 442.5 441 440.4 438.1 437.4 435.8 434.9 434.2 430.8 429 427.5 425.1 422.8 421 418.7 418.3 417.6 418.8 422.7 423.9 425.7 425.9 424.3 425.6 424 418.6 415.2 411.2 403.6 389.8 390.8 388.8 372.7 341.5 313.2 309.6 301.3 295.7 281.5 275.3 273.7 271.5 272.9 274.3 276.9 279.6 287.4 290.1 297.5 300.7 306.4 312.3 328.9 343.1 353.7 362 375.4 389.7 401.6 418 426.8 435.9 445.1 451 457.3 460.3 461 460.6 461.6 460.1 457.5 455.1 453.5 450.8 445.2 446 437.5 435.6 435.1 435.2 436.3 441.3 444.4 446.2 446.3 450.3 450.5 462 477 491.9 509.8 523.5 527.7 523.8 526 519.1 512.8 502.4 482.3 466.5 450.7 441.7 440 433.2 429 418.6 412.5 403.9 400.8 398.7 394.6 400.4 405.4 411 407.5 403.4 397.8 391.4 386.7 377.1 365.5 352.1 339.7 328.7 319.5 312.3 305.5 297.6 293.2 280.7 271 262.1 255.4 243.9 229.3 210.9 194.3 182.7 187.1 175 169.2 161.8 157.8 150.7 141.4 131.2 121.5 114.6 108.8 108.8 108.8 108.8 108.8 108.8 108.8 108.8 108.8 108.8 108.8 112.4 123.9 133 141.8 151.2 169.3 184.5 206 227.2 255.9 281.9 306.4 325.9 339 348.7 356.6 365
457.4 461.8 458.5 448.9 442.2 439.2 439.2 442.1 442.7 449 449.8 457.3 467.5 478.9 475.3 473.9 469.7 461.8 458.2 453.5 452.8 450.1 447.7 444.5 441.3 439.4 438.8 439 440 440.4 438.6 435 431.5 428.7 429.1 427 424.9 421.9 418.7 418 423.6 428.9 434.2 436.5 433.1 432.5 431.3 428.9 426.1 422.9 419.2 415.3 409.2 397.6 399 398.7 393.1 367.4 336.6 329.3 338.4 318.5 300.3 284.2 280.2 278.1 274.9 273.4 276.7 278.5 281.4 285.3 288.4 294.9 298.5 308.8 320.6 331.9 351 356.1 366.3 379 386 405.7 415.3 426.4 436.9 444.7 451.3 455.7 457.9 457.6 459 458 459.4 456.8 456.3 454.1 450.8 448.4 443.1 439.1 434 433.4 434.5 439.2 439.4 439.4 441.1 444.1 451.8 472.5 480.4 497.9 518.1 530.9 537.2 539 538.4 534.3 520.5 508.1 491 473.9 464.9 445 430.4 429.1 422.4 413.3 409.1 400.6 388.8 385.4 383.5 387.4 391.3 394 390.6 385.1 383.6 379.2 372 367.1 354.5 345.1 335.8 326.9 319.9 311.4 302.9 296.6 289.6 280.8 274.4 264 254.2 243.5 225 210.2 207.8 200.7 190.4 184.8 179.1 171.4 166.6 156.6 147.3 136.2 127.9 119.3 108.8 108.8 108.8 108.8 108.8 108.8 108.8 108.8 108.8 108.8 108.8 108.8 120 125.5 134.7 147.6 161.7 179.5 198.6 215.7 245.1 275.1 300.5 320.5 335.5 346 355.3 361.6
467.8 466.7 465.6 457.1 447.7 459.1 455.7 454.6 446 447.9 453.6 461.4 463.2 477.7 474.5 472.2 466.8 459.5 453.6 452.4 452.6 451.1 448.1 446.9 443.4 442.4 441.2 439.7 440.3 440.6 439.8 437.7 435.2 433 431.9 429.9 427.4 423.7 424.6 427.2 429 431.3 438.8 446 441.4 439.3 436.2 432.5 429.9 427.3 424.8 421.2 416.4 404.5 414.9 412 402.7 387.4 359.1 354.8 345 343 327 300.3 291.5 288.4 280.5 279.6 276.4 279 278.9 281.7 283.7 287.7 292.4 299.1 312 323.6 338.3 346.7 356.6 367.8 377.9 391.2 405.4 416.7 428.5 437.1 444.1 447.8 452.5 454.5 456.6 457.8 458 458.4 457.2 454.6 454.3 450.8 446.1 440.6 437.2 433.7 433.7 434.4 434.6 437.9 441.9 450.5 458.8 479.3 489.3 501 521.5 534.6 544.5 546.1 550.6 542.6 534.4 514.5 501.2 490.3 469.4 462.9 444 424.5 420.7 410.5 406.4 397.2 382.9 376.4 378.6 380.7 376.4 374.4 372.7 370.5 371.4 371.2 362 355.7 346.1 339.7 331.2 324.4 316.1 309.1 303 295.8 288.2 284.5 275.7 263.1 255.4 239.3 232.8 224.6 215.3 204.2 200.3 199.9 190.2 185.3 178.9 166.6 155.2 145.2 133.8 123.6 111.7 108.8 108.8 108.8 108.8 108.8 108.8 108.8 108.8 108.8 108.8 108.8 114.7 120.4 127.4 139.1 155.7 172.9 189.3 211.7 237.8 265.4 291.7 313.5 331.2 341.8 350.5 360.4
468.7 468.9 473.7 467.6 461.1 471.7 468.2 467.1 467.8 462.7 460.3 467.5 471.3 468.2 473.1 469.9 464.8 457.8 455.5 452.7 451.6 450.9 449.1 448.7 445.2 447.9 446.2 447.5 444.3 441.6 441.4 439.6 437.8 436 433.6 433.7 431.7 426.2 428.4 435.3 438.4 440.5 442.5 445.2 442.7 439.1 438 433.8 434.3 432.6 429.2 425.2 422.3 421.3 423.9 421.7 413.8 402.2 374.8 366.6 356.8 347.3 335.5 323.7 307.8 300.9 287.4 284.2 278.5 278 280.7 280.7 284 284.2 287.9 295.3 304.1 315 329.5 336.4 345.7 359.8 372.6 380.1 394.7 407.7 420.5 428.1 437.7 443.3 449.5 452 456.1 457.5 459.5 460.8 459.7 459 456.3 451.5 451.6 446.4 438.6 435 434.5 434 434.4 437.7 444.4 459.1 477.3 488.6 497.1 507.8 521.8 537.3 545.6 550.4 551.3 550.2 541.9 528.3 509.8 498.2 490.9 474.7 466.1 436.5 416.5 405.2 400.6 387.7 376.8 373.3 373.2 369.5 365.8 362.2 360.1 357 359.7 357.5 353.6 345.8 339.5 334.7 329.2 319.9 312.7 307.3 298.9 296.1 289.7 281.5 273 257.8 249.4 249 240.1 230.7 221.5 218.2 211.5 207.6 204.4 198.1 185.4 173.4 163.5 149 136.6 124.1 120.3 108.8 108.8 108.8 108.8 108.8 108.8 108.8 108.8 108.8 108.8 108.8 111.1 116.7 120.8 133.1 149.4 167.2 184.8 205.3 229.1 255.1 284.1 306.5 324.9 337 347.5 357.2
465.1 468.1 474.7 473.4 469.8 485.6 480.5 478 477.1 477.7 480 476.2 470 466 466.8 469.7 461.3 457.7 454.6 452.4 451.1 449.5 447.7 447.9 447.4 451.3 455.5 454.8 449.3 445.3 441.6 440.1 440.1 439.2 435 434.7 434 430.6 432.6 443.5 445.2 446.4 446.2 445 441.3 440.7 438.3 434.9 436.1 434 433.5 429.3 427.5 427.9 428.9 426.1 425.3 412 385.1 372.2 378.7 363.9 350.7 335.9 328.6 314.5 299.8 289.6 287 281.5 279.5 281.7 282.2 284 286 289.7 294.6 302.6 317.3 327.3 338.9 349.8 359.9 371.9 386.6 399.2 412 421.9 431.8 438.3 444.8 450.1 455.5 458.8 461.8 463.3 462.7 466.5 462.7 455.8 453.7 448.6 443.1 436.3 436.3 435.3 435.6 440.2 451.1 474 490.8 495.6 505.8 519.3 531 536.4 542.5 548.8 551.7 553.8 548.2 538.9 522.2 503.9 500.5 489.6 475 460 425.5 404.9 392.1 385.3 374.5 368.5 359.6 358.1 354.2 351.5 347.2 349.3 348 345.8 344.2 339.8 331.3 329.7 323.7 313.8 309.9 305.7 300.9 295.2 287.3 280.9 271.1 263.1 264.4 257.3 251.6 246.5 238 235.3 227.6 219.2 213.1 202.7 193.5 182.4 172.2 155.4 145 134.3 119.2 113 108.8 108.8 108.8 108.8 108.8 108.8 108.8 108.8 108.8 108.8 108.8 110.2 118.7 130.7 143.5 159.2 176.3 194.1 217.1 242.9 272.1 295.3 317.1 332 343.1 350.9
465.8 465.7 469.2 472.6 469.9 490.4 489.3 486.5 489.7 491.2 493.6 490.6 485.8 475.1 470.1 468.1 458.2 459 453.8 451 450 447.9 447.4 447.4 449.3 456.1 459.9 459.7 457.5 453.9 448.4 444.3 441 438.9 436 432.3 432.5 432.1 437.9 444.6 448.6 447.7 446 444.3 442.9 440.3 437.7 435.4 435.1 435 433.1 433.5 430.8 429.7 429 422.9 421.9 403.9 405.1 397.4 394.8 389.3 375.6 353.6 339.1 315.2 307 295 291.4 284.5 283.1 281.4 282.9 284.1 285.3 286.8 294.1 300.4 306.4 320.4 333.5 338.4 350 365.1 381.8 392.7 404.1 416 426.3 433.4 441.4 448.4 454.1 458.4 461.2 463.5 465.9 466 464.6 461.1 458.4 452.2 445.8 439.5 437.5 438 437 447.4 464.1 482.5 495.2 504.5 512.9 527.8 541.4 547.1 549.1 553.9 556.6 558 556.2 547.1 536.4 518.9 510.2 504.1 489.1 467 441.1 407.3 391.4 385.7 382.3 371.4 360.6 348.3 347.3 340.8 341.2 339.8 337.6 337.4 334.2 329.9 327.1 320.4 316.1 310.3 306.8 303 298.5 289.9 283.8 272.7 275.1 269.8 268.6 260.6 259.5 260.3 252.6 242.2 237.1 230.3 219.4 209.2 200.7 189.3 176.1 163.8 147.7 135.6 124.6 117.4 108.8 108.8 108.8 108.8 108.8 108.8 108.8 108.8 108.8 108.8 108.8 108.8 113.4 124.7 136.6 151.6 170.3 186.4 204.2 228.9 256.5 283.1 303.8 322.3 334.8 345.7
463.9 464.6 463.7 467.6 469.7 489.9 490.8 491.1 498.2 505.3 504.3 499.3 494.5 490.1 475.5 465.2 458.9 454.9 454.1 451 449.4 448.7 448.4 453.6 459.1 463.6 463.4 461.5 460.5 457.9 451.4 449 447.3 442.8 435.1 432 432.2 433.4 435.9 443.4 449.6 450.8 449.5 445.8 442.9 440.2 439.5 436 435 434.8 434.1 433.4 434.4 432.1 428.7 423.3 419 418 414.7 412.7 401.4 400.8 398.5 379.7 348.9 335.1 318.7 308.6 296.6 291.3 286.4 282.2 285.1 291.3 289.4 287 288.4 293.9 303 314.7 326.7 334.8 349.5 364.9 376.5 385.5 397.1 410.2 420.2 430.3 438.7 446.5 452.7 456.6 461.4 464 466.1 470.1 468.8 464.3 462.4 458.3 452.2 443.5 441 441.5 437.9 452.4 468.2 481.6 490.5 511.6 520.6 531.7 548.5 556.3 559.4 562 563.8 562.6 562.7 557.8 544.7 531.9 521.8 513 502.8 483.4 450.3 423.7 396.3 388 388.2 374.9 356 354.1 335.6 335.2 334.1 332.8 331.7 328.6 327.2 325.5 323.9 313.5 308.8 306.4 304.3 299.3 293.8 285.1 284 282 277.3 273.8 272.3 272.3 268 268.6 260.7 256.5 245.5 235.9 227.8 216 209.6 197.5 181.3 167.6 152.1 142.4 133.6 125.1 114.8 108.8 108.8 108.8 108.8 108.8 108.8 108.8 108.8 108.8 108.8 108.8 108.8 119.9 131.8 145.3 161 178.2 197 217.7 243.7 268.4 292.4 310.8 325.2 337.6
460.7 460.5 457.4 457.4 462 481.1 486.8 491.8 496 504.7 506.3 504.6 500.8 496.4 486.8 471.5 463.5 460.7 455.3 450.8 447.9 447.9 454.3 460.5 465 471 476.9 470.5 464.3 458.6 455.3 453.4 451.2 447 440.4 434.5 433.2 435.9 441.2 440.7 445.4 445.9 447.6 446.6 444.5 440.3 438 436.5 436.2 436.1 434.4 434.4 435.2 433.8 431.9 426.4 421.8 417.7 415.9 414.6 409.4 407.7 399.1 392.7 380.8 357.3 341.9 336.5 318.9 303 295.9 294.1 292 294.4 292.6 291.2 291.3 294.1 303.1 310.9 319.9 335.3 346.9 357.1 369.3 382.4 390.1 402 413.3 425.5 437.5 443.6 450.8 456.7 461.8 467.6 473.8 472.4 472.3 471.5 469 463 455 447.8 443.1 441.5 439.1 451.3 469.3 475.1 491.1 510.5 523.4 534.3 549.9 564.4 564 567.1 570 572.9 569.2 567.7 556.6 544.4 531.9 522.9 511.7 493.7 465.9 431.2 404.6 391.2 386.1 382.1 351.4 343.1 337.9 326.5 326.5 322.2 323.3 319.8 317.2 314.7 316.5 309.7 300 301.9 298 296.3 296.5 294.5 292.2 284.2 283.4 280.8 279.4 280.9 281 275 270.3 260.8 254.6 245.7 232.4 223.7 214.8 205 189.2 170.8 160.5 151.6 139.8 129.6 115.5 108.8 108.8 108.8 108.8 108.8 108.8 108.8 108.8 108.8 108.8 108.8 108.8 115.6 124.6 137.9 151.9 168.2 186.5 206.7 231.2 255.8 278.4 297.9 313.7 328.2
453.8 453.1 452.3 450.1 453.4 469.8 476.5 487.2 491 499.3 501.1 505.8 504.1 501.2 491.2 480.7 471.4 465.9 460.5 455.4 452.2 453 455.3 456.9 464.1 470.6 478 475.5 470.4 463.9 465.3 465.3 456.5 449.9 445.3 439 436.2 442.7 450.4 451.1 444.5 446.6 447.3 445 443.1 441.6 439 436.5 437.5 435.7 434.5 433.8 435.4 434.2 432.8 432.3 430.7 420.7 418.3 414.5 412.2 403.7 396.2 393.3 397.4 390.3 374.5 371 354.9 364.7 351 318.7 304.7 298.1 297.2 296.9 295.7 292.9 303.6 307.9 315.6 329.7 342.3 356.9 368.5 380.3 387.6 398.5 410.6 420.6 435.1 442.3 447.4 454.3 464 469.9 474.1 476.9 476.1 474.7 471.9 467.1 458.7 450.4 446.8 442.5 442.2 448.2 456.4 475.3 491 508.1 522 531.7 546.7 561.7 571.8 577.6 578.2 580.4 580.4 575.7 567.2 555.6 545.5 534.9 520.6 501.2 479.9 446.7 416.2 395.2 387 368.7 356.9 340.3 332.9 322.5 314.2 310.8 314.5 310.4 307 305.9 309.6 307.2 303.2 297.1 296.4 296.1 301.1 298.6 295.6 291.6 291.2 291.6 291.1 290 288.1 285.5 277.4 271.2 258.2 252.9 244.1 231.7 218.7 209.5 198.1 178.3 169.1 160.2 149 132.3 120.4 112.4 108.8 108.8 108.8 108.8 108.8 108.8 108.8 108.8 108.8 108.8 108.8 108.8 118.5 130.7 145.9 160 180.2 196.1 216.2 240.2 265.1 286 302.9 317.2
448.5 444.7 441.7 437.5 445.7 458.3 467.7 476 481 490.7 495.5 502.4 504 499.6 493.3 487.5 483.8 474.4 470.4 467.5 463.2 461 458.5 460.6 466 471.9 476 475.3 475.1 476.3 473.5 473.3 464.5 455.3 448.4 445.7 448.7 453 456.3 454 450.1 446.3 445.2 443.9 441.7 441.3 440.5 439.5 437 435.7 434.8 433.9 435 434.1 432.8 433.9 433.6 424.1 416.7 419.9 419.1 416.7 407.8 402.4 408.1 411.2 411 420.7 403.3 380.6 365.7 346.5 325.6 309.9 307.9 302.6 299.5 295.5 300.2 306.4 312.9 327.8 337.8 350.6 362.8 373.8 384.5 394.7 403.2 419.6 427.2 438.3 445.6 456.7 463.8 470.9 474.3 477.2 476.2 476.4 472.4 470.3 462.3 455.1 448.9 445.9 447.9 449.1 450.6 475.6 483.6 504.9 516.8 530.3 542 554.8 574.5 583.8 585.6 587.2 587.1 586.6 580.3 569.2 558 543.9 530.1 509.2 483.5 461.6 433.8 402.2 385.7 359.6 350.9 340.6 327.6 310.2 305.7 304.4 306 306.7 304.3 300.4 303.5 304.2 303.1 299.2 296.9 299.7 300.7 302.4 299.6 297.2 299.7 300.7 305.3 306.8 312.5 292.9 284.3 277.8 269.4 260.8 250.7 235.8 226.9 219.1 203.7 185.6 175.8 165.7 157.9 138.9 127.3 121.1 112.8 108.8 108.8 108.8 108.8 108.8 108.8 108.8 108.8 108.8 108.8 108.8 108.8 123.2 136.9 152.9 170 186.1 204.3 229.3 249.9 270.1 289.2 305
442.5 435.3 430.6 426.3 431.9 444.7 449.3 464.3 471.7 483.1 490.1 495.5 498.2 498.3 496.5 496.3 494.8 490.1 478.9 476.1 471.4 467.7 469.4 467.3 468.9 476.5 481.3 480 483.6 485.8 487.4 488 484.3 474.4 468.2 464.3 463.8 465.4 465.1 459.7 454.2 449 444.5 442.9 440.4 439 438.6 437.6 435.5 434.8 435.1 435.7 432.3 431.3 433.7 431.1 433 421.9 419.8 423.2 425.4 426.8 420.1 421.3 421.6 421 418.9 422.1 422.6 405.7 388.3 371.7 344.6 324.6 320.6 311.5 304.9 299.6 299.6 305.4 315.7 325.1 337.4 348.4 360.3 372 387.9 389.8 399.5 417.9 426.7 438 444.9 456.1 462 470.1 471.7 476.5 478.6 475.9 474.4 472 465 458.8 451.9 451.2 449.9 448.2 451.7 463.9 481.3 495.3 506.2 522.3 540 548.2 570.1 580 587.9 592.4 594.1 595.6 589 580.3 569 552.1 536.7 517.7 489.5 465.3 444.6 420.8 396.2 367.7 352.5 338.6 327.9 308.5 302 302.2 300.6 303.2 298.6 298.6 304.6 302.8 300 299.4 296.7 300.2 304.1 304.8 305.3 305.1 308.7 315 321.6 329.8 324.1 307.3 292.3 283.3 276.2 267.8 257.6 247.1 235.1 225.9 210.2 198.9 186.9 175.8 163.7 145.8 136.5 129.4 123.7 117.1 108.8 108.8 108.8 108.8 108.8 108.8 108.8 108.8 108.8 108.8 108.8 112.4 129 146.9 159.8 179.1 193.1 214.1 236.5 258.4 275 293.2
430.2 426.2 421.9 415.9 420.8 435.4 439.6 453.6 461.7 473.6 479.6 484.2 489.7 499.2 499.6 503.3 499.8 497 487.7 479.8 476.8 478.1 478.2 477 477.2 477 478.8 483.2 493.9 496.6 498.7 501 500.4 492.8 484 488.3 484.3 476.9 468.3 462.9 460.9 454.7 450.6 443.7 441.2 441 438.9 438.2 437 436 435.1 433.1 429.4 429.4 431.1 431.8 428.2 425.6 426.1 431 440.1 440.6 436.5 431 433 443.5 439.4 431.8 430.2 431.3 430 404.6 363.4 332.8 324.1 317.2 309.8 299.8 302 306.9 312.9 323.4 334.3 343.4 355.9 367.4 378.7 396.1 406.3 423.6 427.5 433.6 441.3 453.5 462.1 469.2 476.6 480.3 479.7 476.6 474.9 472.6 467.4 461.1 453.4 450.8 447.8 449.7 450.6 461 469.7 484.8 493 506.2 526.4 539.5 561.6 578.2 590.4 598.8 601.3 603.4 600.8 591.7 577.8 560.6 545.3 526.3 491.6 473.2 458.8 437.2 407.4 385.5 362.9 344.7 327.7 313.6 300.3 300.2 298.5 298.6 298.6 303 302.9 304.9 298.3 296.7 296.9 300.9 306.5 308.9 309.7 314.2 320.5 325.5 337.6 343 332.6 318.4 302.1 289.5 282.9 275.6 268.4 256.1 245.5 229.2 221.2 213.4 197 181.9 163.1 151 145.5 135.7 129.8 120.8 109.8 108.8 108.8 108.8 108.8 108.8 108.8 108.8 108.8 108.8 108.8 108.8 124.2 137.2 151.5 166.2 183.9 199.7 222.4 244.1 259.9 279.3
417.4 418.8 415 408.6 408.6 425.2 425.9 444.3 453.6 466.4 474.6 481 492.2 501.6 503 509.9 506.2 502.6 499.1 492.7 493 492.7 489.4 482.8 488.9 488.4 489.6 485.5 494.6 504.7 507.6 511.6 506.5 500.6 502.3 503.4 498.2 486.4 471.6 468.1 466.1 460 452.5 449.7 447.3 445.7 443.1 442.9 439.9 437.6 436.9 432.9 429.8 429.9 429.4 429.8 431.5 428.8 433.3 446.7 460.4 461.9 461 453.5 446.8 455.2 461.2 449.6 438.1 436.8 435.1 428.5 396.4 358.8 333.1 321.2 314.2 308.7 302.4 307.6 310.7 318 331.1 341.2 352.4 364.4 375.3 386.9 399.4 412.4 424.7 429.2 441.5 456.3 463.4 470.3 476.3 481.9 481 477.4 475.3 472.3 467.2 461.2 456 449.9 447.7 449.4 445.5 451.5 461.3 468.9 478.5 497.3 519.5 536.5 554.7 574.1 591.9 604.4 605.9 605.9 606.2 601.6 589.1 569 556 535.8 508.6 484.4 467.5 453.5 437.6 400 381.6 359.1 327.6 313 301.1 298.8 298.6 298.6 298.6 298.6 301.8 302 299.5 300.1 302.2 303.4 307.2 313.7 317.7 320 328.9 337.4 344.7 345.3 339.1 327.4 308.3 295.1 289.9 282.6 273.4 264.6 252.4 238.3 229.7 221.9 203.8 185.6 168.4 158.5 150.5 143.9 135.9 123.9 118.8 115 108.8 108.8 108.8 108.8 108.8 108.8 108.8 108.8 108.8 108.8 112.9 127.1 143 157.8 176 187 206.6 228.7 247.4 262.3
407.2 415.3 413.6 408.3 408.3 417.9 420.6 441 453 466.5 474.8 482.8 496.6 504.2 506.7 514.5 514.2 511.8 510.1 511.1 505.7 502.9 503.9 503.8 500.1 502.9 500 502.1 509.1 510.3 515.8 521.2 517.5 511.6 509.9 507.6 501.1 490.6 478 473.8 471 462.9 458.9 457 447.4 448.5 449.6 449.4 445.5 441.6 435.9 434.4 431.1 430 429.4 430.8 432.3 431.8 440.7 463.3 478.8 489 487.2 482.7 461.2 468.4 467.1 471.2 458.8 453.5 448.7 441.6 419 396.8 361.6 334 322.4 313.8 313.7 307.6 309.1 316.5 327.4 337 349.2 361.2 377.7 385.6 399.4 404.2 421.4 427.9 443.6 458.5 470.4 480.9 480.8 480.9 481.1 479.1 476 473.9 467.4 461.4 456.8 452.5 449.8 445.5 445.5 445.1 453.4 455.9 465 484.5 511.3 527.7 547 568.3 588.7 601.9 605.9 607.5 608.2 606.9 601.7 581.5 567.1 546.9 522 498.5 478.5 466.6 447.4 428.7 397.2 357.3 326.4 305 299.3 299.3 298.6 298.5 298.6 302.2 298.6 300.8 303.4 302.4 302.2 306.2 312.1 315.7 321.4 327.1 336 344.9 350 349.1 341 333.7 319.3 304.3 294.7 287.9 278.2 271.9 262.4 248.4 236.6 227.1 217.7 193.7 174 166.8 157.8 145.9 138.8 132.1 125.5 117.2 108.8 108.8 108.8 108.8 108.8 108.8 108.8 108.8 108.8 108.8 111 124 135 149.3 161 178.6 191.6 211.7 232.3 245.4
402.9 411.1 408.3 408.3 408.3 408.3 419.1 438.8 455.1 465.6 474.3 482.8 499.1 507.2 510.4 517 524.8 528 534 533.6 531.9 530.6 529.6 524.4 521.4 518 520.1 521 528.8 534.4 531.6 526.6 524.6 518.2 512.9 508.7 505.6 494.9 484.4 480.9 474.8 471 462.4 456.7 451 452.6 458.2 454.4 451 444 439.3 435.1 432.4 430.7 429.4 434.5 433 433.6 454.6 480.3 499.4 499.8 500.1 494.7 478.3 473.2 475.5 473.7 469.1 460.6 453.4 443 430.4 413.1 383.6 347.4 330.6 321.2 321.6 319.4 311.9 316.4 329 337.3 344 361.8 382.7 393.6 397.1 405.3 421.9 440.3 459.7 469.2 474.3 483.2 488.6 487 483.6 480.6 476.2 474.7 469.1 463.2 458.1 453.7 450.2 445.5 445.5 445.5 445.5 445.5 456.6 474.2 496.7 519.2 540.2 561 582.1 602.1 605.3 607.3 609.6 612.5 606.5 594.1 578.5 557.8 538.4 516.1 491.6 474.7 460.5 440.1 411.2 350.8 314.8 302.5 299.8 299 298.8 298.6 298.6 298.6 301.3 302.4 302.5 304.3 306.4 310.1 314.7 321.1 329.3 337.9 341.8 352 356.9 355.3 345.9 337.9 326.1 315.2 302 293.9 286.8 278.6 269.4 259.8 245.5 237.3 218.9 203.5 187.5 176.6 165.4 149.8 146.2 138.2 131.6 120 108.8 108.8 108.8 108.8 108.8 108.8 108.8 108.8 108.8 108.8 111 120.7 128.2 140 152.7 164.4 180 192.5 214.1 235.5
403.1 406.4 408.3 408.3 408.3 408.3 412.6 439.9 457.2 469.2 475.6 483.2 497.2 504.4 510.2 523.5 533.8 540.7 546.2 549 549.3 549.4 544.1 537 533.1 534.6 537.6 542.7 547.8 555.4 552.1 543.3 529.5 524 518.7 513.6 507.8 499.8 490.1 486.7 481.5 476.8 468.9 458.8 459.3 461.5 459.2 457.5 452.8 446.7 441.4 435.4 434.5 431 431.8 437.8 436.8 442.7 469.2 491.7 501.9 502.8 504.4 500 492.1 479.3 476.5 474.8 470.4 462.6 453.9 442.1 427.9 416.4 395.8 364.6 350.3 337.2 334.7 327.3 319.2 315.2 330.5 338 353.7 360.4 378.4 389.5 394.7 408.9 420.1 443.1 467.3 477.5 475.8 483.4 490.7 491.5 487.4 481.6 476.6 475.3 471.7 464.5 459.5 455.6 450.7 445.5 445.5 445.5 445.5 445.5 450.3 468.4 484.6 508.2 532.2 553.3 574.5 595.8 601.1 605.2 610.5 610.3 606.4 594.9 582.4 566.9 551.4 532 508.1 486.1 467.8 447.9 414.6 348.8 317 303.5 303.3 299.3 298.7 298.5 298.9 300.1 300.5 302 302.5 308.2 309.7 313.9 318.7 326.4 334.3 344.2 352.1 356.6 364.2 360.1 351.7 341.6 331.5 321 310.4 303 292.8 285.9 277.5 264.6 257 241.5 228.3 211.7 200.1 183 170.8 162.6 152.7 143.8 132.7 121.4 108.8 108.8 108.8 108.8 108.8 108.8 108.8 108.8 108.8 108.8 108.8 119.4 125.9 135 144.1 146.5 158.2 179.7 198.4 222.6
411.4 409.5 408.3 408.3 408.3 408.3 409.6 439 450.6 462.1 469.8 479.4 491.6 506.1 510.7 523.8 539.7 547.8 553.3 556.7 563.1 562.8 557.8 556.7 553.6 551.2 554.7 561 563.8 566 564.6 559.1 540.3 527.7 522.6 519 512.7 505.3 498.1 494.7 487.9 482.7 476.4 468.5 465 466.5 464.6 459.3 454.3 448.6 442.2 442.4 439.3 436.9 443.7 449.3 447.7 456.3 477.2 490.6 498.8 502.6 504.2 501 493.7 487.8 474.9 472.9 466.1 459 450 438.9 427 418.1 403.3 374.8 375 366.4 351.1 336.9 327 318.2 327 340.3 356.6 371.5 377.5 384.4 395.7 402.6 415.4 442.8 470.7 482.1 486.8 492 493.7 494 490.5 483.6 478.4 475.9 472.4 467.8 461.4 456.8 448.7 445.5 445.5 445.5 445.5 445.5 448.6 464.8 477.9 495.2 519.7 543.3 567.7 587.9 595.9 601.7 611 607.9 602 593.7 581.5 568.6 559.1 543.1 519.4 495.8 472.2 447.2 410.1 345.3 312.4 304.3 301.4 299.9 299.3 298.9 298.9 301.3 302 302.7 305 310.8 312.9 318.7 324.8 331.4 339.5 345.4 355.3 361.8 365.9 362.9 355.1 346.4 337.1 327.3 320.3 310 301.1 291.9 284.5 274.1 263.1 247.9 231.4 226.5 209.4 190.4 183.6 170.2 160.9 147.8 135.6 122.9 112 108.8 108.8 108.8 108.8 108.8 108.8 108.8 108.8 108.8 108.8 117.8 123.8 129.2 137.6 149.3 158.8 171.8 191 208.3
412.6 412.5 408.3 408.3 408.3 408.3 408.3 425 440 448.4 463.8 474.7 489.5 508.7 512.1 523.3 536.1 548.4 557 567 574.8 576.2 575.8 576.7 574.9 574.3 574.3 575 576.9 577.4 573.3 563.2 547.1 536.1 527.4 522.6 515.3 508.4 503.3 498.9 494.1 485.5 481.4 475.3 471.3 472.2 468.2 462.8 454.2 451.1 446.8 446.1 443 444.7 447.5 458.8 461.2 471.6 483.6 492.4 499.9 505.8 503.9 500.7 491.9 488 478.2 469.4 463.2 455.3 447.4 436.4 425.7 416.7 404.9 382.4 381.9 371.7 355.5 342.4 334.5 325.9 332.4 345.1 370.2 377.4 385.1 387 394.3 400.4 417.2 443.1 465.2 483.4 490.1 502.1 501.7 498.8 494.8 488.2 481 474.9 471.7 468.3 463.2 457 447.5 445.5 445.5 445.5 445.5 445.5 445.5 451.6 467.6 491.1 508.3 537.5 561.9 576.1 587.8 594.6 605.9 603.6 597.5 589.7 578.2 569.4 563.8 550.4 530.6 503.1 468.9 427.4 372.8 340.3 308.4 306.3 302.3 299.8 299.3 299.5 303.2 302.6 303.7 303.3 307.8 310.4 312.6 319.8 329.6 340.4 347.4 356.8 365.6 369.9 367.8 365.8 355 347 339.4 335.7 328.9 321.5 308.2 301.3 292 282.6 270.3 256.2 242.2 232.3 215.6 202.8 191.4 179.1 164.9 152.4 137.1 127 116.8 108.8 108.8 108.8 108.8 108.8 108.8 108.8 108.8 108.8 110.9 116.3 123.5 127 135.3 144.4 153 167.9 182.1 198.7
413.7 409.5 408.3 408.3 408.3 408.3 408.3 414.4 425.2 438.1 458 469.4 482.9 499.9 509.6 516.1 529.4 539.3 555.7 569.4 579.9 579.3 585.9 588.1 590.5 589.5 589.4 589.5 588 586.9 580.3 565 554.2 542.8 529.5 521.7 515.9 509.5 501.3 496.9 495.7 491.3 485.6 483 479.4 477 471.4 464.4 456.8 451.3 447.5 450.9 449.5 448.4 452.3 465 473.7 481 488.7 495.5 500.6 506.2 503.3 498.4 491.3 489.7 476.2 467.1 460.7 452.6 445.4 438.1 426.1 415.5 407.9 391 384.2 375.7 364.6 354.6 345.6 339.2 336.2 354.1 373.9 381.4 388.7 394.3 397.3 405 424.5 452.7 465 481.3 490.2 501.5 503.7 501.2 497.1 493.1 483.8 476.9 469.9 466.3 462.3 456.6 448 445.5 445.5 445.5 445.5 445.5 445.5 446.1 463.6 495.2 512.8 536.5 556.8 568.9 580.2 589.2 597.1 595.9 593.4 584.2 571.1 565.2 563.8 554.8 537.5 500.8 446.7 401.1 366.7 333.5 314.7 308.2 303.8 299.8 299.5 302.9 306.1 304.6 305.8 304 311.6 314 318.1 324.5 336.6 345.4 354.1 362.1 371.5 376.9 378.6 369.1 360.6 355.9 349.3 342.9 336.8 326.3 318 310.6 298.7 290.9 279.9 265.1 249.1 235.4 226.2 209.2 196.9 184.3 172.8 154.7 141.6 131.3 122.3 116.3 108.8 108.8 108.8 108.8 108.8 108.8 108.8 108.8 110 115.2 120.1 123.8 131 140.1 151.4 161.7 178.7 193.8
410.5 406.7 408.3 408.3 408.3 408.3 408.3 408.7 413.9 433.3 453.5 464.2 476.2 490.3 497.8 503.3 512.3 522.3 538.1 559 573.4 576.4 588.2 593.1 599.5 604.1 603.3 603.2 599.1 595.2 584.2 568.6 557.8 546.6 531.3 521.7 513 508.4 498.9 499.4 497.6 493.5 488.8 486.4 483.7 479.7 473.4 467.3 460.8 452.3 448.5 454.4 457.3 455.2 455.2 469.9 481 489.6 495.5 501.5 504.5 509.1 506.8 500.1 491.8 487.9 473.6 466.7 464.3 454.6 445.7 434.8 426.4 416.2 407.8 398.3 388.3 383.4 372 362.3 354 342.3 341.9 360.7 379.2 397 403.4 403.2 403.9 418.9 442.1 458.8 469.5 485 490.5 498.9 500.1 499.8 496.9 493.5 488.8 481.8 474.7 466.7 462.1 455.3 449.6 445.5 447.4 450.7 445.5 445.5 445.5 457.8 477 497 516 532.1 551.6 562.9 570.9 582.3 588.5 586.6 583.4 574.3 562.9 559.2 558.9 553.1 541.6 489.1 420.9 380.6 354.9 330.3 318.8 310.5 306 301.5 301 302.3 306.1 304.9 304.7 305.9 312.1 316.2 322.1 328.9 340.2 350.7 360.2 368.2 378.7 387 381.1 374.3 368.1 363.2 357 346.9 342.5 334.3 325.3 315.8 306 296.7 287.9 271.8 255.7 244.2 231.5 217.2 203 185.8 170.9 157.3 147.4 136.4 125.1 116.7 108.8 108.8 108.8 108.8 108.8 108.8 108.8 108.8 108.8 114.6 117.1 121.3 126.4 136.1 144 157.7 171.2 184.9
413.9 411.7 412.3 408.3 408.3 408.3 408.3 408.3 412.2 427.9 443.3 454.8 466.4 476.4 480.3 486.6 493.9 503.9 517.6 541.5 561.6 569.6 583.4 592.2 606.3 615.2 619.2 620.2 613.3 600.7 589.2 572.8 563.7 548.4 531.1 522.1 507.3 500.9 497.7 495.7 492.7 491.2 489.3 487.9 486.5 482.7 476.7 470.7 462.9 454.2 455.8 460.5 458.9 456.2 458.6 472.7 485 495 497.5 504.8 512.9 514 509 503.1 492 482.3 468.9 470 465.7 456 448.3 438.8 427.1 421.1 411.3 400.6 396.1 388.2 381.5 367.9 358.7 348.8 350.4 364.1 380.9 402.6 417.9 420.9 421.8 427.9 447 461.3 472.6 485 492.6 501.2 495.6 495.7 494 491.9 486.2 482.2 472.7 467.1 459.6 457.4 451.9 445.5 447.9 454.6 456.7 448.9 454.2 466.3 485.5 501.1 516.8 531.2 544.7 557.3 562.9 570.2 574.9 575.4 570.6 563.3 553.9 552.1 550.9 547.8 539.4 463.8 401.1 365.6 348.1 331.7 318.3 312.5 307.4 302.7 303.8 305.7 309.4 304.8 307.3 307.1 311.3 317 327.2 336.3 346.7 356.2 366 378.1 387.3 389.2 388.5 380.7 376.2 367.4 361.3 354.4 346.4 338.1 331.4 322.7 312.1 300.4 289.5 276.1 258.5 248.4 238.8 225.8 211.3 193.3 176.6 164.1 151.7 136.5 127.2 119.8 109.3 108.8 108.8 108.8 108.8 108.8 108.8 108.8 108.8 112.7 116.1 119.6 124.7 131 140.4 151.1 166.2 180.3
417 416.5 414.8 407.6 408.3 408.3 407.4 407.7 413.5 424 434.5 445 456.2 462.2 464.5 468.5 476.3 483.6 493.1 514.2 543.9 563.1 577.1 585.9 603.3 622.1 631.6 633.4 626.3 614 596.6 579.7 568.7 555.2 535.2 518.8 509.1 500.7 495.5 494.2 489.8 488.9 489.1 487.8 487.6 482.5 479.1 474.7 466.7 459.2 460.7 466.5 465 462.7 464.6 477.7 490.7 496.2 498.5 509.3 519 520.6 518.1 502.6 490.9 479.8 472.4 472.4 464.9 458.9 448.6 442.2 430.7 421.9 412.6 406.4 399.5 391.2 382 374.8 364.5 353.1 351.9 369.6 384.5 407.1 426.1 432 434.2 436.4 450.5 468.1 477.7 486.1 492.8 498.5 496.5 494.3 493.3 489.7 486.1 480.8 474.8 468.4 461.5 451.2 449.1 445.5 447.2 451.6 461.9 464.7 467 474.7 488.3 505 518.7 532.2 541.2 547.4 554.6 559.1 560.6 555.2 550.2 545.9 541.7 539.5 536.8 527.4 494.1 431.7 387.8 356 342.8 329.7 318.8 313.4 307.4 308.9 308.8 307.9 306.3 307.9 309.3 310.6 316.8 323.2 330.5 341.5 352.2 362.5 371.3 383.1 393.7 393.7 392 388.7 380.8 374.7 370.3 358.6 352.4 344.3 336.3 329.4 319.7 307.6 293.3 283 268.4 252.4 241.4 228.9 212.3 192.4 179 166.2 153.1 143.4 133.1 122.7 114.4 108.8 108.8 108.8 108.8 108.8 108.8 108.8 108.8 112.1 115.3 118.5 122.2 127.9 137.5 147.4 159.1 174.6
419.5 417 414.8 410.6 408.3 413.2 409.6 411.1 420.9 423.5 428.2 442.9 446.4 442.4 446.1 454.2 456.9 457.7 471.5 496.1 528.9 553.3 573.4 582.2 590.4 616.8 643.3 641.6 636 626.7 606.6 587.6 573.1 559.7 543.3 529.3 513.7 503.7 494.9 490.7 489 490.8 490.4 488.1 483.2 480.3 479.3 475 468.8 462.4 459.3 466.7 468.7 472.1 481.7 480.8 494.9 499.7 507.9 514 524.7 526 517.5 506.6 496.2 481.9 476.7 473.3 466.3 461.5 451.4 441.8 432.8 423.2 415.7 407.9 402.6 393.9 388.5 382.7 373.1 356.7 359.2 371.5 393.3 412.9 435.5 445.5 444.6 444.9 447.4 468.5 485.3 491.1 498.2 502.8 500.8 501.2 492.8 488.7 484.4 480.8 473.3 469.1 461.4 454.8 445.6 445.5 446.5 458.1 467.3 472.4 477.2 484.3 491 506.6 525.8 534.6 539 538.7 542.4 540.9 530 516.6 515.3 514.7 516.7 517 517.8 503.6 449.4 408.8 376.3 349.8 337.6 329.1 321.6 316.9 310.8 312.6 308.3 307.4 307.3 309.9 315 317.3 322.9 327.5 335.1 346.4 357.7 368.6 379.5 389.7 398 401.3 397.3 391 385.9 379.8 373.6 365.8 357.8 352.6 342.3 334 325.2 313.4 301.1 290.1 275.5 264.9 247.8 228.1 208 193.7 183.4 172 159.4 149.6 138.9 127.9 118.3 108.8 108.8 108.8 108.8 108.8 108.8 108.8 108.8 109.9 113.1 116.3 121.2 126.5 132.8 145.4 156.5 170.9
425.9 423.2 423.9 422.2 416.8 418.9 413.7 416.7 427.5 425.6 428.5 439.6 442.6 441.2 441.2 441.2 441.2 441.2 455.2 477.1 509.5 535.3 562.7 580.6 589.5 610.4 646.2 647.1 644.5 636.1 618.7 597.9 578 563.2 548.2 534.7 518.5 509.6 498.6 491.7 490.7 489.3 489.7 487.9 484.1 479.4 477.6 474.4 470 464.4 463.2 470.1 485.1 487 490.9 489.6 497.5 508.6 518.5 526.9 531 528.8 519.6 510.1 502.7 486 479.4 476.5 469.4 460.1 453.9 443.8 435.1 428.7 419.1 409.5 406.5 400 392.2 385 376.4 366.4 369.9 386.1 398.2 418.5 443 448.8 451.6 456 460.9 473 490.4 498.6 503.7 509.2 512.2 512.3 502.6 493.6 485.2 479.6 473.4 469.8 462.7 455.8 449.5 448 443.8 453.4 461.8 474.9 479.4 484.7 491.8 509.7 525.9 537.9 539.4 532.5 523.4 509.7 492.9 486.2 483.8 487.3 489.3 492.2 492.5 483.8 445.5 396.2 362.6 345 335.3 330.6 321.3 318 313.5 312.5 310.6 310.1 311.6 314.8 322.4 323.4 328.9 335 340.4 352.3 362.5 373.7 383.6 393.2 402.4 405.4 405 398.2 389.8 385.1 377.1 370.8 362.9 358.7 349 338.8 329.3 319.9 309.5 294.1 282.2 268 251.6 235.3 215.1 199.9 187 177.1 164.5 153.4 142.6 132.4 122.8 114.2 108.8 108.8 108.8 108.8 108.8 108.8 108.8 108.8 108.8 114.7 119.5 125 131.3 141 151.4 164.5
429.2 428.8 429.9 431 428.3 427.1 419.5 422.9 427.1 427.7 434.7 441.6 442.4 441.2 441.2 441.2 441.2 441.2 448.9 464.8 493.7 518.8 554.1 583.3 588 609.8 645.7 647 649.8 638.1 622.8 605.3 585.2 563.4 549.3 536.3 521.7 510.6 499.9 491.5 487.6 486.3 487.2 484.2 483.2 478.8 478.4 475.2 470.2 467 467.4 475.4 492.4 500.9 510.7 505 503.5 518.7 524.4 530.8 537 537.5 526.4 513.7 501.6 488.6 480.3 471.5 466.3 456.4 453 440.6 436 426.2 424 412.9 405.9 406.1 397.6 392.6 384.1 366.2 377.8 390.7 403.6 423.8 436.4 445.6 453.1 453.8 464.3 475.2 493.2 498.4 504 516.2 519.3 519.9 515.9 508.2 500.7 486 475.3 469.9 464.8 460.3 452.6 446.5 440.9 445.2 452.6 464.8 474.6 486.3 492.9 507.5 523 534.5 537.8 518.7 499.8 482.3 467 459.9 453.9 455.1 454.3 459.1 459.7 451 416.6 383.3 355.7 341.1 333.8 329.2 323.5 318.2 314.8 315.5 311.6 315.2 316.7 318.1 324.4 329.9 332.6 339.6 348.2 358.4 368.8 378.6 389.4 399.6 407.7 412.6 409.5 404.2 396.8 388.7 381.2 374.7 369.5 362.6 352.9 345 333.2 322.4 311.2 298.6 285.3 270.7 257.6 241.6 223.2 206.1 191.7 178.6 165.7 156.6 147.3 138 127.8 118.2 108.8 108.8 108.8 108.8 108.8 108.8 108.8 108.8 108.8 110.8 116.2 122.3 128.9 138.9 149 159.1
433 432.7 431.6 433.5 432.9 430 423.8 424.9 430.3 429.9 436.6 445.1 447.6 441.2 441.2 441.2 441.2 441.2 441.2 457.9 482.7 507.3 550.8 587.8 593.1 614.2 636.3 644.7 650.3 638.3 623.3 608.9 589.9 566.2 550.7 535.5 522.6 512.3 498 489.3 486.6 480 481 479.5 480.4 477.2 476.9 473.3 472.1 472.6 479.9 488.2 498.7 507.7 520.8 522.6 528.2 528.3 535 534.6 546.6 544.2 535.5 516.7 503.5 488.7 481 471.8 467.4 454.6 452.7 439.4 437 428.2 420.6 414.8 411 405.2 402.9 396.4 389.5 375.5 385.1 396.2 410.6 424.1 434.1 444 452 454 471 479.2 492.5 499.6 505.3 519.8 528.4 533.6 526 521.6 512.3 496.9 480.5 467.1 460.5 451.8 448.5 438.8 435 438.2 443.4 456.3 467.8 480.3 489.8 501.7 509.2 519.6 519.5 497.5 473.7 456.6 445.3 431.1 427.5 424 421.2 423.7 426.4 419.4 406.1 370.3 351 339.7 334.1 328.1 325.9 319.4 316.4 317.7 314.5 320.9 320.8 322.8 327.3 333.2 339 346.4 354.4 364.6 373.4 383.7 392.9 403.5 414.8 416.3 412.3 406.8 401.6 395.8 386.2 379.6 376.2 371.9 360.7 352.4 340.2 328.4 316 302.5 287.6 275.1 260.3 242.7 226.7 212.3 193.3 181.6 168.8 159.1 150 138.1 129.1 121.2 110.3 108.8 108.8 108.8 108.8 108.8 108.8 108.8 108.8 108.8 112.6 118.4 126.8 135.5 143.7 152.6
438.1 439.7 443.9 436.5 434.8 431.4 425.2 428.3 437.4 438.9 441 449.9 446.2 441.2 441.2 441.2 441.2 441.2 441.2 450.7 471.9 496 535.5 580.8 594.9 620.2 635.3 642.7 649.6 641.4 620.9 610 591.7 570.5 552.5 538.8 523.4 512.2 498.3 491 484.1 480.7 478 475.8 474 473.8 473.1 472.8 476.3 484.1 489 499.1 510.1 516.9 533 535.7 540.2 544.2 538.5 541.6 548.8 543.5 535.9 520 504.5 492.7 483.3 474.6 463.6 454.8 452.2 444.3 429.6 426.3 421.6 416.4 409.6 407.8 407.5 399 393.9 383 389.7 398.2 409.6 423 431.4 445.6 450.8 462.2 480 489.9 493.8 503 520.7 535.1 536.4 534.6 533.9 531.9 525.4 504.6 487.6 470.3 455.8 446.5 438.7 428.4 424.3 430.8 437.1 446.9 456.8 468.5 473.2 482.2 490.6 497 486.7 473.8 457.3 438.1 419.7 410.4 407.6 398.2 396.2 397.7 394.7 397.1 387.5 360.7 347.3 339.3 334.2 328.8 324.8 318.8 321.6 319.1 323 325.8 326.2 326.9 332.2 339.7 346 354.6 362.3 371.2 379.7 388.7 398.6 410.7 417.1 421.7 415.5 409.2 405.3 399 390.6 383.9 380.6 377 366.6 357.6 345.7 333.2 321.9 307.4 290.1 271.7 257.3 243.2 229.9 213.5 197.7 182.4 171.9 161.9 151.6 142 132.2 124.3 115.7 108.8 108.8 108.8 108.8 108.8 108.8 108.8 108.8 108.8 111.6 117.9 123.2 130.9 140.8 150.6
443.8 443.7 446.5 444.6 439.3 435.9 433.6 431.9 440.8 448.5 448.4 445.9 444.8 444.6 442.9 441.3 441.2 441.2 441.2 442.9 462.1 485.9 522.9 569.8 583.6 604.1 627.6 640.9 650.4 642.3 618.8 605.8 592.7 575.6 557.5 543.9 528.7 513.7 498.5 493.7 484.8 480.8 475.7 473.5 473.3 472.7 473.6 476.4 482.3 488.7 494.1 509.4 523.6 528.5 533.9 540.8 551.3 556.6 551.6 543.6 541.9 543.7 533.5 522.7 512.1 494.2 487.1 473.6 463.6 456 455.5 446.1 433.7 426.9 420.3 413.6 411 409.4 408.1 411.6 400.8 384.3 389.2 401.3 416.3 425.9 436.7 444.4 450.7 469.9 486.6 491.6 499.4 506.3 530.8 540.6 541.1 546.8 543.9 546.4 538.1 510.9 487.8 466.3 449.5 436.7 423.4 417.3 412.1 417.2 427.7 432 439.2 451.5 454.9 459.2 466.3 470.1 454.2 448.4 443 426.9 399.5 395.7 391 385 380.6 380.2 379.3 377.2 367.5 351.8 344.3 337.1 332 328.1 323.9 319.4 321.4 323.2 329.1 332.6 332.2 334.1 337.7 343.8 354.3 361.4 369.1 374.4 383.1 391.6 400.5 412 419.2 423.2 419.1 414.1 410.3 405 398.4 391.3 385.7 381.7 371.1 361.8 350 339.2 326.5 310.4 292.8 277.7 261.8 247.3 229.3 218.2 203.6 186.3 174.7 166.5 154.1 143.7 134.5 126.4 117.8 108.8 108.8 108.8 108.8 108.8 108.8 108.8 108.8 108.8 110.6 116.6 121.5 129.5 137.3 146.7
450.8 448.2 449.9 446.1 444.9 439.9 437.9 434.5 439 446.5 454.4 452.3 443.6 448 448.4 443.2 443.2 441.2 441.2 443.4 457.1 479 517.1 550.7 563.4 575.8 610.1 631.7 646.2 641.1 618.4 602.4 592.3 576.2 559.3 547.3 533.4 520 507.4 495.9 485.1 481 476 473.9 473.3 473.2 473.6 477 482 488.7 500.9 514.9 531.8 539.8 542.2 546.8 562.3 569.4 564 552.2 539.1 538.3 534.6 530.4 515.4 496.5 487.4 477.1 468.9 454.8 451.7 444.6 437.4 430.1 420.6 413.3 410.5 408.8 408.1 405.4 402.7 395.3 398.5 402.3 411.7 429.2 440.3 441.6 452.3 471.7 486.4 497.1 504.4 513.9 538 548.5 550.4 550.9 554.4 563.6 555.1 515 483.5 461.5 443.5 429.3 419 407.4 401.9 402.9 406.1 415.8 422.3 435.1 440.4 439.9 443.7 444.3 437.1 436 428.1 414.4 393.4 391.5 386.8 378.7 373 371.5 366.6 362 353.4 346.7 337.5 332.5 330.2 327.1 324.8 321.9 326.7 329.3 333.1 337.5 338.4 338.3 342.6 350.4 359 368.8 375.2 380.9 388.4 396.3 405.1 414.6 418.8 422.9 421.5 415.9 414 412.7 401.6 396.3 390.5 387.4 378.3 368.1 356.8 343.4 331.1 316.1 300.2 285.7 266.9 251 235.9 220 209.5 192.8 179.8 169.3 155.8 145.5 136.5 125.9 119 108.8 108.8 108.8 108.8 108.8 108.8 108.8 108.8 108.8 108.8 114 118.8 126.6 133.6 144.6
460.2 454.7 449.9 448.9 448.6 446.7 442.5 438.9 446.4 449.6 453.7 453 446.1 450.7 446.2 447.3 446.8 441.2 441.2 441.2 452.6 475.2 511.8 535.2 546 552.5 583.2 621.1 640.2 637.4 624.9 606.4 592.1 577.1 562.5 552.2 537.9 524.4 510.5 493.7 484.7 481.6 476.7 473.9 474.9 473.1 479.6 483.5 483.7 490.7 502.9 513.3 531.2 543.5 551.8 555.1 565.8 573.2 568.1 556.4 542.1 537.5 537.3 532.3 520.9 500.7 489.7 478.4 476.3 459.3 453 443.8 431.4 426.7 421 411.5 408.9 411.7 411.2 412.9 409 399.7 406.5 412.7 420.1 434.1 445.3 448.9 457.3 478 490.1 511.5 520.7 534.6 543.1 550 553.3 568.5 576.7 577.6 561.7 510.8 475.8 454.2 434.1 420 408.8 397.8 393.8 396.1 394.7 392.9 403.2 414.1 424.5 424.2 428.3 425 426 424.6 414.5 402.1 386.6 385.4 382.4 374.4 367.8 363.9 358.4 354.5 347.9 342.5 332.9 328.5 326.1 325.5 323 326.6 327.6 331.9 337 339.1 342.1 345.3 349.2 355.8 362 372.4 379.2 385.8 394.5 399.5 407.4 414.9 420.5 422.4 422.4 418.4 416.5 413.8 406.7 399.7 394 389.1 379.9 371.4 362.7 348.9 337.4 324.6 309 294.3 276.5 258.2 240.3 225.4 212.6 196.5 185.2 173.9 159.8 148.3 137.3 128.1 118.8 112.5 108.8 108.8 108.8 108.8 108.8 108.8 108.8 108.8 108.8 110.7 117.2 122.1 128.7 138.9
459.1 455.3 451.1 449.5 450 448.2 446.7 444.5 447.3 454.6 457.7 456.7 456.1 453.3 452.9 452.1 447.5 444.4 441.2 441.2 450 476.4 502.7 521.4 529.7 537.7 572.5 608.7 628.7 633.8 623.9 610.6 592.6 577.4 563.5 557.2 540.9 528.8 513.2 497.4 490.3 483.5 480.3 476.9 485.9 480.6 485.1 490.5 489.4 490.8 500.2 512.1 528.3 542.7 552.7 562 564.7 566.9 567.3 563.6 555.4 544.5 540 536 522.6 504.5 492 484.3 472.3 462.8 449.5 449 432.8 425.1 416.1 419.3 419.9 414.5 415.9 415.9 410 409.7 418.1 418.3 426.2 446.2 451.1 461.4 464.8 480.4 499 522.4 533 542.4 553 555.2 560 574.9 583.7 587.4 568 512.6 463.8 444.2 423.9 409.1 397.7 391.5 390.1 389.6 387.2 387.2 392.1 400 406.2 411.4 413.9 414.6 416.3 411 406.7 396.7 379.7 376.4 373.7 364.5 360.7 359.5 354.2 348.3 342 338.7 331.3 326.6 324.4 324.5 327.8 327.8 328.3 332.8 338.6 341.1 345.9 351.1 355 361 368.3 374.8 384.3 391.4 399.6 404.7 409.9 415.6 420.3 423.9 423.3 420.5 420.2 416.2 410.3 404.3 398.8 393.1 385 376.7 366.8 355.3 345.2 332 315.8 299.7 280.7 265.2 247.3 229.9 217.6 203.1 188.8 176.5 163.8 153.9 140.2 130.7 123.2 115.5 108.8 108.8 108.8 108.8 108.8 108.8 108.8 108.8 108.8 110.9 115.3 119.5 126 136.5
457.1 452.6 450 449.6 449.3 449 449.7 447.5 450.1 454.2 457.4 456.6 455.4 455.4 456.4 455.1 449.6 448.2 442.6 441.2 448.9 470.8 493.6 513.4 521.9 529.4 566.5 594.6 611.7 629.3 621.8 611.9 598.3 581.2 567.6 561.3 545.8 532.5 518.6 504.4 495.7 484.1 478.5 481.4 490 489.9 490.3 494.8 492.4 494.4 497 510.4 524 537.7 552.1 561.5 562.2 564 562 563.4 557.7 548.5 543.4 537.1 519.9 506.5 494.5 480.9 470.3 460 449.7 450.7 438.1 424.5 425.2 443.2 421.8 424.1 419.2 416.6 411.4 418.5 422 426 433.1 440.5 464.1 462.9 466.1 489.5 511.2 525.6 536.5 548.7 557.2 559.9 568.6 576.1 578.7 583 564 517.9 467.2 431.8 415.3 401.9 394 391.6 388.6 387.2 387.2 387.2 387.2 391.9 396.5 400.2 404.7 406.9 402.9 401.8 396.4 386.6 375.4 364.9 364.3 360.3 353.1 350.4 345.6 341.6 337.8 335.6 331.4 326.1 324 324.9 325.5 327.9 330.1 334 337.7 343.9 348.6 353.6 358.8 364.3 370.2 378.5 382.3 394.5 402.3 407.9 413.9 419.7 421.2 422.4 424.3 423.9 420.9 418.2 414.2 409.7 403.4 395 389.2 381.7 371 362.2 352.6 337.7 323.9 303.6 285.2 271.9 258.2 235.1 218.8 203.9 191.8 178.1 168.8 155.2 144.1 135.5 126.2 119.6 113 108.8 108.8 108.8 108.8 108.8 108.8 108.8 108.8 108.8 112.3 116.2 123 130.8
455.7 456.7 455.4 455.2 450.6 454.1 456.9 451.6 454.2 457.2 457.1 455.6 458.2 461.2 457.4 454.8 449.9 448.7 444.5 443.1 452.5 470.7 489.2 508.2 518.6 524.8 556.8 583 599 622.7 618.8 614 605.2 589.9 572.8 560.7 548.3 533.1 523.8 509.7 507.1 491.4 492.3 487 489.2 492 499.1 499.9 497.1 498.9 504.2 507.1 523.7 537 548.4 556.1 558.3 563.2 559.3 557.2 551 541.3 537.9 531.5 516 504.2 492.5 481.3 467.9 461.8 449.7 446.9 434.1 423.3 445.5 450.3 434.7 422.9 418.9 416.2 411.8 418 424.7 430.9 431.8 460.6 469.3 467.5 484.2 499.8 519.7 528.4 538.5 553 559.5 563.7 568.8 572 574.7 583.1 560.6 518.1 472.5 433.3 407.5 395.3 390.9 393.4 390.5 387.2 387.2 387.2 391.1 392.3 393.7 393.6 394.8 396.4 396.8 391.6 392.1 380.5 370.3 358.2 357.9 354 350.1 346.6 342.7 338.8 334.4 335.9 328.7 325.8 326.1 325.3 324.9 326.3 330.2 332.5 338.1 343.9 350.6 355.2 358.9 364.1 372.1 379 388.2 396.6 406.6 412.6 417.2 422.9 425.3 426.5 425.6 424.6 423.5 421.3 416.2 413 407.3 400.8 391.5 385.3 377.9 368.8 359 345.4 328.1 312.4 294 276.8 263.9 248.6 223.4 206.2 194.9 183.3 172.2 158.1 146.1 138.1 129.6 123.6 116.1 108.8 108.8 108.8 108.8 108.8 108.8 108.8 108.8 108.8 108.8 114.8 118.8 126.7
454.5 455 460.4 462.4 463.5 465.1 459.2 457.9 458.1 460.1 462.5 465 467.3 466.3 461.6 466.5 457 460.7 466.9 467 471.1 481 494.3 506.6 514.4 529.3 558 579 598 614.7 624.8 626.2 611.7 594.4 578.9 562.1 547.2 535.7 525.8 516.8 506.3 505.3 498.8 491.7 492.6 492.5 500.1 501.8 501.7 502.5 506.8 511 524 542.4 546.8 549.8 551.2 556.7 555.4 549.6 541.5 534.2 529.5 523.3 509.9 501 489.1 477.5 467.2 456.9 449.1 443.5 434.7 442.4 451.9 452.9 436 423 416.7 418.2 419.9 420.5 425.2 430.2 449.6 463.4 469 481.8 502.9 510.9 524 534.2 548.7 560.4 568.2 571.5 574.1 571.5 576.3 580 562.6 519.2 474.7 444.9 408.5 396.5 392 392.1 389.1 387.2 387.2 387.2 388.1 394.6 395.2 393 395.5 394.4 392.2 392.3 386.7 376.7 366.3 350.4 345.6 347.6 346.1 343.6 338.2 333.8 332.2 333.1 328.5 328.6 326.2 324.8 324 324.5 328.5 329.6 336.2 342 348.3 354.5 362 366.8 374 382.5 389 400 406.6 413.8 420.3 424.5 430.6 432.8 431.8 428.9 427.4 423.4 418.6 415.8 410.7 403.4 396.1 388.3 380.9 373.8 363.6 351.4 333.3 318.6 302.7 282.3 267.9 250.6 230.6 212.6 193.9 183.4 173 160.5 150.8 139.7 130.7 123.1 117.8 108.8 108.8 108.8 108.8 108.8 108.8 108.8 108.8 108.8 108.8 111.1 114.7 119.7
453 452.8 457.4 462.1 470.4 470.3 469.4 461.5 465 464.9 469 472 468.1 467.7 466.8 471.2 465.7 473.5 486.1 483.6 494 502.5 511.2 517.1 526.6 536.8 555.7 572.3 588.3 609.8 621.5 632.9 622.6 605.3 586.2 570 555.8 542.7 531.3 522.2 510.1 506.2 502.1 496.7 493.4 494.5 494.5 498.3 497.8 503.7 503.5 512 524.1 544.5 545.9 546.5 552 552.7 547.7 543.2 537.8 526.2 519.8 510.9 504.1 495.6 486.9 475.4 467.3 456.6 451.3 444.7 444.5 446.8 449.9 445.4 436.3 426.1 417.3 422.7 421.3 423.4 428.7 442.3 461.6 468.4 475.6 495.3 501.9 514.2 528.3 541.6 554.5 570.4 584.7 584.3 579.9 575.7 574.9 567.6 551 517.1 475.4 456.8 416 399.1 394.9 393.3 390.1 388.7 388.3 387.2 387.2 387.2 388.3 390.2 392.2 392.5 391.5 396.1 386 378.8 373.2 354.5 342.6 339.3 339.6 339.2 337 336.4 336.5 332.5 328.2 327.3 325.7 322.3 321.8 323 325.6 329.3 334.6 340.5 347 354.9 366.8 374.6 381.1 389.5 398.5 402.5 408.7 416 421.8 426.8 432.7 437.5 438.2 436.1 433 428 421.6 417.7 412.8 407.2 399.6 390.5 383.9 376.1 367.7 355.1 341.5 325.8 307.7 293.6 271.8 252.6 234.6 215.9 195.6 182.1 173.3 163.3 151.3 141.6 133.9 127.7 120.9 110.7 108.8 108.8 108.8 108.8 108.8 108.8 108.8 108.8 108.8 108.8 111.1 116
449.6 450.3 457.4 463.9 464.8 464.3 469.8 467.4 472.9 480.1 477.4 472.4 470.2 470.5 474.6 478.6 479.3 488.7 497.2 507.1 516.5 524 530.9 527.5 537.1 544.5 556.2 565.3 581.1 603.6 616.9 633.3 627.7 616.6 602.5 587.5 570.8 564 542.8 524.3 515.2 502 496.6 493 493 494.3 495 497.1 496.5 500.7 504.9 513.9 528.3 541.6 543.3 546.5 552.3 549.2 545.4 535.8 528.8 519.7 514.7 506 501.1 494.7 486.6 475.7 466.1 456.1 450.2 446.1 445.4 444.2 446.3 442 434.4 428.7 420.9 422.1 423.4 427.8 442.6 453.5 467.4 474.2 488.6 500.7 508.8 519.9 534.7 550.9 571.9 588.4 603.3 606.7 596.4 586.4 575.5 556.5 540.5 514 472.8 459 433.2 406.7 397.7 396.2 394.4 392.1 390 390.9 387.2 387.2 387.2 387.2 387.2 387.2 391.9 391.9 384.1 387.3 384.8 369.4 348.2 341.6 336.9 336.6 336.5 336.6 339.6 332.9 326.4 324.8 322 318.9 324.1 322.7 324.5 329.3 332.6 339.4 345.8 353.3 360.4 372.6 381.5 395.5 404.9 408.9 411.7 417.5 423.4 428.8 434.1 437.9 439.6 436.4 436.3 434.7 426.7 421.5 417.2 410.7 402.5 395.1 386.7 378.9 370.3 360.8 348.2 325.5 313 299.8 286.7 260.7 232.8 214.6 194.7 182.1 173.7 164.1 151.7 142 136 128.1 122.1 116.5 108.8 108.8 108.8 108.8 108.8 108.8 108.8 108.8 108.8 108.8 108.8 115.2
