ncols 200
nrows 200
xllcorner 270000
yllcorner 900000
cellsize 50
220.6 220.7 220 218.8 218.2 214.8 214.5 217.9 223.8 228.8 228.1 226.1 224.4 220 213.7 205.8 200.5 196 186.9 181.9 177.3 171.1 170 169.7 163.9 154.8 150.2 146.6 143.6 141.1 139.4 139.8 136.4 132.5 128.4 130.1 130.7 129.9 132.6 134.3 133.5 129.7 129.8 129.8 130.9 132.8 135.8 135.9 137.4 142.8 150 156.1 164.1 172.2 177.7 183.5 190.4 196.9 202.7 208.9 215.1 219.9 224.9 228.7 231.9 236.1 243.4 250.3 252.1 259.5 265.8 268.1 264.6 263.6 268.5 270.9 267.2 259 252 246.7 239.1 232.1 224.6 217.8 214.6 211.7 211.7 211.7 211.7 211.7 212.7 213.8 213.1 212.9 213.3 215.1 217.3 217.4 217.7 219.3 221 222.9 223.6 225.5 226.4 229.3 230.8 230.8 230.3 229.5 228 226.1 224.5 221.9 219.3 217.1 215.1 211.6 207 201.1 198.8 195.6 197.2 200.8 200.9 197.1 194.5 192.3 189.2 186.5 181 174.3 168.3 167.2 163.9 164.4 162.6 161.6 156.7 154.1 154.2 149.9 145.6 143.8 141.6 139.7 136.5 134.1 132.2 130.6 128.2 128.4 126.7 127.7 127.5 124.7 122.1 118.1 115.4 109.9 105.9 101.6 97.5 92.3 89.5 83.9 78.3 72 65.8 63.3 79.9 79.4 78.8 77.8 76.5 76.4 81.3 87.4 89.3 92.5 96.9 99.7 101.1 103.8 106.2 107.7 111.2 112 112.6 112.1 112.5 115.7 116.7 118.8 119.4 121.9 124.6 127.8 130.8 133.9
219.9 213.4 212 211.2 210.4 207.8 206.2 204.5 204.7 209.8 212.2 212.2 214.7 212.7 205.5 197.8 193.2 189.7 186.1 181.1 178.1 174.6 171.1 167.5 164.1 158 151.5 147.9 145 143.6 139.8 137 136.1 133.5 131.2 127.2 129.3 129.7 129.7 128.1 129.6 128 129.1 128.7 128.4 129.9 131.6 132.9 134 136.1 143.2 151.2 157.7 164 170.7 176.4 183 190.7 196.5 201.4 206.1 211.7 217.7 222.3 225.7 230 232.9 235.7 242.6 244.7 246.6 249.4 251.5 255 259.5 264.1 266.6 263 253.4 245.1 236.8 229.8 223.1 218.6 214.8 212.7 212.2 213.9 214.8 214.5 215.4 217.1 217.5 218.1 218.1 218.1 217.7 217.6 216.6 215.6 216.6 217.1 216.9 216.4 217.2 217.8 218.9 219.2 218 216.6 216 214.2 211.5 206.1 200.5 197.5 195.2 191.3 186.2 182.1 179.1 177.6 178.8 182.8 179.9 174.9 176.1 174.2 171.1 165.9 160 156 150.6 148.8 148.4 150.5 150.1 146.7 145.3 143.8 144.2 144 139 136.4 137.1 133.7 133.1 131.3 129.6 129.1 125.4 124 123.7 124.1 122.1 120.2 118.7 115.7 111.9 108.7 105.1 101.1 97.8 92.6 89 82.9 77.7 71.7 67 65.1 66.3 84.7 80.9 78.4 79 80.8 84.7 91.3 94.7 98.1 100.5 102.2 104.3 106.7 108.9 111.5 113.1 113 113.2 114.2 115.4 118.6 119.8 120.4 120.1 121.8 124.4 129.4 132.1 133.2
222.4 215.2 209.8 208 206 203.9 202.9 199.2 197.2 194.9 194.9 198 200.4 203.9 198.2 193.2 188.5 184.9 182.6 180 176.8 174.1 169.4 165.4 161.2 156.7 151.5 147.9 145.3 143.5 141.5 140.8 137.4 134.6 132.5 130.3 126.9 128.6 128.4 127.1 126.8 128.6 125.2 128.7 125.5 128.3 129.7 131.3 132.7 133.4 136.9 144.3 152 159.1 165.2 170.1 176 183.6 192.2 197.6 202.3 206.1 209.7 213.9 218.5 222.6 227.4 231.4 234.2 234.3 235 236 241.1 244.9 243 247.3 250.9 252.3 248 242.9 233.8 225.3 218.6 213.7 212.8 213.3 214.7 217.5 219.3 219.2 219.2 220 220.3 221.2 221.3 221.3 220.6 219.6 218.2 213.8 210.7 209.8 210.1 210.3 209.6 208.5 208 206.3 204.3 202.5 201.8 200.2 196.9 190.1 183.1 179.6 176.7 171.8 166.3 162.3 159.7 157.1 156.5 156.8 155.3 154.8 153.4 153.1 149.6 146.7 144.3 139.8 138.2 135.7 136.1 137.9 135 135.6 133.2 130 132.9 131.5 127.6 127.5 127.9 128.6 126.5 126.2 127.8 122.5 123.6 123 121.2 120.4 119.3 117.1 115.6 113.2 109.3 107.7 103.9 100.1 97.8 93 86.8 81.4 75.5 70.4 66.8 65.8 65.2 84.1 84.6 82.2 83.2 85.5 90.4 94.3 97.7 99.7 102.3 105.1 108.2 110.6 112.5 113.1 114.3 115 116.1 115.2 118.2 119.9 120.9 121 121 123.4 125 128.8 131.9 132.9
222.5 215.5 211.6 208.6 207.1 204.5 199.6 197.2 195.7 195.8 192 191.6 192.2 189.8 188.2 187.3 184.6 180.2 178.4 177.4 176.6 174.6 168.1 164.8 162.7 157.7 152.1 149.1 145.8 143.7 142.8 140.6 137.6 134.5 132.9 131.4 130.2 126.5 127 125.8 125.6 124.2 124.3 123.6 123.1 124.2 125.1 127.2 129.8 131.6 132.4 137.5 145.5 152.2 158.5 165.2 170.5 176.2 183.6 191.1 196.7 201.4 205.5 208.7 212.5 216.8 219.8 223.4 228.6 231.3 232.4 232.5 232.4 232.5 235.9 235.9 234.4 238.2 237.7 232.2 226.6 221.3 216.8 211.8 212 214.8 216.9 219.5 222.8 225.2 225.8 225.2 224.5 224.4 224.5 224.6 224.2 224.1 222.8 218.9 216.5 210.7 204.9 198.3 198.1 200 198.7 196.3 193.8 190.4 187.8 184 180.8 173.9 167.4 163.1 158.6 153 147.8 143.5 141.5 139.1 132.7 132.1 132.8 131.6 129.6 130.9 128.8 126.4 124.8 122.7 120.2 121.3 121.4 121.7 119.8 120.6 118.7 115.7 115.7 118.7 117.5 116.8 117.9 118.6 117.1 115.4 116.5 117 117.9 118.2 117.7 114.4 113.6 112.3 110 106.7 104.4 101.8 99.7 95.6 92.8 90.3 82.8 77.6 72.8 69.4 67.6 65.9 67.6 87.8 86.9 85.8 87.9 91.1 93.9 96.9 99.6 102.3 105.5 108.1 112.1 113.4 114.5 117.6 116.7 118.6 119.2 117.9 119.8 121.4 121.3 121.8 123.8 122 125.8 125.9 129.7 131.9
220.3 216.1 212 208.1 206.8 202.8 200 198.8 195.2 192.9 190.9 188 186.3 184.1 181.9 180.6 176.4 173.3 174.3 173.1 174.7 172.3 170.1 171.4 171.5 168.8 161 152.4 147.7 144.1 142.3 139.9 137.2 136 133.3 131.8 129.1 128.5 125.9 126.2 125.5 123.7 124 123.4 122.8 122.2 122.8 123.3 124.8 128.1 129 135.3 140.1 146.7 153.2 158.6 165.5 172.7 177.5 182.5 189.8 195.6 199.1 203.2 207 210.7 214.2 216.6 220.3 224.3 228.1 229.5 232.2 230.8 229.3 226.7 225.3 224.7 224.6 220.4 217.2 216.5 212.6 208.8 212.8 216.1 218.5 221.3 225.3 227.9 230.6 231.7 230.5 228.5 227.5 228.9 228.6 228.6 228.6 226.8 223.9 221.2 216.4 212.5 207.2 200.3 195.5 185.8 176.2 179.7 175.9 170.4 166.3 158.4 152.3 147 141 133.2 127.8 123.5 119.4 116.3 114.5 113 115.8 111.7 112.6 112.4 105.9 104.6 104.6 105.5 103.6 106.2 106.4 107.3 102.3 103.9 105.1 103.1 104.4 104.5 104.9 102.1 102.9 105.7 104.9 104.8 104.4 104.6 106.5 105.4 105.9 105.6 106.8 104.9 102.5 99.2 96.3 93.8 91 86.5 83.5 82.8 79.4 75.1 70.5 68.7 67.7 67.6 70.2 89.4 89.1 89.6 91.6 94.7 97.8 100.1 102.7 106.4 109.2 111.9 114.2 116.6 117.2 118.6 120.9 122.5 121.8 120.8 122.6 124.4 123.6 123.7 124.1 122.9 123.1 124.4 126.5 130.7
219.5 216.1 209.8 204.5 203.1 200.9 197.9 196 194.5 193.4 191.5 189.5 185.7 183.3 178.4 175.4 173.9 170.6 169.4 168.6 167.5 167.3 167.8 170.9 172.1 167.4 161.5 156.3 150.3 146 143 141.2 138.1 136.5 133 132.1 129.8 128.4 127 127.2 126.5 125.6 123.2 123.2 122.3 121.8 121.7 121.8 123 124.6 125.5 131 135.8 141.2 146.6 150.7 158.7 166.1 172.7 177.7 183.8 189.4 194.4 197.7 200.4 203.5 206.5 209.4 214.5 218.6 222 225.2 229.3 232.2 231.7 229.4 222.9 217.8 216.1 214.8 216.2 212.9 208.7 206.3 208.3 211.6 215.4 219.4 223.7 228.1 230.5 233 234 232.6 232 233.7 234.6 234.6 234.3 233.1 230.6 228.9 226.5 221.2 214.8 208.3 201.8 193.6 177.5 153.6 167.1 163.2 154.6 147 141.2 132.8 127.1 119.7 113.8 109.5 106.7 106 103.1 100.2 97 93.8 93.7 94.9 86.4 87.7 88.7 90.6 92.1 95.7 97.5 93.3 92.4 90.3 91.5 89.3 89.7 89.8 88.6 88.6 89.4 90.5 90.9 89.1 89.2 91.4 90.9 90.2 91.6 92.2 94.5 93.1 91.6 88.8 86.6 84.4 82.2 81.4 79.6 78.2 75.6 72.1 69.6 68.1 68 69.9 79.2 90.9 91.6 92.5 95.3 98.3 101.4 103.5 105.6 109.4 111.9 114.5 116.6 118.6 120.4 121.4 122.9 124.4 125.3 126.7 124.9 127.1 126.3 124.9 125.7 123.7 124.3 124.8 125.7 128.1
216.5 211.8 210.3 208.5 207 205.1 204.3 203.1 199.4 197.7 194.7 193 190.3 187.4 183.9 180.6 177 175.2 174.4 171 166.2 164.6 164.2 164.1 162.9 161.2 160 157.9 153.8 147.9 143.3 140 139.6 138.5 138 134.2 132.2 129.2 127.6 126.8 125.7 125.1 123.2 122.1 122.5 121.3 121.3 121.2 122.1 122.9 122.4 123.7 131.5 135.9 140.6 143.8 150.8 159.1 167.6 173.3 178.1 183.8 189.7 193.7 196.8 199.5 201.9 204.3 207.6 211.7 216.4 219.9 221.4 226.5 230 229.4 224.1 218.5 215.9 212.8 206.1 204.8 203.1 199.7 202 205.8 209.8 213.1 218.9 224.2 227.9 229.8 231.7 232.9 234.5 235.5 237.3 238.3 238.3 237.1 234.1 230.8 229.7 226.3 220.8 217.2 209.7 200.3 186.5 161.4 144.9 151.4 146.5 138 130.7 124.4 116.7 108.7 103 98.3 94.8 94.5 91.4 89.5 88.1 87.1 86.4 85.9 84.7 84.3 82.8 83.5 84.5 86.5 90.2 88 84.5 83.1 82.8 82.5 81.7 81.8 81.4 80.5 79.8 79.4 78.7 78.1 77.5 79.9 80.5 79.8 81 81.5 82.3 81.9 81.4 80.6 78.7 77.5 76.2 75.6 73.2 71.5 69.2 67.8 68.2 73.6 79.4 87.9 92 92.3 92.7 95 98.6 101.9 104.3 105.9 109.9 112.6 114.8 117.3 118.8 120 122 124.3 125 126.5 126.2 128.8 128.6 129.3 129.5 128.5 126.3 125.6 126.4 126.5 127.3 128.1
220.5 218.4 215.7 215.1 212.5 210.6 208.8 207.6 205.6 202.2 199.2 197.2 196.3 191.7 189.6 185.2 181.5 179.6 176.9 173.5 170.5 167.1 162.8 161.3 158.2 157.1 155.2 155 153.4 148.3 142.9 142.6 145.7 147.1 144.3 140.2 136.8 130.6 128.6 128.1 127 124.7 124.3 124 123.7 122.4 121.1 120.9 121 121 121.5 120.8 123.9 128.2 132.8 142.4 145.3 151 161.6 169.4 174.5 178.9 184.4 190.2 194.3 197.4 199.9 202.5 204.8 208 211 214.6 216.4 218.8 219.4 221.9 222.2 219.4 215.7 211.9 206.6 200.7 196.7 195.9 197.9 198.9 200.9 204.7 210.2 215.8 221.3 224.5 226.8 229.2 232.7 235.5 236.5 237.1 237.1 238.1 236.9 233.8 228.2 224.2 218.6 213.6 207.9 200.4 189.9 177.3 160.7 143.8 133.5 124.5 121.9 117.8 109.5 101.2 96.3 93 90.2 89.3 88.7 88.1 87.8 87 86.9 85.1 83.9 83.2 83.1 82.4 82.2 82.7 82.3 83.3 82.8 82.7 83.8 82 81.6 81.3 80.9 79.7 79.2 78 77.1 76.9 77.5 76.3 75.2 75.6 75.2 75.3 74.4 73.5 73.9 73.9 73.4 73.1 72.2 71 75 72.7 70.6 82.9 85.7 93.1 93.8 93.7 93.8 93.7 94.9 98.1 101.7 104.9 107 110.1 113.6 116.3 118.2 120.4 122 123.3 125 126.2 127.8 128.9 128.3 130.9 130.3 130 130.7 130.1 129.6 129 128.5 128.4 128.3 129.3
224.7 222.4 220.6 219.6 218.3 215.7 214.9 212.7 211 208.6 205.4 205 204 201 197.6 193.7 187.8 182.7 179.7 176.8 174.7 172.9 170 163.8 163.1 161.1 159.9 155 153.2 149.7 150.3 152.7 148.4 153.9 150.6 144 142.7 144.9 141.9 133.8 130.5 125.1 124 123.5 122.5 121.5 120.8 121.4 121 120.3 120.5 120.5 119.6 121.1 126.3 130.6 139.9 145.8 152.9 161.7 170.9 175.2 179.4 183.3 190.5 195.3 198.3 200.7 202.6 204.4 206 208.9 211.8 213.9 213.1 211.7 214 213.5 210.9 206.2 202.8 197.1 194.2 194.2 196.7 198.1 199 199.2 201.5 205.7 210.8 215.4 218.1 221.1 225.5 230.9 232.7 233.1 232.9 233.1 233.9 232.7 227.1 221.6 217.7 213.4 206.4 198.3 188.8 179.1 166.1 156.5 140.3 128.3 115.9 106.7 101 98.3 92.6 91.4 89.5 87.6 87.2 86.7 86.2 85.2 85.2 84.2 83.6 83.1 82.5 82.6 81.5 81 80.9 81 81.1 81 81.7 81.8 81.6 80.9 80.4 79.6 79.2 78.1 78.8 78.6 78.5 78.5 79.2 80 80.4 77.8 79 78.1 75.3 73.7 72.6 73.2 71.8 83.9 80.9 75.5 83.4 92.4 94.7 94.5 94.3 94.9 95.5 95.6 97.9 101.6 104.8 107.9 110.5 113.8 117.2 120 121.8 123.7 125.5 127.1 127.9 129.5 130.4 131 131.5 131.5 132.5 132.9 131.3 131.1 130.3 130.1 129.5 130 129 129.8
228.8 227.5 226.2 224.9 224.4 221.7 221.8 218.4 215.5 213.1 210.4 209.4 208.3 205.9 202.6 199.2 194.9 191.3 186.7 182.2 179.3 177.2 175.4 172.4 166.7 163.8 161.6 158.5 156.3 153.8 151.3 150.2 149.6 150.2 150.2 148.7 145.7 146.2 143.5 139.4 135.9 131.1 127.9 124.2 122.7 121.7 120.8 121.3 121 120.6 119.9 119.1 119.4 118.9 120.2 122.5 128.4 138.2 146.8 151.1 159.7 168.4 174.6 178.4 182.9 190.9 195.3 198.1 200.2 202 203.6 204.9 203.2 205.3 207.4 206.6 205.4 203.7 205 203 199.9 194.8 191.5 193.8 196.5 197.5 199.1 199.7 200 200.4 202.5 205.8 209.1 212 216.2 220.3 225.7 228.4 228.5 226.6 225.9 222.7 217.2 212.9 208.3 206 198.5 190.8 181.5 169.9 153 145.1 136.2 124 111.1 103.2 97.1 95.1 90.4 89.7 89.1 87 85.6 84.7 84.9 84.5 83.5 82.9 82 83.5 82.5 83.4 82.6 81.8 81.7 81.1 80.5 80.8 80.1 79.4 80 78.7 79 78.7 78.6 82.8 81.1 79.2 80.3 81 82.7 83.4 84.1 82.6 83.3 84.8 87.6 89.1 87 83.3 89 87.4 89.1 85.4 76.8 90.7 93.1 93.8 94.7 95.3 96.3 97.3 100 105 108.2 111.5 114.6 117.5 120.9 123.7 125.6 127.8 129.9 130.3 130.9 132.3 133.1 132.7 132.3 134.9 134.9 136.2 135.4 134.2 132.3 131.1 130.5 129.9 132.9 131
234.5 232.9 231.8 231.7 230.5 227.5 224.9 221.1 218 216.6 214.7 212.6 211 210.4 209.9 207.1 202.2 196.4 190.8 186.5 183.2 181.4 179 176.7 174 168.9 164.3 162.8 159.9 154.9 153.9 151.4 150.5 151 150.7 148.4 147.6 144.8 143.8 142.6 140.2 138.9 134.7 131.1 126.7 124 122.5 121.5 121.6 119.5 119.6 119.9 119.6 119.2 118.5 120.7 121.9 127.7 134.9 143 148.4 154.5 163.7 172.3 176 183.5 190 194.3 197.7 199.9 201.9 202.7 200.7 197.3 197.2 201.2 201.7 201 198.8 197.2 196.3 192.8 189.3 194.5 197.1 195.3 197.1 198.8 198.9 199.4 199.4 200.7 201.9 203.6 206 208.5 212.4 215.3 217.6 216.5 213.7 210.2 206.6 199.8 195.5 191.2 183.8 176.5 166.5 154 139.9 130 127.1 115.6 102.2 96.9 93.2 91.4 89 88.1 87.5 86.8 85.1 85.8 87.3 86.5 85.3 85.2 85.7 84.7 85.4 85.5 85 85 85.4 83.6 82.7 80 80.5 81.1 81.3 80.7 80.8 82.4 89 89.1 87 84.2 84 87.8 93.2 88.7 88.1 86.1 89.4 94.4 95.6 98.9 94.9 94.2 94.7 91 91.6 87 83 86.5 90.1 92.1 94.3 96 97.4 100.4 103.5 105.4 111 114.5 118.1 121.5 124.7 127.4 129.5 131.6 133.1 134.4 134.9 134.1 134.6 134.6 135.9 137.6 138.1 138.8 139.1 138.7 137.8 135.8 134.2 137.8 137.8 134.8
238.1 237.9 236.9 235.8 235.3 233.2 229.7 224.1 220.6 218.4 215.7 212.5 210.2 209.2 209.2 206.5 203 200.2 195.9 191.3 186.8 184.3 181.6 179.3 176.4 173.2 169.3 165.2 161.8 159.8 156.8 155.4 153.9 153 152.2 149.7 146.2 144.1 143.2 142.3 142 142.3 140.2 137.2 135.2 129 124.7 122.8 121.8 121.2 120.5 120.4 120.1 119.3 119.6 119.4 119.5 122.7 126.7 133 138 143.9 151.6 161.1 167.8 174.4 183 190.6 193.3 196.3 197.9 198.6 200.8 197.3 193 192.7 194.9 196.9 195.8 193.2 190.5 187.9 185.6 184.4 189.4 191.1 193.4 195.9 198.2 199.5 198.2 198 197.7 198.2 198 198.7 199.8 201.2 201.6 202.4 201.4 197.7 192.7 186 181.2 176.9 169.6 162 153 142.6 129.3 118 108.5 99.3 92.1 88.4 88.2 86.9 87.4 87 86.4 87.9 89.6 91.2 91.4 88.9 87.4 87.7 88.3 89.6 91.7 95.1 93.8 93.2 94.1 88.1 87.2 90.3 91.4 94 89.8 89.9 92.4 93.6 99.4 99.2 98.8 93.3 94 97.5 104.8 99.4 99.9 98.7 98 102.7 105.2 101.9 100.4 99.5 94.7 94.7 95.7 90.4 84.2 92.5 92.7 93.1 95.5 98.1 101.1 104 107.1 109.9 112.7 117.5 121 124.7 128.3 130.7 132.9 135.1 136.1 137.3 138 138.9 137.5 139.8 142 141.8 142.8 143.8 144 144.1 144 142.2 142.3 144.5 141.5 140.2
242.5 242.6 242.1 240 238.5 236.6 233.9 230.7 224.8 220.1 217.5 212.3 209.5 207.7 205.9 203.8 201.6 200.1 196.4 193.2 190.1 186.5 184.2 181.6 178.6 175.6 173.6 170.2 165.1 162.1 160.1 158.5 157.4 156.7 152.9 149.6 146.4 144.5 144.3 143.5 142.7 143.7 143 142.3 139.8 137.1 134.2 130.6 126.9 126 122 121.4 120.9 120.7 119.6 119.4 119.4 118.2 120.3 125 132.4 136.5 140 149.8 159.5 167.6 172.8 182.5 189.1 193.1 194.2 194.2 193.3 195.9 192.8 188.9 187.4 188.4 190.3 189.7 186.4 183.5 182.4 181.8 181.2 182.9 186.8 194.3 198.3 199.9 198.4 196.8 193.7 192.7 191.3 191.4 191.3 191.1 190.1 187.8 186.8 184 180.1 173.5 168.8 163.7 157.8 149.8 138.3 127.5 118.5 106.5 95.1 90.4 89.6 89.4 89.3 89.5 87.7 87.8 90 92.9 93.8 95.1 95 92.5 92.5 96.2 97.9 102.1 107.6 109.4 107.4 107.9 106 100 100.2 100.1 99.6 101.8 101.2 104.4 105 105.6 109.2 110.6 110.9 105 109.9 112.7 117.7 112.8 109.3 110.6 106.5 110.2 110.1 106.5 105.1 100.1 100.9 100.3 88.2 83.6 96.4 96.1 95.7 97.1 99.1 101.7 104.7 107.7 110.7 115.3 118 121.1 124.4 126.9 130.9 133.9 135.8 137.8 139 140.1 141.9 144 143.5 145.2 147.3 147.4 148.2 149.5 149.3 149.3 149.3 149.1 149.7 149.2 147.5 146.4
245.8 245.6 245 244.2 244.5 242.6 238.1 234 229.1 223.7 217.7 213.3 209.5 207.4 205.5 203.2 201.2 199.3 197.6 194 191 188.2 185.6 183.5 179.9 176.8 174.2 172.8 171.5 168.5 165.6 161.6 160.4 156.3 153.8 151.7 148.8 147.3 146.7 146.8 146.1 147.2 146.6 146.7 147.8 144.9 143.2 143.4 151.1 149.2 135.1 126.8 123 122.4 121.2 120.5 120 119.5 119.3 119.6 125.8 130.3 134.7 143.3 150.4 158.1 166.1 169.3 176 184.2 192.3 192.5 190.8 191.7 189.6 186.5 184 181.7 181.6 183.7 182.5 180.3 177.9 177.3 179.9 180.6 182.5 186.5 190.1 195 196.7 195 191.6 190.6 188.9 187.1 183.6 182.5 180.4 177.7 175.9 171.7 167.4 162.3 155.4 150.4 144.1 136.5 124.8 112.6 106.9 100.4 93.3 89.9 90.8 90 89.8 90.1 90.4 94 95.4 99.3 105.8 103.1 103.6 103.1 106.5 108 113.6 117.1 120.6 122 121.6 120.5 121.5 118.2 118.1 118.9 118.9 117.5 119.7 121.5 124.1 123.8 128.1 125.2 125 126.1 127.9 130.6 132.4 129.9 125.1 124.7 120.4 118.4 116.2 111.7 108.3 101.2 106.2 104.5 88.8 98 99.3 99.6 100.2 100.2 102.7 105.7 108.7 111.7 114.8 119.3 123.1 126.6 129.6 132.2 135.2 138 139.6 141.5 143.2 145.8 147.7 148.9 149 151.1 152.1 153.7 154.9 155.1 154.5 154.4 154.1 154.4 154.3 152.8 152.8 150.8
247.7 247.7 247.9 249 249.5 248.5 245 239.8 234.2 226.3 219.2 213.5 210 207.9 205.6 203.2 200.9 198.9 198.1 197.7 196.5 191 187.8 185.8 181.9 177.5 183.7 179.6 176.1 174.5 173.3 169.9 165.3 160.5 158.3 154.2 154 152.2 150.4 151.2 152.6 154.3 153.6 155.5 151.2 150.3 149.2 149.1 150.3 153.1 146.2 138.1 133.2 126.1 122.5 121.2 120.7 119.9 119.4 117.7 122 125.8 128.4 135 142.8 146.7 152 157.7 167.9 175 186.1 189 188.9 187.5 185.4 182.7 180.8 178.4 179.2 183.6 183.1 182.6 177.8 174.7 173.8 178.7 181.7 185.4 190.1 188.5 188.7 188.8 188.1 186.8 184.4 183.6 180.4 177 174.7 170.8 169.1 163.4 157.5 152.2 144.5 136 126.5 121.2 112.3 105.3 100.6 96.7 92.8 90.6 92.3 92.5 90 90.8 96.6 103.2 106.1 106.8 114.2 116.6 117 121.9 124.2 126.7 126 130.6 134.2 134 134.2 133.8 133.6 133.8 133.8 134 134.8 134.7 139.5 141.2 142.3 143.4 145.9 144.9 146.7 148.1 152.6 155.2 152.5 145.1 141.3 138.4 133 126.8 124 118.4 114.1 106.3 106.5 106.5 92.2 102.4 103.1 103.5 104.2 104.9 106.5 109.5 113 115.9 119 123 127.2 130.4 133.3 136.2 139.3 142.1 144 146.2 148.9 151.4 152.6 155.3 156.3 157.9 158.4 159.1 161.8 161.3 161.4 160.4 158.9 158.9 158.8 156.7 155.8 154.9
248.7 249.1 249.5 250.4 253.3 252.8 250.3 245.9 240.3 233.5 224.9 217.3 210.9 208 205.6 203.2 200.7 198.7 197.7 196.6 196.9 193.2 190.1 187.2 183.7 180.1 189.6 188.3 187.9 182.7 179.7 176.4 173.7 169.3 166.4 163.4 159.4 158.7 158.5 159.6 161.1 163.4 164.3 160.9 160 157.1 152.8 152.9 151.4 151.4 149.5 146.3 138.1 133.7 130 127.5 122.9 120.4 120.1 119.7 117.6 120.7 124.9 130.1 136.3 139.8 145 150.1 158.2 166.3 174.4 181.7 185.6 183.9 180.8 178.3 176.2 173.7 172.4 177.3 187.2 188 180.3 173.9 172.6 174.5 178 181.8 184.8 188.9 191.5 187.8 186.7 185.2 181.3 176.1 172.5 173.3 173 168.8 162.7 157.5 152.4 147.1 140.5 131.1 119.9 112.2 105.9 101.5 98.2 94.6 93 90.5 91 90.6 92.3 96.8 103.3 109.5 114 118.1 121.8 130.2 130.7 137.7 138.9 139.8 139.9 142.3 145.9 147.6 150.3 149.2 148.5 147.8 150.5 150.9 151.8 153.2 154.6 157.2 163.6 164.3 165.4 165.1 168.9 173.3 176.3 174.4 168.5 166.6 163.1 164.5 152.2 141.7 135.2 127.8 121.6 116.9 111 111 105.3 107 107.3 107.6 108.1 109.3 110.8 113.5 116.6 120.1 123.1 127.5 133 135.1 138.7 141.3 144 146.9 149.4 151.7 153.9 156.4 158.1 160 162.3 164.5 165.6 166.2 169 168 169.2 168.5 166.1 166 164.8 163.4 160.4 158
248.6 248.9 249.9 251.2 252.8 254.4 253.7 250.1 245.2 239.5 231.5 222.5 214.6 208.5 205.6 203.1 200.5 198.5 197.2 195.9 194.8 192.4 190.9 187.8 185.1 184.3 187 191.6 195.7 194.1 187.9 185.5 180.6 177.6 174.9 173.6 174 173.1 174.1 170.4 171.2 173.8 177.3 174.9 172.3 169.2 166.2 161.4 157.5 154 150.5 147 142.6 138.9 137.2 133.8 128 122.6 120.9 120.2 119.6 117.1 121 126.8 129.8 133.9 139.5 143.5 149.3 157 164.6 169.8 178.2 180.5 178.4 174.3 171.9 169.5 168 166.3 170.5 179.5 178 173.2 167.5 168.7 169.7 172.6 174.9 178.8 181.4 187.2 187.9 185.6 178.2 171 169.8 170.9 169.4 164.3 160.9 155.3 149.7 144.3 137.1 128.7 119.7 111.8 104.6 101.5 98 96.3 94 91.1 91.6 92.9 99.3 101.3 109.6 117.7 123.6 129.1 132.6 139.5 143.2 148.9 156.1 156.7 153.6 158 165.5 165.9 164.9 167.5 170 171.6 175.5 172.4 169.7 167.9 168.6 174 180.7 183.1 185.4 187.9 194.7 194.4 193.6 187.6 182.6 183.8 184.5 186.7 176.7 160.2 148.5 138.8 132.7 127.1 116.8 114 103.5 112.9 112.6 112.3 113.4 113.2 115.5 118.9 121.7 124.4 127.4 131.9 136.8 140.1 143 146 149 153 154.1 157.6 160 162.2 163.9 166.3 168.7 171.3 172.7 174.3 177.9 176.2 176.6 175.9 174.1 176.5 174.1 171.5 165.6 163.6
248.6 248.9 250.1 250.5 253.4 256.4 258 255.9 249.8 245.1 236.4 228 220.4 213.1 206.1 202.6 200.2 198.5 197.1 195.4 193.7 191.4 189.6 186 185.5 186.9 188.6 190.4 193.5 195.6 192.6 189 186.2 183.5 180.8 180 182.2 186.1 186.1 185.2 182.4 179.7 181.6 183.4 181.7 183.4 183.9 179.6 171 165.9 160.8 153.1 146.4 145.2 140.3 137.8 134.3 128.1 124.3 121.3 119.9 118.2 118.2 121.3 123.6 127 131.2 136.6 142.6 146.4 153.4 161.4 166.4 171.3 172.7 168.9 167.1 165.9 169.3 166.7 162.6 161.7 164 167.9 167.7 164.9 165.5 166.8 167.4 175.5 179.5 178 181.8 187.5 180.8 168.7 166.1 164 168.6 160.9 156.7 151.4 146.2 142 134.2 126.8 119.3 112.8 105.2 101.4 98.7 97.1 93.5 92.6 94.2 95.6 102.3 110.6 118.3 126 132.1 137.4 142.6 150.8 159.7 169.9 176.2 173.2 167.4 167.1 172.9 178.6 182.4 187.2 191.8 193.6 192.7 190.5 186.3 184.9 181.7 181.6 183.1 187.9 197.1 202.4 203.3 203.8 198.9 194.6 191.6 184.6 183.2 185.3 181.5 173.3 161 147.7 137.4 129.8 122.7 116.2 117.5 117.1 116.8 117.5 118.5 119.3 121.1 123.5 126.3 128.7 131.9 136.5 141.2 145.1 147.8 150.7 154.8 158.5 160.5 163.5 164.8 167.7 169 173.6 176.2 178.6 180.1 183.1 183.4 184 184 184.7 182.2 184.4 180.4 176.7 173.1 169.8
248.2 248 248.3 248.6 251.8 256.5 259.9 259.7 256.4 250.4 241.4 232.1 224.7 217.1 209.7 204.1 200.9 198.6 195.9 194.1 192.7 189.9 188.5 188.9 187.9 189 189.8 191.3 194 194.2 193.7 190.8 189.4 188.1 185.7 184.4 185 188.6 191.4 191.1 187.9 187.6 189 187.7 188.7 190.6 193.1 191.5 187.4 187.7 184.2 176.7 163 154.8 148.6 145.2 137.4 133.5 127.4 124.1 122.1 118.7 115.9 117.8 119.5 122.7 126.4 129.9 133.3 139.3 143.9 150.9 159.9 164.3 163.6 162.9 161.8 160.4 163.4 168.8 164.4 157.2 156 156.9 159.4 162 162.9 164.5 164.6 165.3 172.7 175.1 175.6 175.5 170.4 166.2 161.6 157.2 156.3 156.5 151.8 147.8 144.9 141.6 134.7 127.1 116.5 112.9 105.6 101.6 99 95.9 94 93.5 96.4 99.1 106.2 118.2 127.5 134.2 140 145.8 151.9 157.3 161.8 170.8 177.5 178.6 174.4 176.6 178.6 178 180.8 184.7 188.6 194 200 201.2 200.5 198.7 192.6 192.3 189.4 195.2 200.9 202.4 201.2 200.4 197.9 196.4 192.6 185.5 180.4 177.6 174.3 165.4 158.2 148.8 141.9 136.6 129.3 118.9 120.8 121.5 121.4 122.3 123.2 124 125.8 128 131.2 132.9 137.3 142.1 146.6 149.8 152.7 156.5 160.3 163.3 166.3 168.8 171.1 173.4 174.4 178.1 181.8 183.8 187.6 189.2 190 187.3 188.5 190.7 188.5 190.5 186.7 180.6 177.9 176
246.9 246.3 246.6 246.4 247.3 251.5 257.8 259.9 258.7 255.7 247.4 237.8 229 221.3 214.3 207.6 202.1 198.9 197.5 193.1 191.8 190.9 190.1 190.4 190.1 190.3 190.8 191.3 193.2 192.9 192.7 191.6 190.8 189.6 189 187.4 188.2 190.1 192.5 194 191.6 191 193.5 194.6 194.9 196.1 196.3 196.4 194.6 194.3 198.7 196.6 191.7 182.1 163 158.8 147.9 141.7 136 130 124.6 122.1 118.4 115.3 118.3 120.5 120.4 123.7 126.8 132.5 136.4 141.8 150.8 157.6 159.2 155.5 155.7 154.7 153 153.4 154.4 155.6 152.6 151.5 151 153.2 156 156.9 160.4 160.9 162.9 161.9 167.1 172.9 171.2 163.1 158.5 152.4 148.8 149 147.7 141.6 139.4 138.6 134.6 126.7 117.1 107.4 104.8 101.4 99.1 96.9 94.7 93 101.6 104.6 114.2 127 134.6 141.4 146.1 151.9 160.8 168.5 171.1 171.4 173.3 175.8 177.3 177.8 179.5 179.1 180.4 185.6 190.3 197.5 207.9 212.3 210.8 209.9 203.2 197.8 194.2 200.4 200.7 206.1 205.3 199.6 194.2 190.2 185.1 180.2 177.5 172.2 164.7 158.7 154.2 148.1 141.9 134.9 128.2 127 127.1 126.2 126.3 127.1 128 129.1 131.8 133.1 136.3 138 142.8 147.4 151.2 154.2 157.4 161.6 165.5 168.6 171.4 173.9 175.6 177 178.4 182.5 186.5 189.6 193 195.3 195.2 197.2 193.6 192.5 193 192.5 189.8 185.7 184.7 181.9
244.4 244.8 244.3 243.5 244.9 247.3 250.7 253.4 255.2 254.5 248.8 242.6 234 226.3 217.6 210.1 206.1 202.1 199.7 196.1 194.2 193 192 191.5 191.1 191.2 191.6 192 192.3 192 191.8 191.1 190.4 190.6 190.4 190.4 191.5 193 194.5 198.4 197.4 193.9 194.4 195.3 197.4 198.1 198.2 198.3 197 196.7 198.5 199 197.1 190.7 180.9 173.9 164.6 156.1 150.9 140.1 131.9 124.4 120 117.4 115.2 116.7 117.9 119.8 121.2 124.5 127.8 131.1 138 146.4 152.1 150 147 147 146.5 146.1 147.2 147.2 148.9 147.6 146.5 145.1 145.8 149.1 153.4 156.1 154.7 152.7 155.6 159.3 160.4 155.8 151.7 147.3 143.4 136.5 136.3 130.6 128.2 126.5 126.2 113.6 110.3 109.6 105.6 101.1 99.2 96.2 94.7 93.6 105.1 111.3 125.7 134.8 141.5 146.6 152.3 158 165.1 171.9 175.1 175.6 176.3 176.1 176.3 177 177.9 179 183.1 182.2 188.3 196 204.3 211.8 213.2 215.3 209.5 200.2 196.4 196.3 196.8 199.3 202.1 200.2 194.3 188.2 182.2 176.2 171.5 166.4 159.6 156.3 153.1 147.1 141.4 135.5 128.9 131.9 131.3 130.7 131.1 132 132.9 134.1 136.6 139.5 140.7 143.4 148.4 151.7 155.2 158.7 162.1 166.5 170.8 173.9 176.6 178.5 180.2 182.6 185.2 188.6 192.4 193.8 196.2 199.1 199.7 201 200.6 197.4 196.1 192.8 191 190.1 188.1 184.6
240.4 240.9 241.1 240.6 242.6 245 247.6 248.5 248.3 247.1 245.3 241.5 236.4 230 221.6 212.5 208.1 206.5 204.6 203 200.3 195.3 194.4 193 192 192.2 192.3 192.2 192.1 191.8 191.1 190.4 189.8 190.1 191.5 191.3 193.3 196.6 198.5 199.7 200 196.5 196 196.4 197.2 199.3 199.9 199.6 199.3 199 198.2 197.7 197.5 193.8 187.7 178.6 172.2 163.8 158.4 149.7 141.5 132.4 123.4 119.6 116.8 114.9 116.2 117.9 118.2 119.7 121.2 123.7 128.3 133.9 141.6 143.6 142.8 141.5 140.6 139.9 141 140.5 144 143.7 141.5 140.7 139.2 140.9 143.7 147.3 149.9 146.5 143.8 144 143.6 141.5 139.8 139.8 136.5 132.3 125.8 123.5 118 108.7 108.2 108.8 106.8 105.6 103.4 102.5 98.2 96.2 95.1 100.2 110.5 119.4 130.8 139.8 146.6 153.4 158.7 166 174 176.4 178.7 178.6 179.1 177.5 177.3 177.2 178.1 179 180.8 181.5 185.8 193.7 197.7 204.4 206.1 206.2 208.1 202.4 197.9 195.6 193.8 194 195.5 195.7 191.1 186.1 180.5 175.1 167.4 162.9 156.7 153.1 149.4 144.9 138.5 134.2 131.6 134.8 134.6 134.4 134.7 135.5 136.8 138.2 140.7 143.7 145.3 150 154.4 157 160.4 163.8 168.2 171.5 176 179.1 181.3 183.1 184.8 188.3 189.1 193.7 196.2 197.4 199.8 200 201.3 202.1 201 199.3 196.6 194.2 192.5 191.4 188.4 185.9
234.8 236.3 236.5 237 238 240.2 242.3 244.9 243.9 242.5 240.2 237.8 234.2 230.3 224.5 215.4 210 208.7 208.6 208.1 207 205.7 199.7 196 194 192.9 192.6 192.2 191.9 191.2 190.4 189.8 189.4 189.6 191.6 192.6 194.3 196.1 198.3 200.1 200.7 198.8 197.6 197.6 198.5 199.6 200.3 201.1 200.6 200.1 198.9 197.1 195.3 192.6 184.6 180 176.3 172.1 167.3 161.1 154.4 146 134.8 126.9 120.8 116.4 113.5 115.3 116.2 116.2 116.7 118 119.2 123.4 125.9 130.1 132.1 135.5 134.5 134.6 134.8 134 133.7 136.1 134.6 133.9 134.9 133.4 133 135.3 137.4 136.1 133.6 134.3 132.4 130.6 125.3 130.2 127.7 121 119.3 111.1 107.2 103.9 99.8 99.9 99.9 100.8 99 97.6 94.9 95.4 97.9 108.6 118 131.7 136.8 143.6 154.7 161.4 165.7 172.7 178.7 181.7 182.3 182 181.3 179.6 178.5 178.2 179 180.5 181 180.8 180.7 186.8 189.4 193.3 197.7 201 199.2 198.1 197.9 194.8 192.1 191 192 191.3 188.3 184.4 178.8 173.3 165.8 159.3 154.8 151.1 147.3 142.8 138.1 133.5 132.2 136 136.6 137.9 138.5 139 140.7 142.9 145.4 148.4 151 154.8 159.2 162.4 165.5 168.6 172.5 176.5 180.6 184 185.9 187.7 189.9 192.8 195 197 199.1 201.2 201.9 201.3 201.1 201.3 200.3 200.2 198.3 195.4 192.7 190.5 188.7 186.2
225.6 228.9 231.8 230.8 233.5 234.4 235.9 238.5 239.4 237.8 235.3 232.9 230.8 227.8 223.7 218.4 211.8 210.7 210.6 210.5 211.2 211.5 208.3 201 196 194.5 194.1 194.1 192.6 191.3 190.1 189.5 188.5 188.7 191.2 193.4 194.9 196.8 197.9 198.7 200.4 199.2 199.8 201.8 201 199.7 199.9 201.7 201.6 201.2 199.6 197.3 195.1 189.6 186.3 180.8 178.2 175.5 172.4 169 168.1 164.1 150.6 138.2 131.1 125.6 119.6 114.2 113.3 114.6 114.3 114.2 116.6 116.2 119 119.6 122.2 122.9 125.3 126.3 125.2 126.9 126.3 127.2 127.8 127.7 128.2 127.9 127.1 127.4 127.4 126.7 126.2 126.3 122.7 120.7 115.5 116.7 117.9 111 108.3 106 101.3 99.7 98.7 96.6 96.5 95.7 96.8 99.3 100.2 105.3 110.4 115.9 129.8 139.6 145.2 152.1 160.9 167.1 173.6 179.1 186.2 188.7 188 188.1 186.6 182.9 181.8 180.4 183.8 183.8 181.4 180.7 180.1 179.6 179.7 181.3 184.7 190.8 193.7 193.3 192.7 191.9 189.6 187.4 186.7 187 184 179.1 174.8 169.6 163.8 157 153.4 149 145.4 141.1 136.9 134 135.8 136.8 137.8 139.7 140.7 142.9 144.9 148.1 150.4 153.7 157.5 159.9 164.8 167.7 170.4 173.3 177.2 180.3 184.3 187.8 190.1 192.4 195.1 197.5 198.8 201.5 202.8 204.1 205.1 203.9 202.7 202.7 201.2 199.1 196.9 195 193.6 190.3 188.2 184.8
216.8 218.6 221.8 224.5 227.4 228.7 231.2 233.2 232.8 232.7 230.4 228.7 227 224.4 221.2 217 213.4 212.3 212.1 211.9 215.8 217.6 214.3 209.6 201.1 196.1 196.4 194.7 193.1 191.9 190.8 189.9 188.5 188.3 188.3 193 194.9 195.9 197 197.2 197.1 196.6 197 197.4 200.1 199.4 200.4 202.4 202.3 202.2 201.8 199.6 194.8 189 185.8 183.9 179.5 177.7 175.7 173 173.6 176.4 171.8 157.4 142.1 136 131.3 124.6 119.6 113.9 111.9 111.3 112.2 112.7 113.3 115.2 116.3 115.5 117.6 118.2 119.1 118 117.7 117.2 120.3 119.6 119.7 119.3 120.2 121.7 118.5 117.1 115.9 118 113.8 109.6 105.9 104.7 104.8 101.6 100.9 100.7 99.4 97.4 97.3 97.7 97.2 100 103.8 106 112.9 121.2 124.9 129.1 134.7 145.6 152.4 156.8 163.4 168.6 174.6 179.8 183.3 186.8 189.6 191.7 191.8 188.2 187.1 184.7 185.6 185.6 183.6 182.7 180.3 178.2 178 177.6 177.2 177 181.2 187 186 184.3 183.2 181.6 179.7 178 175.5 173.3 169.7 165.6 160.2 155.5 150.8 147.6 144 140 137.8 135.2 137.2 138.8 140.6 142.4 144.6 146.8 149.9 153.7 155.8 161 163.5 165.6 169.9 172.3 174.6 177.6 181.8 184.6 187.9 190.9 193.9 197.1 199.7 200.9 203.8 204.3 205.8 205.7 207.3 205.6 205.3 203.6 201.8 200 196.9 194.6 192.5 189.1 187 184.3
212.2 212.7 214.5 217.5 220.1 222.3 224 228.5 230.1 229.1 227.4 225.7 223.8 221.9 219.2 216 213.5 212.9 213.3 213.1 213.7 216.7 219.5 214.7 207.3 202.6 196.5 195.2 193.7 192.6 191.4 190.3 189.2 188.3 188.3 189.6 192.7 193.4 193.9 195.6 194.3 194 195.2 195.8 196.6 197.9 201.2 203.1 203.2 202.6 202.1 201.6 197.6 194.4 187.3 184.6 181.3 178.9 176.8 176 175.9 177.5 188.4 176.5 159.1 150.2 142 136.4 129.2 123.7 118.7 116.2 112.5 110.6 108.5 109.7 110.9 111.1 110.8 112.8 113 114.6 115.2 113.5 114 113.4 112.8 113.5 112.8 112.5 112.4 111 109.5 107.3 106.5 104.1 102.2 101.1 100.4 100 99.9 99.4 98 97.6 98 98.7 100.3 103.5 108.1 115.3 122.9 131 132.4 143.4 145.9 152.9 158.3 162 167.8 173.8 178.8 184.1 187.8 191.7 192.5 191.8 190.6 189.3 188.1 186.2 186 186.3 186.6 183.8 180.8 178.3 177.8 176.7 175.1 173.8 174.5 175.9 180 178.8 176.7 174.3 172.4 170.3 169 167 165.5 163.1 158.8 154.2 149.8 146.4 142.9 138.3 138.8 138.8 140.6 142.9 145.4 148 150 152.1 156.1 158.2 160.9 165.5 168.8 171.3 173.7 176.3 178.9 182 185.4 189.1 192.5 195.2 198.2 201.2 202.9 206.6 207.3 209.1 209.8 209.7 210.6 210 208.8 205.5 203.7 200.7 198 194.6 191.5 190.3 188.3 184.2
208.3 208.7 209.2 210.5 213 215.6 217.8 221.5 225.5 226.5 224.5 222.7 220.7 218.7 217 215.3 212.6 211.3 211.2 214.5 214.1 213 213.5 216.9 214 209.3 201.8 197.1 195.5 194.1 192.8 191.2 189.4 188.2 188.3 190.4 190.2 190.6 190.7 191 191 191.4 192.6 194.2 195 196 201.3 203.3 202.9 202.9 202.2 201.3 198.2 194.5 190.1 185.8 182.6 180.7 178.2 177.9 176.5 176 181.2 186.8 174.7 157.5 153.4 148.8 139.5 130.8 124.3 121 118.7 117.2 115.8 113.1 108.3 106.7 105.7 107 109.3 108.7 109.3 111 108.7 109.1 108.7 109.3 108.4 108.2 107.6 107.8 105.2 103.7 103 102 100.7 100.3 98.9 98.8 98.4 97.9 99.6 99.4 100.3 101.6 105.5 110.3 115.4 123.7 132.7 136.5 144.4 151.5 156.7 161.7 165.4 167.9 171.4 178.7 182.2 185.4 191.4 192.7 192.4 191.5 190.1 188.8 187.5 186.6 186.8 187.4 188.1 187 183 179.3 177.7 177.9 176.5 174.5 172.5 174 174.8 174.4 176 171.1 168.4 165.8 163.7 162.4 161.9 160.1 157.2 152.9 149.1 145.6 142.3 140.7 140.9 142.3 143.4 147.4 150.6 153.8 156.4 158.8 161.8 163.9 166.7 170.8 173.6 175.8 178.1 180.1 182.8 186.9 190 193.7 197.2 199.9 202.6 205.5 206.5 209.2 210.9 212 212.5 213.7 213.8 212.6 209.8 208.9 205.8 201.2 199.1 196.5 192.4 192.3 187.5 185.3
202.3 203.4 204.4 205.6 208.1 209.6 212.2 213.6 215.9 221.3 221.3 219.5 217.3 215.2 214 214.1 212.7 209.7 208.3 213.9 213.6 212.6 211.4 210.4 211.4 211.3 206.2 200.8 197.4 196.4 196.5 193.8 192 189.6 188.3 188.7 188.5 187.9 188 188.2 189 189.4 190.4 192.2 193.4 194.1 198.8 201.6 201 201.1 201.5 200.7 198.1 195.9 191.5 188.2 183.8 181.2 180.2 179.6 176.6 175.4 175.3 185 184.3 179.1 178.7 166.1 154.3 140.4 130.9 127.7 125.4 122.5 118.6 116.1 113.3 111.1 108.8 106.8 105.2 106.7 106.6 106.1 105.6 106.3 105.7 105.7 105.1 105 105 104.3 103.4 102.6 102 100.8 99.8 99.8 99 99.2 98.2 99.2 101.9 103.3 103.8 106.8 110.4 119.2 126 134.1 138.2 146.5 153.9 160.1 165.6 168.2 170.4 174.4 177.2 186 187.5 190.6 192.2 192 191.4 191 189.4 188.1 187.5 186.8 191 190.8 188.5 186.8 183.2 179.9 177.5 175.7 176.4 173.9 172.2 171.3 171.3 170.3 169.6 168.2 164.5 162.8 161.7 159.2 156.7 156 152.7 150.8 146.4 145.6 144.5 144.2 142.7 144.9 149.9 152.7 154.4 159 163.5 167.2 169.4 172.2 174.9 177.2 180.6 181.3 183.3 185.5 186.8 190.3 194.2 198.2 201.7 204.6 207.2 209.6 211.2 212.2 214 215.9 216.2 217 216.3 214.3 211.3 210.2 207.9 203.9 201.3 197.3 193 190.3 188.2 187
196.2 197.4 198.6 200.2 202 203.7 206.7 207.6 210 212.2 213.1 214.9 213.1 211.7 210.8 211.6 212.9 209.1 206.7 209.2 213.1 211.8 210.4 208.3 206.2 206 205 202.2 198.1 198.1 200.2 199.1 195.7 193 191.3 190.5 189.6 188.6 185.9 186.6 187.3 187.7 187.9 189.5 191.5 191.5 192.3 193.7 195.2 197 198.9 199.9 198.6 196.5 193.4 189.9 185 182.1 179.6 178.5 177.8 175.8 172.5 175.3 183.8 177.8 186.1 172.6 165.4 150.2 141 136.2 130.7 126.1 120.2 118.9 117.3 114.4 111 108.6 106.4 105.1 104.9 104 104.4 104.1 104.5 103.6 103.1 103.1 103.1 102.8 102 100.9 100.3 99.5 99.5 98.8 99.2 99.1 98.1 100.6 104.5 107.8 111.4 113.6 117.6 127.2 136.5 143 151 157.6 162.3 167.9 171.8 175.5 176.8 177.4 181 185.5 189.1 193.1 195.1 196.8 194 191.4 189.1 188.2 187.6 187.2 196.9 198.6 194.2 188.7 184.6 181.3 177.4 174.4 174.5 172.5 172.4 171.4 170.8 168.7 167.8 166.5 164.7 163.8 162.3 160.7 159.1 157.3 155.4 152.7 149.8 147.9 144.4 147.4 147.7 149.8 153.6 159.6 161.1 163.9 169.2 172.9 174.9 177.2 180.9 183.2 186.9 189.3 189.9 190.5 191.7 194.3 197.5 201.7 205.8 208.7 211.1 213.5 215.4 216.6 217.8 219.2 219.8 219.5 218.2 215.4 212 210.4 208.6 204.8 201.8 197.6 193.6 191.1 188.2 185.9
192.4 193.2 194.6 195.5 197.2 198.6 200.9 202.1 203.7 205.3 206.2 206.7 208.1 209 208.2 206.8 208.7 208.9 205.9 205.6 209.8 211.7 210.4 207.8 204.6 203.1 201.7 200.1 199.4 196.7 197.1 200.7 198 193.5 191.5 190.7 189.8 188.8 187.5 186.6 186.6 186.7 187.3 187.6 188.4 189.2 189.9 190.5 191 192.1 193.7 195.5 197.1 195.6 192.5 189.9 185.9 183.4 179.6 176.2 174.9 172.7 170.6 168.7 173.2 182.1 176.4 174.1 172 161.5 154 145.7 133.1 126.8 125.3 124.9 124.8 121.7 117.3 112.3 108.9 105.8 104.4 103.4 103.1 102.9 102.6 102.4 102.1 101.8 101.1 101.9 101.6 99.7 98.9 99 99.6 99.3 99 99 99.6 103.5 107.2 112.1 120.9 116.8 126 134.4 141.9 148.5 155.4 163.8 166.9 172.1 177.2 179.2 180.8 181.5 182.6 185.3 187.2 194.3 195.2 196.8 196.2 193.8 190.5 188.6 188.3 187.5 191.1 197.4 195.8 191.7 186.9 182.7 178.9 174.3 172.8 171.6 171 170 169.5 168.6 169.6 172.6 172.7 172.5 168.5 165.3 163.2 159.6 157.6 155.1 152.6 150.3 150.1 151.1 150.6 155.6 158.8 161.9 167.4 168.8 175.6 179.1 179.3 182.2 186.9 189.6 191.8 194.8 195.7 196.2 196.7 198.9 202.4 206 209.7 213.6 215.8 217.7 219.2 219.9 221 222 222.2 222.6 218.4 215.8 213.8 210.8 208.1 205 201.6 198.6 194.8 191.7 188.1 184.9
190.5 190.3 190.9 190.9 192.5 193.6 194.1 196.5 198.2 199.7 200.9 201.6 202.5 203.8 205.1 204.6 204.6 204.7 205 204.8 204.7 211.5 210.9 207.9 204.3 202.5 200.7 199.5 197.4 194.8 193.7 192.8 192.5 193.3 191.6 190.4 189.3 188.3 187 186.1 185.6 185.8 186.9 187.1 187.3 187.6 187.9 188.3 188.9 189.2 191.2 194.2 194.2 195.3 191.5 188.4 185.4 184.8 181 176.9 173.6 171.2 169 166.9 164 166.8 171.6 167.8 163.3 158.4 152.1 141.6 135.1 131.8 132.1 132.7 139.2 138.6 127.5 119.7 114.3 110.4 107.2 102.8 102.8 102.6 102.5 101.9 101.3 101 100.5 100.1 100.2 100.7 100.6 100.9 100.2 99.4 99 99.1 101.4 106.9 111.6 117.5 123.3 127.8 132.3 142.9 151.4 158.1 162.7 169.8 175.8 180.8 183.7 186.3 185.6 184.3 184.1 185.2 186.7 190.3 193.4 194.8 195.8 194.5 192.3 189.3 189.2 189.1 191.3 193.6 192.4 190.3 187.9 184.5 180 175.7 173.6 172.3 173.9 176 173.3 171.2 172.4 176.6 183.6 184.3 177.9 171.5 166.8 163.6 159.9 157.6 155.3 152.6 153.6 155.2 158.8 162.2 165.3 167.6 171.8 175.3 183.5 185.6 186.8 191.8 193.5 195.5 197.6 199.6 200.4 201.1 201.8 204.6 207.3 211.4 214.9 218.1 220.7 221.9 222.5 222.3 222.5 223.5 223.2 222 219.6 218.6 214.4 213 207.5 204.3 201.2 198.7 194.2 190.5 187.1 185.2
188.4 187.7 187.7 187.8 188.5 189.7 190.8 192.9 194.6 196.3 197.3 198.5 199.1 199.7 201.4 202.8 203 203.3 203.5 203.3 203.2 205.2 209.8 208.3 205.4 202.1 200.2 197.9 195.7 193.9 192.7 191.6 191.4 191 190.8 189.7 188.6 188 186.6 185.6 185.1 185.3 186.6 186.6 186.7 187 187.3 187.5 187.3 187 187 190.4 191.3 190.2 191.6 187.4 184.6 183 181 178.6 173.7 170.6 168.3 166.1 164.4 161.7 161.7 162.5 160.8 156 149.8 142.6 135.2 137.6 137.9 139.9 146.3 155.9 148 131.4 120.9 115 112.6 110.1 107.4 104.5 102.8 103 101.8 101.9 101.1 101.6 102.2 101.5 102.4 102 101.5 101.1 101 102.5 110.1 112.7 117 124 131.9 139 143.8 148.6 156.6 162.1 169.5 177 181.3 185.8 188.4 191.6 193 191.1 187.6 185.9 186.4 187.9 193.7 196.7 196.4 195.4 193.6 192.8 191.3 191.2 191.8 192.1 191.7 190.6 188.1 184.9 180.6 179.8 175.3 176.5 181.4 180.7 181.8 178.8 178.4 180 181.2 183.4 181.8 177.4 172.3 166.8 163.4 160.6 158.8 156 158.8 159 162.9 168 170.6 173.4 177.1 179.9 182.2 188.5 193.1 196.7 199.3 201.4 203.1 204 204.5 205.2 206.6 209.7 212.2 216.9 220.3 223.4 225.2 226 225.7 224.9 224.2 224.9 224.9 221.4 219.6 217.9 214.9 212.4 209.2 204.4 201.2 198.1 194.4 191.1 187.9 185.8
186.7 186.3 185.8 185.4 185.9 186.4 187.4 188.8 191.2 194.1 194.9 196 196.8 197.1 197.5 198.8 200.3 202 201.6 202.3 202.6 202.4 203 204.8 204.6 201.9 199.8 197 194.8 193.4 192.1 190.8 190.7 190.1 189.5 189 187.9 187.7 186.1 185 184.6 184.8 185.5 186 186.1 186.4 186.3 186.1 185.8 185.5 185.2 185.4 186.9 186.9 186.4 188.1 185.8 183.4 180.7 178.6 175.4 170.3 167.9 165.1 162.4 159.1 157.6 156.7 155.6 152.6 146.8 142.5 140 143.2 143.3 146 150.5 152 156.5 143.5 128.9 122.4 117.8 115.4 112.7 109.8 107.3 106 105.3 104.8 104.7 103.9 102.9 105.1 106.9 106.3 106.3 108.6 108.6 110 116.6 120.5 122.8 131.4 141.2 155 158.8 158.6 162.7 168.2 175.4 183.4 188.3 192.3 196.3 197.9 199.2 198.1 194.6 190.1 187.9 188.1 190.5 194.4 197.5 198.7 196.5 196.1 194.2 192.4 192.4 192.3 192.3 191.2 188.6 185.2 183.1 180.7 179.5 179.7 185.5 186.6 189 189.5 184.5 183.1 182.9 181.7 180.8 178.2 174.3 170.5 167.8 164.5 161.5 160.3 162.4 164 165.4 169.6 175.5 179.9 182.5 184.2 187.1 189.3 193.1 196.8 200 204 206 207.8 208.7 209.2 211.4 213.9 217.4 221.6 225.5 227.9 229.4 229.8 230.2 229.3 228.3 227.3 224 222.3 219.8 218.1 216.1 213.3 210.5 207.3 202.6 198.4 194.3 191.3 187.7 185.3
183.9 183.9 183.6 183.3 183.4 183.7 184.4 185.6 188 190.3 192.5 194.1 194.2 194.4 195 196.1 197.1 198.3 199.7 201 200.6 200.7 201.1 201.9 202.6 201.6 199.3 197.8 195.7 193.8 191.4 190.9 189.8 189.2 188.6 188 187.2 187.4 185.8 184.5 184.8 185.1 183.3 184.2 185.3 185.1 184.9 184.7 184.4 184 183.7 183.1 184 184.1 184.2 184.2 185 188.1 182.5 179.8 175.7 172.5 168.4 164.8 162.1 159.6 156.7 152.7 152 148.5 147.4 144 145.4 148.2 148.5 151.3 156.6 158 152.9 148.5 137.8 130.2 125.5 121.7 118.2 115.2 113.1 113.1 112.2 109.7 108.2 107.3 106.2 106.3 110.7 112 111.4 111.3 112.6 113.9 119.6 126.1 130.5 139 150.9 159.9 164.8 165.8 171.4 174.5 178.5 185.6 191 194.5 197.9 202.7 203.5 201.7 200.5 195.1 192.1 189.1 190.5 195.4 198.2 201.4 199.8 197.5 197.5 199.1 195.9 192.9 192.7 191.9 190.1 187.4 186.1 184.8 186.7 184.2 187 195.6 196 197 191 186.7 185.5 184.2 182.4 179.1 176 172.7 170.1 167.6 164 164.8 168.6 171.5 171.3 176 179.3 184.3 187.3 189.8 194.6 199.1 201.2 199.3 202.3 206.5 208.7 210.5 211.7 213.8 215.8 218.7 223.1 227.3 230.4 231.9 232.7 233.5 234.1 233.7 232.6 229.2 226.9 223.7 220.2 217.5 215.4 213.1 210.7 207.7 202.3 198.4 194.2 191.4 187 182.9
181.7 181.7 181.6 181.5 181.2 181.3 181.8 182.6 183.6 185.8 188.1 189.7 191.1 191.7 192.4 193.8 195.1 196.3 197.9 198.6 199.1 199.6 200.1 201 201.9 200.9 198.7 198.5 197.5 193.8 191.9 190 189.1 188.4 187.8 187.1 186.7 187.1 185.3 184.3 184.5 184.7 184.5 182.8 183.8 183.7 183.5 183.2 182.9 182.5 182.1 181.5 181.1 181 180.6 182 182.9 183.7 185.5 182.3 177.2 174.3 169.3 165.6 163.1 160.1 155 153.2 152.2 149.9 150.9 151.1 152.2 153.8 156.7 157.9 156.5 157.7 157 150 142.7 138.5 133.5 128.5 125 122.1 119.4 120.7 118 115.5 114.6 112.1 112.1 111.3 113.7 116.6 118.2 117.7 118 121.5 126.3 131.7 136.6 146.7 159.5 165.2 171.2 172.9 173.5 176 179.9 186 192.7 197.2 198.6 200 202.9 202 200.8 198.4 194.7 191.3 193.9 198.4 201.6 201.7 200.7 198.8 202 201.6 200.2 196.3 194.7 193.2 195.5 191.9 190.6 190.5 192.6 191 190.5 196.3 197.6 197.5 195.1 193 191 190.1 187.3 184 179.5 175 172.2 169.6 167.2 167.8 173.1 177.4 178.6 181.7 184.1 188.1 192.3 196.6 200.8 204.5 207 207.3 209.1 211.3 213 214.7 217.2 219.3 220.8 223.9 228.5 232.5 235 236.2 236.1 236.8 237 236.3 234.3 230.1 227.5 224.5 221 217.2 215.9 212.6 209.1 204.9 202.3 198.9 194.8 191.7 185.6 189.2
180.2 180.1 180 179.7 179.9 179.9 180.3 180.9 181.9 183.1 184.5 186 187.8 188.4 190.3 191.7 192.9 194.8 196.7 199.7 200.2 200 200.2 201 201.1 201 198.3 196.6 195.6 194.3 192.6 189.5 188.6 188 187.4 186.9 186.2 187.3 185.9 185 184.2 184.3 183.8 182.6 182.3 182.2 182.2 181.9 181.4 181 180.6 180 179 178.2 177.9 177.9 179.1 180.6 181.5 181.6 175.8 171.3 167.8 165 161.6 160.5 158.9 156.8 154.9 154.3 157.3 160.3 160 159.7 163.7 161.6 157.6 156 154.4 153.2 146.3 140.8 137.1 134 131.1 129.2 126.5 126.8 125.4 123.1 121.5 119 118.5 116.6 120.3 120.6 121.5 122.1 124.4 130.2 135.2 139.9 143.7 149.4 161.2 171.7 178.7 180.7 180 179.5 181.6 187.1 198.1 204.6 204.7 203.7 202.4 202 201.2 199.7 197.6 195.2 193.9 193.8 195.8 197.8 199.1 199 198.6 199.6 199.9 199.5 200.1 195.9 198.6 198.1 194.6 194.1 194 194 193.4 196.1 196.9 197 196.7 196.6 195.6 192.5 189.5 187.7 183.1 178.5 174.5 172.3 170.8 171.6 175.2 180.1 183.2 186.5 188.9 193.1 196 201.2 205.6 209.2 212.1 212.6 213.7 215.3 217 220.6 222.6 223.9 226 229.6 233.5 237.7 239.4 241 241.1 240.2 239.8 238.3 234.6 230.8 227.7 225.2 222.6 218 214.8 212.8 209.3 206.5 202.5 199 194.4 188.5 191.4 192.4
178.6 178.5 178.3 178.8 179.4 179.3 179.2 179.7 180.5 181.7 182.9 183.6 184.8 185.4 187.7 189.6 191.2 193.9 195.1 196.4 199.7 200.1 200.3 200.5 200.3 200.4 198.5 196.7 195.7 194.7 192.2 189.9 188.4 187.8 187.2 186.9 186.3 185.7 186 185.4 184.9 184.2 183.8 182 181.7 181.1 181.2 180.8 180.1 179.7 179.2 178.8 177.8 176.8 176.1 175.6 175.9 178.3 179.5 181.3 172.2 169.5 167.9 165.9 162.5 161.7 160.5 158.9 158.9 158 161.2 167 169 166.2 169.9 166.9 162.5 158.9 155.6 153.5 149.6 146.7 140.4 138.2 136.3 133.7 131.1 131.8 131.1 129.3 126.5 124.7 124.2 123.8 124.3 126.3 126.2 128.4 131.2 137.1 143.6 152.2 156.1 157.8 163.2 173 183 187.2 186.7 185 183.6 188.4 194.8 200.4 204.4 207 205.3 203.5 204.3 204 200 197 196.1 194.8 194.5 194.7 195.7 196.6 197.4 198.6 201.2 203.9 203.6 200.5 198.9 199.7 198.4 196.4 195.3 195.3 195.7 195.1 196 196.7 197 196.9 196.6 194.2 191.1 189.4 185.2 181.5 178 174.8 174.7 175.8 177.7 182.2 184.4 189.3 192.4 195.8 199.3 205.2 209.6 213.4 216.7 218 218.9 220.4 223 225.7 226.6 228.2 230.6 235.3 239.3 242.2 243.6 243.7 243.9 243.5 242.2 239.4 235.9 231.9 228.7 225.3 222.7 220.1 216.9 213.5 209.9 205.6 201.9 197.7 193.3 189.6 195.2 195.1
177 177.1 177.7 178.3 178.8 178.8 178 179 179.7 180.4 181.5 182.6 183.4 184.1 185.5 187.4 189.8 191.4 192.7 194.1 196.7 199.3 199.6 200.7 200.5 200.1 199.1 197.3 195.6 194.2 192.7 190.9 189.2 188 187.9 187.4 186.3 185 185 186.8 185 184.3 184.1 183.4 184.2 183.8 181.9 180 178.2 178 178.1 177.9 177.1 176.2 175.2 174.1 174 174.6 176.4 174.7 175.3 168.4 167.2 165.8 163.9 164.5 163.1 161.9 162.3 162.4 166.3 172 175.1 172.4 174.2 172.3 166.1 162.9 158.5 154.8 151.1 147.1 144.2 139.7 138.8 135.8 135.7 137.1 137.2 135.5 133.5 130.7 129.5 128.1 126.8 128.8 130.2 134.2 138.2 143.8 149.2 157.8 162.8 165 166 174 183.7 189.8 190.5 188.9 188.3 190.3 196.7 202.8 203.9 205.8 206.3 205.6 205 204.5 202.7 199.9 198.4 196.1 195.4 196.1 197 198.1 198.6 199.5 200.5 203.1 203.3 202.2 200.1 200.5 200.3 198.9 198.8 199.4 197.8 196.8 195.4 195.8 196.1 196.5 196.7 195.1 192.8 189.9 186.2 183.1 180.3 176 178.6 179.6 181.2 185.4 187.9 190.9 194.4 198 202.5 208.1 213 216.9 220.3 222.9 224.5 226 227.7 229.8 230.9 233 236.3 240.9 243.3 245.7 246.2 246.2 246.4 245.6 243.7 241.1 237.6 233.4 229.6 226.8 223.4 220.7 217.1 213.5 210.7 206.5 202.8 198.4 195.5 190.9 198.8 199.8
175.9 176.3 176.8 177.8 178.6 178 177.1 176.9 177.9 178.9 179.9 181.1 182.1 183.1 185 186.9 188.3 189.4 190.4 192.3 194.8 197.8 199 200.3 201 200.9 199.8 198.7 197.7 196.8 195 192.7 192 190.1 189.2 187.9 186.9 185.8 185 184.8 184.8 184.9 186.1 185 185.6 185.5 185 182.8 179.8 176.4 175.7 175.7 175.5 174.8 173.8 172.6 171.7 170.2 170 169 169.3 167.7 166.1 165.3 166.3 166.9 165.4 164.9 166.1 169.5 169.8 173.8 175.3 174.7 174 173.3 171.5 168 162.9 158.9 154.5 149.3 145.5 144 142.4 139.1 139.1 139.5 140.7 146.4 141.9 139.8 134.2 132.2 130.6 132.1 134.5 138.1 143.7 148.4 153.4 159.4 166 171.4 173.5 174.9 180.1 187 191.5 190.7 190.9 193.3 199.1 205.2 207.5 209 207.6 207.5 207.1 206.5 206.2 202.5 199.8 198.5 198 198.4 200.2 200.3 200.9 200.7 201.3 202.5 202.8 202.1 200.8 200.5 203.3 205.4 205.6 203.8 199.7 198 197.3 197.4 197.4 197.4 198.5 197.2 197.3 194.3 189.5 186.4 183.4 181 182.3 183.8 185.4 189 192.4 196.3 199.1 202.6 207.3 211.2 216.1 219.9 223.3 226 228.3 229.7 231.1 233.3 235.7 238 241.1 244.2 246.1 247.9 248.4 248.2 246.9 245.6 243.7 241.4 237.4 233.7 230.1 227.7 224.7 221.3 217.3 214.6 211.6 207.1 203.5 201.7 194.9 200.3 202.7 205.1
175.1 175.1 176.9 178.2 178 177.3 176.4 175.6 175.7 176.8 177.1 178.5 180.8 182.3 184.4 186.2 187.3 188.4 189.4 190.5 192.5 195.2 198.3 200.3 201.3 201.5 201 200.3 200.2 199.7 198.2 196 194.6 193.4 191.6 190.4 188.9 187.4 186.1 185.8 185.6 186.1 186.1 185.4 186.6 186 185.4 184.9 182.2 177.8 175.1 173.6 174.3 172.2 171.9 171.1 169.9 168.7 167.9 167.5 167 166.6 165.8 165.6 167.2 168.5 169.3 169.3 172.2 175.3 176.7 176.9 178.8 177.4 176 174.5 172.3 170 168 163.6 158.7 152 148.6 148.4 147.5 143 141.2 141.2 142.3 143.7 148.1 144.3 140.3 136.7 135 136.6 138.6 141.1 146.1 150.4 157.7 163.5 169.7 174.8 178.2 180 180.3 185.1 190.3 192.9 194.3 197.4 202 207 209.6 211.9 212.4 209.4 209.1 209.2 208.9 204.8 201.6 201.1 200.6 201.3 205.7 207.1 205.8 203.5 202.5 204.1 204 202.2 200.9 206 210.3 209.7 208.3 206.3 203 201.6 198.9 198.2 198 198.3 198.9 199.7 198.9 197.1 193.9 189.8 185.2 183.2 184.5 186.6 189.4 193.3 197 201.2 204.6 207.8 212.5 215.2 218.8 223 226.2 229.1 232 233.5 234.9 236.5 239.2 242.3 244.2 246.6 248.4 249.3 249.4 248.9 246.7 245.4 243.7 240.8 237.1 235 232.3 227.6 224.4 220.8 217.5 214.3 211.5 208.2 206.9 202.8 197.9 204.2 207.1 209.2
172.9 173.6 176.6 179.1 177.9 177.3 176.2 175.2 174.1 174 174.3 175.3 177.6 180 183 184.5 186.3 187.4 188.4 189.6 190.7 193.7 196.6 199.1 200.6 202.1 202.3 201.7 201.1 201.3 201.5 200.9 197.7 194.7 193.4 191.6 190.1 188.7 187.4 186.9 185.9 186.1 185.3 186 186.2 185.9 185.3 184.3 182.8 179.8 176.9 173.3 173.2 170.3 169.1 168.8 168.4 167.4 166.8 166.3 166 165.8 165.7 165.5 167.3 168.4 171.2 174.1 178.2 184.2 182 180.2 179 178.2 175.8 174.6 173.1 171.5 170.3 166.2 160.8 155.7 152.2 151 150.8 152.6 144.5 143.1 142.9 143.2 143.3 144.4 143.1 140.4 139.2 141.3 143.3 146.1 149.6 153 159.3 165.8 172 177.5 180.6 183 184.1 186 192.1 196.5 198 200.9 203.9 208.1 210.1 212.9 214.7 214.4 211.4 211.1 211.5 213.7 212.3 207.3 204.7 204.4 207.3 209.2 208.3 206.1 204.3 202.8 206 205.6 207.8 208.8 213.6 213.4 210.3 208.5 206.4 206.3 204.9 200.8 199 198.8 199.3 199.7 200.4 201.3 198 192.9 189.2 185.6 187 189.2 192.6 196.4 199.5 205 208.9 212.2 215.6 218.7 222.3 226 229.3 232.2 235.2 237.2 238.6 240.7 242.9 245.8 248.2 250.2 249.5 250.4 250 249.5 247.8 245.3 242.9 240.2 237.9 235.7 231.4 228.2 225.8 221.8 218.1 214.3 212.3 210.4 208 202.6 201.7 208 211.2 213.3
170.7 172.9 176 179.8 178.3 176.8 175.5 174.2 172.7 171.2 172.2 174 176.3 178.4 180.3 182.1 183.9 185.7 187.3 188.3 190 192 195.3 196.8 198.2 200.7 201.2 201.8 202 201.9 202.6 203.8 201.4 197.8 195.2 193.3 191.4 190 188.8 188 187.2 186.1 185.7 186.1 186 185.6 184.7 183.1 181.7 180.3 178.1 174.8 171.2 169.6 169.8 169.1 167.2 166.9 166.5 165.9 165.7 165.5 165.3 166 167.4 168.4 171.9 180.6 182.8 187.4 185.7 183.5 179.9 178.6 177.3 174.7 173.5 172.3 171.5 170.7 165.2 158.7 155 153.1 153 153.9 157.4 148.1 145.6 144.9 144 143.9 142.9 141.7 143.6 145.5 147.7 150.2 153.1 156.3 160.4 166.4 172.2 178.1 182.3 184.4 187.6 190.2 194.5 199.9 201.9 203.3 205.5 208.7 210.3 215.2 218.8 217.6 215.9 214.4 219.4 222.4 223.6 220.6 218.7 213.2 209.4 209.2 207.9 206.7 205.8 204.2 204.8 205.4 206.9 208.6 211.5 214.3 213.8 210.4 208.6 209.1 209 208.2 204.9 201.5 200.7 200.5 201 200.1 198.4 194 190.7 189.9 190.8 194.5 198.4 201.3 204.5 207.7 212.7 216.1 219.3 222.3 226.9 230.5 233.1 235.5 238.3 241 243.1 245.3 247 248.4 250.8 252.8 253.6 252.3 251.1 250.2 248.9 246.6 243.6 241.2 238.7 235.3 231.2 228 224 220.9 218.6 215.4 214.5 212.9 208.5 200.5 208.2 212.1 215.3 217.4
169.5 171.2 172.5 175 175.9 175.6 174.1 172.6 171.6 170.7 170.8 172.6 175.1 177.6 179.1 180 181.5 183.3 185.1 186.5 187.5 189.1 191.6 194.3 196.7 199.2 200 200.6 201.2 202.2 202.7 203.9 202.7 200.7 198.4 194.9 193.1 191.6 190.3 189.3 189.3 187.5 186.1 186.2 185.9 185.4 185 183.6 181.7 179.9 177.8 175.4 173.4 171.4 169.7 168.6 168 167.5 166.9 166 165.7 165.9 166 166.5 167.5 170.2 171.5 174.8 180 185.6 186.3 184.1 180.6 179 177.5 175.1 174.1 173.6 172.7 171.5 168.9 164 159 155.4 154.8 154.3 155.1 153.1 150 147 146.6 145.1 143.4 142.6 146.3 148.8 151.6 154.3 157 159.8 164.1 168.1 171.9 177.2 182.5 186.3 190.3 193.2 193.5 198.7 203.2 205.4 208.1 213.2 216.6 216 217.1 219.1 220.5 220.1 217.8 219.7 222.2 222.4 219.9 217.4 212.8 208.6 207.8 207.1 206.3 205.6 205.9 206.4 207.7 209.4 210.6 212.8 213.4 212.1 210.8 211.1 211.7 214 211.1 208.1 204.2 203.5 201.5 200.4 198.4 195.2 192.6 193.6 194.7 197.2 200.6 205.3 208.9 211.9 216.7 220.2 223.6 226 230.2 234.3 237.2 239.1 241.9 244.7 247.1 248.6 250.3 252 252.6 252.8 253.5 252.8 251.8 251.1 249.2 247.1 243.9 241 238.9 234.9 230.1 226.8 223.9 221.1 219.8 217 215.3 212.7 208.6 207 212.8 216.3 219.1 221.2
168.2 169.3 170.1 171.3 172.3 172 171.6 171.1 170.4 170 169.9 170.2 174.4 176.9 178.4 179.3 180.1 181 182.5 183.9 185.3 188 190.1 191.8 195.2 197.7 198.8 199.3 199.9 201 202.4 203.5 204.1 202.4 200.3 197.5 196.2 194.9 193.6 192.7 191.1 189.3 187.4 186.1 185.7 185.3 184.8 184.3 182.6 180.7 179.7 177.9 174.9 172.8 170.7 170.3 170 169.4 168.3 167.2 166.4 166.6 166.7 167.2 168.1 176.3 176.1 175 176.8 177.6 184 183.4 181 179.1 178.2 175.7 174.8 174.8 173.9 172.4 170.4 166.7 162.6 158.1 156 155 155.2 155.1 153.3 149.1 147.5 145.3 143.3 143.8 147.8 150.8 154.1 156.8 159.5 163.8 169.8 174 177.1 179.3 183.1 187.2 191.3 193.9 197.4 199.6 202.7 205.9 209.4 215.8 219 222.8 219.2 219.7 221.9 224.1 222.7 220.9 221 221.3 219.6 217.9 214.9 210.1 208.2 207.5 206.7 206.6 206.3 205.8 208.5 210.4 211.7 214.1 215.1 212.7 213 212.8 214 215.3 213.4 211.4 208.9 208.7 206.1 202.5 198.6 196.4 195.7 195.9 197.8 200.7 203.8 209.7 213.8 217 220.1 223.2 226.2 229.5 233.2 237.8 240.6 243.5 245.7 248.7 250.4 251.9 253.1 254.8 256.7 253.3 253.4 253.2 252.7 251.4 249.1 246.9 243.8 240.7 238.5 235.3 232.2 227.9 224.8 222 220.8 219.3 216.4 213.5 210.2 208.6 217.1 220.4 222.7 224.8
168.8 168.1 168.5 169.5 170.3 170.2 170.2 169.1 168.2 167.8 169.4 169.5 171.2 175.1 177.3 178.2 179 179.5 180.6 182 183.8 186.1 188.9 190.1 192.9 196.5 196.9 197.8 198.6 199.5 201.5 203.2 203.7 203.9 202.3 200.4 199 197.5 195.6 194.1 192.4 190.5 188.7 186.3 185.5 185.1 184.6 184.1 183.4 181.6 180.8 179 176 173.3 172.6 171.1 171.6 170.5 169.8 169.2 168 167.2 167.4 167.9 168.5 169.5 174.2 174.8 175.2 176.3 177.8 178.9 180.5 179.3 178.6 176 175 176.1 176.9 174.5 171.9 168 163.8 160.7 157.2 156.2 154.2 154.7 154.4 151.3 147.4 145.5 144.4 145.3 148.4 152.5 155.5 159.3 162.6 168.2 175 179.2 183.3 185.5 185.3 187.6 190.7 194 197.2 204 203.1 204.2 209.3 216.3 218.1 220.9 222.8 221.6 220.1 222.7 223.6 224.9 225 221.7 221 218.6 214.9 211.3 208.9 208.1 207.5 207.1 207.2 208.4 211.1 212.7 215.4 216.6 217 215.1 214.2 214.9 214.9 216.3 214.7 214 214 209.8 207.3 204.3 200.4 198.9 198.7 199.5 202.3 204.9 209.1 213.8 218.7 221 223.7 226.9 229.8 233.7 237.1 241.2 243.1 246.3 249.7 252.5 254.3 256.2 257.3 257.9 257.8 257.6 256.3 254.9 253.6 251.3 249.1 246.8 244.3 240.8 238.7 234.6 232 228.9 225.9 223.1 221.9 220.3 218.6 216 213.9 218.7 220.6 224 226.3 228.4
169.5 168.1 167.3 167.6 168.2 168.2 168.2 166.9 166.3 166.1 168 168.6 169.4 172.1 175.1 176.4 177.3 177.8 178.9 180.2 182 184.3 187 189.1 191.6 193.1 195.5 195.6 197.3 198.1 199.3 200.8 202.2 202.8 203.9 202.8 201.3 199.7 197.9 195.5 193.5 191.7 189 186.7 185.3 184.9 184.5 183.9 183.4 182.7 181.7 179.6 176 173.3 173.2 172.9 172.7 173.2 173.7 172.8 170.1 168.7 168.1 168 169.6 167.2 167.9 171.6 173.5 174.6 175.1 174.7 176.1 178 179.2 176.6 174.9 175.3 179.7 179.3 174.6 167.8 164.5 161.3 158.7 156.8 154.5 152.8 151.6 150.2 147.5 146.3 146.9 149.9 151.1 153.4 157 161.8 167 173.2 179.4 182.4 186 189.8 191.3 191.5 190.7 192.4 193.8 197.8 204.1 203.6 206.6 211.6 214.2 216.2 218.4 220 220.1 220.5 221.3 222.2 224.1 228.8 227.4 224.4 218.4 214.4 211 209 209.6 209.6 209.7 211 213.5 216.8 219.8 221.9 221.1 218.9 217.9 217.2 217.2 217.2 216.9 216.4 214.6 213.1 208.4 205.4 201.7 204.2 202.5 203.3 206.4 209.3 215.5 219.6 223 225.2 227.8 230.7 233.5 237.1 241.3 243.6 247.4 250 252.5 256 257.8 259.4 260.8 261.3 260.9 260.2 257.9 255.8 254.3 251.7 249.2 246.5 244.2 240.3 237 234.1 233.1 231.1 228 225.3 223.1 221.4 220 218 216.2 222 226 228.2 230.7 234
169.5 168 166.5 165.5 166.1 166.2 165.5 165 164.5 165 166.7 167.2 167.8 168.4 171.3 174 174.9 175.8 177.4 178.8 179.7 181.7 185.7 187.2 190 191.2 192.5 195.4 196.7 196.8 198.1 199.8 201.6 202.9 204.5 203.4 202.3 201.5 200.6 199.5 195.5 191.9 189.2 187.4 185.7 185 183.9 182.7 181.8 181 179.9 178.2 177.8 176 175.8 176.3 175 175.2 174.9 174.2 171.4 169.8 168.1 167.1 167 166.1 165.3 165.5 168.1 168.9 172.1 172.4 174 174.8 180.5 177.1 174.6 174.1 173.5 174.7 175 171.9 164.8 161 158.6 156.8 154.7 152.7 151.2 148.7 148.4 149 151.4 155.5 158.3 157.6 159 162.6 168.8 176.9 183.4 185.9 187.8 191.5 194.6 195.9 193.6 192.7 192.1 192.5 193.7 199.9 202 206 210.9 213.3 216.1 217.5 219.8 220.6 220.9 222 223.9 227.6 227.5 225.6 221.8 218 215.2 212 212.5 215.2 215.2 213.5 217.7 220.8 222.2 223.8 223.6 224.4 227.3 228.9 227 225.8 224.8 222.2 216.2 213.3 210.6 207.6 204.2 205 205.7 206.7 211.1 215.9 219.5 224.5 227.4 231 232.7 234.5 237.2 240.3 243.4 247.6 250.1 253.1 256 259.2 260.9 262.5 264.1 264.6 264 263.1 259.8 256.8 255 252.6 249.9 247.1 243.8 239.9 236.7 235.1 233.9 232 230.7 228 224.5 222.8 218.2 223.4 226.1 228.7 231.5 234 236.7 239.2
169.7 168.1 166.6 163.8 164.1 164.3 163.7 163.4 163 163.9 165.3 165.9 167.1 167.3 168.2 170.4 172.4 173.5 174.6 176 177.4 179.2 182.4 185 187.5 189.3 190.6 191.7 193.9 195 197.8 201.6 202.1 204.3 206.3 205.7 205.5 205 204.3 201.4 196 194 190.1 188.1 186.2 185.5 184.4 182.9 181.4 180.4 179.8 179.4 180.6 181.6 180 178.9 176.9 176.4 176.1 175.3 172.6 170.9 169.2 167.6 166.6 165.8 165.4 164.9 164.6 164.3 164.5 167.5 170.1 172 173.3 175.7 174.5 172.8 172.1 172.8 171.2 169.3 164.2 160.9 159.6 157.2 155.3 152.9 151.9 150.6 151.4 152.9 156 160.2 164.1 162.7 162.1 163 168.5 176.5 182.1 186.6 189.5 191.2 193.9 194.8 193.8 192.5 191.7 190.9 190.8 190.7 195.5 201.3 207.7 211.2 214.6 217.4 219.2 220.7 222.3 224.3 226 226.4 226.2 225.4 222.7 221.7 218.1 216.4 216.1 218.5 218.5 219.4 221.8 225.7 224.9 225.1 225 225.3 229.5 234.4 234.9 230.1 226.4 224.1 220.9 216.7 211.4 208.4 205.1 206.6 208.2 209.4 213.8 218.4 223.9 229 232.6 234.6 237.3 240 241.6 244.3 247.5 251.2 254.3 257 258.5 261.3 263.7 265.4 266.7 266.8 266.3 265.2 262.6 259 256.6 254.7 253.1 249 246.7 241.1 239 236.2 234.1 232.7 231.5 230 227.3 224.2 222.3 227.9 231.9 233.3 236.7 239.2 241.9 245.3
170 168.3 166.7 164.8 162.1 162.7 162.1 161.9 161.5 162.6 164.6 165.8 166 166.2 166.3 168.1 170.3 171.5 172.5 173.3 174.6 176.1 180 181.3 182.6 186.5 189.4 190.5 190.5 193.6 199.9 203 204.2 206.7 208 208.9 208.7 208.6 208.4 205.2 199.6 193.6 191.5 188.9 186.9 185.9 184.7 183.7 182.1 182.5 181.8 181 182.9 185 184.1 180.6 178.6 177.8 177.2 176.5 173.8 172.1 170.1 167.9 166.3 165.7 165.2 164.7 164.3 163.2 162.5 162.9 163.9 167.3 168.7 170.7 171.1 171.4 170.9 169.2 167.2 165.2 163.4 161.3 160.6 160.9 158.9 153.9 152.1 153.4 155.1 157.6 160.7 163.6 166.4 169.5 168.9 168.2 168.8 174.1 181.1 184.7 190.8 193.6 193.2 192.3 191.5 190.9 190.6 189.9 190.3 191.2 192.6 195 202.5 209.3 215.3 217.7 218 219.9 224.6 228.1 231.7 230.1 226.3 225.4 224.8 226.8 222.9 219.2 219.3 222.6 221.6 223.2 223 227.6 230.6 230.1 226.7 226.1 225.8 228 231.2 229.2 223.7 222.5 220.3 216.2 213.6 209.3 207.6 208.6 210.7 213.3 217.4 222.2 228.5 233.2 236.7 239.1 241.8 244.4 246.5 249 252.2 255.1 257.3 259.8 261.3 263 265.4 267.4 268.2 267.5 266.4 265.6 262.6 260.5 259.4 257.1 254.1 250 247.9 244.2 240.8 237.1 234.9 233.4 232.1 230.9 228.4 222.3 230.1 229.6 236.9 239.8 241.6 244.8 247.5 250.6
170.7 168.9 167.4 164.8 162.6 160.8 160.2 160 160.2 161.5 163.2 164.3 165.4 165.4 165.1 165.8 168.2 169.7 170.6 171.4 172.1 173.3 174.5 174.9 179.4 182.1 186.6 187.2 186.5 190.8 197.7 202.3 204.5 206.5 211.2 212.9 212.8 213 212.8 210 204.8 195.2 192.1 189.6 187.7 186.5 185.4 184.9 184.5 184 183.3 182.5 184 186.8 186.5 183.6 181.1 180 178.7 177.6 174.9 172.7 170.5 168.4 167 165.7 164.9 164.4 163.6 162.5 161.4 161.3 162 162.7 165.2 168.1 168.6 169.1 168.8 167.4 165.1 163 161.3 160.4 159.6 160.4 158.6 154.8 153.3 156.2 159.9 162.3 164.9 166.4 168.5 171.7 173.4 172.5 173.1 173.3 176.7 180.6 185.9 192 191.8 190.8 189.2 189.2 190.1 190.4 191.2 192.1 192.3 193.8 196.4 205.8 210.7 215.3 216.9 218.3 219.9 222.2 224.7 227.4 226.8 225.7 224.6 224.3 223 220.6 219.7 222.1 223.8 227.1 228.2 227.5 228.4 230.5 230.4 228.1 225.2 222.1 222.3 220.3 219.3 218.2 217.2 215.6 213.2 211.3 210.9 212.5 213.2 216.7 221.5 227.1 233.4 237.1 240.5 243.6 246.6 249 251.4 253.9 256.7 258.7 260.8 262.8 264.2 264.7 266 267.3 268 266.3 265.9 264.1 260.9 260.3 258.8 255.2 253.4 250.6 247.1 245.1 241.2 238.8 236.1 234.3 232.7 231 229.8 233.7 236.3 237 240.8 245.3 247 250.1 252.8 255.5
171.8 170.6 168.1 165.2 163.2 161.4 159.6 158.4 159.4 160.5 161.9 162.6 163.5 164.9 164.9 164.1 165.7 167.7 168.3 169 169.7 170.4 171.1 172 174.5 176.6 179.5 182.6 183.7 187.4 192.9 198.1 201 204.8 209.2 212.6 215.1 216.5 216.6 213.8 209.2 200.8 197.3 191.7 188.5 187.3 186.4 186 185.4 184.8 184.2 183.6 184.8 186 187.8 184.4 182.6 180.5 179.5 178.8 176.8 174.9 173.6 170.5 168.5 166.9 165.6 164.2 163.2 162.3 161.4 160.5 160.6 161.4 162.6 165.8 166.8 166.6 165.7 165.4 163.5 161.8 160.1 159.2 158.5 158.2 156.9 155.8 154.5 158.4 162.8 165.9 168.8 169.7 170.6 173.3 176.7 176.8 176.5 176.1 176.1 177.9 182.1 184.4 186.9 187.3 188.4 189.7 191.5 191.3 191.9 192.5 192.1 193 194.2 198.6 204 208.7 213 217.5 219.2 219.9 220.6 222.6 224.5 225.3 224.1 223.3 221.7 220.3 219.3 219.6 223.5 226.3 227.4 226.7 228.9 229.9 230.7 226.2 221.7 219.5 219.2 218.3 217.5 217 217 215.7 214.3 214.8 214.4 213.8 215.5 219 225 232.3 237.8 241.9 245.4 249.1 251.1 253.6 256 258.5 259.9 261.8 263.7 265.1 265.8 266.1 266.7 267.2 266.9 265.2 263.2 262.4 259.2 258.1 256.7 255.1 252.5 249.6 246.3 244.5 242 239.2 235.6 233.6 232.9 236.7 238.8 239.3 241.2 244.1 239.7 249.1 253.6 256.7 258.2 260
173.7 171.6 168.7 165.6 163.8 162 160.1 159.2 158.2 158.4 159.4 160.4 161.3 162.4 163.6 163.2 162.9 163.8 165.5 166.7 166.8 167.4 169 170.4 171.8 172.8 175.1 178.4 181 185.6 191 195.8 200.2 204.4 209.2 213.5 216.1 217.2 217.4 215.9 210.4 206.1 200.6 193.6 189.6 188.1 187.3 186.7 186 185.5 184.9 184.4 185.2 185.7 186.4 186.1 184.1 181.3 180.4 179 178.4 176.6 174.5 171.7 169.7 168.7 167.1 165.1 163.8 162.7 161.7 160.7 160 160 161.3 162.9 164.5 163.5 163.2 162.8 162.1 160.5 158.9 158 157.4 156.9 156.5 155.3 157 159.8 164.4 166.7 168.7 171.1 171.8 174.8 178.5 179.2 179.9 180.4 183.7 184.4 188.5 185.7 185.6 186.9 188.5 190.3 192.1 193.1 192.6 192.3 191.9 192 193.1 194.3 202.3 205.9 213 216.9 218.8 219.8 220.8 221.6 221.8 224.1 223.3 222.1 219.4 216.7 215.3 214.1 221.3 221.4 222.2 222.1 224.4 227.2 227.7 223.4 217.8 216.1 216.5 216.7 216.3 216 217.3 216.6 215.9 216 216.2 216.4 217.6 220.8 228 236.5 241.6 246.4 249.9 253.2 256.5 258.2 261.2 262.2 262.7 264.6 266 266.8 267.5 267.5 268 268 265.8 264.1 262.4 260.7 257.6 256.5 255.5 253.1 250.9 248.7 245.9 244 239.5 237.9 237.1 238.6 239.6 240.4 243.5 245.3 247.6 250 250.4 252.8 257.4 261 262.6 266.5
172.3 171.1 168.9 166.2 164.3 162.5 161.2 160.1 158.9 157.3 157.7 159.5 160 160.4 161.6 162.5 162.2 162 163.5 164 164.8 167.1 167.9 169.1 169.9 174.6 175.8 176.5 179.9 182.1 187.3 194.1 198.4 202.4 208.4 213.3 216.3 218.4 217.6 215.1 212.5 208.6 203.6 198.6 191.3 189.1 188.2 187.3 186.7 186.1 185.6 185.4 185.5 186 186.5 185.6 184.2 183.1 179.8 178.5 178.2 178.3 176.8 175.6 170.4 169.3 168 166.1 164.5 163.4 162.9 162.1 161.1 159.7 160.3 160.6 161.8 161.7 161.5 160.9 160.3 159.1 157.6 156.8 156.3 155.8 156 156.6 158 161.4 163.2 166 168.9 171.5 173.5 175.7 178.6 181.5 186 189.9 191.6 191.1 192.5 190.8 188.3 188.1 190 191.7 194.2 196.1 193.5 192.8 192.2 191.6 192.1 193.5 197 203.2 211.6 216.6 218.1 219.6 222.7 221.9 221.9 221.1 220.8 220.1 218.3 214.5 211.3 209.7 213.9 214.7 216 215.2 218.4 222.9 223.7 218.5 214.4 214.3 215.8 215.7 215.2 215.3 216.7 217.3 218.8 218.1 218.6 219.9 222.7 226.2 231.5 240.1 245.2 249.7 252.7 255.7 259 262.8 265.3 266.5 266.4 267 267.7 268.1 268.1 268 268.1 267.4 265.2 263.1 261.6 259.9 256 255.4 253.6 251.1 248.6 246.8 243.8 241.6 243.4 241.2 241.8 241.5 242.9 246 248.9 250.3 252.7 255.9 257.6 257 262 265.4 268.4 272.4
173.9 170.8 169.1 166.9 164.8 163.2 162 160.8 159.5 158.3 157 157.7 158.6 159 160.1 161.2 161.6 161.2 161.3 162.3 163.4 164.9 164.2 167 168.9 171.9 172.9 173.4 177.3 180.5 183.4 191.6 195.7 200.6 206.6 211 214.4 216.6 220.1 218.6 213.5 210.7 204.8 199.9 194.1 190 189 187.9 187.4 186.8 186.3 186 185.8 186.2 186.2 185.1 183.3 182.5 183.3 180.7 178.8 178 177.2 177.8 175.3 170.6 168.9 166.9 165.6 165.1 164.6 163.4 163 160.9 159.7 159 159.8 160 159.7 159 158.4 157.7 156.7 155.9 156.2 157 159.6 161.4 163 164.4 165.5 167.7 171.3 175.2 177.5 181.2 187.6 190.6 194.9 197.5 200.8 202.3 201.8 199.9 197.5 194 193.8 193.6 194.1 195.2 193.8 192.6 192 191.1 190.3 193.7 198.8 204.9 209.8 215.9 220.3 222 226.1 224.2 220.6 220.1 218.9 216.8 216.1 212 207.3 206 206.4 207.2 207 208.7 216.9 219 219.1 213.8 212.2 212.1 213.5 213.6 212.7 214.8 216.5 219.9 222.7 224 224.1 225.1 229.2 233.7 238.6 242.3 249.3 252.5 255.7 257.4 261.3 264.8 267.5 268.6 268.5 268.5 268.1 268 267.8 267.7 267.9 266.8 264.9 262.6 260.7 259.2 256.4 253.2 251.2 249.3 248.5 248.8 247.8 246.7 247.2 245.8 246.5 245.2 248.2 249.1 251.8 255.4 258.7 261 262 264.2 262.1 271.3 275.4 281.7
173.1 171.2 170.1 169.1 167.5 163.9 162.6 161.4 160 158.7 157.6 156.4 157.2 157.7 158.7 159.7 160.7 160.6 160.2 161 161.9 162.2 163.5 165.8 168.3 169.7 170.4 171.8 174.7 178.3 181.9 187.3 192.2 195.6 201.2 206.8 211.2 212.6 217 220.5 218 213.1 206.5 201.8 196.3 190.9 189.9 188.7 188.4 187.9 187.4 186.6 186.1 186.1 186 185.9 185 185.9 186.8 183.7 179.4 178.3 177.1 176.5 176.5 173.7 170.1 169 167.5 166.8 166.6 167.4 165 162.4 161 159.1 158.3 157.9 157.7 157.1 156.9 156.7 156.2 156.2 158 158.9 161.2 163.6 165.5 165.5 167.2 172.9 175.6 180.3 183.7 188.8 196.2 200.8 205.6 207.7 208.9 211.8 213.9 215.1 214.2 210.7 202.8 198.2 196.5 196.8 194.9 193.4 191.9 190.3 188.5 192.7 200.4 205.9 210.1 212.5 218.5 220.5 224.2 225.3 222.2 218.1 217.2 215.7 211.6 208.9 204.7 202.4 201.7 200.9 202.4 204.6 212.4 214.1 213.4 209.5 208.8 209 211 211.5 213.9 216 220 223.2 225.7 227.6 230.2 232.1 238.1 239 241.2 246.9 252.6 255.2 258.3 259.3 261.9 265.6 268.6 269 269.4 269.5 268.8 267.8 267.5 267.4 267.7 266.2 264.6 262.3 260.1 258.3 255.6 252 252.1 252.9 253.2 252.5 251.9 251 251.5 250.6 250.8 249.8 251.5 254.1 257 258.7 263 264.3 267.5 269.6 272.1 276.8 282.9 290.4
170.8 168.9 168.4 170.7 169.4 165.2 163.3 161.6 160 159.1 158.1 156.9 156 156.3 157.2 158.2 159.4 159.9 159.5 159.5 160.3 160.6 160.2 161.2 162.8 164.9 165.8 168.2 171 175.7 178.1 180.8 184.9 189.1 193.5 198.5 203.3 209 210.3 214.4 215.2 212.8 208 201.8 196.2 192 190.8 189.7 189.8 189.4 188.6 187.8 187.1 186.6 186.4 186.3 186.2 186.1 188.8 187.8 183.1 177.9 177.1 176.2 175.5 174.4 170.4 169.4 168.6 168 168.4 169.6 168.1 164.2 161.1 160 159.2 158.4 157.7 157 156.8 156.6 156.3 156.5 156.9 160.7 162.7 163.2 165.4 166.9 171.8 176.7 178.8 184.5 190.1 199.3 204.7 212.1 218.9 223.2 226.6 230.7 232.4 232.9 230 225.3 216.7 206 201 198.4 197.2 194.6 195.2 191.7 190.1 187.4 192.4 202.3 208.8 210.1 216.6 218.2 223 221.9 220.5 218.1 213.7 210.8 207.5 205.2 202.6 200.3 198.6 197.7 198.1 202.3 208.2 209 207.9 205.7 205.8 206.7 210.5 212 213.7 217.3 222.6 225.8 227.6 231.1 233.7 237.7 242.3 243.9 246.5 250.6 254.1 257.2 260.3 262.4 265.1 267.4 269.6 270.2 270.8 270.5 269.7 269 268 267.1 267.4 265.6 263.8 261.7 259.4 256.6 254.2 255.3 255.7 256.1 255.9 255.7 255.5 255 253.7 254.7 255.1 255.1 255.7 258.8 261.5 263.4 266.4 269.7 272.9 276.5 278.5 281.1 288 295.4
168.6 167 165.7 166.9 168.2 166.3 163.8 161.4 160.4 159.5 158.6 157.6 156.7 156.6 156.4 157.6 158.2 158.8 158.8 159 159.1 159.1 159.2 159.1 158.7 159.9 164.3 166.3 169.6 173 176 177.7 179.5 181.7 185.2 190.1 195.1 199.2 202.9 205.8 207 204.9 203.5 200.3 196.7 193 191.7 190.7 190.9 191.8 192.1 190.3 189 187.7 187.5 187.3 187.1 187 185.2 183.4 183.2 178.1 176.6 176 175 173.6 169.9 169.2 168.6 168.1 168.1 169.8 169.2 167.2 163.4 161.1 160.3 159.4 158.4 157.8 157.2 156.7 156.7 157 157.2 157.3 160.7 163.7 164.9 170.2 176.8 180.9 183.3 190.4 197.2 206.2 214.2 221.6 232.5 238.8 244.1 248.4 248.5 244.4 238.9 232 223.7 213.6 205.5 201.9 199.4 195 196.2 196.5 189.9 187.9 187 192.4 201.9 206.1 212.2 216.4 220.3 220.8 218.4 219.6 212.8 208.2 203.5 201.5 199.4 196 194.9 194.6 194.9 196.2 199.9 202.2 203.2 202.9 202.7 203.7 206.4 209.8 213.4 216.4 223.5 226 228.5 230.2 237.5 242.4 245.4 245.7 249.9 254.6 258.6 263.9 264.8 266.1 268.1 270.3 272.2 271.7 272 271.4 270.7 270 269.3 268.4 267.8 265.9 263 258.6 258.3 256.8 257.3 257.2 257.8 258.4 258.9 259.3 259.6 259.1 259.1 258.5 260.1 259.8 261.9 262.5 266.2 267.8 270.7 274.6 278.4 282.7 286 289.9 293 301.1
163.9 163.4 163.9 162.9 163.5 164 163.3 161.1 160.3 159.3 158.8 158.3 157.4 157.1 156.4 157.2 157.6 158 158.8 158.5 158.6 159.3 158.2 158.5 159.2 162.1 165.1 165.5 167.4 170.2 173.1 174.6 176.4 178.8 181 183.5 187.4 191.4 195.6 197.4 196.4 199.6 198.6 198.3 196.3 194.9 192.7 192 192.8 192.5 193.1 194.9 193.1 189.9 188.7 188.4 188.2 188 186.5 184.4 180.5 178.3 176 175.1 173.8 172.3 169.3 169 168.5 167.4 167.7 167.6 168.5 168.7 166.5 163.8 160.6 159.4 158.4 157.7 157.2 156.7 156.6 156.8 157.1 157.1 157.7 162.9 164.8 172.8 177 182.8 186.3 192.9 202.3 211.4 220.6 229.3 237.3 244.5 251.6 256.9 259.6 255.9 249.1 241.6 229.9 219.3 210.4 204.4 200.2 196.1 194.2 197.7 193.3 188.1 185.7 186.9 195.2 201.9 206 211.3 213.9 217.5 216.3 217.1 208.8 203.7 201 199.6 197.4 194.6 193.2 192.8 193.5 193.4 196.8 200 200.6 199.8 200.4 202.9 206.1 209.4 214.6 219.1 223 227.2 230.3 234 240.2 246.1 248.5 250 253.2 260.4 265 267.7 268.5 268.4 270.7 273.1 275.1 273.2 273 272.4 271.6 270.8 270.2 269.5 268.6 265.4 262.8 262.7 260.3 260.6 260.9 260.4 261 261.9 263 263.9 264.2 264.2 263.5 263.1 265.3 265 267.3 268.1 270.5 272.8 276 279.3 284.7 287.6 293.3 297.6 303.2 308.8
153.6 158.9 159.5 159.7 160.1 164.5 161.9 160.7 159.9 159.2 158.6 158.5 158.1 157.5 157 156.5 157.3 158.2 160.2 158.9 158.2 158.4 158.8 159.5 161.1 162.3 162.6 163.7 165.3 167.9 170.2 171.5 173.7 176.1 178.5 181.2 182.8 185.5 188.8 189.8 189.7 192.2 194.4 196 196.6 195.6 193.5 194.4 193.1 192.3 193.3 193.1 192.5 191.4 189.6 189.3 189 188.7 188.8 186.8 181 178.5 175.9 174.1 172.8 171.6 168.9 168 167.6 167.1 167 166.8 167.7 168.7 169.5 166.3 162.7 159.9 158.5 157.7 157.2 156.8 156.7 156.7 156.9 157.1 158.8 163.7 166.9 175.6 178.8 184.3 190.5 195.2 205.8 214.6 222.5 229.8 239 248.4 256 261.3 265.6 264.4 257.6 249 237.2 226.2 214.9 207.2 203.5 199 193.2 192.1 193.7 189.5 185.7 185.7 192.6 199.5 203 205.5 209.7 212.5 212.7 211.7 204.4 200.6 199 197.4 195.9 194.1 193.1 192.8 193.2 193.5 193.3 196.2 197 196.2 199.4 204.4 207.5 214 218.9 221.3 224.4 231 235.2 238.8 244.6 248.2 251.1 252.4 255.7 264.7 269.7 271.1 271.9 273.2 275.2 276.7 277.6 275.7 274.1 273.2 272.4 271.7 270.8 269.9 268.6 265.3 265.6 264.7 263 264.2 264.6 263.8 264.7 265.7 266.7 268.2 268.9 268.3 267.7 267.7 270 271.3 271.9 273.2 275.7 279 281.9 285.3 290.8 295.9 301.1 306.8 313 322.2
144.9 152 155.9 157.8 157.5 159.1 160.9 160.3 159.8 159.1 158.4 158.3 158.1 158 157.2 156.5 156.6 157.1 157.8 158.4 157.7 157.9 158.1 160 160.2 160.6 161.8 162.7 163.6 164.9 167.4 168.9 171 173.4 176.2 178.2 180 181.7 183.9 184.9 185.5 189 189.3 190.3 192.2 192.7 195.2 194.5 194.1 193.5 193.7 193.4 193.3 192.2 190.5 190.1 189.7 189.3 188.9 188.9 184.5 178.9 176.7 173.8 171.9 170.8 168.6 167.6 166.9 166.5 166.4 166.2 166.7 168.2 171.1 170.2 164.1 161.1 159.4 157.8 157.3 156.9 156.8 156.8 157.2 157.6 161.8 166.2 167.7 174.9 182.7 190.6 193.5 200.3 209.6 217.9 224.4 229.9 238 247.8 255.1 259.2 263.9 265.6 261.4 250.4 241.7 230.4 220.4 213.6 211.8 203.2 196.1 191.5 189.8 189.4 185.9 184.6 189.7 199.2 202.1 201.7 206.8 210.6 207.6 205.3 201.1 199.3 197.9 196.7 195.6 194.3 193.5 192.8 192.7 192.4 193.3 194.6 195 195.5 199.9 201.9 210.9 219.3 224.7 226.4 227.1 232.9 237.9 241.4 246.6 250.8 253.4 256 258.6 265.1 269.3 272.8 275.6 276.7 278.2 279.9 278.9 277.6 276.3 274.9 273.3 272.1 271.1 270.2 268.6 268.4 267.5 266.6 266.7 267.5 267.6 267.4 268.1 269.1 270.4 272.5 273.6 273.3 274 273.7 275.2 277.7 277.4 279 281.8 285.7 289.2 292.7 298.7 303.1 309.9 318.3 328.8 338.8
148.2 143.5 147.3 152 154.5 155.1 156 156.7 158 157.5 157.9 157.8 157.4 157 157.2 156.6 156.5 156.7 157 157.4 157.2 157.4 157.8 158.8 159.5 159.4 159.8 161.8 162.7 164.3 165.4 166.2 168.9 170.9 174.1 176.3 176.7 178.6 181.4 182 182.4 185.2 186 186.6 188.1 190.2 193 194.7 194.8 194.5 194 193.8 193.8 192.9 191.6 190.8 190.4 190 189.6 190.2 189.3 182.1 177.4 173.8 171.2 169.9 168.3 167.1 166.5 166 165.9 165.8 165.8 166.9 169.8 170.9 167.2 162 160 158.2 157.4 157 156.9 157.2 157.7 158.5 162.2 166.7 171.9 177.8 184.3 189.3 195.9 204.7 212.9 221.8 226.3 229.8 234.5 239.5 248.2 257.7 262.5 264.1 259 252.7 242.6 233.6 226.9 223.8 221.7 211.9 200.9 192.8 189.7 187.7 185.8 184.2 184.8 193.1 196.7 199.4 202.5 205.8 206.5 203 199.3 197.9 197.8 198.3 197.4 195.2 194.7 193.3 193 192.5 193.4 194.3 195.9 196.6 198.8 212.2 215.6 221.6 226.1 229.4 231.5 235.7 240.3 243.4 248.5 251.6 254.7 258.7 262.1 265.9 273 275.9 278.9 279.7 281.7 283.7 283.7 282.6 279.5 276.4 274.7 273.3 271.9 270.6 270.2 270.2 269.7 268.9 269.2 270.7 270.4 270.9 272 274 275.3 276.9 277.5 277.8 279.3 280.2 280.6 281.9 281.5 285.1 288.7 293.4 297.8 301.8 307.3 312.5 322.2 334.3 343.3 351.7
149.1 148.7 141.4 147.5 149.3 150 152 150.6 153.3 154.5 155.7 154.2 155.5 155.7 156.2 156.7 157.8 156.5 156.7 156.7 156.8 157.2 157.6 158.4 158.3 158.2 158.6 160.1 161 162.2 163.4 165.8 166 168.9 171.1 171.8 174.1 175.8 177.9 180.3 180.9 182 184.1 186.3 187 189.2 191.7 193.6 194.7 194.5 194.3 194.2 194.2 193.6 193.2 193.2 191.6 191.2 189.6 187.7 186.9 184.2 178.8 173.8 171.1 169.1 168 166.7 166.2 165.7 165.4 165.4 165.5 165.7 167.5 168 166.8 162.5 160.5 158.7 157.9 157.1 157.2 157.6 158.2 161 164.8 168.1 173 179.3 185.6 190 194.9 203.3 211.4 219.7 226.2 228.6 230.5 234.3 239.4 250.2 261 264.6 260.2 254 245.2 238.6 235.5 232.5 231.9 219.4 208.2 196 189.9 188.1 186.2 184.8 184.1 185.5 193.2 196.8 199.6 204.2 202.6 200.9 197.5 195.7 196 196.5 198 197.7 196 193.9 193.3 192.6 193.4 195.9 197.9 200.3 203.9 212.4 217.9 222.9 226.2 228.6 232.8 237 240.6 244.1 249.3 253.8 257.5 261.2 264.9 270.7 277.1 281.2 282.7 285.7 288.5 288.3 287.6 287.5 284.2 280.4 276.9 274.7 273.2 271.3 271.5 271.9 271.9 272 272.4 273.8 275.4 274.4 276.6 279.1 280.6 280.9 282.3 283.4 284.9 285.8 285.4 287.9 288.8 291.1 295.7 303 306.9 311.9 316.7 321.9 335.8 345.4 355.8 367.1
146.7 145.4 145.7 139.3 142 140.9 140.8 145.2 146.2 149.4 152.6 155.5 157.2 157.8 158.2 158.3 158 157.7 157.9 157.2 157.3 157.6 157.5 157.7 158.1 158.4 158.9 159.4 160.5 161.4 162.1 163.6 164.3 166.4 167.3 168.2 170.6 173.5 175.2 177.1 179.7 183.4 187.6 187.6 188.5 189.6 192.5 195.5 194.7 194.2 194 194.9 200.9 197.7 197.1 197.4 195.4 191.9 190.3 187.6 183.7 181.5 178.3 175.5 171 169 167.5 166.1 165.6 165.1 164.8 165.1 165.4 165.6 166 166.5 166.9 164.4 161.4 159.2 157.7 157.1 158.3 158.7 159.5 160.5 165.6 168.6 172.2 177.6 184.2 190.2 194.5 200.4 207.5 215 221.1 224.6 225.6 228 231.2 237.9 247.8 256.9 260.3 256 248.4 242.9 238.8 235 233.2 226.2 215.5 203 192.3 188.8 187.2 185.7 183.9 183.4 186.2 190.5 196.1 200 198.6 196.8 194.7 193.9 194.3 195.1 197.8 197.2 196.3 194.4 194 192.3 195.4 195 195.3 204.4 207.1 211.8 219.7 223.8 226.8 229.5 231.7 235.9 239.8 243.6 248.4 254.4 259.8 263.8 269.2 274.3 279.3 283.4 285.7 289.4 290.3 290.1 289.9 289.6 287 283.1 280 277.3 274.4 272.9 274.2 274.7 274.4 275.1 275.4 277.7 278.8 280 280.2 282.7 286 287 288.1 289.3 289.8 290.5 290.9 294 295.7 299.5 304.4 310 315.7 321.6 325.5 335.9 349.1 360.8 374.5 386.9
146.5 144 141.8 140.6 138 138.6 142 142.9 143.7 151.7 155.7 157.5 158.8 160 160.6 160 159.7 159 159.8 160.3 158.2 157.9 157.7 158 160.3 159.4 159.9 160.2 160.4 161 161.6 163.2 162.9 163.4 165.9 167.2 168.3 170.2 172.1 175.1 178.3 185.3 188.3 191.8 190.9 191.6 194.4 196.5 196.1 194 193.8 194.8 205.1 202.4 199.4 199.2 198.3 194.4 190.2 186.4 182.7 180.1 176.1 173.5 170.9 168.2 167 165.6 164.9 164.6 164.3 164 164.3 165.4 165.8 166.3 166.7 165.8 163.7 160.4 159.6 157.3 158.3 159.9 160.6 161.5 164.6 168.2 170.9 176.1 181.6 187.6 193.9 198.6 203 209 214.4 218.1 222 221.9 223.9 229.1 238.9 247 252.1 254.2 250.2 248.1 242.2 237.6 232.9 225.9 218.7 209.4 198.1 189.6 187.7 186.6 186.2 183.4 183.2 185.1 191.1 194.8 193.6 190.9 192.1 192.4 193 194.3 197.8 196.7 195.6 194.5 193.8 191.5 195.7 194.8 195.8 205.3 208.9 212.8 220.3 223.4 226.2 229 231.6 234.8 238.5 242.6 247.4 252.9 258.7 265 271.2 277.1 280.5 284.9 286.9 289.5 290.8 290.7 290.1 289.2 288.2 285.5 282.3 278.6 275.6 274.5 275.8 275.7 277 279 279.9 281 282 283.6 284.5 287.3 291.4 293.1 294.2 295.2 295.7 297.3 297.9 299.4 302.5 307.4 314.1 318.9 323.7 330.8 337.2 347.9 364.3 378.7 394.9 411.1
144.7 143.4 141.1 138.2 137.2 136.4 138.4 142.8 145.9 149.3 152.3 155.1 157.2 160.4 161.2 161.1 161.2 160.4 161.1 162 163.8 160.1 158.7 158.3 160.3 160.5 160.7 160.9 161.1 161.5 161.8 161.3 161.6 162.1 163.2 163.3 165.8 167 169.3 171.6 175.7 180.2 185.1 189.4 192 192.2 192.4 192.8 192.9 192.9 192.8 193.2 201.7 203.3 201.4 199.1 196.6 193 190.5 185.4 182.9 179.1 175.6 173 170.1 167.7 166.4 165.1 164.3 164.1 163.8 163.5 163.2 164.2 165.5 166 166.9 166.9 164.9 162.2 161.2 159.4 158.5 160.1 161.7 164.9 167.2 168.6 171.4 176.1 181.4 185.1 190.8 196.6 201.1 203.3 206.9 212.3 214 216.5 215.6 221.1 231.2 238.9 242.2 246.1 244.4 246.4 245.6 237.5 232.3 224.1 215.9 210.7 202 190.6 188.3 187.2 189.1 186.7 183.8 183.1 184.4 186.5 188.6 187.1 188.5 190.6 191.7 194.9 196 196.6 196 195.4 192.6 190.9 194.4 200.1 204.6 207.6 209.1 213.5 218.9 222.1 224.9 227.7 231.8 234.8 237.4 241.2 247.2 253.8 259.6 265.2 270.9 276.8 281.1 284.9 287.9 289.4 290.7 290.9 289.7 288.8 287.9 286.2 284 281.2 278.7 276.9 277.1 278.3 280.3 282.2 282.7 284 285.5 287.6 289.9 292 296.6 299 300.3 301.1 301.9 302.4 304.2 308.2 312.4 317.3 323.6 330.5 337.1 342.8 351.6 362.2 377.3 396.5 417.4 438.3
141 140.5 139.4 138.5 136.5 136.4 135.8 139.4 140.6 146.2 150.2 152.6 155.2 159.9 165.2 161.7 162 161.6 161.9 162.3 166.9 164 161.2 159.6 159.9 161.2 161.4 161.6 161.8 161.7 161.1 160.6 160.4 160.6 161.8 161.5 162.1 162.8 164.9 167.7 172.1 176.8 180.2 184 188.4 190.3 191.3 191.7 191.1 191.8 191.3 190.6 197.9 201.1 201.4 198.5 195.3 192.2 188.6 183.5 180.3 177 174.7 172.6 170.7 167.8 166 164.7 163.6 162.8 162.5 162.1 162.3 162.9 164.7 166.7 171.2 172 167.6 164.5 162.9 161.4 160.8 162.9 162.3 165.3 168.4 169.3 171.1 173.3 179.6 183.4 187 193.4 197.9 200.2 201.8 204 209.2 211.6 210.8 211.3 219 228.1 233.7 235.5 237.3 238.6 240.6 235.4 226.9 220.6 213.2 208 199.2 194 188.3 186.8 185.6 188 186.6 183.4 181.6 180.5 182.1 182.7 185.1 187.4 187.8 192.8 194 194.1 195.3 194.5 192.4 190.5 189.9 194.5 200.4 204.3 210.1 213.7 217.2 220.4 223.7 227.1 231.4 235.2 237.3 241.1 246.5 253.4 259.7 265.3 270.5 275.8 279.9 283.8 287.6 290 290.7 290.8 290.3 289.1 287.9 286.6 284.9 281.4 279.9 279.8 280.2 281.9 284.9 285.8 287.1 287.3 289.7 291.8 294 295.8 300.8 306.2 306.8 306.8 306.8 312.1 316.5 320.7 326.8 331.3 337.8 347.2 353 356.6 367.9 377 392.1 412 437.8 459.7
142.5 140.9 139.3 138.3 137.5 137.5 136.3 136.6 138.1 140.4 144.9 149.7 153.3 158 160.7 163.2 164.9 163.6 163.4 163.8 163.8 164.9 162.6 161.2 160.8 162.2 162.1 162.3 162.3 161.8 161.2 160.3 159.3 158.2 159.4 160.3 160.9 160.2 160.6 162.4 167 172 176.5 179.7 183.5 185.9 188.6 189.3 189.3 190.5 189.7 189.5 191.9 198.1 198.4 198.3 195.3 190.8 186.5 182 178.7 175.4 174.1 172.1 170.7 168 165.6 164.4 163.3 162.2 161.1 161.1 161.7 162.2 163.4 171.6 174.3 175.1 171.2 166.1 163.9 165.1 164 164.9 163.9 163.6 165.5 168.6 169.9 171.5 176 181.1 184.6 189.6 194.3 197.1 198.8 199 201.9 205.2 206.9 206.8 208.5 218.7 221.5 224.3 225.4 226.8 227.9 224.5 218.9 212.1 207.1 203.8 197.6 194 188.9 186.3 185.2 184.6 184.6 183.4 182.1 178.4 178.6 179 180.3 182.8 183.8 187.7 190.7 191.7 193.4 192.3 190.9 190.5 188.5 191.1 196.8 201.6 208.5 211.7 214.5 217.9 221.4 225.8 231.5 234.3 237 241.7 246.8 253 259.3 265.3 270 274.4 278.6 282.7 286.7 289.4 290.5 290.6 290.7 289.7 288.5 287.1 284.7 283 281.7 282.3 283.2 285.7 290 289.2 290.6 290.2 292.1 295.6 297.8 300.4 306.5 312.8 314.7 315.8 319.4 327.9 334.6 337.5 343.7 351.8 357.4 364.1 368.3 371.6 380 393.2 411.1 432.6 454.5 467.4
145 144.2 143.7 142 138.7 136.7 134.8 135.1 136.3 138.9 140.7 143.9 148.9 155 159.1 161.7 163.2 164.4 163.2 163.1 163.9 164.4 163.5 162.4 162.8 163.3 162.8 162.7 162.5 162.2 162.1 159.9 158.1 156.9 156.5 155.1 157.5 156.8 156.6 156.5 160 165.1 170 174.9 178.5 181.8 184.7 186.3 186.5 186.8 187.8 187.3 186.9 191.6 193.1 193 192.6 189.7 186 181.9 177.7 174.6 174 172.4 170.6 167.7 165.2 163.9 162.8 161.6 160.5 160.5 161.2 161.8 163.4 171.4 175 174.8 172.4 168.5 166.3 167.9 166.4 165.2 164.2 164.8 164.8 167 168.4 169.5 172.2 176.7 181.2 185.4 189.1 192.2 195.1 195.9 197.1 199.7 201.8 203.9 203.1 204.7 209.8 215 216 218.2 216.8 213.1 209.7 206.1 202.3 198.8 194.1 191.1 188.8 186.8 185 184.1 182.9 182 179.7 178.2 177.7 178.1 178.5 181.2 180.8 184.2 184.9 188.7 191.4 191.3 192.9 189 187.1 198.1 201.4 204.7 208 210.9 213.4 217.2 220.8 225.1 230.1 232.2 235.8 240.8 246.9 253.4 259.6 265 269.5 274 278.5 282.9 286.8 289.6 290.4 290.7 290.4 290.4 289.2 287.4 286.7 284.8 283.8 285.4 288.1 290.8 294.2 292.6 293.3 293.9 294.3 298 301.7 305.7 311.1 317.5 322.6 327.3 332.9 344 353.2 361 366.3 371.7 378.3 382 381.6 386 395.1 409.8 432.6 449.3 460.4 466.9
153.5 151.7 148.4 145.9 142 137.6 134.4 135.6 137.3 138.3 139.6 141.3 144.3 147.6 153.1 157.1 160.1 161.1 161.1 163.1 163 164.2 164.5 165.4 165.9 167.5 167 164 163.6 163.6 163.1 161.1 158.6 155.5 153.5 151.4 150.5 150.7 151.6 152.8 155.4 159.1 164.3 169.4 173.5 177.5 180.6 182.8 183.9 184.1 185.4 185.3 184.9 186.5 189.8 192.9 192.7 190.7 186.2 182 176.9 173.3 172.4 171.2 169.7 166.6 165 163.3 162.1 161 160 159.3 160.6 161.4 163 169.1 175.8 174.3 172.4 170.1 168.6 169.4 169.8 168 165.2 165.7 165.7 165.6 167.3 169.4 170.6 172.8 175.8 180.1 183.9 187 190.1 192.4 194.6 195.5 196.9 198.7 199.5 199.1 200.6 204.3 207.7 209.3 208.3 205.8 203.4 201.4 198 195.4 192.6 188.5 186.7 186 185.2 183.8 182.9 180.3 179.3 178.1 177.7 177.7 178.1 178.5 181.3 184.4 181.4 180.9 189.5 189.2 191.5 189.5 189.3 199.3 204 205.7 208.2 211.3 215.1 218.6 222.8 224.7 227.9 232 234.8 240.4 246.7 253.1 259.6 264.7 269.5 276 280.6 283.9 288.1 291 291.9 291.6 291.4 291.6 290.9 290.8 289.3 288.8 289.1 291.2 294.3 298.4 298.4 298.2 298.7 298.5 298.8 301 304.5 310 315.2 322.4 332.3 340.5 349.2 369.8 379.1 385.6 394.4 399.9 402.8 401.9 400.1 404.1 414.7 432.3 444.9 452.8 456.9 461.6
155.7 153.1 149.2 144.9 141.3 137.9 133.4 137.3 139.4 140 140.6 141.4 143.8 144.9 146.9 149 151.3 157.7 160 160.8 161.3 163.6 166.4 168.4 168.3 170.7 175.3 171.3 168.5 165.6 164.3 162.1 159.7 156.7 152.7 149.2 147 147.5 149 149.4 151.9 156.1 160.1 162.9 169.2 174.5 176.4 178.6 181.1 181.6 181.5 183.1 183.1 184.4 187.7 191.4 192.4 191.3 186.7 180.9 175.3 171.9 171.2 174.1 168.3 166.5 164.5 163.1 161.5 160.4 159.6 158.7 159.9 160.7 161.9 166.8 172.7 174.7 173.4 171 169.9 171.1 172 170.9 167.1 166.7 166.1 166 165.5 167.8 168.3 170 173.1 176.7 181.4 184.9 188.1 190.6 192.8 194 194.3 194.5 195.7 196 196.5 198.6 199 197.9 197.4 196.5 196.7 195.8 194.7 193.2 191.3 186.4 184.6 184.3 183.7 182.9 180.7 179.6 178.6 178 177.6 177.4 177.8 178.2 178.6 179.1 180.6 180.7 186 186.5 189.5 187 187 194.4 203.5 205 210.6 213.4 215.4 218.6 222.5 225.7 228.5 231 234.4 239.4 245.7 253.6 259.8 264.7 270.4 276.4 282 287.1 290 293.6 295.3 295.8 295.9 295.1 295.7 295.4 295.9 297.2 298.7 299.5 303.6 304.3 304.1 303.8 304.9 306.6 305.3 306.6 309.5 315.7 321.9 332 345.1 355.4 372.3 391.7 403.9 412.9 418.4 421 418.8 418.1 422.1 423.5 430 436 443.5 448 452 454.3
154.8 151.1 148.2 143.8 139.2 135.1 130.9 136.3 139.9 141.3 141.3 141.7 142.4 144 146.1 149.5 151.8 153.1 155.1 159.8 162.8 168 168 168.9 169.5 169.8 173.9 175.2 174.1 172.1 169.6 166.2 160.9 157.5 154.1 151 149.2 146.3 144.5 145.5 146.7 152.2 155.3 159.8 164.3 169.8 172.5 175.2 177.8 179.4 179 180 182 183.6 184.6 186.1 187.8 191 187.2 180.9 175 171 169.3 170.6 168.5 165.5 163.1 161.9 160.9 159.9 159.1 158.3 159.2 160.1 161.2 164.1 170.4 173.4 173.1 171.6 170.7 172.2 172.4 170.9 168.1 167.4 166.6 165.5 164.8 165.6 166 167.2 170.6 174.1 178.1 181.9 185.7 188.8 190.5 191.3 192.1 192.2 192 192.6 193.7 192.8 191.3 190.8 188.8 187.7 189.4 189.8 190.1 189.6 187.5 184.6 182.6 182.3 182.6 181.7 180.7 180 178.8 178.1 178.2 178.1 177.9 178.3 178.7 178.9 179.3 182.7 187.2 184.2 184.7 186.7 188 194.1 200.7 203.4 209.6 213.1 215.9 217.9 221 224.6 226.9 229.9 233.5 238.5 246.2 254.4 260.5 265.7 270.4 275.8 281.3 286.9 292.4 296.4 300 302.2 302.4 302.4 304.2 306.4 304.4 304.3 307.5 306.9 309.6 312.1 311.2 311.6 313 314.1 313.4 314.2 317.1 321.4 330.3 345.3 362 375.4 390.7 410.3 422.1 428 427.5 425.8 422.8 421 421.8 420.7 422.4 422 426 434.9 438.8 441.3
160.2 156.2 148.9 142.7 136 133.3 130.7 134.4 137.7 139 141.5 142.7 143.6 143.5 144.7 146.8 151.3 153.4 155.5 160.6 164.9 166.5 168 168.5 169.4 169.9 171.9 175.5 174.7 174.1 171.3 167.1 161.7 158.6 157.1 154.8 151.4 148.3 145.6 144.3 142.9 145.3 148.8 152.5 157.3 162.3 167.8 172 174.5 175.8 176.4 176.4 182.1 184.2 183.1 183.4 184.1 184.4 183.9 180.7 175.5 171 167.2 168.8 168.7 165.3 162 160.9 159.4 158.5 158.2 159.2 159.3 159.5 161.5 165.1 168.3 171.9 172.3 171.8 171.7 174.6 176.2 171.9 169.6 168.4 167.3 166 164.3 163.5 163.4 164.8 168.2 171.4 175.2 178.7 182.5 185.6 186.9 186.8 188.5 189.5 187.9 188 188.6 187 187 186.5 183.6 183.8 184.3 184.7 185.2 185.6 185 182.2 180 182.3 182.7 181.6 180.3 180.4 179.2 180.1 178.1 178.1 178.5 178.4 178.8 179 179.6 185.3 184.4 183.8 186.9 187.9 189.7 195.6 200.9 204.3 206.9 213.3 216.6 219.8 221.2 223.9 226.9 229.4 233.1 237.9 245.5 253.2 260.4 266.7 271.1 275.3 281.2 287.4 292.9 297.6 301.5 304.9 308.1 310 312.9 313 311.3 310.6 313.6 316.1 317.2 319 320.1 319.9 321.5 324.7 325.1 325.3 328 331.8 340.7 354.2 368.3 381.2 399.7 417.4 427.1 427.2 422.8 420 417.6 412.2 406.6 402.7 398.8 401.3 406.9 413 418 419.3
155.3 149 144.5 139.1 134.6 130.6 128.5 128.1 130.8 138.4 143 142.9 143.4 142.8 143.4 145.7 149.8 153.6 158.8 159.7 161.7 165.4 167 168.3 168.8 169.3 171.6 175.4 179.3 181.1 182.2 175.9 162.5 161.6 160.2 158.9 155.2 150 149.2 144.4 142.1 143 145.2 146.4 150.1 154.9 160.6 165.9 169.9 172 172.6 172.9 180 185 183.2 181.6 181.7 181.9 179.2 176.4 171.6 169.4 165.3 163.7 163.8 163.3 160.2 159 158.1 157.4 156.5 156.8 156.4 156.5 160.1 163 166.9 168.9 172.3 170.6 172.2 174.5 177.4 174.6 170.4 169 167.7 166.4 164.6 162.5 162.7 163.8 165 168.6 172.8 175.6 179 181.1 182 182.5 184.2 185 184.3 184.6 182.3 183.4 184.1 182.2 180.6 181.3 181.7 180.1 180.9 180.4 180.7 180 178.7 180.6 182.4 181.3 179.9 179.9 180 179.1 178.8 177.6 177.9 178.3 179.4 180.7 180.5 182 183.1 185.4 188.1 190.8 194.1 196.2 199.9 203.9 209 210 215.2 216.2 221.4 223 226.2 230.3 233.5 238.1 245.6 253.2 260.4 267.4 271.7 275.9 280.2 286.1 292.3 299 303 308.1 313.3 316.5 318.2 317.7 316.6 318.5 319.9 323.4 324.1 325.2 325.8 330.7 334.3 332.9 334.3 338.9 339.1 342.8 345.4 355 367.5 382.3 398 414.9 421.5 418.7 413.4 408.9 402.4 391.6 383.2 378.2 375.7 377.9 388.1 390.7 392.3 390.4
145.7 143.8 141.9 137.2 137.6 135.8 130 125.7 128.5 139.8 144.3 141.8 139.6 142 141.9 144.8 149.3 151.7 155.7 160.5 163.1 165.3 166.6 168.1 168.7 169.1 171.5 176.4 180.2 181.5 182.1 178.7 169.4 167.1 165.2 162.8 161.4 158.7 152 144.9 142.1 139.8 142.2 142.9 150.2 154.5 155.1 159.8 164.2 168.1 169.6 171 174 178.7 180.6 180.5 179.6 178.1 176.4 172.9 169.1 166.6 163.5 161.1 161 159.4 158.9 158.1 157.4 156.6 155.8 154.9 154.8 156.3 159.7 160.5 164.5 167.6 170.6 170.3 171 172.3 174.4 172.7 171.6 170.8 169.6 167.3 165 162.8 161.7 162.6 162.8 165.5 169.3 172.5 176.1 177.8 178.7 179.9 181.5 181.8 181.3 180.2 180.4 180.6 180.7 179.2 178.3 178.2 178.3 178.3 178 178.3 178.3 177.8 177.6 178.6 179.7 180.1 179.1 181.1 180.8 180.3 178.2 177.4 177.6 180.4 181.3 183.1 182.1 184.1 184 188.2 190.3 192.2 195 199.7 203.3 205.2 207.6 212.3 212.2 218.1 220.5 223.2 228.1 232 235.3 240.7 246.3 253.8 261.2 268 272.3 276.6 280.8 285 291.5 299.1 307.1 312.7 319.2 322.5 321.1 320.5 321 323 326.9 329.6 332.3 334 340.9 345.8 348.5 348 346.9 354.1 358.9 356.3 356 360.8 365.6 379.1 387.4 397.2 403.7 397 393.7 391.1 382.1 373.3 364.8 359.4 355.9 356.6 366 370.3 372.2 371.7
130.6 130.2 132.6 138.1 140.1 141.7 141.3 129.4 122.9 130.6 131.2 132.3 140.4 142.3 141.8 144.9 149.8 150.9 153.4 157.4 160.5 161.7 165 169 168.8 169 170.4 173 175.9 177.4 179 177.8 175.9 175.3 173.6 169 167.3 161.5 155 149.5 143.4 139.5 138.7 139.2 144.1 148.9 151.9 159.3 164.9 168.6 168.4 168.6 171.3 176 177.6 177.5 177.7 175.3 173.9 170.7 166.8 164.5 161.6 158.8 158.2 158.4 157.8 157.2 156.6 156 155.2 154.3 153.7 154.2 156.4 158.6 163.2 166.4 168.7 170.1 170.8 172.2 172.5 171 170.2 170.9 169.6 167.7 165.8 163.6 161.7 161.3 161.3 161.9 164.8 167.8 171.6 176 177.5 177.2 178.7 178.9 179 178.2 178.9 179.3 178.4 177.7 176.5 176.3 176.6 176.6 176.9 178.1 177.8 177.2 176.7 177.7 178.4 178 177.7 178.8 180.4 178.8 177.8 179.3 177.3 182.5 183.5 184 184.1 186.2 185.7 186.4 188.2 192.3 196.3 200.7 201.9 203.9 207 210.5 214.6 217.6 221 224.9 229.9 232.7 236.5 242.8 248.6 254.4 262.2 268.6 272.7 276.8 280.8 285.1 291.6 299.5 307.5 317.6 324.4 327.3 326 324.4 326.5 329.7 333.8 336.8 339.3 342.3 352.5 363.8 366.1 367.9 365 366.4 371.5 370.7 369.8 372.2 373.6 377.2 379.5 377.7 377.1 376.3 376.5 373.3 366 357.1 350.3 350.3 350.3 350.3 350.3 350.4 355 358.3
125.5 127.3 127 128.2 131.9 136.4 141.8 135.2 116.9 118.1 122.8 134.4 142.5 140.8 139.7 142.1 144.6 146.8 149.9 152.8 155.3 157.8 161.1 163.8 167.3 167.7 169.5 169.7 169.8 173.6 176.3 178 178.3 177.8 179.8 178.4 171.3 166.7 158.7 152.4 146.3 141.8 138.5 136.5 139.3 143.4 146.1 154.9 163.7 168.7 168.2 167.9 170.1 175.7 176.5 175.7 175 174.2 172.2 169.6 165.9 162.1 158.7 157.6 157.2 157.4 156.7 156.1 156.1 156.3 155.8 154.5 152.8 151.6 152.7 157.2 159.9 163.1 168.4 169.8 170.6 171.5 172 170.6 169 167.7 166.1 166.2 165.6 164.3 162.3 160.4 159 159.6 161.8 164.6 168 172 173.9 173.2 174.7 176.4 176.6 176 176.5 176.6 177.7 177.2 176.2 176 176.5 176.6 176.2 175.7 175.6 176.4 176 175.6 176.3 176.4 176.6 176.9 177 176.8 177.1 176.8 178.1 178.9 184.1 184.4 191.3 187.1 187.1 187 189.2 191.5 197.3 201.7 203.2 206.3 211.5 213.8 217.7 219.9 222.1 227.8 231.1 233.5 238.3 242.5 248.8 254.4 261.6 267.8 273 277.5 281.9 286.5 293 300.6 311.9 322.4 329.9 332.2 331.2 328.9 332 336.4 339.7 344.5 348.7 352.6 359.6 375.7 383 385.1 380.4 376.5 378.1 380.6 381.4 380.8 380.9 382.4 381 373.5 370 366.2 362.6 355.8 350.4 350.3 350.3 350.3 350.3 350.3 350.3 350.3 350.3 350.3
126.8 125 122.4 124.7 127.3 127.5 131.8 137.7 131 119 121.3 131.9 137.8 138.4 140.1 140.2 138.3 140 143.2 146.6 151.4 154.9 157.7 161.5 164.8 166.8 168.5 169.2 170.7 172.6 175.9 177 179.3 178.3 178.8 177.9 174.8 164.6 161.3 155.5 149.4 143 138.8 137.2 136.5 141.1 143.3 149.5 155.7 162.7 165.9 166.6 168.5 174.6 175.2 174.6 173.9 173.2 170.6 167.9 163.8 160.7 158.4 156.6 155.5 156.3 155.7 155.5 156 156.3 155.6 154.7 154.1 153.2 151 158.9 162.4 162.1 168.4 169.4 170.4 169.7 168.8 169.3 169.1 167.3 164.2 163.5 163.2 162.1 161.7 159 158 158.3 161.2 162.8 164 167.6 169.8 169.7 170.9 173.7 174 173.5 174.1 175.7 176.7 176.1 175.6 176 177 178 178.3 177.7 176.7 176.4 176.9 176.6 176.5 176.8 177.9 177.9 179.1 182.9 180.6 178.9 180.9 181.3 182.8 184.5 190.6 188.4 189.1 188.6 192.6 196 199.8 204.5 206.3 210.7 215.8 216.6 220.3 222.3 224.9 229.6 232.3 235 240.6 244.7 249.7 254.5 260 267.8 273 277.4 283.1 287.7 295.2 303.3 319.2 327.4 334.1 336.6 336.1 334.9 338.5 341.7 344.4 349.6 355.7 361.1 369.9 382.7 394 394.2 388.2 378.2 373.5 379.4 384.6 385.2 385 384 378.2 371.4 364.5 358.6 353 350.3 350.3 350.3 350.3 350.3 350.3 350.3 350.3 350.3 350.3 350.3
131.3 126.6 124 119.2 119.2 119.2 121.4 127.2 131.3 122.8 111.6 120.8 129 135.6 139.4 137.7 134.5 136.3 142.6 147.9 152 154.6 156.6 160 164.3 165.8 167.7 169.2 170.6 174.5 175.4 176.9 179 178.6 176.2 173.2 171.8 168.8 162.2 153.7 148.7 144.3 139.8 137 135 136.7 139.3 144.6 148.7 155.3 161.3 164.5 167.1 171.7 173.6 173 172.5 171.2 168.6 164.6 161.1 159.8 157.9 156.2 154.4 154.7 154.9 155.4 156 156.1 155.3 154.9 154.4 153.1 150.7 156.5 159 160.6 166.5 169.2 170.4 169.1 167.8 167.6 167.5 165.8 163.5 162.6 161.2 159.1 159.6 157.9 157.3 157.5 158.3 161.1 162.2 165 167.1 166.9 168.6 170.6 170.6 171.9 172.7 174.1 175 173.9 174.4 175.7 177.2 179 179 178.5 178.3 178 177.8 177.5 177.7 180 182.4 182.4 181.9 181.3 181.7 182 181.8 182.5 181.5 184.6 189.4 192.5 195.5 197.2 196.8 199.3 202.7 207.1 210.3 213.5 216.6 218.7 222 224.5 228 231.3 234.5 237.7 243.7 246.1 250.1 255.3 259.8 266.8 273 277.9 283.8 288.9 296.7 307.6 323.2 330.9 339.3 341.6 340.9 341.6 343.3 346 348.2 352.4 361.1 369.9 379.3 392.5 399.1 397.8 392.4 381.1 369.8 368.8 376.7 379.9 382.3 380.4 373.9 367.9 361 354.1 350.3 350.3 350.3 350.3 350.3 350.3 350.3 350.3 350.3 350.3 350.3 350.3
135.5 135.9 130.9 124.7 120.4 115.6 113.8 114.2 115.4 120.4 113.1 116.4 124.2 130.7 133.5 133 132 131.4 140.6 145.5 149.7 152.9 153.4 158.6 162.3 166.1 170.5 171.9 170.4 172.3 175.8 177.4 176.3 175.7 176.5 172.4 168.5 165.7 160.3 155.3 147.7 142.4 138.6 136.5 134.7 135.7 137.3 139.8 143.3 148.2 154.1 160.8 165.1 169.1 171.5 171.7 171.3 169.4 166.8 163.7 160.9 158.6 157.2 154.8 153.5 153.5 155 155.5 156.1 155.9 155.5 155.1 154.7 154.2 150.9 155.2 155.2 160.4 166.3 167.5 167.8 167.2 167.2 166.9 166.6 165.3 163.3 160.2 159.2 158.1 157.5 156.8 156.5 157.1 158.5 159.1 161.1 161.9 164.3 166.3 165.9 166.8 167.5 171.5 172.1 171.2 174.1 177 177 178.5 178.7 179.6 179.5 179.3 179.1 178.8 180.3 178.6 180.2 181.7 182.9 183.5 184 184.2 184.8 187.6 184.4 184.5 183.5 183 185.4 188.6 192.6 194.2 197 199.9 205.3 209.9 212.9 213.8 215.1 219.5 221.1 224.2 227.8 232.9 237.3 242.5 246.7 248.1 250.7 255.7 260.4 266.7 273.5 278.8 283.8 290.2 298.3 313 325.2 334.8 343.3 347 347.6 349.1 349 350.2 351.9 355.2 363.7 373.8 386.9 400.5 404 396.4 389.4 379.3 367.9 361.4 363.9 369.2 374.6 371.1 367.7 364.3 358 351.4 350.3 350.3 350.3 350.3 350.3 350.3 350.3 350.3 350.3 350.3 350.3 350.3
139.1 142.5 138.7 129.9 123.1 119.7 118.9 116.4 114.1 110.2 109.5 108.3 112 120.1 125.6 127.8 126.9 129.1 133.4 137.9 137.7 141.4 147.6 159.8 171.1 171.6 172.7 174.2 172.7 171.6 170.7 172.3 177 172.5 169.9 167.5 165.4 162.5 157 153.1 146.5 142.2 139.1 137.4 134.7 134.3 135.6 137.5 140.5 142.8 147.8 154.6 160.6 165.5 171.5 171.2 170 167.9 164.9 161.9 159.6 157.4 155.9 154.5 152.8 154.3 155.4 155.9 156.4 156.3 155.4 154.5 154.1 153.3 151.2 151.1 152.4 159.2 161.6 163.9 164.2 165.8 166.6 166.8 165.6 164.2 161.2 159.2 158.5 157.5 156.5 155.7 156.1 156.9 157.7 159.7 160.7 160.9 164.5 166 164.4 169 168.3 169.6 170.7 173.2 176.4 179.4 180.7 182.5 180.5 180.7 181.7 181.8 182.7 180.8 181.2 181.4 181.5 182.3 183.5 185.5 186.6 188.6 191.7 189.4 191.7 190.1 191 193.7 192.9 190.3 192.6 193.3 195.1 200.5 207 209.5 213.5 214.4 216.5 222.4 222.9 226.8 230.7 234.1 240.3 244.9 247.7 249.7 252.5 256.8 261.7 269 273.1 279.2 284.2 291.2 300.6 316.1 327.4 335.5 342.4 346.8 352.1 354.7 353.6 352 350 355.5 367.2 377.3 386.7 401.4 401 393.2 378.2 366.4 358.9 353.6 354.7 356.4 359.2 360.7 361.4 360 355.8 350.3 350.3 350.3 350.3 350.3 350.3 350.3 350.3 350.3 350.3 350.3 350.3 350.3
146.1 140.5 135.7 132.3 127.5 121.1 117.9 116.1 115.1 113.2 110.2 106.1 105.6 109 115.3 119.7 121.6 123 128.1 128 129.2 137.1 149.6 166.2 172.7 174 174.5 175.9 175.3 171.6 170.4 169.8 168.3 170.5 166.8 163.6 161.9 158.8 156 151.5 148.7 145.5 142.3 137.7 135.7 134 133.9 135.1 138.5 141 143.1 147.7 153.5 161 169.8 170.9 169.5 166.3 163.4 161.6 159.7 157.5 155.9 154.4 151.8 153.5 155.7 156.3 156.6 156.7 155.8 154.9 154.1 153.3 150.6 148.7 149 156.1 157 162.6 163.1 165.9 166.8 166.3 164.5 162.5 162.2 159.2 158.9 156.8 156.1 155.7 155.9 156.1 156.3 157.1 158.9 160.4 164.9 165 164.8 168.1 171.3 172.8 174.6 175.7 177.7 180.2 183.8 185.3 186.2 184.4 184.7 184.8 185.6 184.9 183.7 185.2 183.8 184.7 185.9 188.9 190.5 194.1 195.1 193.2 193.5 198.4 196.7 197.2 194.6 188.9 189.2 191.8 195.4 202.3 208.3 209.7 212.3 214.7 217.3 221.5 224 227.7 231.6 237.5 243.9 246.7 248.3 251.3 254 258.7 264.9 270.8 275.1 278.9 285.9 292.5 303 317.4 327.5 334.7 338.6 343.6 347.4 349.2 348.3 344.9 342.8 348.4 363 375.5 387.1 398.4 393.8 383.7 369.3 358.8 349.6 349.9 351.3 355.2 357.8 358.2 358.5 355.8 351.5 350.3 350.3 350.3 350.3 350.3 350.3 350.3 350.3 350.3 350.3 350.3 350.3 350.3
152 144.5 140.5 133.4 129.6 123 116.9 115.9 113.9 113.2 113.4 112.1 104.3 104.9 107.6 110.6 113.7 118.9 119.9 122.9 127.5 139.1 154.2 161.5 166.7 171.6 174.1 174 174.4 171.9 171.7 170.6 167.6 163.7 162.5 160.4 158.4 155.7 153.8 153.2 154.2 151.3 146.5 138.9 136.6 136.1 134.2 133.2 134.5 136.9 138.9 141.4 145.8 154.2 169 171.6 168.3 164.9 162.9 161.7 159.9 157.7 156 154.3 152.4 152.7 156.2 157 157 157 156.4 155.7 155.6 155.8 151.4 149.1 148.4 153.8 154.8 161.6 161.5 165.2 166.3 166.4 161.6 164 160.5 158.5 157.9 157.2 155.9 155.5 155.5 155.8 156 156.6 159.6 160.6 159.8 160.5 166.5 169.6 172.8 174.7 176.7 177.9 180.9 182.8 184.7 186.9 189.5 189.3 190.1 190.6 187.8 187.3 186.8 187.5 187.1 188.6 189.2 193.5 194.7 195 197 196.1 197.4 200.4 200.4 201.2 197.1 193.2 190.7 194.6 197.8 201.1 206.6 211 213.7 215.3 217 220.6 223.6 226.7 232.4 239.2 244.9 248.6 251.2 252.5 256.4 260.2 266.9 270.8 276.7 281.5 289.4 295.9 305.4 317.1 326.7 331.7 334.7 338.5 340.1 340 337.1 333.9 338.4 342.3 354.4 369.2 385.3 391.6 385.4 374.5 360.9 349.7 348.2 348.6 350.9 357.7 359.5 361.4 358.9 355.2 350.3 350.3 350.3 350.3 350.3 350.3 350.3 350.3 350.3 350.3 350.3 350.3 350.3 350.3
157.4 148.8 140.4 136.3 131.1 123.4 116.3 113.9 113.6 111.4 112 110.9 106.2 102.8 106 106.9 107.9 111.2 116.2 122.4 125.9 140.9 150.1 157.2 163.7 168.2 170.3 173.5 173 171.8 170.7 170.8 168 163.5 160.2 158.8 157 152.4 152.9 152.4 152.2 149.9 147.6 142.9 139 134.7 133.6 131.4 132.6 135.6 135.3 137.3 140.3 144.7 155.8 167.8 166.9 163.9 163 161.7 159.6 157.7 156 154.2 151.4 152.8 162.1 159.4 158 156.9 156.3 155.8 154.3 154.3 150.8 149.2 148.1 152 154.7 156 157.7 160.8 161.8 163 160.2 160.8 158.7 157.9 157.6 157.9 155.3 154.8 154.4 155.3 155.3 155.1 157.3 157.5 160.8 165.2 167.2 171.2 173.6 175.7 177.6 180.5 183 184 187.6 189.1 190.6 192.7 193.5 193.5 192.8 192.1 190.3 190.8 191.1 189.8 191.1 194.6 197.9 199.2 200.1 201.2 203.9 203.9 201.9 202.4 198.5 198.7 194.6 192.8 195 197.4 201 206.2 208.9 212.3 217.2 219.8 222.4 226.4 234.4 240.7 246.1 250.7 253.4 256.1 260.6 264.5 269.8 273.8 280.8 284.7 290.4 299 307.9 317.1 322.9 327.8 329.9 329.9 330.6 329.1 326.4 328.3 332.2 338.7 348.7 362.2 377.1 381.2 376.5 367.2 354.2 347.1 346.8 348.7 353.4 360.8 365.5 369.1 368.9 360.5 353 350.3 350.3 350.3 350.3 350.3 350.3 350.3 350.3 350.3 350.3 350.3 350.3 350.3
159.2 156.7 151.3 143.4 138.1 126.3 116.3 111.6 111.5 109.3 108.2 107.6 105.6 102.4 105.5 109.6 112.6 114.6 115.4 119.6 124.3 130.4 146.7 151.4 154.3 158.2 161.8 167.4 169.9 169.6 168.2 169.1 166.5 164 159.6 156.1 152.5 151.1 147.5 147.8 147.2 144.8 143.5 141.7 138.2 134 131.1 130.7 131.3 132.3 133.6 136.7 137.7 139.5 144.1 152.5 161.4 162.9 161.6 160.5 159 157.4 155.7 154 152.2 151 160.2 163.4 160 158.1 156.3 155.8 154 152.5 150.2 149.2 147.9 151.3 154.8 154.1 156.6 159.3 161.2 161.3 158.7 157.9 157.3 156.5 156.6 155.6 154.6 154.1 153.7 154.4 154.1 155.1 156 160.3 163 165 168.3 172.1 173.8 176.2 178.2 181.6 184.1 185.1 187.3 190.4 194 195.9 197 196.6 195 195.6 193.8 192.4 192.7 192.4 193.5 196.4 198.9 201.1 202 203.1 205 204.8 203.5 204.6 200.4 199.3 193.7 193.1 194.8 197.1 202.3 206.1 206.8 215.4 218.7 219.5 222.3 226.8 236.8 242.8 248.5 253.6 258 261.3 265.9 268.5 272.3 275.1 280.7 285.8 292.3 301.7 310.6 318.7 321.3 322.9 325.6 323.2 323.6 323.1 321.3 323.2 328.4 335.8 342.4 354 368.2 372.3 367.4 359.1 347.9 345.8 346.6 350.9 355.8 361.3 369.1 374.7 378.5 377.8 372.8 361 356 358.3 359.4 362.4 360.8 358.3 355.4 350.3 350.3 350.3 350.3 350.3
148.3 151.3 152.9 147.4 133.7 124.4 116.9 111.1 110.6 108.2 105.9 105.7 104.6 104.7 106 111 111.5 115.8 117.7 117.3 119.7 123.3 126.3 135.3 142.9 151.5 159.1 159.6 162.7 165.7 166.8 165.3 164.9 162.5 158.8 153.3 151.5 148.3 145.3 142.1 142.5 141.2 139.9 137.1 135.9 132.4 131.2 130.1 130.4 131.2 132.3 134 136.3 137.3 139.2 142.1 149.3 155.1 158.3 155.7 156.5 155.9 154.7 153.6 151.5 149 154.5 159.1 160.1 159.2 157.5 155.7 154 152.3 150.3 149.5 148.1 148.8 154.6 152.1 152.2 151.5 154.9 154.1 155.3 156.9 156.3 155.5 155.2 154.8 154 153.5 153.6 153.8 154.8 155.7 158.7 161 162.6 165.2 170 173.1 175.2 177.4 179.8 183.5 185.9 187.2 188.5 191.1 195 197.8 199.1 199.1 199.3 197.9 197.9 195.9 195.1 195.9 196 196.8 198.2 200.6 202.8 203.6 205.9 206.8 205 206.6 201.4 200.2 195.7 197 199.2 197.5 197.6 199.1 205.6 214.4 215.6 219.7 222.2 227.1 234.5 242.3 249.5 255.6 259.9 267.3 271.3 274.1 277.4 279.2 281.9 285.5 292.6 303.7 312.2 320.2 320.9 318.3 318.4 318.3 319.2 319.8 319.9 320.2 325.3 332.1 338.7 350 362.2 364.9 360 352.9 346.4 344.2 345.7 351.4 358.3 364.4 371.1 379.9 386.7 386 382.4 377.4 372.5 371.5 373.3 374.6 376.7 373.7 367 360.6 355.3 350.3 350.3 350.3
137 134.3 131.7 129.5 125.5 122.5 117.2 113 109.3 106.9 105.7 103.7 103.9 102.3 104.3 108.4 110.7 115.3 118.2 119.8 120.1 121.8 123.7 127.5 135.5 145.8 155.8 157.4 156.3 157.9 159.8 163.5 165.9 159 153.4 151.5 148.4 146.3 144.6 140.3 139.1 136.8 138 135 133.1 131.8 130.4 129 130.5 130.2 131.1 132.8 136 135.9 135.8 136.8 139.3 143 147 148.5 149.4 150.1 151 151.6 150.1 148.1 150.1 152.5 155.7 157.1 156.7 155.5 154.1 152.8 148.5 148.5 147.5 147.6 148.1 148 147.7 148.3 149.4 151.7 154.5 157.2 156.2 154.8 155 157.2 153.9 153.6 152.8 153.6 154.5 155.5 158.2 160.7 162.4 166.5 170.3 174 176.9 179.6 182.7 183.5 186.4 189.6 192 193.3 195.7 200.1 203.4 204.2 203.7 201.6 200.2 199.1 198.6 198.1 198 198.4 200.3 202 203 203.7 205.1 206.2 205 205.7 203.9 200.2 196 194.1 194.9 196.2 196.1 199 204.2 207.3 212.5 219.2 221.7 227.1 233.2 241.2 249.8 256.1 261.4 268.5 275.2 278.2 281.9 283.7 285.2 287.6 294.8 303.8 310.5 314.4 316.5 317.2 317.2 317.4 318.5 319.6 320.5 320.8 324.9 330 338.5 346.9 356.9 359.7 357.6 353.9 347.1 338.9 344.5 353.2 360.5 367.7 375.9 385.9 392 389.6 385.3 380.9 379 379.2 378.3 378.9 379.7 379.7 375.4 368.5 362.1 358.1 354.2 350.3
138.9 134.8 130.1 128.3 126.3 122.3 121.7 117.5 113.4 106.8 104.7 102.7 101.9 99.3 100.5 103 107.5 114 118.8 120 122.5 123.1 123.4 125.9 129.9 133.8 141 148 148.8 147.7 147.4 152.2 154.2 153.7 149.4 144.1 146.1 143.7 142.3 140.4 136.7 134.2 133.6 133.9 132.3 129.8 131.2 129.2 128.9 129.3 129.9 131.6 131.6 131.2 133.1 135 135.9 137.6 139.2 141.3 144.3 145.5 146.2 146.3 147.2 144.5 147.7 147.7 149.7 153.8 154.2 153.4 152.2 150.2 146.8 144.4 145.4 147.4 146.3 148 150.7 153.1 153.2 153.7 153.1 152.7 152.3 152.9 154.9 154.1 153.1 152.8 153.1 153.4 154.1 155.2 157.5 159.9 162.1 167.5 170.5 174 178.1 182 185 187.3 189 191.2 193.7 195.4 196.6 199 202.9 204.3 205.7 205 203.6 202.5 201.9 201.2 201 201.7 203.2 203.9 204.4 206.2 206.6 205.2 204.6 203.7 201.5 200.6 199.2 195 194.5 195.3 195.8 197.2 199.9 204.7 210.9 217 221.1 226.1 231.6 241.6 249.7 256.9 262.5 272.2 276.8 281.5 285.6 288.9 291 292.8 300.3 303.3 309.5 311.6 313.1 314.9 316.7 316.9 317.9 319 320 322.8 326.4 330.2 335.7 342.1 350.5 357.2 356 351.2 336.9 335.3 343.4 352.5 361.2 371.6 382 387.8 390.6 390 385.3 379.7 376.6 377 376.2 378.2 378.5 376.9 376.1 373.2 367.3 362.3 357.4 354.6
143.6 140.1 128.9 123.9 122.6 121.4 122.5 126.8 119.1 108.4 102.7 102.5 100.5 97.7 96.7 99.3 103.3 108.6 116.5 121.8 122.8 122.3 122.2 123 125.5 131.2 135.4 135 135.4 136.9 138.9 141.1 141.5 142.9 142.9 142 142.8 141.9 142.2 138.5 136.8 133.2 131.3 130.3 130 129.5 128.2 127.2 128.5 128.8 129.2 129.3 129.5 130.5 131.2 133.4 134.9 133.1 136.9 135.9 141.1 143.5 145.2 145.1 144 143.6 144.5 145 144.7 146.7 147.6 148.8 150 149.1 146.4 147.4 148.1 147.1 147.6 148.2 149.4 151.4 153.3 154.3 152.8 153.7 152.8 152.5 152.8 152.4 152.7 153 153.2 153.5 153.8 155.3 158.7 159.8 162.2 168.1 170.5 173.3 176.7 181.9 185.6 186.8 191.2 192.7 194.4 196.3 197.8 199 201.6 203.9 205.4 206.6 206.9 205.9 205.2 204.4 203.5 203.8 204.8 204.9 205.5 204.9 206 204.3 203.3 202.8 202 200.5 200.4 196.2 194.4 196 195.8 197.3 201.2 205.7 212.6 216.1 220.4 225 232 240.6 248.6 256.8 263.5 271.2 277.7 283.1 287.6 291.3 293.2 295.9 303.3 308.3 310 311.6 313.1 314.3 315.3 316.5 317.5 318.7 322 325.8 329.3 331.9 333.2 336.5 343.3 348.9 348.3 340.2 321.2 326.4 339.7 351.4 362.1 374.7 382.2 384.9 385.1 384.6 383.2 378.6 373 370.3 371.3 374.3 374.6 372.5 370.8 369.8 368 364.4 360.3 356.8
155.8 153.1 147.7 135.7 121.2 118.4 118.7 122.1 125.7 114.2 107.9 100.3 98.6 96.9 95.1 95.7 97.9 102.1 109 116.2 120.6 122.1 124.3 125.6 126.4 125.3 128.4 128.9 129.6 134.2 133.8 135.4 136.8 137.1 138.8 141.5 140.7 142.2 141.8 139.2 135.5 132.3 129.9 129 128.4 128.3 127.4 127.2 127.5 127.8 128.2 128.3 128.2 129.1 128.5 129.4 131.9 136.6 140.2 140.7 139.8 140.3 143.8 144.5 144.1 142.1 142.3 142.9 143 144 144.4 144.8 145.3 146 145.6 146.8 147.8 148.6 149 149.6 150.2 151.6 154.2 154.7 155.3 155.7 155.2 153.6 153 152.4 152.7 152.8 153 153.2 153.4 154.2 157.4 158.5 161.1 169 171.2 172.8 177.6 180.8 185.5 189.1 191.7 193.3 195 197 198.9 201.4 202.6 203.8 205 206.2 208.3 209 208.3 207.9 208.2 207.2 206.7 206 205.4 205 204.5 204.7 204.3 201.9 201.1 200.1 197.4 196 194.5 195.5 198.7 199 202.4 205.2 208.3 212.3 219 225.8 232.8 239 247.1 255.1 263.2 269.4 275.6 281.9 287.9 293.4 294.7 298.2 306.7 312.7 313.5 313.5 313.3 314.6 315.7 316.9 317.9 318.9 325.2 331.1 333.1 334 334.3 334.4 335.2 336.8 332.5 313.3 303.9 317.8 332.6 348 361.4 371.3 375.2 377.2 378.2 378.6 378.4 375.5 371.3 365.8 363.5 367.8 370.3 370.3 368.2 365.5 363.3 361.5 359.1 356.4
162.6 160.3 166.5 158.2 139 127 116.9 115.8 117.6 117.4 112.5 105.7 101.2 97.5 96.2 91.9 93.9 97.8 103.6 110.5 115.6 120.5 124.3 125.1 125.7 123.6 125.3 126 127.8 130.3 133 133 135 138.9 140.2 139.7 140.4 140.5 139.5 137.6 136.1 133 129.8 128.3 127.8 127.3 126.9 126.2 126.5 126.8 127.1 127.3 127.4 127.8 128.1 131.5 133.2 135.9 140.2 142.4 142.2 141.3 141.8 141.6 143.9 144 143.3 142.5 142.3 142.3 144.5 143.9 143.5 144 144.6 146.9 148.2 148.3 148.9 149.5 149.7 152.6 155.8 156.9 158.6 159.5 158.2 156.8 156.4 154 153.4 153.5 153.8 153.1 153.1 154 155.3 157.4 161.4 169 172 173.1 177.9 180.7 183.8 188.5 190.2 195.2 197.7 199.1 199.9 202.7 204.4 205.7 206.6 207.8 208.4 210 210.1 210.5 212.3 212.2 209.9 208.9 208 206 205.1 203.7 202.7 201.1 200.8 200.2 196.8 195.5 194.4 195.8 200.3 201.4 201.3 203.9 207.2 214.3 218.2 225.3 232.7 239.1 245.1 253.2 261.7 267.6 273.7 280.3 288.1 293.7 295.9 298.9 306.8 314.1 314.6 314.5 314.2 314.2 314 315.5 316.8 319.3 326.3 331.7 336.8 339.1 336.5 333.7 330.2 324.7 301.6 290.9 296.4 307.7 322 336.3 349.3 357.1 361.9 365.9 368 368.8 368.9 369.4 366.7 363.6 358.4 356.3 359.4 362.8 363.4 361.9 359.4 357.3 355.5 353.6
163.3 160 159.9 157.2 146.6 140 127.2 118.3 110.8 109.4 107.8 106.4 101.3 98.1 94 89.6 91.1 94.4 98.8 106 110.8 117.9 122.9 125.3 124.6 122.7 123.4 125.2 126.2 130.5 132 134.6 140.3 141.4 142.8 143.8 144.1 142 141.4 140.5 138.9 138.8 135.6 129.7 127.6 127.3 126.9 126.4 127.1 127.5 127.6 126.6 126.3 126.7 128.2 129.8 133.4 134.5 138.6 141.5 144.7 143.4 143.7 144.3 144.8 144.7 144.5 143.6 143.1 143.6 145 145 143.7 143.4 143.8 145 147.2 147.3 147.3 148.1 148.9 154.2 158.2 160 161.8 164 164.1 163.2 161.5 157.6 155 155.6 154.5 153.8 153.6 153.8 155.2 158.2 162.8 169 171 172.2 177.6 181.9 185.5 188.5 191.9 195 198.2 199.2 200.9 203.6 206.2 207.3 207.7 209.3 210.2 210.7 211.4 211.8 212.9 213.4 212.6 212 210.9 208.1 205.8 203.2 201.3 200.2 199.8 198.5 196.2 195.5 194.5 195.8 197.2 200.9 202.8 207.2 207.8 210.8 216.9 224.3 232.1 238.5 244.9 251.1 257.4 264.4 270.2 276.4 286.1 292.8 296.4 301.1 307.8 313.6 314.6 314.5 314.3 313 312.1 312.9 314.7 318 324.4 328.9 332.5 335.7 335.3 331.4 319 301.2 282.2 278.5 284.5 291.9 305.3 319.9 330.9 339.3 345.2 349.9 353 355.3 356.4 360.1 359.9 358.7 356.7 352.2 350 353.6 356.2 356.3 354.1 351.6 350 348.8
164.2 161 158.8 152 146.5 148.1 144.9 137.1 121.4 107.3 102.3 100.4 97.4 94.8 91.2 89.5 89.5 90.9 94.8 101.7 108.5 112.1 117.8 120.8 121.3 120.8 122 124.1 125.5 126.4 130.9 136.8 140.3 143.1 145.7 148.7 147.6 146.9 147.3 149.3 150.8 147.8 141.8 135.1 131.2 126.4 125.5 126 126.9 127.3 126.7 126.6 126.5 126.9 128.6 130.3 133 133 136.8 139.9 142.6 146 146.5 145.4 145.8 145.3 145.6 144.8 144.2 144.7 145.8 145.5 144.9 145.3 144.9 145.5 146.7 146.7 146.3 146.6 147.9 153.6 158.8 158.9 164.5 167.3 168.8 169.2 167 160.1 156.7 155.4 154.6 154.1 154.4 154.4 155.7 159.9 165.3 168.6 171.7 173.7 178.2 182.4 185.5 187.9 191.2 195.8 199.4 201.3 203.4 205.4 207.1 209.4 211.2 212.6 212.7 212.2 212.3 212.9 214 215.4 215.8 214.8 213 211.3 208.1 205.6 201.8 200.2 198.6 197.2 196 195.6 195 195.4 196.8 203.7 204 205.5 207.8 210.3 215.8 222.2 230.4 237.6 241.4 246.8 253.3 259.2 264.5 274.9 285.7 292.5 298.5 301.7 307.8 312.6 313.9 314.4 312.9 311.3 309.5 309.3 310.1 313.5 322 326 328 331.7 330 327.1 316.3 287 265.8 271.5 270.8 275 286.8 298.2 308.9 317.9 325.5 330.9 334.7 338.4 342.7 343.9 349.3 349.6 351.2 350.7 347 345.9 345.3 346.9 346.6 345.1 343.8 342.1
161.4 160.5 158.3 149.6 149 155.4 154.1 147.4 134.7 120.7 104.3 98.5 94.4 91 88.1 89.1 88.5 88.8 91.1 94.5 101.2 106.5 112.4 116 118.3 122.1 125.9 129.1 131 129.3 131.2 138.1 139.4 143 145.8 147.3 151.1 153.6 156.4 156.8 153.4 146.8 144 138.1 130.7 131.2 128.2 126.8 126.5 125.5 126.3 127.3 126.1 127.2 128.2 129.3 130.4 131.8 134.8 138.1 143.2 146.6 148 147.5 146.4 146 146.3 145.9 145.4 145.9 147.1 146.4 146 145.9 146 146.2 146.8 146.1 145.4 146 146.9 148.6 155.9 159.9 164.9 171.1 172.6 173.7 170.2 165.1 159.8 157.2 155.4 154.4 155.2 154.3 156.4 160.4 160.6 162.8 169.6 172.3 178.6 183.5 184.8 186.5 191.5 195.1 199.9 202.6 205.8 208.1 209.7 211.1 213.4 216.3 216.2 214.7 213.7 214 216.5 217.8 218.1 217.5 215.7 214.2 211.9 208.3 204.6 200.9 197.9 199 202 197.3 195.4 195.9 197.6 202.5 203.8 207.3 208.1 211.7 213.8 219.5 227 233.2 240 245.1 250.1 256 263.8 271.4 283 291.4 300.3 304.7 307.9 311.1 312.8 312.9 310.6 307.7 305 299.6 303.2 304.8 312.9 321.1 320.5 326.1 322.9 318 300.8 279.9 249.1 260.9 258.9 261.1 266.5 275.8 285.9 296.2 305.3 311.6 315.8 319.6 322.6 327.5 333.8 339.2 343 344.1 343.9 341.5 340.7 339.5 339.3 339.7 337.9 335.1
158.2 158.8 157 150.7 154.9 161.9 159.6 155 144 131 115.7 104.3 97.1 92.8 87 86.3 87.5 87.8 89.6 93.1 97.7 105.7 110.5 114.7 121 125.5 131.6 136.2 133.9 130.3 131.7 133.6 137.1 140 143 146 148.6 151.3 151.8 153.8 154.8 148.2 143.4 137.2 134.8 134.7 131.7 126 128.4 126.7 124.2 125.7 126.6 127.3 127.9 128.9 129.9 131 133.9 138.3 142.6 146.3 148 148.7 147.7 146.7 147 147.1 146.6 147.2 148.4 147.4 146.7 146.4 146.1 146.9 146.4 146.6 145 144.6 145.5 146.7 148.8 154.1 162.7 171.2 179.9 178 171.9 166.9 163.5 160.6 157.3 156.7 154.5 154.5 155.9 159.5 159.7 162.2 167.4 172.4 178.1 182.9 182.8 185.8 189.6 194.8 199.5 204.2 208 210.9 212.1 213.7 216.3 218.8 219.7 217.6 215.5 215.1 217.9 219.3 219.2 217.7 217.1 216.4 215 211.3 207.2 202.8 199.6 200.4 204.5 196.5 195.9 196.4 199.5 203 203.9 208.1 208.1 213.4 212.8 216.6 220.8 226.8 235.1 240.7 247.5 253.7 261.7 271.4 279.9 288.6 299.3 304.8 308.4 308.5 309 309.3 307.1 304.4 300.9 293.2 292.3 290.9 303 309.4 311 312.7 313.4 308.3 286.6 270 255.3 244.5 248.5 249 251.5 255.5 263.9 274.8 284.3 291.5 294.8 299 303.9 309.2 315.5 322.4 328.3 331.3 332.3 333 334 332.7 331.1 331.7 331.2 328.3
154.9 156.1 157.1 152.1 161.1 163.9 161.2 157.3 149.5 137.8 122.6 112.4 100 93.5 88.4 85.7 86.7 87.2 88.2 91.8 95.5 101.4 108.7 113.6 117.9 122.9 127.9 132.6 135.7 133.2 131.6 130.1 131.2 133.6 137.3 139.9 142.7 144.8 146.3 147.9 147.9 147.1 140.5 138 139.7 136.8 135.4 132.2 125.2 123.1 128.1 126.1 126.5 127.4 127.8 128.6 129.5 130.5 132.3 136.7 139.8 142 146.5 148.6 148.8 148.4 147.9 149.4 150 148.9 149.5 148.4 147.3 146.6 145.9 146.3 145.7 146.2 143.8 143.2 144.3 145.5 146.8 148.3 154.5 165.7 178.4 180.6 174.6 170.2 166.6 162 158.2 157 156.3 155 155.6 157.7 158.9 161 167.9 172.8 176.8 181.8 181.7 185.5 188.6 192.8 197.6 203.2 208.2 211.8 214.4 216.5 219 219.9 220.4 219.6 218.3 216.9 219 219.9 220.2 218.6 217.3 216.5 215.7 213.8 207.8 206.3 205.9 201.6 200.4 198.8 197.7 197.7 203.6 203.8 208 207.2 207.7 212 212 213 216.9 221.5 229.7 237.6 245 251.4 260.6 271.1 277.3 284.4 293.8 300 304.4 305.2 306.9 306.3 302.5 301.7 297.5 287.6 284.6 275.3 283.4 295 297.4 294.9 286.9 286.9 267.5 255.3 246.1 235.4 241.1 240.3 241.1 241.4 248 258.1 267.5 274.5 279.5 284.8 287.9 291.8 297.1 303.8 310.7 315.9 320.2 322.8 324.3 324.8 324.3 323 322.6 320.2
152.3 151.8 152.6 155.7 157 157.1 153.2 146.4 145.9 140.7 125.8 114.1 103.1 93.1 89.8 87 85.9 86.3 86.3 89.1 94.7 104.5 109.9 112.6 115.3 118.2 120.7 124.1 128.5 132.2 131.5 128.6 130.5 130.9 131.7 133.3 134.5 136.6 138.3 138.9 138.6 142.5 138.3 138.8 137.1 135.7 135.3 131.5 125.9 123 124.9 126.7 127.5 128.1 128.3 128.8 129.6 130.6 131.6 134.3 137.4 140.1 144.4 148.8 152 153.4 153.5 156.8 156.8 152.5 151.8 149 147.5 146.1 145.2 144.8 145.1 142.9 141.9 141.4 143.1 144.8 146.5 148 152.5 158.8 165.9 170.9 171.7 171 166.9 161.9 161 157.3 156.5 156.1 155 155.4 156.9 160.2 166.6 173.2 174 177.2 181.4 185.3 186.5 191.2 195.2 201.5 206.8 211.6 215.4 218.3 220.2 219 218.1 218.1 218.1 218.1 220.3 221.1 220.2 218.6 216.8 216.4 215.6 214.7 211.4 209 209.3 203.1 201.2 200 199.3 198.8 198.9 202.1 203.9 205.6 208.1 212.3 210.9 210.8 213.8 217.2 220.2 231.4 240.5 247.5 256.9 266 272.1 277.7 286.7 294.4 299.8 302.1 301.8 301.9 297.7 290.3 287.2 276.7 269.8 264.5 266.3 281.1 288.1 276.1 261.8 256 245.7 241.2 236.7 228.8 227.5 231.8 237.9 239.3 241.1 247.2 254.3 262 269.9 275.7 277.2 279.4 282.6 287.2 293.9 305.1 312.4 314.6 314.9 314.7 315.2 316.5 315.2 311.2
151.9 151.9 150.2 151.4 152 146.4 143.5 140.6 139.5 133.4 125 114 101.6 94.1 91.6 87.9 85.9 85.2 83.5 87.7 94 103.2 111.5 115.6 118.4 121.5 122.7 124.6 126.7 127.6 127.6 127.9 126.8 127.6 131.2 131.5 130.5 131.6 132.6 134.7 131.7 133.2 136.7 140 135.6 136.2 135.5 133.8 130 122.3 127.7 127.7 128.5 128.8 129 129.1 129.8 131.1 131.4 133.4 138.7 141.7 147.2 151.7 156 158.7 159.1 162 162.9 159.2 152.6 149.1 147.2 146 144.6 143.2 142.9 141.9 139.4 139.5 141.8 144.8 146.7 148.9 151.8 155 161.4 163.3 167.7 168.2 163.9 162.2 160.1 157.9 157.2 157 155.9 155.5 156.9 159.5 166.8 174.4 172.8 175 179.7 183.7 183.3 187.6 192.2 198.2 205.8 210.6 215 218.6 220.9 219.2 217.2 216.4 216.9 219.1 221.6 221.1 220.2 218.6 216.7 215.8 215.3 214.9 213.6 210.3 209.2 206.7 204.1 200.2 199.9 203.6 205.8 202.6 205.1 204.9 206.3 209.8 208.4 208.2 208.5 209.6 213.6 221.4 233.7 242.5 248.2 257.2 263.9 268.7 277.5 285.8 292.7 298.5 298.8 287.4 283.7 280.5 272.7 263.1 256.7 248 245.7 255.2 261.9 250.6 243.9 236.8 232.1 229.1 226 227.2 221.2 225.1 233 238.5 239.8 240.9 246.3 254.8 263.2 269.5 272.6 274.5 277.4 280.3 283.3 289.6 299.9 304.3 305.4 305.4 307.5 311 306.9 306.8
150.3 149.9 148 156.1 153.8 146.1 137.6 135.8 131.6 128.8 124.5 112.3 100.7 94.7 93.1 88.6 87.2 86.4 86.2 81.9 87.4 99.3 114 117.9 121.6 122.8 125 126 126.5 126.5 126.8 126.7 126 125.7 126.8 134.1 129.7 126.3 127.8 128.7 128.2 127.9 132 130.4 130.4 133.8 138.5 136.1 129.7 123 128.5 128.7 129.2 129.4 129.6 129.8 130 131.7 133 136.5 141.5 145 148.4 153.2 157.6 159.4 161.5 162.6 164.7 162.3 156.2 149.5 147.1 145.4 143.2 141.7 140.4 139.8 137.2 138.2 142.2 149.2 148.4 150.7 152.8 154 157.2 158.3 160.8 163.2 161.4 160.2 160.5 158.6 158 157.6 156.2 155.1 156.7 158.6 165.9 171.8 172.2 175.6 180.2 181.1 182.5 185.8 190.5 195.6 202.7 209.4 214.1 218.1 221.7 219.9 216.2 215.2 215 217.2 221.4 222.8 220.5 218.6 216.7 215.2 214.9 217.3 218.8 212.5 210.4 207.3 204.1 202.2 200.1 200.8 201.9 203.1 203 203.4 203.5 206.3 205.5 203.8 203.5 203.5 207.1 214.2 224.3 229.2 240 247.4 254.2 259.3 266 273.3 281.2 287 288.4 282.9 271.7 261.5 256.6 248 241.7 237.7 232.6 231.9 232.8 230.2 227.9 227.7 226.4 221.8 220 222 214.8 216.6 221.7 229.2 233.3 234.6 239.8 247.4 255.8 264 268.3 270.6 274.1 276.9 279.8 282.9 287.4 292.3 295.8 296.5 296.2 296.8 295 296.2
148.8 150 144.2 152.2 150.1 140.8 133.6 129.4 125.5 120.8 115.3 108.1 104.8 97.8 93.4 90.7 89.8 89.9 90.8 86.2 82.3 92.1 106.4 120.5 124.1 121.3 122.4 124.7 126.5 128.3 127.3 126.6 126 124.7 123.1 122.7 129.3 126.5 122.3 124.2 123.7 125.5 124.4 128.4 131 135.8 141.9 141.7 128.1 122.7 130.2 131.1 129.6 129.7 129.8 129.9 130.1 132.5 135.5 139.6 142.3 146.7 150.2 153.2 155.4 158.8 161.8 161.1 160.9 160.2 156.9 152.7 146.3 144 141.7 139.7 137.8 137.2 135.3 137.2 143 151.9 150.8 153.5 154.4 154.9 156 156.8 157.9 158.9 160.8 160.4 160.6 159.6 158.8 158.1 156.6 155.2 156.3 157.4 161.2 169.7 171.9 175.7 179.8 180.3 180.8 184 189 194.1 199.3 206.8 211.3 216.9 221.7 222.3 217 214.1 213.6 213.2 216.2 220.2 219.2 217.6 216.4 215.1 213.9 214.4 215.6 216 211.9 209.3 206.5 205.3 208.6 204.4 207.8 207.6 206 204.1 203.5 203.5 203.5 203.5 203.5 203.5 205.9 211.9 217.5 221.3 231.1 236.9 245.2 252.8 255.4 263.9 266.2 267.4 269.9 270.8 262.4 249.4 241.6 236.6 230.6 229 228 227.4 227.8 225.1 223.9 222.3 222.5 220.2 216.1 213.2 211 210.1 211.7 219.8 225.8 227.8 232.9 239.6 247.7 255.6 263.5 267.3 270.8 273.7 276.8 279.8 282.9 283.7 285.8 286.7 285.3 282.3 281.4 282.6
146.5 149.6 141.5 147.4 141.9 135.2 130.3 124.2 117.9 112.5 110.7 110.3 106.3 100.3 94.8 94.2 97.3 96.6 101.4 95 81.8 82.5 93.5 105.9 117.2 118.1 120 122.4 126.1 128.8 129 128.7 126.5 123.9 122.7 121.3 120.1 122.7 121.8 117 118.9 119.8 119.9 125.7 132.2 139.4 143.1 138.5 133.7 124.9 127.2 134.8 129.3 128.7 128.8 129.2 131.7 134.4 138.2 142.2 144.4 147.5 153.1 157.9 159.9 159.7 159.6 160 159.1 157.6 155.6 152.4 146.4 143.1 140.7 137.7 136.5 135.2 133.9 136.9 141 147.5 150.6 154.6 155.1 155.4 155.7 156.5 157.6 158.9 160.8 160.8 160.8 160.4 159.5 158.6 157.2 156 155.6 156.2 157.6 164.5 171.8 177.7 178.7 178.2 180.3 183.4 187.3 192 196.7 202.4 207 211.9 217.8 220.7 218.9 212.9 210.2 209 209.2 214 216.4 215.7 214.5 213.6 213 213 212.5 213.2 212.4 210.7 208 207.3 208.5 207 208.2 207.7 207.3 206.2 208.1 203.3 203.5 203.5 203.5 203.5 203.5 206.9 208.5 212.5 221.5 227.5 234.2 241.5 245.2 251.1 255.1 262.2 260.7 255 247.6 236 231.5 228.2 226.9 225.2 225.3 224.8 224.9 223.9 222.7 221.3 219.8 218.8 217 212.5 208.9 207.1 208.6 210.7 216.1 219.7 226.3 231.7 238.4 244.9 252.7 260.3 265.6 269.8 273.7 276.8 280.3 280.4 277.8 274.8 272.1 269.6 268.2 269
144.4 141.5 132.6 135.9 134.3 124.5 120.5 116.7 112.7 112.8 111.2 115.6 111.8 106.4 97.4 95.6 104.3 105.8 97.5 94.2 84.5 76.1 82 90.9 99.9 107.5 116.2 121.7 126.5 129.9 131 130.8 130.2 125.6 123.7 122.1 120.4 118.8 117.1 115.9 114.3 115.9 118.4 123.4 131 135.6 138.1 139.5 134.8 129.9 122.1 132 130.4 127.9 127.6 131.4 135.8 136.5 139.9 143.2 145.7 149.2 152.9 159.5 165.7 165 163.6 161.3 160.4 157.4 155.3 151.8 147.4 142.5 139.8 136.4 135.3 134.4 134.3 136.5 139.5 147.1 153.7 155 155.6 155.5 155.5 156.2 156.9 159.3 160.3 160.7 161.2 161.2 162.3 160.9 159.7 157.7 156.5 155.8 157 162.7 170.1 175.4 176 175.2 176.3 178.3 181.7 187.2 193.5 198.1 202.9 207.3 211 213.9 215.5 213.8 209.1 205.1 203 207.4 212 212.4 212.6 213.4 212.1 211.7 211.1 211.6 212.7 211.9 210.4 209 208.5 209.3 209 207.9 207.3 207.1 206.4 202.9 203.1 203 203.5 203.5 205.2 203.5 204.1 206.1 210.2 214 220.8 223.4 229.2 228.9 234.1 244.6 244.8 242.9 239.2 230.8 227.4 225.3 223.2 222.8 222.8 223.7 224.9 224.6 223 222.1 220.8 220.1 217.1 212.6 207.9 205.9 205.2 205.4 212.4 211.8 215.9 220.5 228.6 236.3 240.8 248.8 257.9 264.5 269.5 273.5 275.5 274.4 270.7 265.4 259.7 257.1 256.5 256.6
143.2 133.7 128 127.1 126.9 126.6 124.9 117 112.2 110.4 111.2 116.5 115.6 107.8 103.2 94.5 99.6 96.9 95.7 87.5 82 76.3 75.4 84.8 92.7 97.2 110.1 119.5 127.6 135.7 134.6 134.1 134.8 131.9 126.8 123.1 119.4 116.6 114.6 114.2 112.5 112.3 115 119.4 124.6 132.5 135 134.9 134.8 132.9 124.4 130.3 133.6 127 126.5 132.3 141 141.7 141.9 144 148.4 152.3 154.2 156.3 159.8 161.6 162.2 164.2 162.4 159.3 157.2 154.6 149.7 142.6 140.7 135.7 134.8 133.9 133.6 136.8 144.2 148.5 157 157.7 155.7 155.6 155.3 155.9 156.6 157.7 158.9 160.7 164.1 167.5 169.1 168.1 162.2 160 158.4 155.8 157.2 163.1 170.9 174.7 173.6 174 175.2 176.1 178.5 182.4 188.3 194.6 198.3 203.8 208.9 209.6 210.1 210.7 208 202.5 199.6 199 202.7 208.6 209.1 211.2 211.6 210.2 210.3 212 212.5 211.8 211.1 209.7 209.8 210.4 208.4 207.7 207.6 206.5 205.2 203 203 203.1 204 205.4 207.6 204.4 204 203.8 206.6 208.4 213.2 215.1 216.6 217.5 219.4 221 224.7 229.4 231.2 228.6 222.4 222.3 222 221.3 222.7 223.7 224.9 224.7 225 225.2 224.8 222.2 217.4 213.8 210.7 207.1 203.6 202.3 204 207.1 209.1 211.6 215.9 224.9 231 238.3 246.4 254.6 262.1 269.2 266.8 264 259.3 254.5 248.6 247 246.7 246.1
137.4 128.6 127.5 126.7 128.6 132.6 135.1 120.8 114.6 109.4 109.6 110.1 110 102.8 98 94.1 92.5 90.5 88.2 85.1 77.8 72.9 67.8 76 81 91.8 103 109.8 121 140.4 140.3 136.3 136 135.9 133.5 131.3 125.5 118.6 116.7 112.9 111.8 111.2 111.6 112.2 117.2 124.1 131 133.4 133.5 130.1 122 123.4 130.4 125.4 123 130.8 139.9 144.8 143.3 144.4 151.9 154.1 155.5 158.7 162.1 159.4 157.6 159.6 159.7 158.8 158.6 157.1 152.8 145.8 139.1 135.3 134.3 133.4 133.7 137 147.1 154.4 154.4 155.9 154.9 154.9 155.4 155.7 156.5 157.3 159.4 161.9 165.6 169.7 171.5 174.1 169.6 162.2 158.5 156.5 157.7 161.7 167.2 171.4 172.6 172.9 174.5 175.3 176.5 179 183.7 189.7 194.1 199.5 206.5 208.2 207.9 206.8 204.6 200.8 197.5 197 196.5 198.7 205.3 207.3 209 209.4 210.7 212.1 212.4 211.4 210.5 209.7 209.2 208.7 208.6 208.6 208.5 207.3 205.6 202.7 202.7 203.9 208.1 208.7 205.5 205 205 206.2 205.7 206.4 207.5 210.5 214.4 215.4 216.9 216.9 218.9 221.4 223.6 221.8 221.1 221.2 220.9 221.6 223.1 224.3 225 225.7 228.1 228.7 228.8 223.5 218.1 213.8 210.6 207.2 203.5 199.5 200.5 200.8 204.7 205.8 209 212.9 220.5 225.7 232.7 239.7 249.4 256.7 253 248.4 247.6 245.3 240 237.6 236.4 237.7
132.3 130.1 128.7 128.7 128.1 128.8 126.8 118.7 120.2 116.6 112.4 111.5 108 103 96.3 94.4 94.1 93.9 91.6 85.2 77.8 70.3 66.9 70.8 77.2 85.9 96.2 105.8 116 135.9 140.1 139.3 139.3 141.4 139.2 135.9 132.6 125 118.5 114.8 113.6 112.7 110.3 109.9 110.2 114.4 119.8 126.2 132.1 127.8 121.8 116.7 123.4 123.4 119.3 130.3 139.8 146.2 144.2 143.9 147.4 151.4 156 159.5 160.6 158.2 155.2 153.6 153.7 154.9 155.7 156.5 152.9 147.1 138.2 135.4 134.1 133 133.6 135.7 145 153 154.8 152.5 150.9 151.8 154.1 155.1 155.7 158.2 161.4 164.1 166.6 170.6 173.4 176.4 173.9 163.2 162.1 157 156.3 160.2 165.8 166.2 168.6 170.8 171.7 174.9 175.6 177 180.3 184.4 190.5 194.9 202.2 205.2 204.7 203.6 202.5 201.4 196.1 195.5 195 195.6 197.4 203.2 206.3 205.8 209.7 211 210.9 210.7 209.4 209.1 208.9 208.8 208.4 208.7 208.2 207.5 205.1 203.6 203.5 207.5 207.7 207.2 205.9 205.5 206 206.7 208.1 207.6 209.4 207.9 209.5 211.5 213.6 215.2 216.2 217.5 219.2 219.2 219.8 220.1 220.2 221.7 223.8 225.5 226.1 227.9 229.5 230.2 228.8 223.6 219.6 215.5 210.8 207.4 203.5 199.5 196.7 197.5 199.9 200.6 203.3 206.4 211.2 216 220.6 226 233.1 240.5 238.2 235.2 236.1 236.1 232.2 231.5 227.8 222.7
136.6 135.6 131.9 130.2 128.2 125.9 122.2 120 123.8 124.5 121 117.4 114 106.8 98.1 100.1 101.1 100 92.6 86.1 77.9 69 64.9 66.1 72.2 81.3 90.7 102.3 111.7 118.8 131.6 139.7 142.1 142.4 140.8 140.8 137.3 130.4 120.6 115.6 114.9 115.3 114.1 109.3 109.9 109.3 108.3 114.4 121.2 120 121.2 118.2 121.7 118.1 117.3 124.9 131.8 137.7 140.6 139.8 142.3 144.5 147.5 152.4 152.9 153.1 151.8 149.1 148.8 149.8 151.3 152.8 152 147.1 139.2 135.7 133.9 132.7 133.1 138 145.1 148.1 149.7 149.7 151.4 150.8 152.2 153.9 156.1 159.5 165.5 166 166.3 169 171 174 175.1 170 167.1 160.3 156.3 157.3 161.9 163.9 169.5 170.6 170.9 172.3 173.4 175.1 179.1 182.9 188.4 191.9 195.8 199.4 201.1 201.5 200.8 199.5 194.8 194 193.7 194.3 195.8 197.3 199.5 202.6 205.9 209 209.4 209.2 207.9 208.1 208 207.9 208.2 207.9 207 206.1 204.4 204.4 207.4 209.3 209.3 207.1 206.6 206.1 207.2 208.4 209.1 209.9 214.7 212.3 212.5 211.9 213 214.7 217.4 218.4 219.4 220.1 219.9 221.2 221.6 222.8 225.1 226.8 227.2 228.4 227.7 227.4 223.6 220.7 219.5 215.4 209.4 205.3 202.3 199.2 195.2 193.5 194.6 195.6 197.6 200.6 204.3 207.3 212.3 217.3 221.9 224.1 223.2 225.5 224.3 222.7 221.1 220.1 220.2 214
141 143.2 141.5 140.8 135.8 129.3 122.6 122.8 127.4 129.2 128 123 116.4 110.7 104.5 105.7 108.3 101.8 92.2 85.4 77.5 69.1 64.3 65 66.3 71.8 81.8 96.7 108.1 113.9 122.3 137.1 142.9 144.4 143 143.3 139.4 132.3 121.3 115.7 115.1 115.6 115.6 114.6 110.7 107.8 105.3 105.4 108 110 110.3 118.8 121.1 117.4 114.4 117.2 121.2 125.3 130 132.3 133.5 133.5 133.5 135.8 141.2 144.6 144.9 143.3 141.8 143.1 146 150.1 148.5 144.1 139.5 136.7 133.7 132 133.7 138.4 152.4 153.7 148.9 148.7 148.7 148.4 150.5 150.6 153.7 159 162.9 165.8 165.8 167.7 169.9 174.7 175.8 174 171.3 163 158.5 156.3 158.3 162.2 166.8 170.2 171.3 171.8 172 175.4 177.1 178.2 182.2 187.8 194.2 196.3 196.7 198.4 198.7 196.8 193.7 192.7 192.4 193.9 199.8 199.3 199.7 201 204.7 204.9 206.9 207.1 206.3 207.2 207.5 207.9 207.9 208.7 209.5 206.2 206.7 209 210.6 209.9 209.7 210.3 208.4 208.1 208.5 211.9 214.7 216.5 217.6 216.7 216.3 217.5 217.7 218.7 220.6 222.1 223.6 225.4 224.6 225.5 226 226.5 227.1 228.4 228.7 227.1 226.4 225.3 221.8 217.6 213.7 209.4 205.5 201.5 198.6 196.7 193.5 188.5 188.3 189.5 192.5 192.8 195.2 197.7 204.8 212.1 211 208.8 211.2 212.6 213.1 213.2 210.9 211.6 212 205.6
142.9 144.9 147.4 146.5 141.5 127.6 125 126 129.3 132.5 137 129.3 119 113.9 108.2 110.8 111.9 105.6 93.8 82.3 75 68.9 64.9 64.7 65 67.1 74.9 86.6 100.1 107.4 115.9 126.8 139.8 145.2 145.6 140.9 136.3 129.3 118.2 117.2 118.4 116.9 117.1 120.2 117.2 110.1 107.5 103.9 104.9 102.8 110.3 114.4 112.6 109 112.4 115.6 120.1 127.1 128.1 130 131 130.8 130.6 131.7 133.3 136.1 137.6 137 136.8 137.2 138.8 142.7 144.4 140.6 137.8 136.9 133.3 131.3 134.3 137.5 145.4 154.2 151.3 147.9 146.9 146.5 147.5 149.1 150.8 154.3 159.3 163.6 166.2 168 169.7 173.6 176.3 175.5 174.4 169.4 161.8 158 156.7 160.9 165.5 169 168.1 169 171.8 173.9 174.3 176.4 179.7 182.9 188.7 191.9 193.8 193.6 196 195.3 193.1 191 191.9 193.7 198.4 200.3 200.3 201 202.8 202.9 204.4 204.8 204.4 205.8 206.7 207.6 207.8 208.5 209.1 208 209.4 209.8 210.3 210.7 215.7 212.1 210.3 212.3 214.7 219.3 220.2 220.6 220.6 222.2 222.3 223.7 225.7 224.8 228.4 231.7 234.6 235.5 235.5 236 235 234.4 232.9 231.1 230 228.5 226.4 224 219.7 215.5 210.5 205.8 202.1 198.4 195.7 194.1 191.9 187.1 185.1 184.1 185.6 187.3 189.2 192.6 195.8 200.5 199.4 197.4 201.7 202.5 202.7 200.2 200.5 204.1 202.8 203
146 148.6 148.3 149.7 145.3 129.7 132 132.7 138.7 142.1 146.9 140.2 124.8 119.6 115.7 119.6 120.6 120 104.5 85.2 75.6 70.6 66.5 63.1 64.1 65.1 67.9 77.6 90.3 100.9 108 117 131.2 139.3 141.7 140.7 137.3 126.5 118.5 116.9 120 118.7 119.1 118.2 116.6 112.9 110.9 109 105.9 104.7 101.3 104.2 105.8 106 110.4 119.9 126 130.5 135.5 136.8 130.1 130.1 129.8 128 129.3 130.8 130.7 128.7 130.5 132.2 133.8 137.1 139.2 138.1 134 133 128.9 130.5 133.2 136 139 140.8 145.3 147.5 145.7 146.3 147.4 148.8 150.7 153.6 157.7 163.1 167.3 168.8 170.3 176.3 176.8 176.3 174.9 171.7 167.2 162.7 157.3 159.1 166.4 166.4 164.8 167.9 169.9 170.7 171.9 175.4 177.9 181 184.9 186.6 188.6 190 192.2 193.1 192.1 190.3 190.5 192.2 193.8 198.8 200.9 200.3 199.5 200.6 201.1 200.7 202.3 203.7 204.3 205.2 206.5 207.5 208.4 207.3 208.7 209.8 211.2 211.7 213.8 213.6 215.2 219.6 220.6 222.6 224.8 226.7 226.6 226 226.9 228 230.3 233.7 237.3 241.2 244 244.9 246.6 245.1 245 242.9 241 237.1 234.2 231.3 228 225.3 221.2 216 210.8 206.2 202.4 198.6 193.9 190.6 188.2 185 183 180 180.4 182 183.8 186.5 188.9 189 188.2 191.2 193.8 193.6 191.4 190.2 190.9 194 193.4 194.4
148.4 152.6 154.5 152.5 141.9 135 135.2 139 142.7 146.2 149.9 145.9 133.7 127.9 123.2 126.8 137.3 133.3 117 93.1 79.9 73.1 67.1 63.2 65.8 65.8 61.8 70.4 80.8 94.1 103.5 112.1 127.8 139.8 143.2 141.3 134.4 121.2 116.1 117.8 117.2 117.4 118.3 115.5 114.4 114.2 112 111.2 111.2 105.8 103.9 100 100 105.3 109.3 117 133.9 140.4 140.6 140.3 131.1 129.7 128.8 126.9 125 125.4 123.9 122.1 121.6 122.6 129.4 133.4 134.6 133.4 132.9 129.3 129.2 132 134.7 138.2 140.3 141.5 142.6 143.8 144.8 146 147.4 148.8 151.7 153.6 157.8 162.5 166.1 168.9 172.9 179.1 178.9 176.8 174.3 170.8 167.2 166.4 160.7 157 162.1 163.7 163.4 166.8 169.6 172.8 174.4 176.2 178.6 180.9 182.7 184.8 185.1 186.3 188.1 188.7 189 189.3 189.8 190.5 191.3 195.1 198.7 199 196.6 195.6 196.8 197.4 197.7 199.1 201.2 201.3 202.9 205.9 208.2 210.1 208 209.7 212 213.7 215.6 217 221 225.6 229.9 234.2 232.2 230.1 232.7 232.3 233.7 233.8 235.4 239.3 245.1 250 253.2 257 259.4 259.7 257.8 256 253.1 248.9 243.1 237 233.5 227.8 223.4 218 211.4 206.8 202.7 198.6 194 190.5 188.2 185.5 182.5 179.3 177.8 177.1 178.4 180.4 181.4 182.3 181.3 186.4 186.3 184.8 184 184 184.5 187.3 186.3 187.2
155.5 157.1 156.5 153.2 137 137.6 138.6 143.9 145.6 151.2 157.1 151 138 140 130 133.8 148.6 141 120.6 100.4 85 77.8 70.6 67.3 64.4 65 56.5 65.5 73.7 85.6 98 107.2 116.6 126.8 137.5 139.4 127.5 113.7 113.1 112 111.9 112.9 113.9 116.4 118.2 117 117.9 118.5 115.9 113.3 110.1 106.5 102.2 100.3 105.2 111 125.2 136.5 134.8 131 136 135 131.2 127.4 125.6 123.6 121 118.9 117.9 117.9 119 124.6 128.6 127.5 129 125.9 129.3 134.3 137.6 140.6 142 143.1 144.6 146.4 147.2 146.1 147.4 149.4 151.4 153.6 157.5 161.2 165.6 168.9 174 180 179.9 177.6 174.3 169.9 167.3 165.9 162.5 158.8 158.2 162 165.2 170.5 173 174.2 176.7 178.8 178.7 180.1 181.8 183.6 184.8 186.3 187.4 187.5 187.8 188 188.5 189 189.8 190.6 192.8 196.2 191.9 192.2 195.2 196.7 196.1 197.2 198.4 200.4 202 208.4 208.2 212.4 210.6 210.5 213.5 214.8 219.4 221 222.5 224.1 232.3 237.2 239.9 239.2 236 237.5 238.8 240.8 241.1 245.7 252.1 258.6 263 266.6 270.9 273.6 273.4 273 269.4 264.4 257.4 247.6 238.4 232.3 226.2 219.9 213 207.4 203 198.6 194.4 190.6 187.8 184.1 180.7 178.7 177.9 175.2 174.9 175.4 177.1 176.5 177.2 179.3 178.8 179.1 179 179.8 180.6 182.3 179.8 181.7
160.1 159 157.4 144.8 142 144.2 143.8 151.4 157.3 157.9 159 154.2 151.4 147.5 134 137.4 149.3 143.8 129.7 108.7 93.6 83.1 77.4 74.5 63.2 58.3 55.5 60.2 68.9 82 91.9 100.9 109 115.9 120.8 125.6 115.7 110.1 111.9 110.2 111.2 115.2 115.2 119.9 123.5 125.5 127.9 126.2 125.5 122.7 120.4 114.6 109.6 104.3 99.5 99.7 110.4 127.1 133 130.3 135.9 140.3 139.1 129.7 127.5 126.8 122.8 120.7 118.7 115.2 113.1 114.3 116.7 121.7 125.5 122.7 129.7 141.5 146.8 148.8 147.5 147.6 148.7 150.1 149.6 147 147.7 149.7 151.7 153.7 156.1 158.7 164 168 174.3 177.2 176.7 175.7 174.1 169.7 167.9 165.6 163.6 161.7 157.7 164.8 168.8 174.6 174.2 174.3 176 178 179.2 181.3 182.5 183.1 183.5 184.4 185.8 186.2 186.5 186.7 187.1 187.7 188.3 189 187.2 187.2 189.3 188.9 190.5 192.9 192.7 197 201.2 200.9 203.1 209.8 209.4 214.6 215.2 212.4 213.4 216.2 219.5 221.7 223.1 226.6 232.4 237.8 242.9 244.6 244.6 244.1 244 245.8 247.2 252.7 261.2 268.3 273.6 277.2 279.9 283.2 284.8 285.5 289.1 288.3 279 267.4 251.6 238.6 229.8 222.3 214.7 208 203.3 199.2 195 190.8 187.8 184.9 182.3 179.5 177.9 176.2 173.9 171.4 172.1 170.3 171.4 172.3 173 174.2 175.8 176.6 179.4 178.3 175.9 175.9
155.4 161.4 161 147.7 149.9 154 153.8 156.9 160 162.1 162.2 160.4 159 151.5 135.4 143.6 150 147.8 136.4 112.7 99.7 91.1 88.1 80.8 74.3 63 53.8 53.7 64.1 75.3 86 94 100.3 105.5 111.8 106.5 101.3 102.6 106 109.1 113.1 117.6 117.8 123.1 133.7 136.7 135.6 135.7 136 132.6 128.2 123.3 117.4 111.1 106.2 101.4 101 106.7 115.9 125.8 134.2 134.7 140.8 137.9 135.6 137.8 132 127.5 124.3 117 112.8 110.9 111.1 114.3 118.4 119.6 125.3 135.7 150.7 159.6 156 152.9 152.1 150.9 148.2 147.4 149 152.2 153.9 155.7 158.2 160.1 162.8 166.2 170.7 172.2 173.3 172 172.4 170.6 167 165.7 164.4 163.1 159.7 164.7 170 175.6 174.1 174 175.5 177.9 179.7 181.5 184.5 184.6 184.9 186.2 186.3 186.7 186.4 185.7 185.8 186.6 187 187.5 186.5 185.8 186.5 186.3 189.1 191 192.9 195.6 198.8 199.6 201.9 208.9 213.8 215.5 217.3 217.8 217.7 220.7 222.9 222.6 225 228 232.7 237.1 240.9 245.5 247.7 248.1 248.5 252 254.7 259.4 269.1 278.3 283 286.7 290.7 293.3 298.5 305.5 312.5 313.5 306.6 294.2 275.2 254.8 238.5 224.1 215.7 209.1 204 200.4 195.9 191.9 188.7 185.6 183.6 181.8 180.1 178.6 175 174.4 166.4 163.9 164.1 166 167.6 168.1 168.8 169.5 172.3 171.9 170.7 171.8
150.2 157.3 148.3 155.7 160.1 159.1 155.2 154.2 155.7 162.7 164.9 164.4 161.7 147.3 136 143.9 149.1 148.3 137.1 120.2 103.4 95.5 88.3 83.2 79.4 65.5 49.8 50.9 60.1 69.2 76.4 84.6 90.6 94 92.8 100.2 104.7 106.6 108.8 112 114.8 120.1 123.8 131.4 139 141.1 139.2 138.2 138.1 140.1 138.8 136.1 128.8 122 119.1 112.5 104.3 97.8 103.5 114.7 119.3 123.7 128.2 137.1 147.9 150.7 145.7 139.9 132.5 121.3 115.4 111.8 108.8 110.3 114 116.2 119 124.9 139.3 152.3 156.9 153.7 150.9 148.7 145.6 148 150.6 153.8 156.5 161.3 164.9 164.2 165.1 166.7 168.7 169.3 170.8 170.2 169.8 169.3 168.4 165.6 164.9 164.8 163 164 169.7 172.4 172.9 173.3 175.5 179.4 180.9 182.2 184.7 185.6 185.7 188 187.3 186.9 186.6 185.9 186 186.6 186.7 185.9 185.4 184.5 184.9 182.8 185.4 186.6 190.5 195.2 197.1 199.4 204.5 210.5 216 221.2 219.5 223.4 221.2 221.4 223.3 223.8 227.1 231 232.1 235.3 241.2 244.8 247 248.2 251.8 255 258.4 264.6 273.5 283.2 289.7 294.1 297.6 303 314.4 321.5 330.3 332.6 327.9 318.9 302.1 279.5 252.5 233.8 219.8 211.7 205.7 201.1 196.7 192.9 189.5 186.3 184.3 182.4 180.5 178.5 176 173.4 172.2 170.8 164.3 159.8 162.2 163.9 164.6 166.3 167.1 166.3 165.6 167.4
131.9 136.4 138.1 153.4 158.9 158.2 154.6 147.7 148.7 154.5 156.1 160.7 158.1 143.9 134.8 140.5 144.6 140 126.7 112.7 96.8 89 86.7 80 73.9 58.4 43.9 51.2 57.1 64.2 71.5 78.4 79.6 84.8 93 106.1 111.4 116.1 120.2 125.2 128 128.4 132.9 140.7 139.5 140.4 138.8 138.4 140.2 143.5 146.8 145.7 143 138.4 130.4 124.8 118.3 110.7 93.3 103.3 108.8 111.8 114.7 116.9 143.9 157.3 156 150.4 136.2 124.4 114.7 111.7 108.7 109.6 108.9 114.3 116.6 119.9 126.2 139.8 148.4 146.2 143 145 145.4 150.5 152.9 156.4 161.1 165.8 171.7 174.5 174.3 170.6 169.2 169.2 169.4 169.7 169.3 168.5 167.8 167.3 166.7 166.2 162.9 164.9 168 171.1 172.3 173.7 175.4 180 183.1 184.7 186.8 186.7 186.7 188.6 188 186.3 186.6 186.3 186.3 187 186.6 185.8 183.1 181.6 179.9 179.5 180.6 183 185.8 190.5 195.3 200.4 205.5 209.7 217.4 221.4 222.3 225.1 223.9 225.9 224.8 225.7 229.6 233.5 233.4 235.9 239.4 242 245.4 248.1 250.2 253 256.7 263.4 272.1 283.7 290.3 297 304.6 312.9 319.9 327 331.5 330.6 328.7 323.9 309.6 291.8 264.8 243.9 227.8 214.6 206.9 200.5 197.6 193.7 190.2 187 184.9 182.5 180.5 178.3 176.1 173.9 171.6 169.8 169.1 164.3 158.1 159.2 160 160.9 160.9 161.4 161.9 161.8
110.9 118.8 128.2 140.4 150.8 148.6 144.8 142 140.4 146.9 148.3 151.6 144.8 134.7 128.9 131.7 135.6 133.7 114.7 99.1 85.1 88.3 91.8 79.2 64.8 52.4 42 50.1 55.9 58.7 63.5 67.4 77.8 94.6 109.6 118.4 125.4 127.9 130.1 134 136.1 138 137.6 143.1 142.1 140.5 141.1 144.2 144.6 146.8 149.9 152 152.4 149.5 144.5 136.7 132 124.4 113.9 102.2 94.3 101.4 105 105 124.4 147.6 151.9 150.4 134.1 124 114.9 110.3 106.8 105.4 108.4 111.8 114.6 118.9 121.9 128.8 139.6 139.2 138.6 142.5 148.1 153.1 156.5 160.4 168 177.7 184.5 183.2 184.2 181.2 173.9 169.9 169.5 169.1 168.5 167.9 167.5 167.2 167.5 166.6 162.9 166.6 168.6 170.6 172.2 173.4 176.3 183.1 184.5 188.2 189.4 188.7 187.6 188.4 187.1 184.8 185.7 186.3 186.6 187.7 186.5 184.6 181.9 179 178 177.9 178.4 180.9 184.7 188.2 193.6 200.8 204.3 208.3 213.4 219.1 223.7 229.1 228.4 226.9 227.8 228.1 229.8 231.6 233.4 237.4 240.5 242 244.9 249.1 251 252.3 256.1 262.6 269.6 276.3 287.7 298.6 309.6 316.1 321.6 327.2 330.9 327.5 321.4 310.9 296 280 261.8 247.8 233.9 219.3 207.6 200 197.4 194.2 190.9 188.6 186.2 182.9 180 177.7 175.5 173.2 171 168.8 167.8 166.5 159.9 156.4 155.3 156 156.2 157.3 158 158.5
102.9 108.6 116.8 124.4 135.7 133.8 132.2 131.7 129.9 134.6 139.6 138.5 129.2 122.5 120.3 124.2 123.4 121.7 105 89.7 83.8 82.1 90 90.6 64.7 49.5 41.3 46.9 53 53.3 58.8 70.4 84.1 100.3 113 122.3 127.8 130.6 133 136.6 140.2 141.7 141.5 142.8 142.8 141.8 142.4 143 144.9 148 153.9 154.2 155.5 158.2 155.8 149.5 140.7 134.7 126.3 113.2 101.8 88.9 96.7 99.9 102.5 125.1 135.3 132.6 130.2 121.8 113.4 107.8 105.6 104.7 107.6 111.7 114.9 118.1 120 121.7 126.2 131.2 136.4 141.2 148.3 156.2 161.7 165.7 172.5 182.5 188.7 191.8 188.1 183.9 178.5 172.2 169.8 168.7 168.2 167.7 167.3 166.9 168 167.9 165.3 163.5 166.8 170.3 171.3 172.9 175.9 183.1 184.5 186.4 188.9 189.3 188.3 186.8 184.4 182.9 182.9 184.8 188.1 189.7 188.1 183.6 180.1 178.2 177.3 177.4 177.8 180.3 184.4 187.9 190.8 197.3 203.2 207.3 213.2 218.7 226.6 232.4 232.8 232 230.6 230.4 234.4 234.9 234.5 238.6 243 246 248.4 250.5 252.1 254.7 260.5 267.9 269.7 278.4 292.3 304.3 311.6 317.2 322.4 329.3 331 323.8 314.5 303 288.8 273.3 258.4 246.9 233.3 219.1 207.8 201.3 197.8 195.5 193.5 191.7 188.4 183.5 180.6 177.7 174.8 172.6 170.8 168.4 165.9 163.7 163.9 157.9 154.3 152.6 154.5 155.8 155.7 155.1
91.8 100.1 108.9 115.5 115.8 119 119.3 118.5 118.8 116.9 118.6 118.1 113.4 110.1 117 111 112 105.1 99.1 88.3 80.5 74.1 77.3 81 61.1 45.1 35.4 40.1 45.6 45.5 60 73.6 87.6 103.4 117.2 125.4 129.7 133.4 136 138.4 142.8 148.6 150.9 149.8 144.9 144.1 143.7 147.3 154.1 157.5 157.4 157.4 154.5 152.6 151.8 150.7 141.5 136.3 128.5 118.6 104.7 96.8 86.6 90 92.3 97.1 106.1 113.4 119 118.4 113.1 106.3 104 102.3 104.3 106.7 112.8 114.7 116.9 118.3 123.8 129 135.9 140.2 148.4 161.2 167.2 170.1 173.4 185.8 190.8 193.7 191.3 185 179 173.6 170.5 169.4 168.7 168 167.3 166.6 167.4 166.6 165 165.6 166 167.7 171.1 174.1 176.6 180.7 184.4 185.7 188 187.9 187.1 184.7 183.3 182 181.1 184.3 187 190.4 187 183.5 181.6 178.1 177.3 177.4 178.3 180.4 183.9 185.3 187.6 191.1 201.7 206.4 212.8 218 223.1 234.2 238.1 234.8 233 232.6 234.8 236.9 237.8 241 245.2 247.1 249.2 255.9 258.7 263.1 269.2 275.3 282.6 290 303.6 312.2 316.7 320 323.4 326 322.9 318.4 313 303.7 290.3 274.1 257.8 243.5 231 219.1 209.3 203.3 199 196.8 195.4 194.1 191.7 184.5 181.2 178.2 175.2 172.4 170.5 168.1 166.5 162.7 160.8 158.5 155.2 152.4 152.5 154.5 154.9 153.2
83.1 86.8 97.1 103.9 108.7 113.3 112.7 113.4 113.4 112.1 110.1 107.9 105.9 104.9 104.8 109.3 112.2 114.2 104.9 87.3 69.9 62 54.8 50 44.6 38.5 31.3 33.5 37.7 43.3 57.8 80.1 91.8 105.5 118.9 129.5 137.3 141.6 139.9 143 148.8 149.5 156.2 158.2 148.9 146.1 146.8 150.5 157.3 157 155 155.7 153.2 149 148.4 146.2 140.5 135.8 127.5 118.1 111.6 101.8 88.9 85.3 85 84.9 87.3 94.7 106.4 110.8 107.6 104.3 105.5 103.4 101.9 102.9 106.8 111.6 115 117.8 124.2 128.8 133.7 139.4 147.5 158.4 166.9 172.3 176.2 186.5 191.1 193.3 191.3 187.1 179.5 175.9 172.5 170.1 169.5 168.8 168.1 167.5 166.4 165.4 166.9 167.1 167.3 168.1 169.9 173 174.5 177.5 181.3 183.7 185.3 183.8 184 184.3 182.9 181.6 180.4 180.4 182.1 183.9 184.6 183.3 180.3 178.3 177.4 177.7 178.8 180.2 182.8 184.9 186.2 187.8 196.2 204.6 211.5 217.6 222.2 229.5 237.8 238.9 234.7 234.2 236.8 239.2 239.8 241.8 246.8 248.1 251.6 258.8 262.8 266.8 275.6 284.3 290.6 301.5 313.6 321.9 322.8 321.7 322.6 322.4 320 317.7 313.6 309.3 298.6 286.7 271 249.5 231.5 219.6 210.1 204 200.7 199.5 198.4 196.1 191.9 186.8 182.4 178.8 175.6 172.6 170 167.9 163.9 160.3 158.7 156.8 156.2 154.3 152 153 153.2 152.1
77.2 75.8 82.4 95.4 110.1 118.1 119.3 116.7 113.1 111.4 113.7 126.6 122.9 108.9 106.2 108.7 124 129.5 124.1 106.6 84.6 60.5 45.5 36.8 35.4 32.8 28.5 29.2 33.7 42.9 55.9 77.1 94.3 109.7 118.7 127.8 136.6 142.2 144.2 148 150.8 149.9 146.7 154.4 150.8 149 148.4 154.3 159 154.9 152.7 150.3 147.9 146.5 149.8 147.2 138.9 132.6 127 117.7 111.2 100.8 90.8 85.2 84.9 84.8 84 88.3 99.4 107.7 104.9 105.3 104.3 104 102.3 101.9 104.2 107.9 112.2 116.5 123.5 129.1 134.6 141.9 149.6 158.5 167.5 172.8 177.7 182.3 187.1 187.9 187.4 185.2 181.1 178.5 173.2 171.5 170.3 169.6 169.1 168.5 167.1 165.6 165.9 167 168.4 169 170.3 172.4 172.9 175 177.3 179 180.7 182.5 183.2 183.3 182.6 181.3 179.5 179.3 179.7 180.4 180.4 180.8 179.3 177.9 177.3 178.4 179 180.9 182.9 184.1 185.7 187.4 191.2 198.7 206 216.1 221.1 223.5 233.7 240.1 237 235.7 240.3 241.2 241.5 244.1 247.8 251.3 257.8 261.8 266.9 273.2 281.2 289 297.2 308 320.5 327.4 326.1 323 322.8 321.2 319.6 318.3 315.1 312.9 304.3 294 282.2 258.1 239.4 224.8 213.7 205.7 201.5 200.3 199.6 196.9 193.6 187.8 183.6 178.6 173.3 171.6 169.4 167.4 165.4 163.3 160.3 158.6 156.2 154.1 154 148.8 151.9 152.1
71.6 72.9 76 91.2 107.1 120.4 126.2 130.1 122.6 111.6 114.4 127.6 129 120.9 107.8 105.8 109.4 119.6 115 104.4 96 67.1 46.8 37.2 30.6 27.7 24.4 27.2 30.7 38.3 51.8 72 89.6 113 121.8 127.9 135.7 145.6 145.1 146.7 147.1 144.3 140.6 142.9 149 147.4 148.1 149.3 155.3 155.2 151.4 148.5 145.3 138.4 142.1 141.3 136 128.4 121.2 114.8 105.3 97.1 91.2 87.2 84.8 84.7 84.3 84.5 89.9 98.1 101.4 104 103.1 101 100.2 100.4 101.9 106.2 109.5 115.9 123 129.8 135.8 143.1 151.8 160.9 168.5 175.6 183 184.8 186.3 187.5 187.4 186.1 184.4 181.6 175.6 173.7 171.9 171.2 171.4 169.5 168.2 167 165.8 166.7 168 169.7 170.6 171.8 172.2 173.2 174.4 175.9 178.5 179.6 179.5 180.6 181.4 180.1 178.6 177.8 178.6 179.5 179.9 180.2 178.6 176.9 178.2 178.8 179.3 180.4 181.9 182.9 184.8 187.6 191.1 195.5 202 209.3 214.3 219.3 228.4 235.5 235.9 236.8 241.2 242.6 243 247 249.3 252.8 260.8 267.1 273.3 279.8 288.5 296.5 303.7 316 327.1 331.8 327.3 323.3 322.4 320.7 319.6 318.7 316.9 311.9 304.6 292.9 279.1 261 244.6 228.5 218.4 208.9 200.6 198.9 198.9 199.2 192.3 186.4 184.4 176.4 175.8 176.7 174.2 171.8 168.6 165.7 161.3 158.8 156.3 153.5 151.7 148.9 150.3 150.1
64.6 69.5 71.9 78.1 91.5 114.4 124.2 126 121.4 107.1 111.3 125.7 137.8 130.9 112.2 94 93.6 95.7 89.3 78.8 71 62.2 52.5 41.7 30.6 24.4 22.9 25.7 27.9 33.2 46.1 62 80 104.6 124 131.3 135.1 138.1 142.1 141.5 140.7 134.7 133.4 144.5 144.2 141.6 139.7 137.4 138.6 143.4 146.7 143.3 136 132.3 129.3 126.8 123.7 118.7 110.5 102.1 96.2 92.8 89.3 86.3 84.6 84.4 84.2 83.8 84.4 89.5 94.5 97.2 96 96.5 97.5 99.9 101.1 103.9 106.4 114.3 122.4 130.7 137.2 144.1 152.7 161.8 169.9 178 185.3 189.3 189.1 188.8 188.5 185.7 184.1 183.2 177.4 173.8 173.1 172.8 172.2 171.3 170 169.7 167.7 166.2 166.8 168.1 170.8 171.3 170.6 171.4 174 174.2 175.8 177.1 177.4 177.1 176 177.2 176.1 176.8 178.2 179.1 179.5 179.3 178.6 177.6 177.7 179.2 179.6 180.6 183 184 185.3 186.8 188.7 193.6 199.5 205 210 215.4 222.8 229.9 232.9 234.2 238.2 245.3 243.9 247.4 249.7 254.8 262.6 270.5 277.9 285.6 294.3 303.3 310.9 322.5 334.9 335.6 331.2 324.5 321.9 320.6 319.8 319.1 317 310.8 302.3 289.5 273.8 255.1 242.3 229.3 219.5 211.6 202.1 199.2 196.1 193.2 186.4 184.4 183.4 181.1 180.5 178.5 175.9 172.7 168.1 164.9 161.8 159.2 156.6 154.3 151.4 149.3 148.3 147.1
57.4 60.8 62.8 65 76.1 96.2 112.7 109.1 106.1 92.8 99.4 118.4 132 131 103.9 89.4 77.9 70.7 63.5 56.1 52.3 47.2 41.9 37.3 28.6 23.2 18.4 22.5 25.8 31.2 41.3 54.7 72.2 89.3 109.8 129.5 134.7 137.5 135.8 132.8 130.9 123 116.8 131 137.3 133.8 127.5 120.8 115.5 116.5 119.3 122.3 120 118 115.6 112.8 109.3 108.1 104.2 96.5 91.9 92 85.6 85.4 84.4 84.2 84 83.8 83.9 84.2 85.9 88.9 88.4 89.3 98.4 98.7 99.8 102.9 104.9 112.3 119 125.9 134.8 142.5 150.1 159.3 167.7 177.1 185.1 193.1 196.3 196.5 198 195.4 190.5 186.8 181.9 179.9 176.9 174.2 173.6 173.4 173.5 173.2 174.7 174 169 167.2 167.2 167.9 169.3 169.8 171.6 171.9 172 173 174.1 173.6 172.8 173.8 174.4 175.4 176.9 178.2 178.7 178.2 177.9 176.5 176.3 178.7 179.5 182.6 184.7 186 186.8 186.4 188 191.2 194 198.7 201.2 208.9 217.8 227.9 229.6 232.2 234 239.9 244.7 245.7 253.2 257.4 264.7 272.1 281.7 290 301.4 310.6 320.9 334 341 340.6 336.2 329.4 323.8 321 320.2 317.8 313 306.4 297 284 266.6 252.3 240.8 230 222.6 213.7 205 199.5 197.8 195.1 193.2 191.1 189.3 186.3 183.5 180.5 177.7 173.6 169.3 167.5 165 162 159.4 157 155.5 152.8 148.1 146.6
44.7 48.4 49.3 50.3 61.1 73.1 83.7 85.1 80.4 77.7 88.5 107.2 119.5 108.9 85.9 73.5 64.2 54.4 46.9 40.8 36.6 32.8 30 25.7 24.3 21.6 20.1 20 22.3 26.6 38.4 50.5 62.5 76.6 91.3 107.9 123.6 120.2 114.7 109.1 103.5 101.5 100.7 104.9 113.4 121.8 118 111.7 106.8 106.6 108 111.5 108 102.5 100 100.4 99.4 97 95.4 93.8 90 86.8 89 89.6 86.8 84.8 84.5 83.7 83.8 84.1 84.3 84.9 85.5 86.6 92 94.6 97.2 100.9 102.8 109 115 119.8 127.5 135.9 145.9 159.2 173 181.6 187.6 194.8 199.8 202.4 202.3 199.5 195.9 193.8 194.7 195.3 192.5 185.9 176.7 174.7 174.6 175.4 176.9 181.3 182.3 173.9 171 170.2 170.2 169.3 169.3 169.3 169.3 169.3 170 170 170.1 172.3 171.2 173.9 175.4 176.3 177.2 176.5 176.7 175.9 177.6 178.6 179.3 180.4 184.5 186.3 186.1 186.9 187.4 189.3 192.3 195.6 197.9 206.1 215.9 224.9 226.5 230.1 233.7 237.9 244.4 245.2 255.2 258 266.1 273.7 284.6 294.9 307.4 318.2 334.7 345.1 349.5 347 341.3 334.8 329.8 325.8 318.7 312.4 306.5 300 288.7 274.1 258 249.7 239.5 232.2 224.1 214.9 206.9 204.6 203.6 200.2 197.3 193.6 191.8 189.8 187.1 183.6 179.9 174.9 174.4 172.4 169.7 166.3 163.3 161.7 159.5 156.3 155.3 154.2
36.3 41.8 39.3 38.3 42.6 52.5 60.4 61 59.8 66.8 77.2 95.7 109.2 95.9 70.8 59 49.6 41.2 34.1 27.8 24.8 23.6 22.1 21.3 21.1 20.4 19.4 19.2 19.9 23.6 30.3 43.2 57 70.4 83.8 93.6 101.3 101.1 100.2 98.7 98.4 98.9 98 98.8 98.3 102.2 103.6 106.3 102.4 98.9 95.3 95.4 96.2 96.6 92.4 89.4 89.2 88.1 86.8 82.9 86.9 89.8 91.8 95.8 92.9 87.8 84.6 83.7 83.8 84 84.2 86 85.5 88.2 89 90.5 93.8 97.6 99.4 105.2 110.5 117.4 124.6 133.7 146.1 166.7 178.6 183.8 188.5 196.5 203.9 205.2 202.9 199.9 197 195.7 197.2 198.3 196.8 190.7 182.7 176.7 174.1 174.5 177.3 183.4 187.8 185.5 178 173.5 171.4 170.7 169.5 169.3 169.3 169.3 169.3 169.3 169.3 169.3 169.3 170.6 173.1 174.4 175.6 175.8 175.9 175.7 177.4 178.3 179.3 180.1 181.7 185.1 186.5 187.9 189.9 188.9 190.6 193.1 196.9 200.7 208.7 215.8 221.7 225.8 230.1 234.8 240.8 244.8 254.1 258.8 267.3 276.3 285.7 301.3 314.1 330.3 346.2 353.2 355.1 352.6 345.3 338.9 334.8 329.8 318.7 306 297 288.9 278.4 262.8 255.5 247.4 238.3 233.1 225.8 217.5 211.4 211.5 209.3 205.5 200 195.5 194.1 192.9 190.6 185.1 180.3 178.8 178.7 176.7 173.6 170.3 167.5 165.6 163.2 161.7 160.5 159.3
29.3 32.5 30.8 29.9 28.6 34.7 41.1 44.2 47.1 54.1 64 77.8 88.6 75 58.3 49.3 40.6 33.4 27 24.4 22.4 21 20 19.8 19.2 17.9 17.4 17.1 18.7 21.2 28.4 39.6 53.3 66 79.3 89.3 98.4 96.4 96.2 96.5 97.6 97.7 97.7 98.1 97.3 98.3 100.5 98.5 96.6 92.2 89.5 89.5 90 90.3 86.2 84.1 87.8 83.1 81.8 83.1 84.2 86 88.2 89.2 92.8 89.4 85.8 83.7 83.8 84 84.2 86.1 86.5 89.4 90 92.8 96 97.2 99 103.2 111.1 118.8 126 134.9 148.3 165.1 176.6 183.5 193.7 201.7 205.5 205.3 203.3 198.9 194.2 193.5 195.2 197.4 197.5 191.4 183.2 178.3 173.9 173.9 176.5 182.9 187.1 188.8 183.6 176 173 172 170.8 170.6 170.1 169.3 169.3 169.3 169.3 169.3 169.3 169.3 169.3 170.6 173.5 173.7 175.2 175.8 178.7 179.3 180.4 181.1 182.9 184.8 186.8 188.9 188.5 190.4 190 192.5 195.3 199.5 203.9 211.5 218 221.5 227 233.4 238.2 246.7 254.1 262.1 269.9 280 290.9 309.4 325.8 344.4 355.4 359.8 360.4 357 351.5 343.4 337 331.2 316.5 301.4 289.8 279.1 267.8 259 252.7 246.4 240.2 234.1 225.7 220 219.6 217.3 214.4 210.2 204.2 198.8 195.7 195 193.2 186 183.5 183.1 181.9 180 178 174.2 171.9 171.6 170.7 169.9 169.1 168.4
27.1 26.5 26.8 25.6 24.7 25.1 28.1 29.1 32.9 38.7 45.9 50.8 52.1 51.7 46 41.3 34.2 27.7 25 22.9 20.2 18.9 20.9 18.6 18.4 17 17.2 17.2 17.9 18.6 24.3 38.3 51 67.5 77.2 85.8 91.2 95.9 96.1 96.3 96.9 97.2 97.3 97.3 97.3 97.3 101.2 99.8 93.7 90.4 88.7 87.3 86.2 85.1 82.7 81.3 81.6 80.6 82.9 82.1 82.3 82.5 83.3 85 87.5 89 88.2 83.9 83.7 83.6 84.6 86.1 86.8 90 93.6 99.4 102.3 100 100.6 105.3 113.7 120.4 128.2 137.4 150.3 164.2 175.4 184.6 193.1 200.3 205.1 204 201.4 196.6 192.5 189.5 189.6 193.7 192.5 188.1 181.7 176.2 173.2 172.9 173.2 179.1 186.4 189.1 186.6 180.7 175.1 173.2 172.2 172.8 173.2 171 169.3 169.3 169.3 169.3 169.3 169.3 169.3 169.3 169.3 169.3 172.2 174.1 175.9 178 180 180.7 180.7 182.7 184.2 185.8 186.4 188.3 190.1 192.5 196.7 202.8 208.4 217.8 216.8 222 228.6 238.6 241.9 252.2 258.2 264.1 274.4 285 300.9 320.1 339.1 352.7 362.6 366 366.2 361.2 355.2 346.3 334.5 327.3 316.3 296.1 281.2 268.5 262.1 256.7 252.3 246.2 239.7 233.3 231.5 228.9 225.8 222.3 217.5 212.6 207.4 202.2 197.5 194 190.6 188.6 187.6 187 185.1 183.5 181.9 181 179.5 179.9 179.6 178.9 178.7 178.5
24.1 23.7 24.6 24.4 25.4 24.5 23.7 24.8 24.8 25.5 28.2 31.6 34.4 34.9 34.4 31.9 27.5 25.2 25.2 23.1 19.9 18.4 19.1 18.3 17.5 16.6 18.6 16.8 17 17.3 20.5 32.5 45.7 65.8 74.9 86 94.1 101.1 101.6 99.4 99.9 98.7 98.1 97.4 97.2 98.2 97.8 97.8 93.3 90.8 91.1 91 86.4 84.6 82.1 81.2 79.3 80.3 81 78.6 78.4 78.8 80.7 82.9 86.9 88.5 87 83.8 83.7 83.4 84.2 86.6 90.8 93.1 98.7 103 104.5 101.5 104.5 108.2 113.3 120.3 129.5 139.3 150.2 163.3 174.7 182.1 187.2 193.3 197.9 200.4 197.3 193.2 190.6 187.1 183.5 185 185.2 182.9 179.1 175 171.7 171.7 171.5 175.9 184.6 192.2 187 182.5 176.9 173.7 172.8 172.8 173.9 171.6 169.9 169.2 169.3 169.3 169.3 169.5 172.4 169.9 169.3 169.3 169.3 169.3 169.3 170.4 173.9 177.2 181 181.8 183.3 185.4 187.7 189.1 190.5 192.9 199.1 209 207.2 211.5 217.6 222.5 236.8 242.3 247.2 256.5 264.9 270.9 283.7 295.6 310.2 329.7 346.1 356 363.4 370.1 370.4 363.9 352.9 341.6 328.9 317.6 305.5 289.2 273.4 264.6 259.4 255 249 243.1 241.3 239.8 237.6 234.4 231.6 226.8 220.5 215 210.8 206.7 201.7 198.1 197.4 196.7 193.3 192.2 190.7 189.7 189.7 189.5 188.9 190 190.8 191.2 191.4 191.6
23 23.2 22.8 23.6 23.2 21.7 22.3 23.8 22.9 21.8 19.7 19.3 23.6 25.5 25.5 25.2 23.4 23.5 23 19.9 19.6 18.2 17.9 17.4 16.6 16.6 18.2 18.1 15.9 16.1 18.7 26.1 41 59.8 74.1 82.8 91.3 101 105.7 108.8 113.3 113.2 106 100.8 98.7 100.4 98.6 100.1 94.3 94.1 96.3 97.1 95.4 91.9 90.2 83.8 82.1 79.9 77.3 76.6 76.1 78.6 80 80.7 87.4 90 87.7 84 83.3 83.3 84.4 86.8 90.4 94.7 101.4 105.5 107.2 106.9 109.7 111.5 116.2 122.6 131.4 143.3 153.2 163.1 172 177.9 183.5 186.6 190.4 193.2 193.3 189.2 186.7 183.9 180.4 177.5 177.4 178.7 176.4 172.2 170.6 169.9 169.8 172.3 176.8 185 187.9 182.5 177.2 174.3 173.3 172.6 171.9 171.1 170.3 168.9 169.3 169.3 169.3 169.3 170.2 169.3 169.3 169.3 169.3 169.3 169.3 169.2 170.5 173.4 174.6 179.3 179.1 184.6 185.6 189.8 191.4 194.5 204.9 205.5 206.5 212.3 219.7 226.4 239.6 247.9 255.1 262.6 272.3 280 291.5 307.5 323.7 337.1 346.9 352 357.1 362.1 364.8 357.9 346.2 332.8 315.8 302.5 290.8 278.2 266.8 262.2 258.4 253.9 250.5 248.6 245.9 244.6 243.2 239.9 236.3 230.5 224.1 217.8 217.4 215.1 208.6 204.8 205.9 206.9 203.5 199.1 197 197.3 197.7 198.1 200.8 202.1 203.6 205.5 207.3 208.1
25.1 25.3 24.1 25.1 24.4 24.9 23.5 21.2 21 23.2 24.2 23.1 18.7 20.7 19.9 19.9 19.7 20.9 20.4 18.2 17.7 18.3 18 16.7 18.1 16.9 16.7 17.4 16.8 15.3 16.6 23.3 37.4 56.6 70.5 81.4 92.8 101.7 110.6 115.9 121.4 122.2 119.5 113 108.3 104.8 103.5 100.6 101.2 106.1 112 113 105.4 101.1 102.3 92.8 86.9 81.5 77 75.6 75.6 75.9 78.2 81 89.7 96 90.1 85.8 83.8 83.5 84.6 86.9 89.4 95.5 103.6 108.2 110.8 112.5 115.6 116.1 118.6 123.5 131.9 141.8 154.2 163.7 174.2 179.7 184.4 187.9 189.8 191.3 188.4 186.1 183.3 179.8 177.3 174.2 172.2 170.9 171.9 171.3 169.1 168.3 168.9 171.5 176 178.8 181.4 180.4 177.2 174.7 173.8 173 172.3 171.1 170.3 169.4 169.3 169.3 169.3 169.3 169.3 169.3 169.3 169.3 169.3 169.8 169.3 171.9 173.3 173.6 176.8 180.9 184 187.4 189.2 192.9 193.8 197.6 200.2 204.9 207 211.4 218.2 231.1 245.8 252.5 259.5 268.9 277.6 288.7 304.9 320.3 330.7 339.4 344.8 348.1 350.3 351.2 349.8 344.9 333.8 318.5 302.4 289 278.1 267.4 262.8 260.2 257.1 254.6 254.6 252.7 250.4 249.5 248.6 245.5 241.1 234.1 227.3 226.1 227.8 224.5 218.4 216.7 215.9 215.5 213.7 211.7 211 210.1 209.9 210.7 212.9 213.9 214.8 217.5 222.9 225.2
29.1 28.4 29.2 28.4 28.4 28.9 30.2 27.8 26.6 25.3 25.2 23.8 23.2 23.3 21 18.4 19.3 18.8 17.7 18.3 18 18.4 17.6 17.7 17.8 17.1 16.4 17.3 16.7 15.6 14.9 18.8 32 49.5 64.9 80.7 93.9 102.8 113.9 122.8 129.9 129.4 127.8 123.3 119.7 113.9 107.8 111 112 115.3 114.8 113.2 109.3 103.7 103.1 99.5 94.6 87.1 79.4 76.8 75.6 76.2 77.8 81.9 90.5 96.4 93.2 87.9 83 83.5 85.4 87.9 90.9 96.8 107.2 111.9 114.6 119.3 121.5 122.6 126.7 127.6 131.5 139 150.6 163 174.4 180.8 185 186.9 190.6 190 187.9 185.2 183.4 180.9 178.4 173.1 169.7 168.4 168.1 168.1 167.4 166.5 168.5 173.2 178.3 179.5 179.5 178.1 176.4 175.4 174.2 173.4 172.7 171.2 170.4 170 169.8 169.7 169.4 169.3 169.3 169.3 170.9 173.7 180.8 177.2 174.4 178.3 181.1 181.7 188.7 191.7 194.2 196.8 198.2 199.4 200.2 203.8 204.1 208.8 209.6 214 220.7 231.6 245.6 253.8 264.4 275.6 284.8 298.1 313.8 325.6 332.3 337 341.3 344.1 344.4 341.9 337.6 331.5 320.3 304.9 292.9 282.2 272.6 268.1 261.6 258.4 258.9 259.4 259.5 257.7 255.7 255.1 254 251.3 246.4 238.6 235.7 237.1 235.9 233 230.6 229.7 229.4 227.6 226.1 223.6 221.7 220.8 221.3 222.3 224.1 225.4 226.3 229.1 233.9 239.7
41.3 40.2 39 37.5 36.1 35.5 36.9 34.8 33.8 31.7 30.1 27.8 30.7 31.2 29.6 26.6 24.4 22.2 19.8 18.8 18.2 18.3 18.2 18 17.8 17.5 16.1 17.2 17 16 15.3 15.8 24.5 41.2 60.8 79.3 93.7 103.2 113.5 125.8 132.6 130.4 132 130.3 127 122.4 116.8 113.3 113.7 117.8 123.1 119.4 109.9 105.6 104.9 104.4 99.1 91.8 82.6 78.3 75.5 75.9 78.9 81.4 89.1 91.9 90.7 86.6 82.3 84.6 87.1 87.9 92.4 98.6 105.9 110.8 117.1 121.5 126.4 128.1 130.1 132.4 134.5 138.8 146 156.8 168.3 178.6 184 186.7 186.8 186.1 184.4 181.2 178.3 178.1 176.1 171.6 168.4 167.4 167 166.6 166.1 168 173.4 179.9 181.2 183 183.7 180.5 177.2 176 174.9 175.3 174.5 172.5 171 170.6 170.4 170.2 169.7 169.2 171.9 173.6 177 180.5 186.5 183.8 181 179.1 181.2 186.7 197.4 199.7 202 202.9 202.6 203.7 205.5 206.5 207.9 210.6 216.6 219.7 222.5 231.2 248 257.4 267.6 280.9 298.3 313.8 322.5 325.2 331.3 333.5 336.2 338.9 340 337.7 331.2 322.2 311.1 300.5 289.4 280 271.1 266.9 261.9 262.1 263.4 264.1 264.3 262.6 261.6 261 260.4 254.4 249.4 247.3 245.2 245.5 245.4 245.3 244.2 243.3 240.6 237.9 236.6 237 235.4 234.7 234 233.8 235.1 236.4 237.7 240.3 245.2 254.9
53.4 53.7 51.5 48.7 46.5 42 43.8 42.1 43.3 41.8 42.3 40.9 40.1 38.2 39 38.5 35.3 32.2 28.3 24.5 21.5 19.9 17.3 18 17.7 17.1 17 16.3 18.2 16.8 15.7 15.2 19.9 34.5 59 75.7 91.6 103.4 113.6 122.9 132 131.6 130.4 132.4 130.5 126.9 121.7 116.3 114 114.9 116.9 116.7 109.5 104.5 102.7 100.9 100 94 85.4 79.6 75.9 76.1 79.5 81 87.3 90.7 89.9 86.3 82.5 85.3 87.8 89.1 93 98.4 106 113.6 121 126.3 132.9 133.7 137.4 139.9 142.1 142.7 143.8 149.3 159.2 171 178.7 182 181.4 179.7 177 174.9 171.9 171 171.9 168.6 168.1 167.6 165.9 165.5 167.2 170.7 177.4 185.2 188.3 194.6 196.5 193.9 185.9 178.1 178.1 180.4 180.6 175.3 172.2 171.3 170.9 171.8 173.9 176.5 172.9 173.7 176.4 181.2 184.5 184.5 183.5 182.4 183.9 192.5 203.3 209.2 210.7 214 217.6 214.1 211.5 212.9 215.8 215.9 224.2 224.8 225.3 233.7 247.4 260.9 270.9 285.5 303.9 320.4 329.5 331 330.4 329.2 331.1 335.9 338.7 337.9 328.7 319.8 309.2 298.3 286.4 277.5 270.4 265.9 265.6 265.8 267 268.3 269.2 268.1 267.5 266.9 264.2 257.8 256.2 255.2 254.8 255.8 257.7 257.9 258.3 257.5 255.4 253.8 250.8 248.8 247.9 249.7 248.3 247.4 247.6 247.1 248.6 250.6 254.4 257.9
64.5 65.1 64.1 60.8 58.8 56.8 55.4 54.7 52.5 50.3 55.9 56.5 55.2 52.6 52 49.6 47 44.6 41.2 32.7 26.2 23.3 19.2 17.9 17.3 16.7 16.5 16.7 16.4 17.3 16.1 15.3 18.3 29.5 54.3 70.8 89.3 106.6 120.5 124.5 129.3 132.8 134.7 133.8 134.4 134.8 129.7 122 117.5 113.4 111.7 108.9 106.5 102.5 99.2 96.1 92.8 91.5 87.2 81 76.4 77.1 80.1 81 85.3 88.4 86.3 86.3 79.9 82.3 85.8 90.8 93.2 98.5 109.2 118.2 126.4 132.8 140.1 146.2 149 150.6 153 150.4 147.3 150 151.5 157.7 167 174 174.8 173.1 170.3 169.3 169.5 168.9 168.5 167.8 167.6 167.4 167.9 168.2 170.9 174.1 177.4 184 187 194.2 196 192.8 189.4 183.5 179.8 177.4 176.3 174.7 173.7 172.6 174.3 174.5 175.2 177.6 178 179.2 180.3 178.5 180.2 183.1 184.3 183.4 186.1 193.4 204.1 216.1 223.5 227.2 226.1 222.7 223.1 224.6 225.5 226.2 229 227.5 232.8 244.4 254.6 265 275.6 287.9 304.1 318.6 328.2 331.7 330.4 326.6 321.5 324.7 332 335.2 333.1 325.9 312.1 294 284 275.9 269.8 267.7 267.6 269.6 271.8 273.6 274.6 274.3 272.5 270.5 265.8 263.9 263.4 263.3 265.8 270 271.8 272.9 274.6 273.3 271.6 268.8 265.5 263.1 265.4 265.6 266.1 264.9 261.4 257.6 253.6 252 252.6 253
75.4 73.2 73.8 71.7 72.1 68.5 65.6 66.1 65.1 66.6 68.4 70.9 70.9 67.7 67.1 64.9 60.5 56.3 51.7 43.7 35.6 28.7 22.4 17.5 16.9 16.4 16.3 16.3 16.3 15.9 15.5 15.5 17.5 24.8 42.4 64.7 87.1 104.4 120.1 128.3 129.2 134 139.4 140 142.9 141.3 136 130.7 128.3 126 114.4 106.3 101.9 100.6 99.6 97 90.1 86.8 84.9 82.2 76.6 74.5 78.7 78.1 81.4 87.2 84.9 82.4 79.2 81 82 85.6 91.8 99.5 110.7 121.1 129.7 137.1 144.6 152.7 158.1 162.4 162.4 158.1 153.3 151.9 152.5 152.7 154.6 160.7 165.3 166.5 166.7 167.3 168.6 168.2 167.8 167.4 166.6 166.8 165 168.2 169.6 171 174.4 179.4 184.4 189.9 189.9 185.9 182.8 180.2 178.2 176.4 175.7 174.9 174.1 173.3 173.7 174.3 178.4 183.9 187.7 187.8 185.3 183.1 180.9 183 183.6 182.8 183.4 195 204.3 218.6 231 238.9 241 235.3 233.6 231.3 233.9 232.2 231 236.4 240.6 247.9 259.5 270.8 282.8 293 302.7 315.7 324.4 327.7 328.6 323.2 316.9 316.3 319.6 326.4 328.6 324.3 315.9 302.1 288.6 279 271.9 269.1 269.5 272.6 275.9 277.8 279.2 278.1 276.5 273.8 270.2 270.2 271 276 279.7 284.8 286.4 287.4 287.6 286.5 284.7 280.9 278.4 276.5 277.6 273.7 269.6 264.8 260 255 251.5 248.5 246.3 244
88 84.2 83.1 81.2 82.6 83.5 79 74.7 79.1 79.5 79.5 80.6 81.4 80.4 80.9 81.1 77.8 73.6 67.8 62.5 52.5 40.6 27.7 21.9 19.5 16.6 16.1 15.7 15.6 15.5 16.2 15.6 16.3 22.4 38.5 58.8 82.3 104.2 114.5 122.7 125.7 129.2 138 140.7 139.1 142.7 140.4 139.5 138.7 137.3 127.6 106.6 99.6 97.1 95.8 99.7 93.2 86.5 84.5 81.9 76.2 75 73.8 77.4 80.8 84.1 82.1 83.8 77.8 78 82.4 87.7 94.5 102.3 112.4 122.7 131.5 138.4 145.5 152 157 161.9 164.1 162.6 157.5 153.4 153.7 153.2 153.9 156.4 159.4 162.7 164.9 167.4 168 167.7 167.5 167.7 167.3 166.3 164.9 166 166.6 168.2 170.6 171.6 172.7 174.7 177.1 178.3 179.2 179 177.4 176.1 175.4 174.6 173.9 173.2 173.6 174.1 175.3 182.4 188.6 192.2 185.5 183.8 182.9 182.1 183.4 183.1 183.1 191.9 207.2 224.1 239.3 248.7 253.3 251 242.4 235.8 236.8 236.3 233.8 241.5 248.2 255.5 265.5 275.9 287 300.7 305.8 313.3 321.5 325 324.5 318.8 315.7 315.2 314.9 315.1 321.8 320.3 312.8 303.2 294.1 283.7 275.1 271.5 271.8 275.1 278.4 281.2 282.3 281.1 279.3 276.3 275.9 277.1 281.2 286.9 292.9 297.6 298.8 302.2 304 309.9 310.6 306.2 297.6 292.1 285.3 280.2 277.2 278.3 278.1 271.5 263.1 253.4 242.3 234.9
98.4 96.6 96.2 94.2 92.2 91.9 91.8 85.7 86.7 88.8 89.4 91.1 97.5 101.9 100.8 99 97 91.8 88.2 83.4 74.5 62.3 47.3 29.5 22 18.9 17.3 16.6 15.6 16 15.6 15 15.6 21.1 38.9 57.9 79.9 107.6 124.7 126.1 123.9 124 126 131 132.8 132.8 135.1 135.3 137.4 139 132.6 116.9 102.3 95.9 91.4 90.3 92 89.9 83.2 78.5 74.5 78.4 72.7 81.1 84.1 82.5 79.4 81.6 81.7 75.9 81.8 90.2 101.4 107.4 113.4 124.1 132.9 139.7 146.2 150 153.1 157.1 159.5 160.9 158.9 154.4 153.6 153.8 153.8 155 157.3 161.9 163.3 165.5 166.2 167.3 166.9 166.6 166.7 166 165.4 165 167.2 168.4 169.3 170.6 173 175.4 176.5 177.6 179 179.3 178.9 179.4 175.4 174.7 173.9 173.1 172.9 173.1 175.2 177 184.8 189.8 188.7 184.5 183.6 182.9 182.1 183.4 183.9 195.6 209.9 228.7 245.6 255.7 259.6 256.9 247.6 235.1 233.7 235.4 236.4 240.7 252 257.3 271.8 281.3 288.5 302.2 309 312.5 316.9 320.4 318.5 315.6 314.7 314.4 314.2 313.7 313.4 314.6 309.1 301.6 295.3 287.9 279.5 274.1 273.9 277.3 280.3 282.1 282.8 281.3 279.9 278.4 281.4 283.9 288.7 295.3 301 304.1 310 318.5 328.5 330.1 326.2 319.2 311.1 302.5 295 289.7 287.2 284.2 281.1 277 269.5 251.7 236.5 227.2
109.9 111.5 111 108.3 106.1 102.9 102.2 102.2 91.5 97.9 102.5 102.2 105.9 115.4 123.8 124.5 120.8 120.5 113.1 105.4 95.6 87.7 69.8 51.8 30.5 21.1 16.9 15.6 16.1 15.6 15.4 15.3 15.5 20.3 40 57 76.1 108.2 128.9 129.9 129.1 128.6 133.3 133.3 127.6 124.5 124.1 125.6 128.6 138.4 136.5 124.3 109.9 97.4 91.1 86.9 84.3 82.5 81.7 77.5 75 76.8 75.6 82.3 87.2 84.2 78.1 74.5 74.1 74.1 77 89.1 101.4 110.2 118.1 123.9 133.4 141.1 145.1 148.3 150.3 153 154.1 156.6 157.7 156.3 153.7 153.3 153.5 154.6 155.1 159.2 163.7 165.1 164.4 164.7 165.1 165.3 165.2 165.3 164.6 165.7 167.9 168.8 170.1 174 177.1 181.5 183.7 181.1 178.2 177.3 176.8 176.2 175.4 174.3 173.4 172.9 171.5 174 176.8 177.9 179.3 182.1 185.1 184.1 183.3 182.3 181.5 182.4 183.9 195.3 209.5 228.9 242.3 247.3 252.8 253 248.9 235.1 229.8 230.7 235.2 240.5 249.2 255.9 271.6 285.2 290.9 299.8 309.5 313.7 315.5 315.8 315.2 314.8 314 313.6 312.9 311.5 310.7 308.1 304.3 299.1 293.6 288.4 282.3 277.5 276.4 278.7 281.3 281.8 280.5 280 279.9 282.4 285.7 289.2 295.4 300.8 304.7 311.3 322.8 337.4 342.2 342.6 340.1 335.4 327.4 317.7 305.4 294.9 288 276.9 262.6 246.2 237 228.7 224 220.2
120.1 123.5 126 128.4 125.2 118.1 113.5 114.9 112.4 109.5 118.1 118.4 115.2 118.1 129.6 138.7 138.5 145.3 146.1 134.6 119.9 104.1 89.7 71.4 50.7 26.3 18.6 15.1 15.5 15.9 15.5 15.6 15.3 19.4 34.4 53.4 70.5 100 121.3 130.4 130.2 133.1 137.7 136 132.9 125.8 123.8 121.3 119.4 123.3 126.3 123 113.7 102 94.4 89.5 88.7 85.1 78.2 75.7 69.5 71.5 77.5 82.1 82.9 81.6 77.3 73.5 72.4 73.2 77.8 90.3 99.5 109.9 121.9 130.2 136.2 140.2 143.7 147 150.7 151.8 152.7 152.3 152.9 154.2 153.2 152.8 153 154.6 154.9 156.2 162.3 163.5 163.4 163.8 165.5 165.4 165.1 165.1 165.3 166.2 168.4 169.2 172.5 175.1 180.2 182.9 187.9 184 178.9 177.3 176.6 175.2 175.1 174.4 172.6 170.9 169.2 172.8 179.3 183.1 186.3 184.5 185.5 184.6 182.8 181.9 181.2 181.4 183.2 195 208.5 229.1 236.2 239.3 243.9 245.6 243.4 233.2 227.1 226.7 230.2 235.8 242.4 252.6 267.2 284.3 292.3 298.7 307.1 314.9 316.3 315.7 314.9 314.7 313.8 313.4 312.8 312.1 310.2 305.6 300 296.4 293.7 288.3 285.6 282.5 281.6 284 283.4 282.5 278.8 279.9 282.9 286.1 289.4 293.7 298.8 303.1 308 314.5 324.3 330 332 331.9 327.8 325.6 322.8 317.7 309.4 301.4 290.4 265 248 235.5 231.1 228.4 227.1 223.8
128 131.3 134 137.7 139.6 133.9 127.2 123.8 123 120.2 137.3 136.1 130 125.2 125.7 135.2 143.3 156.8 160 157.8 137.3 120.1 106.6 95 75 40.1 21.7 15.6 14.9 14.8 14.6 15.2 15.5 19 30.1 46.2 62.4 88.1 108.2 122.5 129.2 131.1 136.2 137.4 135.9 130 127.2 124.1 118.7 114.5 112.5 115.3 113.1 105 95.9 99.4 97 94.9 83.2 72.9 68 64.6 77.5 80.9 81.4 77.3 73.9 73.3 71.8 75.7 81.9 92.4 101.2 110.5 125.3 137.1 141.6 140.5 142.8 144.8 148.4 150.5 149.7 149.1 149.7 150.7 151.2 152 152.4 153.8 154.5 155.2 158.7 161.6 162.2 163.1 167.5 167.9 167.1 166.3 166.8 167.5 168.1 169.3 172.2 176.5 180.9 184.1 184.6 182.9 179.8 178.2 176.3 174.6 173.1 171.4 170.1 170 169.2 173 178.5 186.3 188.5 188 187.2 185.4 183.7 182.6 181.9 181.7 183.8 193.5 205.3 222.3 231 233.4 238.1 239.5 235.6 229 224.3 224.4 226.3 232.7 238.9 248 261.6 281.5 295.4 305.1 310.7 317 318.9 317.4 315.9 314.8 314.6 314.3 313.8 312.7 311.5 310.2 305.9 300.7 297.3 294.2 290.9 288.6 289.4 290.1 289.4 283.6 282.2 283.1 285.2 288.1 292.3 297.2 298.9 301.6 309.8 317.2 322 325.3 323.3 318.5 315.1 311.8 309.6 308.5 301.7 288.7 269.1 250.2 241 238.1 236.4 234.3 232.9 230
134.5 137.3 143.6 141.4 145.1 144.4 136.8 132.2 131.5 133 145.5 154 147.2 140.7 127.9 126.6 134.1 153.4 162.5 163.5 151.2 136.5 121.5 114.7 101.1 66.2 31.8 19.4 15.6 14.6 14.1 15.1 15.6 19.1 25.1 41.2 55.9 74.2 87.4 106.6 123.5 128.3 133.1 138.4 135 132 131.3 133.8 134.7 127.1 114.4 108.3 105.6 106.3 100.9 95.9 95.1 96 93.5 78.4 67 63 72.2 78.4 79.8 77.1 74.3 72 73.7 81.1 87.2 93.7 101.9 113.7 128.3 140.1 143.5 143.6 143.1 144.2 145.3 147.2 147 148 148.7 149.7 150.7 151.6 152.1 152.8 154.4 154.8 154.9 160 164.1 164.7 167.9 170.9 169.5 168.6 168.7 169.2 169.8 172.4 173.9 180.9 188.3 191.8 188.3 184.5 182.8 179.7 176.4 174.6 173.2 170.8 168.5 170.8 173.3 177.8 184.5 189.4 193.6 192.8 187.5 187.9 189.6 186.1 186.5 184.3 184.9 188.2 200.9 211.2 219.9 227.2 229.9 227.9 225.1 222.1 218.3 218.8 222.5 229.3 233.3 244.4 258.7 281.4 302.9 313.2 318.2 321.5 324.6 324.7 321.7 319.1 316.5 315.2 313.9 313.2 312.8 311 309.5 303.3 300.5 298.4 295.8 295.7 296.6 296 293.3 288.4 285.2 286.7 288 291.1 296.2 298 298.8 299 307.8 315.1 316.9 321.3 319.2 313.8 305.6 297.2 290.5 289.3 283.9 274.4 257.6 245.7 245.7 247.4 245.5 244.1 241.9 239.2
143.7 143.1 148 147 145.8 146.9 145.3 143.4 140.4 140.7 144.2 155.7 153 147.6 134.8 122.3 123.5 129.4 150.3 156.9 151.6 146.9 137.6 125.2 120 100.8 60.3 24.4 18.6 15.1 15.3 14.4 16.1 19.4 23.5 36.4 53.1 67.1 77.5 94.4 115.8 126.3 128.4 137.5 133.6 134 132.9 135.7 145.6 145.3 137.3 119.5 104.6 100.2 101.4 99.1 95.4 99.9 99.4 86.1 72.7 65.3 65.8 75.6 79.3 76.8 72.7 69.4 73 83 90.7 98.2 106.6 116.4 129 139.4 142.4 144.3 146.1 146.6 147.6 146.6 147.4 148.9 148.8 149.4 150.4 151.2 151.6 152.3 153 153.5 154.8 159.4 166.9 167 169.7 173.3 173.3 171.8 172.4 171 174.1 177.2 182.1 186.1 192.7 195.1 192.6 187.6 186.7 185.6 180 175.3 174 172 168 170.9 176.3 181.6 186.5 188.1 190.3 191.9 191.1 190.5 192.3 192 187.6 185 185.5 188.8 200 206.6 210.7 217.1 219.8 219.7 215.1 215.6 216 216.8 218.3 223.3 228.5 238.6 255.3 280.5 302.1 314.5 324.3 326.7 327.4 328.6 327.5 324.6 321 317.6 315.5 314.8 314.3 312.2 310.2 306 303.1 301.2 299.3 299.4 299.6 298 295.8 290.6 287.6 289.9 291.5 295.3 297.4 298.3 298.1 298.1 299 301 301.7 300.5 296.5 291.8 286 282.5 277.1 272.5 266.6 260.6 254.4 256.4 258.9 260.9 261.4 258.9 256.7 255.6
150.6 154.1 163.7 159.6 155.6 151.2 149 148.1 145 143 143.9 151.2 153.9 148.3 138.5 129.4 117.6 123.1 127.4 145.3 146.5 153.2 145.9 130 130.5 124.9 90.1 40.9 20.7 15.6 14.8 14.5 17 19.4 21.9 33.3 47.4 61.9 71.9 86.1 100.8 117.1 122.2 122.2 126.6 127.8 131 136.5 145.6 147.3 142.6 132.5 116.7 99.1 94.8 93.7 93.9 105.2 106 95.1 90.2 74.6 64.1 68.6 73.6 75 71.5 69.5 72.2 84.1 93.2 99.9 108 116.3 127.4 136.8 143.2 145.9 149 148.3 149.7 149.5 149.1 149 149.3 149.2 150.2 150.7 152.1 152.8 153 153.2 156.3 159.1 163.5 169 174.4 176.5 174.4 173.4 172.6 172.4 174.4 177.7 187.3 193.4 194.3 196.3 195.9 192.8 191.6 191.2 187.7 184.7 184.9 178.8 168.2 170 176.5 184.7 184.4 185.7 189.5 190.7 189.6 188.2 187.6 187.7 184.6 184.9 185.2 187.4 197.2 203.3 207.3 210.4 211.5 212.2 212 213.4 214.7 216.3 217.6 222.4 227.7 233.7 249.4 273.2 296.3 309.3 322.3 332.1 332.3 329 328.5 327.8 326.3 322.2 318.9 316.4 315.4 313.3 311 308.2 305.9 303.8 302.4 301.7 299.9 297.2 293.7 291.2 290.1 293.7 296.5 297.7 298.2 297.9 297.8 297.3 296.1 294.2 291.8 289.4 285.2 281.2 276.6 274.9 273 271.5 270.4 272.1 273 273 273.8 274.1 273.4 272 271.6 273.4
165.7 160.9 170.4 174 167.6 166.4 160.3 155.6 152 147 142.4 146 149.2 147.7 139.6 130.6 115.7 115 120.8 125 134.6 141.6 138.5 126.4 121.9 121.5 95.7 58.1 30.5 18.2 17.2 14.4 18 19.3 21.9 30.5 44.1 54 63.9 74.3 85.2 99.5 109.7 108.3 107.5 113.9 121.8 132.9 136.2 138.1 135.2 127.1 117.7 107.5 94.5 91.6 94 103.8 106 106.2 109.5 83.7 67.8 60.4 67.2 71.3 71.1 67.9 72.9 80.6 89.4 99.3 107.8 118.1 130.6 141.8 146.1 145.9 145.5 147.4 152 156.2 154 151.8 150.3 149.7 149.9 151.8 154.3 155.7 154.3 152.5 155.3 159 159.8 165.9 171.3 180 174.7 173.2 173.1 173.3 174 176.5 183.4 192.6 196.5 199 201.5 199.9 201.7 198.8 195.2 187.9 185.5 177.2 166.8 166.2 170.8 176.5 181.4 184.3 188 187.7 185.8 184.9 183.8 185.1 184.1 184.3 184 186.3 192 198.9 205.6 207.6 208.2 209 210.5 213.3 215.9 216.4 218.7 223.4 227.9 232.3 244.4 264.4 286.5 302.2 316.6 327.6 334 331.5 328.6 327.7 328 326.8 323.7 319.9 317.5 315.8 313.8 311.8 308.8 305.9 304.4 303.1 300 296.3 293.3 291.5 296.1 302.7 301.9 299.8 298.4 297.9 297.1 296 294.5 293.1 289.7 290.4 289.5 288.3 285.9 283.2 283.3 288.2 292.3 296.3 295.7 292.3 292.8 291.1 287.8 284.6 281 281.1
174.2 167 165.3 170.9 177.3 180.4 176.6 169.6 158.1 148.6 142.1 142.8 141.4 145.2 141.8 129.8 122.7 106 110.8 114.2 119.9 120.9 115.6 107.4 103.2 101.2 83.5 54.1 27.7 20.5 16.2 14.8 19.3 21.2 23.5 31.1 44.2 53.6 59.8 66.8 78.1 90.7 97.7 102.1 104.5 108.8 116 130.8 133.4 134.3 133.3 121.4 111.2 103.9 97.5 90.7 90 100.5 101.9 103.4 112.5 96 76.1 64.1 60.3 64.7 68.7 67 75.2 84.1 91 98.6 106.7 118.3 132.6 140 141.4 141.5 145.1 151.9 159.8 164 162.8 161.4 160 152.8 149.6 152.6 156.1 156.8 156.2 152.6 152.6 156.8 158.5 158.3 168 172.2 174.7 173.7 173.9 174.1 174.3 175.9 184.3 191.5 192.9 198.9 205.2 208.8 205.4 199.8 194.5 187.5 179.5 172.5 166.1 164.6 165.9 169.9 175.7 179.7 181.1 181.1 181.2 182.2 182.4 182.5 183 183.1 183 183.7 189.7 198.8 201.3 204.7 207.2 208.2 210 211.8 214.5 218.1 219.8 223.2 227.9 231.3 239.8 260 276.8 293.7 307.2 318.9 328.1 330.2 328.6 326.9 328 328.7 328.3 324.8 322.4 320.8 319.2 316.7 313.3 310.3 307.4 306 302.6 297.8 294.2 295 299 303.3 302.6 300.8 298.9 299.1 298.2 296.4 294 292.7 293.7 295.1 293.8 292.3 291.9 296 301.8 305 308.6 312.1 313.3 313.8 313.8 310.1 306.5 302 298.4 289.1
170.4 169.1 169.3 176.3 181.8 184.5 180.4 174.7 165.2 152.3 140.7 136.5 139.9 140.5 138.9 132.1 120.7 106.6 100.6 102.8 114.4 109.4 102.5 94.2 85.6 78.5 63.4 40.1 22.3 17.1 17.7 13.6 19.9 21.3 24.6 31.7 42.5 49.4 58.5 63.4 68.5 74.6 84.3 91.5 95.6 99.4 106 115.6 116.4 124 110.3 101.2 104.7 101.2 97.3 93.4 88.5 84.9 86 94 101.9 95.2 79.4 66.5 56.4 61.7 61.9 65 74.3 84.1 90.5 95.6 103.6 114.7 123.9 132.2 134.8 140.3 150 159 166.3 168.3 165.6 164.1 162.1 156 149.5 150.6 154.2 157.2 155.5 151.4 147.2 151.2 154.4 157 162.2 165.8 169.7 172 172.9 173.8 174.7 177 183.2 190.9 192.5 194 195.1 199.2 201.8 196.7 191.1 184.8 176.5 167 160.4 156.3 161.3 161.8 166.3 171.4 176.2 179.5 181.5 182.3 182.2 182.2 181 179.7 180.6 188.8 191.5 197.5 199.1 205.3 208.4 208.4 210.4 213.9 219.9 228.3 225.3 226.3 230.1 230.6 235.4 251.5 267.4 281.9 293.7 305.4 314.3 320.5 323.8 326.3 327.8 329.5 329.9 329.6 327.3 324.7 322 319.1 317.1 313.9 311 309.2 307.2 300.9 297 299 304.1 305.3 301.4 300 300.1 300.5 299.5 297.9 295.9 297.1 298.3 302.2 304.8 308.7 314.4 317.7 320.7 328.3 332.2 333.8 336.5 336.9 334.7 327.9 321.7 316.9 310.8 304.1
170 174.4 176.5 174.9 186.5 192.4 186.9 177.7 169.8 158.3 145.7 135.1 135.7 136.7 134.8 130.9 123.6 110.6 96.5 90.7 95.7 97.5 91.5 83.1 72 61.5 43.9 28 21.3 14.9 13.6 15.6 20.9 20.7 23 30.1 39.9 46.6 55.1 60.9 62.8 65.4 69.2 73.5 76.5 81 84.8 90.6 88.9 90.8 90.4 93.7 104.7 115.1 112.6 96 86.4 83.1 79.7 80.4 87.7 82.9 76 67.8 60.1 58.9 60.3 64.8 73 81.7 90.6 99.2 107.2 114.2 119.4 124.4 133.8 142.1 151.6 159.8 166.6 169.3 165.2 162.9 159.6 157 154.7 147.6 154.9 157.4 153.8 149.9 146.2 147.4 150.4 154.4 158.2 166 168.2 169.6 171.9 173.3 174.1 177.5 182.3 188.9 191.2 193.8 195.2 196.5 195.9 194.3 190.8 181.4 171.8 163 155.9 153.9 154.3 156.7 163.6 168.4 172.3 177.6 182.3 182.9 182 181.2 180.5 178.6 179.9 182 191.7 195.5 201 205.9 211.6 212.8 211.1 217.6 222.3 228.6 230.2 226.4 231 230.7 235.1 244.2 257 268.3 279.8 292.4 301.6 313.2 321.3 325.8 328.4 331.3 332.4 332.4 329.6 326.9 323.9 320.5 318.5 317.1 314.5 310.9 307.1 303.1 301.5 302.5 307.5 306.2 301.8 303.4 303.7 302.1 300 298.5 296.8 297.9 299.2 303.1 310.9 321.4 328.9 332.2 331.7 331.8 332.7 335.8 339.1 341.1 341.5 337.1 332.9 326.1 320.3 315.9
171.1 173.8 180 176.7 183.9 191.3 190.6 183.5 173.9 162.9 149.4 137.7 133.3 131.9 129.7 124.9 123.6 114.4 96.7 81.5 79.5 81.2 78.6 71.3 60.9 48.7 33 21.2 20.4 15.4 19.6 19.8 20.4 20.4 22 30.9 37.3 46.2 51.5 58.3 61.6 60.2 58.1 58.8 66.6 70.3 74.1 81.7 87.1 89.8 93.6 104.2 110 108.5 106.4 99.7 87.3 83.2 79.8 77.5 74.8 75.1 71.5 68.6 62.3 54.2 57.2 63.3 71.4 80.6 89.8 99.3 108 117.7 122.5 125.5 130.5 137.9 146.2 155.5 162.5 164.3 161.7 159.5 157.4 154.7 153.9 146.6 153.8 157 151.8 146.5 143.3 145.3 148 153.4 160.4 162.6 171.8 172.2 172.2 173 173.5 176.1 180.1 184.4 189.3 192 195.4 198.3 195.5 192.2 188.2 178.6 166.5 157.1 153.3 150.9 152.3 153.7 158.9 165.8 171.4 175.6 183.1 185.9 183 180.4 177.7 177.3 181.1 186.3 189.4 194.9 202 209.2 215.4 214.8 213.9 214.2 219.3 222.5 225.9 226.3 226.7 229.5 234.7 238.8 249.1 262.5 273.1 284 295.3 309.2 321.5 330.7 334.5 335.3 336.1 334.9 331.6 328.3 324.9 321.7 319.4 318 316.7 312.3 305.9 304.6 304.2 306.3 310.9 307.3 305.2 306.5 304.9 303.1 300.4 299.1 298.3 299.1 300 300.8 302.8 307.3 313.7 314.6 317 319.6 320.3 322.4 325.7 331.7 336.9 340 338.7 337.3 333.4 328.8
184.2 177.4 179.5 182 173.1 180.2 184.4 181.1 173.7 164.1 149.6 137 133.5 132.7 125.8 119.3 111.2 107 97 80.7 68.2 66.6 64.2 58.2 49 37.2 27.6 23.5 20.2 13 19.8 20.5 20.7 20.2 21.3 26.8 32 41.9 50.5 57.1 62 58.5 52.5 54.5 62.2 69 74.6 81 86.8 95.9 104.1 112.8 115.3 114 113.4 102.2 93.2 92 89.5 84.7 79 73.3 69.8 62.6 59.7 54.6 55.3 60.7 68 76.5 84.8 94.9 101.4 112.5 122.7 130.7 134.5 135.9 138.7 146.8 153.5 154.9 154.6 153.8 153.2 151.7 151.4 150.1 145.6 150.6 147.8 143.6 141.2 143.4 146.5 155 161.3 163.7 164.7 176.3 173.4 172.3 171.8 174.8 177.8 180.3 183.7 188.9 194.6 196.1 193.5 187 183.9 171.7 157.4 153 150.8 149.7 151.1 150.6 155.9 163.3 170.3 174.7 182.3 189.2 189.3 183.7 178.2 173.5 176.2 181.3 186.7 196.8 205.9 213 218.2 221.8 223 222.4 219.2 221.4 223.5 225.2 226.5 228.3 233.7 236.8 244 256.2 265.8 277.1 288 305.2 320.6 332.6 339.3 339.9 338.5 335.2 331.1 327.7 325.7 323.2 320.5 318.4 317.3 314.3 306.6 306.4 306.8 308.6 310.1 309.2 308.7 307.2 305.9 304.4 304.4 302 301.5 300 300.5 301.4 302.5 303.8 306.6 308.5 309.6 311.1 313.6 316 319.4 324.3 331 334.6 337.1 336.3 332.1 328.5
188.5 190.4 182.4 178.8 173 167.7 174.5 177 170.9 159 149.7 136.4 132.2 133.6 130 128.2 116.6 102.8 91.2 81.2 65.4 56.4 53 48.6 38.8 29.1 22.7 20.6 19 13.6 19.1 19.8 19.8 19.4 20.4 20.7 24.4 32.6 46.3 52.6 59 63.3 52.5 49.8 54.3 61.4 68.7 84.7 94.8 108.1 126 133.2 133.2 126.4 121.3 110.6 106.8 110.2 104.8 95.6 88.9 83.6 74.7 65.1 56.6 53.1 50.1 57.7 64.4 71.9 79.9 89 96.7 110.5 123.8 134.6 141.7 144.2 141.4 140 142.9 145.1 146.1 146.4 145.1 144 144.7 144.7 141.3 140.1 142.7 141.6 138.6 140.5 146.1 153.8 159.6 163.2 163.5 171.8 173.7 170.9 170.3 170.7 174 178.4 183.2 184.9 185.1 189.4 187.4 178.7 171.2 165.2 157.6 153.8 149.5 147.6 148 147.5 155.2 160.5 167.7 171.9 177.2 182.9 187.5 185.1 178.1 172.8 172.9 177 185.4 198.3 208.7 217.2 222.8 225.1 229.1 228.5 222.9 222.3 223.1 224 225.9 228.2 233.2 236 237.9 253.6 265.1 270.4 281.6 295.4 312.3 325.9 333.4 338.5 335.9 330.8 326.1 322.4 322 320.3 318.9 318.3 317.6 315.8 309.3 308.9 309.7 313.5 312.7 311.8 312 309.6 307 305.9 306 305.5 304.6 303.5 303 303.6 304.6 306.2 306.8 308.7 310.1 312 315.5 318.8 322.2 325.4 327.2 326.2 325.6 323.3 321 318.5
194.5 188.8 184.3 173.3 163.3 160.4 161.3 167.4 167.5 156.1 145 138.3 127.4 130.9 131 131.7 121.6 106 91.8 78.5 65.9 53.3 42.2 38.1 31.9 24.3 19.8 19.6 18.3 14.3 18.8 18.7 18.8 18.6 19.4 19.3 18.9 24.1 30.2 35.3 39.4 46.7 50.5 46.5 47.5 57.7 69 84.6 96.1 107.3 119.2 125.8 132 132.1 129.7 122 118.3 116.3 112.8 106.9 97.4 91.5 85.8 75.1 64.9 54.4 51.3 48.9 59.8 64.6 75.2 84.2 92.8 107.2 121.4 132.5 139.8 146.2 150.5 147.4 142.7 139.2 138.6 138.5 138.1 137.7 138 137.4 137.8 136.1 135.8 138.2 136.8 137.3 145.4 152.6 157 161.3 163.6 162.7 173.5 171.1 170 168.8 169 172.9 177.9 179.7 181.8 182.3 177.9 173.5 164.6 157.3 154.7 156 152.5 143.5 145.9 145 149.8 158.5 164.5 167.4 169.3 177.3 181.3 179.5 176.4 170.9 174.1 178.3 184.1 198.9 208.8 220.7 229.1 227.6 229.7 230 227.1 223.3 223.6 224.6 226 228 231.9 235 236.6 245.1 256.8 265.2 274.1 287.1 296.8 311 321.1 327 326.9 320.7 314.9 309.5 306.7 312.4 315.4 316.9 318.4 317.7 312 311.9 315.4 319.4 318.2 315.4 315.4 313.7 310.4 308.5 307.6 308 307.3 306.6 307.4 308.7 308.2 309.6 310.4 311.7 313.9 317.5 321.2 326.1 329.5 331.8 332.5 329.7 326.3 320.1 313.9 309.1
198.4 187.6 176.9 170.7 161.8 160.6 160.6 163.2 163.1 156.2 142.1 132.9 125.7 122.3 119.8 117.4 113.8 108.8 100.6 84.6 67.3 52.4 36.9 30.5 26.1 21.3 19.6 19.1 18.5 13.9 17.7 18.3 16.3 12.8 16.2 18.3 18.2 18 21.2 24 32 36.1 39.3 43 42.9 47.1 58.1 71.4 83.8 97.5 100.7 103.3 108.5 123.1 129 120.7 117.7 116.1 111 112.7 109.3 103 97.7 82.1 73.3 61.4 50.7 48.7 51.6 56.1 67.5 78.4 87.9 102 119 132.3 140.6 144.7 149.4 149.2 146.5 142.5 138.4 137.4 135.9 135.8 134.6 133.4 132.6 133.3 132.9 132.5 133 134.9 140.5 146.9 153.6 158.2 159.8 161.8 172.7 171.8 170.9 168.5 168.1 166.6 167.7 169 169.7 168.9 167.8 165.1 159.1 154.1 153.6 153 150.7 145.6 137.1 139.6 143 146.2 151 158.8 162.1 166.3 171 173.2 171.8 169.1 174.8 179.5 186.2 198.1 210 217 226 229 226.5 226.9 229.7 223.9 224.2 226.1 227.8 230.5 231.4 232.9 235.4 239 247.9 258 267.4 278.5 289.5 294.6 303.7 305.2 302.7 299 296.8 293.7 294.3 305.6 311.8 315.3 318.4 319 314.3 315.7 324.1 327.7 324.2 320.8 323.1 320.7 319.4 320.9 319.5 314.9 314.2 313.1 314 315.7 316.2 316.9 318.2 320 321.2 324 326.8 331 334 336.5 338.7 336.9 332.9 328.2 323.5 320.8
184.4 178.6 174 171.9 169.9 167.5 161.7 160.5 161.1 155 141.6 134 128.1 120.5 114.9 112.3 111 108.3 104.3 90.9 70.8 53.8 37.3 28.1 23.2 20.2 19.3 18.9 18.2 12.6 14.7 12.4 12.7 11.9 10.9 9.4 9.2 16.8 16.5 17.6 22.7 26 31.4 35.6 38.6 41.9 48.6 66.8 80.5 93.2 94.1 90.6 88.1 93.7 109.6 105 102.1 107 109.4 102.8 111.8 111.1 102.3 89.1 84.8 73.8 55.2 48.3 49 49.2 59.2 71.3 81.7 101.4 117.1 127.7 136.4 142.1 145.3 145.2 144.1 141.3 143.6 142.8 137.8 134.3 133.1 131.5 130.5 130.1 131.6 130.6 130.1 131.7 133.8 141.1 148.5 151.6 156.8 163.3 170.9 175.6 171.4 169.7 168.8 168.2 164.8 161.6 159.6 158.3 158.9 156.6 152.2 149 149.2 150.9 147 142.9 139.3 135.8 139.1 140.3 143.5 148.3 150 152.1 156.3 161 161 169.7 174.6 177 182.1 196.5 208.2 213.2 220.3 225.3 224.8 223.7 225 224 224.4 227.4 227.7 232.8 233.2 233.6 235.4 239.2 246.8 254.9 262.5 268.1 276.3 283 282.1 282.1 277.4 276.7 277.5 278.9 285.6 299.3 306.7 315 318.8 322.4 319.4 321.3 329.8 335.5 342.8 344.4 337.7 334.5 338.5 340.4 337.7 335.3 335.7 337.5 336.7 335.9 334.4 335.6 338.1 340.6 344.3 345.5 345.8 345.9 348.8 350.9 352.1 352.8 349.6 348.9 348.3 349.6
169.4 169.2 171.7 172.1 172.5 174.9 174.6 167.2 162.7 160 155.2 146.1 136.9 125.7 114.4 107.8 105 106.3 106.4 93.1 74.6 57.2 40.9 29.5 23.5 20.7 19.1 18.6 17.1 13.4 13.4 11.7 10.9 12 11 10.7 10.6 9.5 15.8 15.9 16.2 19 24 28.1 30.5 33.4 39.7 51.1 60.8 70.4 76.2 78.3 78.7 76.3 72.5 68.8 72.9 87.2 101.2 100.3 99.8 98.7 95.1 89.2 86.6 79.8 61.2 50.3 47.3 47.1 50.3 63.6 75.2 94.6 108.4 117.6 125.6 134.2 138.6 142.8 139 139.6 146.3 145.2 141.5 136.3 135.3 132.9 130.5 129.3 128.9 128.7 129.8 129.6 130 132.3 142.7 149.9 158.8 163.5 168.8 178.3 175.3 171.5 171.5 172.8 170.6 162 159.9 155.3 152.4 151.8 148.5 144.6 145.6 146.3 145.2 140.5 137.1 134.8 136.3 138.9 140.5 141.3 142.2 142.2 148.7 153 159.6 166.2 168.8 172.6 179.8 192.1 203.5 210.2 215.3 219.9 222.3 221.1 220.4 221.4 223.7 229.9 225.9 228.9 230.1 232.2 231.8 238.1 244.8 252.5 259.9 261.6 266.5 270.2 268 267.4 267.4 268.4 268.1 270.6 277.4 290 301.1 312.3 324.3 333.1 335.7 332 340.2 351.5 357.5 355 352 356.5 358.3 355.1 352.9 353.7 357.4 358.8 357.9 356.5 359.1 362 365.1 369.3 371.1 375.2 376.2 376 371.6 369.8 368 366.1 363.1 361.2 357.7 357.4
169.7 169 168.2 169.4 170.2 171.2 174.1 168.4 163.5 166.2 164.7 157.8 145.6 131.4 120.9 111.5 101.4 93.6 89.7 83.4 72.6 58.4 44.6 33 25 21.6 19.9 18.7 15.2 13.5 13.3 11.2 12.2 11.6 10.8 10.5 10.3 10 9 10.5 9.4 15 16.8 19.5 23.4 26.6 31.4 35.1 45 55.5 59.9 64.6 65.2 63.4 54.4 49.4 53.1 59.6 71.4 84 85.3 96.4 94.7 86.1 85.7 85.7 65 51.8 46.7 46.4 50.8 58 66.4 81.5 98.1 109.6 116.4 125.6 134.6 139.9 135 135 140.3 144.2 147 148.2 146.6 146.1 138.9 129.9 129.2 128.1 128.1 127.9 129 131.3 140.4 149.2 159.2 162.6 166.1 174.6 177.6 172.3 171.8 172.4 170.4 168.2 163.2 155.3 151.6 148.4 145.4 141.4 141.7 141.8 137.1 135.7 135.2 133.1 133.9 137.1 138.8 142.2 143.6 147.7 151.5 154.2 163.7 166.3 167.7 168.7 170.8 184.8 194.9 203 210 211.6 214.8 216.9 217.9 219.4 220.9 222.8 225.4 226.6 224.2 225 228.4 233.1 240.4 247.6 252.9 255.2 256.1 259.6 261.4 261.2 262.8 263.6 264.4 269.7 279 291.2 305 314.9 329.6 339.1 345.9 347.4 347.4 356.8 364.7 363.6 368.6 373.4 375.4 372.8 367.5 364.9 366.2 369.4 371.5 373.9 376.4 384.3 392.1 398 401.9 405.2 407.3 406.9 404.1 399.5 395 391.3 384.8 376.4 368.4 362.2
177.2 173.5 170.7 168.8 169.4 164.6 163.7 163.8 164.5 167.4 169.8 167.9 155.5 138.9 127.3 113.6 104.5 96 89.7 80.7 71.1 59.2 46.2 34.7 27.8 23.1 21.2 18.8 14.8 13.3 12.2 12.2 11.7 11.3 10.6 10.3 10.3 10 9.7 8.5 8.5 7.6 13.3 14.8 16.5 20 21.8 24.3 37.2 54.2 62.1 64.1 60.7 53.9 44.6 40.1 42 47.1 55.7 64 71.7 78.5 80.7 79 78.7 75.2 63 51.4 47.4 46 48.8 54.3 60.6 79.8 91.8 99 106.4 115.6 125.4 133.1 130.4 132.5 140.2 153.3 158.9 159.7 159.4 153.4 144.9 135.2 133.6 132.8 129.1 127.4 128.2 129.9 135.1 146.3 151.5 156.4 162.4 167.7 175 173.5 172.3 173.3 172.1 172.8 168 159.7 148.9 143.8 143.2 138.1 139.3 138.7 133.3 132.2 132.1 132 133.9 136.6 139.6 144.3 148.9 152.4 156.8 157.7 158.6 161.6 163.1 166.2 168.9 183.3 189.2 194.4 201 206.5 210 212.6 216.6 218.1 220.4 220.4 222.1 223.8 222.5 220.8 223.5 230.1 235.6 240.9 247.6 246.9 247.7 249.5 250.8 252.5 259.4 262.1 270.2 273.2 284.4 295.7 307.6 316.5 328.3 340.3 348.3 351.7 353.1 358.2 365.8 369.8 382.2 387.9 389.5 386.9 382.9 378 376.1 375.8 376.8 379.4 382.4 391.4 403.1 411.7 416.8 419.7 421.7 421.9 419.1 413.9 406.7 399.3 392.4 384.4 377.2 369.2
184.7 181.7 177.5 173.4 171.1 170 165.3 156.3 151.7 152.1 151.7 154 149.9 145.4 133.8 118.1 110.3 102.2 94.4 81.7 72.3 60.9 47.5 36.1 28.1 24.7 20.7 17.1 17.4 15.3 12.3 12.1 12.3 10.9 10.4 10.2 10.2 9.9 9.6 9.2 8.8 8.7 7.9 10.6 14.4 15.5 16.1 17.5 28.8 42.6 52.5 57 56.4 47.3 38.5 32.4 33.1 39.4 44.7 53.8 62.1 68.9 72.5 69.6 67.6 63.2 59.3 51.4 44.8 48.2 49.6 53.7 59.9 68.7 84.4 90.7 99.6 108.4 115.5 122.2 131.7 134.7 141 148.8 157 160.2 158.5 155.9 149.7 142.2 140.7 137.1 136.2 130.4 126.6 127.2 132.4 139.3 143.5 146.6 161 164.9 170 174.3 175.7 177.3 175.1 172.8 167.9 157.3 148.5 142.9 140.1 137.2 132.9 132.2 130.1 129.9 130.8 131.1 133 138.2 144.5 151.1 150.6 152.9 158.9 162.4 162.2 161.8 162.7 165.3 168.1 177.1 187.4 193.6 198.9 202.7 208.7 210.2 214.9 217.5 220.9 219.2 218.3 218.9 219.1 216.4 217.7 226.6 231.1 234.3 239.8 240.3 238.6 241.6 246.1 252.4 255.5 261.7 269.4 277.1 285.6 299.1 309.3 316.9 321.4 336.6 347.5 352.5 355.4 358.4 365.5 378.4 391.4 397.8 402.4 402.7 403.1 400.5 396.3 388.4 383.9 385.3 393.1 404.1 410.3 415.8 419.2 420.1 418.7 420.7 419 414.2 407.5 398.7 390.3 384 376.7 369.1
190.3 185.6 183.3 178.9 174.4 171.1 169 163.8 152.3 140 136.5 135.2 133.9 133.3 130.6 121.7 110.4 104.9 96.3 78.1 68.7 55.1 50.9 41.4 33.6 27.7 22.7 20.3 18.6 17.9 17.4 16.3 14.8 11.3 10.2 10.2 10.2 9.9 9.4 8.8 8.4 8.3 8.2 7.4 9.4 11.1 14 14.1 18.4 23.2 26.1 32.1 38.3 33.6 30.9 26.2 23.7 24.4 29.4 41 51.5 59.4 64.7 62 56.7 51.8 48.6 45.6 44.2 49 51.3 55.1 60.6 66.4 76.9 86.1 95.8 109.7 118.7 123.7 130 132.4 143 153 156.7 157.4 157 154.4 153 147 142.2 140.6 139.6 135.5 127.9 126.4 128.1 132.1 135.1 141.1 152.6 160.7 159.4 170.4 175 177.2 175.6 169.7 163.7 155 148.7 141.7 138.5 135.1 132.3 130.9 128.2 128.6 129.6 130.6 133.3 137.2 144.8 154.3 159 163 164.2 166.3 166.5 163.7 163.6 165.9 168.1 178.9 186.3 192.4 198 202 205 208.3 212.6 215.6 219.2 219.6 217.2 215.1 213.1 212.8 214.2 219.8 224.3 228.1 232.8 232.9 231 235.6 239.6 244.6 250.2 256.3 267.4 276 284.3 296 307.1 316.3 321.6 333.9 345.2 351.9 354.9 358.2 363.6 376.7 390.8 402.5 412.5 419.1 422.1 422.1 420.1 417.1 414 410.5 412.4 415.3 414.7 415.1 414.8 415.1 413.7 411.5 407.3 402.9 396.3 390 383.5 378.6 370.7 359.3
199.9 194.6 188 183.9 178.8 173.6 170.7 168.1 161.7 150.9 140.5 136.1 132.7 131.4 124.5 116.7 111.5 102.7 96.1 90.1 75.5 64.6 54.9 46.8 40 34.3 26.7 20.6 18.8 17.6 16.8 16.4 16 9.7 9.7 10 10.1 9.6 9 8.5 7.9 7.9 7.9 6.9 6.7 7.8 9.9 10.9 11.2 12.8 13.7 16.9 21.3 23.5 24.9 23.2 19.4 20.6 22.9 32 45.4 52.8 55.2 53.7 49.9 43.7 41 39.4 38.2 44.2 49.7 53.6 61 66.8 71.9 82.2 88.5 103.7 116.4 122.4 129.7 138.2 143.1 150 154.7 156.8 153.5 150.8 154.1 149.3 147.7 151.4 142.8 141 133.9 129.4 128.2 124.9 128.3 133.6 140.9 147.9 153.2 162.1 168.5 171.2 168.9 166.7 162 155.4 149.5 143.5 140 133.7 131.6 130.3 127.6 128.6 129.4 130.4 134.5 139.1 148.9 157.1 166.8 169.4 169.3 172.4 173.2 166.6 165.7 166.5 167.9 175.3 182 188.3 196.2 203.3 207.4 208.4 210.7 212.6 214.5 215.3 215.7 212.3 211.2 210.2 210.4 213.6 219.1 221.2 224.9 225 223.1 230.7 238.2 245.3 249.2 255.8 264.9 273.9 281.7 292 302.9 312.8 319.2 334.5 343.7 347.4 352.7 356.8 363.1 369.4 390 402.8 414.4 422 426.1 431.9 434.3 434.7 432.6 429.1 425 421.7 415.9 414.5 414.3 413.3 410.6 407.3 402 396.3 389.2 383.3 378.3 371.9 361.8 348.2
206.2 201.9 197.9 193.1 185.3 177.5 173.6 170.5 164.9 158.3 150.9 144.9 142.3 135.5 124 117.9 111.9 114 109.5 103.6 86.2 77.2 68.3 56.6 49.8 41 32.8 23.8 21.3 17.8 16.4 15.9 15.2 11.4 9.7 10.1 10.1 9.3 8.7 8.1 7.6 7.4 7.5 7.4 6.3 6.2 6.8 9.2 7.2 8.6 11 12.7 14.8 20.2 22 20 19.3 20.4 22.1 26.7 34.6 42 45.4 44.8 41.8 38.1 37.9 36.3 35.5 38.3 44.6 51.9 60.2 65.3 71.3 76.5 81 98.1 109.5 115.7 137.5 141.3 144.1 140.9 140.5 140.7 140.3 139.2 138.2 141.1 144 148.9 147.3 150.6 140.6 134.2 130.6 125.1 124.8 127.9 135.9 141.8 144.3 145.3 158.2 160.6 164.1 163.7 160.9 153.7 149.6 144.2 139.8 135.2 131 127.4 127.6 132.7 131.3 131.3 136.7 146.8 155.8 165.4 169.8 173.3 173.6 173.7 171.7 167.4 165.7 166.8 169.3 174 183.1 191.4 197.6 204.5 210 211.9 212.7 215.2 216.9 216.7 216.5 211.6 208.4 206.6 208.3 209.2 213.9 216 218.2 218.4 219.9 223.5 235.1 243.2 247.7 252.4 260.7 270.6 279.5 287.1 294.9 308.1 320 331.3 337.9 341.7 346.3 352.2 358.2 365.2 380.6 395.8 405.3 412.8 418.3 424.2 431.9 435.1 435.7 434.1 432.1 429.8 429.4 426.6 424.4 417.7 412.2 405.6 397.1 390.6 385.9 379.5 373.7 368.3 361.4 354.4
203.9 204.9 201 197.8 192.5 183.8 176.1 172 166.5 163.5 158 151.9 146.6 138.5 129.3 122.7 120.2 118 112.9 105.6 97.2 92 79.4 70.2 63.4 53.2 42.2 34.9 27.7 21.1 16.8 15.5 14.8 14.1 13.4 10.7 9.9 9.3 8.5 7.9 7.4 7.1 7.2 7.2 6.9 5.6 5.9 5.9 8.3 7.4 10.1 12.2 13.1 13.9 11.4 16 17.7 20.3 21.9 25.4 28.8 31.1 28.1 31.8 35.9 35.7 35.5 35 34.7 35.3 39.3 49 58.7 64.9 69.7 74.9 80.3 92 103.6 112.5 122.6 144.2 146.8 146 143.5 142.8 140.5 139.3 138.6 137 139 138.3 144.8 147.5 144 134.7 129.8 125.1 121.7 125.7 129.2 135.5 137.5 136.9 146.1 157.9 166.7 171.1 165.7 153.6 144 138.5 135.5 134.7 131.3 127.1 127 130.7 127.8 138.8 147.1 155.2 163.7 169.4 172.4 173.2 172.1 170.9 170.3 168.9 165.8 166.5 170.2 174.4 182.9 192.8 197.7 203 209.8 212.8 214.3 216.3 216.6 217.6 218.6 210.6 206 203.1 206.5 205.6 203.5 204.5 208.3 212.3 215.7 219.5 226 237.4 244.2 250.7 256.1 266.1 275.9 282.4 289.6 302.9 314.5 322.3 329.7 335.5 340.3 345.3 353.3 362.1 374.2 386.4 398.3 411.8 419 425.5 432.9 437.2 442.2 443 442.1 440.4 438.6 435.1 430.6 425.8 419 411.9 404.9 392.7 380.5 371.2 368.5 366.7 362.9 357.5
194.4 197.8 199.8 199.2 195.6 188.6 180.8 173.7 170.7 168.3 164 157.5 147 130.5 132.7 132.4 129.4 125.2 119.8 110.9 105.8 100.6 90.7 81.4 76 68.7 58.6 50.7 41 31 19.6 16.4 14.6 13.8 12.7 11.2 10.2 10.2 9.4 7.7 7.4 7.1 6.9 6.9 6.7 6.3 6.3 6.4 5.1 7.4 10.2 9 13.7 14.6 22.5 23.3 24.3 26.5 28 30.5 34 35.4 37.4 38.9 34.8 33.9 34.1 34.4 34.6 34.6 36 45.3 53.1 61.3 68.1 73.9 80.6 82.2 94.3 106.3 113 133.9 143.3 145.1 146.9 146.1 145.2 141.2 139.2 138.7 139.8 136.4 134.8 138.2 138.7 135.9 128.4 123.6 119.6 120.6 121.5 127.6 132.4 131.6 129.3 147.7 161.5 169.1 168.7 159.5 143.3 136.8 134.9 132.1 130 127.1 126.1 127.5 127.8 143.1 150.4 154.5 165.7 169 170.1 169.9 171.8 170 168.2 166.5 163.3 164.7 170.2 177.2 182.8 189.9 197.2 200.6 206.2 208.9 211.6 214.4 213.9 213.3 215.4 210.6 203.9 199.1 201.3 199.9 198.4 196.9 200 204.1 210.3 211.9 220.8 230 238.6 245.5 254.2 262.3 270.5 277.2 283.7 292 304.8 313.5 322.2 329 339.1 348.7 359.1 368.6 380.1 399.6 415.5 425 431.3 435.3 439.9 442.7 444.9 443.5 441.3 438.2 435.4 432.1 428.7 424.3 418.9 412.9 406.6 398.2 391.5 384.1 373.5 365.1 362.1 359.8
197.7 192.2 190.6 191.2 190.6 187.8 182.6 177 172.3 168.8 164.8 158.2 148.2 147.1 146.4 142.5 138 132.1 124.7 116.7 112.5 108.7 107.5 98.3 89 84 74.2 67.4 63.7 48.6 36.8 25.7 18 15.4 14.1 12.9 12.8 11.3 11.2 7.4 7.2 7.1 6.8 6.6 6.3 6.8 6.8 6.4 5.2 5.5 7.8 7.7 12 14.5 20.8 24.1 25.5 27 30.8 33.3 36.9 39.9 40.7 40.5 36.8 33.8 33.9 33.9 34.3 34.7 41 43.5 49.3 57.1 63.8 71.9 79 83.4 84.5 102.3 109.8 124.2 135.8 141.3 143.9 145.7 145.5 139.3 130 136.3 135.7 138.9 136.6 132.6 131.1 131.6 129.3 123.4 119.3 115.5 115.1 120.6 126 124.8 122.5 132.5 148.4 163.6 170.4 169 148.6 139.2 136.1 133.3 130 127.2 124.3 122.8 123.1 138.3 148.2 157.8 163.7 165 168.4 169.8 170.1 168.2 164.5 162.3 161.5 162.9 166 174.3 183.6 184.5 192.6 198.3 201.1 204.7 209.5 210.4 210.3 209.6 209.1 206.9 202.6 198.8 197.3 194.9 195 191 191.7 200.5 205 206.7 211.9 219.8 233.8 242 248.2 254.8 261.8 266.4 277.3 288 301.1 316.5 326.7 335.9 346.6 359 369.5 377 394.1 414 428.2 435.3 438.3 438.1 437.8 438.7 439.3 437.9 436.1 433.3 430.5 427 424.8 421.1 417.4 411.7 406.2 399 392.3 387.5 383.3 378.8 369.9 363.4
202.2 196.4 192.4 185.4 181.8 178.9 176.8 174.7 171.4 166.6 159 152.1 158.3 158.7 157.1 152.3 148.8 143.3 137.5 131.1 122.1 114.9 112.6 108.3 100.6 99.5 89.7 81.6 78.8 67.8 54.5 42.7 34 22.1 16.8 15.3 15.1 13.9 14.1 8.6 6.9 6.7 6.7 5.5 6.3 6.4 6.5 4.5 4.5 4.5 6 6.4 7.4 12.1 15.3 21.5 25.3 26.9 31.2 35.6 38.8 42.8 45.1 43.3 39.6 36.4 35.7 34.9 34.2 35.2 38.1 41.2 45.8 55 60.2 68.2 76.4 83.1 84.7 96.8 106.3 115 133.9 144.2 146.9 146.1 143.6 129 126.1 127.7 134.4 139 142.7 134.9 131.4 128.7 126.6 123.3 118.9 115.9 112.9 119.4 123.5 120.3 119.4 123.2 139.2 150.1 161.6 163.7 159.6 150 136.2 131.8 128.7 125.6 122.9 117.5 119.5 130.1 140.8 151.8 158.7 162.7 163.8 166.5 168.1 168.2 165.8 161.8 160.9 161.1 162.3 170.7 181.3 185 190.3 194.9 198.1 200.9 203.5 206.1 206.9 206.3 203.1 201.5 202.4 200.6 194.9 191.1 188.6 187.7 189.4 192.8 198.1 201.4 208.1 213.2 225.3 237.1 243.1 247.6 251.5 264.5 276.2 287.6 298.1 317.4 330.2 341.6 353.3 364.7 373.9 386.1 403.3 419.1 430 434.4 434.4 433.4 431.2 429.2 428.4 429 428.4 426.9 424.6 421.8 419.9 417.8 414.5 409.9 404.1 400 392.8 388.1 384.7 380.7 375.8 369.5
218.2 206.4 196.7 192.1 188.5 184 178.7 172.6 165.8 160.9 161.7 166.2 167.6 165.1 162.7 159.6 156.1 153.4 150.5 147.4 138.4 130.7 122 115.9 112 105.2 99 89.8 90.5 86.6 72.3 59.4 48.9 38.3 27.7 20.5 18.4 16.5 14.7 12.8 9 6.8 5.4 6.3 6.1 5.8 5.9 5.8 5.9 6.1 6 5.2 5.9 6.2 10.7 16.1 21.6 26.6 31.2 36.2 41 43.2 46.8 46.2 42.3 39.6 36.3 34.9 34.3 35.3 37.5 39.7 43.4 50.7 58.5 66.3 73.6 78.9 84.9 90.5 99.7 101.6 122.4 136.8 141.7 142.2 135.2 117.5 121.8 127.6 139.2 142.9 144.7 138.5 131.4 128.4 124.5 121.9 119.8 117 112.4 114.9 120.8 116.2 118.3 121.4 124.6 141 147.4 151.6 153 149.9 142.1 129.3 126 123.4 116.9 111.6 113.4 123.6 129.9 144.3 153.3 157 159.8 159.1 161.4 164 162.9 162.6 159.9 160.1 166.2 173.4 182.3 185.8 190 194.1 199.1 199.6 199.8 199.8 202.9 203.1 200.5 196.3 196.4 197.6 195.7 187.9 184.6 185.3 186.9 188.9 188.8 197.5 203.6 208.7 215.8 224.6 236 240.2 248.4 256.6 267.8 282.8 293.2 309.4 328.1 342.9 353.9 364.2 371.9 384.1 399.1 413.9 422.6 426.1 425.7 424.8 421.9 419 416.9 417.2 418.5 417.9 417.4 415.6 413.9 413.1 410.7 407.3 403.1 400 395.7 390.4 385.3 381.6 378.2 373.3
232.2 225.3 218.5 203.7 195.3 192.6 188.4 182.5 176.2 172.6 168.3 170.2 170 169.8 167.9 165.4 163.3 161.7 159.6 159 155.9 150.9 143.1 133.9 124.4 120.3 114.8 104.1 96.5 94.5 86.8 79.7 69.6 57.4 45.7 33.7 26.5 20.7 17.1 14.3 11.9 11.8 10.9 9.4 6.8 5.8 4.7 5 4.8 5.5 5.5 5.7 5.6 5.2 5 11.2 15.2 24.5 30 35.7 40.6 43.9 43.8 44.4 42.6 40.4 36.1 35.7 39 42 44.5 44.8 45.7 46.8 54.5 60.5 68.5 75.3 82.5 85.7 91.8 95.7 103.8 117.2 131.7 135.7 123.2 112.3 118.8 131.8 140.4 143.8 143 140.5 135.3 132.3 125 121.9 118.5 116.3 111 109.1 109.6 111.6 120.5 123.8 120.4 129.8 137.4 139.9 142.5 140.2 135.9 126.3 119.1 116.5 110.4 109.1 111.8 118.8 124.9 132.8 143.1 150 153.4 153.4 155.8 157.9 159.6 160.1 158 161.4 167.4 175.5 183.8 186.1 188.5 193.1 198.1 200 199.9 199 198.6 199.5 197 196.5 194.4 191.2 192.6 188.6 183.7 183.1 184.2 183.9 186.1 188 195.5 204.3 211.4 219.3 222.1 231.8 241.7 250.6 261 269.5 281.4 293.8 313 332.4 347.5 355.7 361.7 371.5 382 392.2 405.3 413 413.4 411.5 410 406.3 402.9 403.3 404 406 407 407.4 409.1 408.4 406.9 403.6 401.7 398.5 394.3 390.8 387.5 383.5 379.4 375.4
241.3 231.9 228.1 219.8 209.8 203.1 198 193.1 187.7 182 178.1 175.9 173.7 173.5 172.7 171.1 170.3 169.3 170.1 169.3 167.3 163.8 158.8 151.3 142.8 134.6 124.2 116.5 105.4 104.5 101.8 94 85 73.9 63.3 52.4 42 34.5 27.6 19.4 15.4 13.8 13.1 12.8 11.3 8.3 6.2 5.8 5.6 5.2 4.2 5.3 5.1 4.4 4.5 6.9 12 19.7 28.3 34.9 39.1 42.1 42 36.7 36.6 42.5 43.1 43.1 45.2 49.8 51.5 52.1 54.6 51.4 49.3 54.4 59.1 70.4 79.8 83.8 96.7 104.1 101.4 111.7 118.8 124.2 111.2 109 111.2 122.4 133 136.9 139.2 142.5 137.2 132.9 126.9 123.2 118.4 115 113.3 109.4 110.9 106.9 122.5 125.5 121.1 123.9 133.7 131.6 131.7 128.6 123.5 120 111.5 106.1 106.5 110.5 114.2 119.3 120.6 124.3 130.6 136.3 142.9 145.1 150.5 156.1 155.8 154.3 157.8 164.8 169.5 174.7 183.4 186 189 193 196.4 199.5 199.7 198.8 197.9 197.2 196 193.6 192.3 190 187.6 186 183.8 181.2 182.3 183.3 183.9 184.8 186.1 195.9 205 211.1 214.8 222.6 235.4 245.7 253.6 259.1 264.1 275.2 293.4 314.4 333 343.6 347.1 351.3 358.5 361.4 377.5 391.5 396.2 395.5 391.5 386 383.1 385.3 391.4 394.5 397.9 404.8 408.1 406.6 404 400.5 399.1 395.5 391.2 388 384.7 380.6 378.1 376
251.9 241.2 233.2 226.9 220.6 212.9 207 202.6 197.6 189.2 191 186 180.6 177.5 176.3 176.3 176 178.8 179.6 179.4 177.8 174.9 170.3 166.7 161.8 152.6 140.5 128 119.8 111.8 106.5 98.6 91.1 83.3 74.7 67 58.5 49.8 39.8 31.3 24.3 17.1 14.1 13.1 12.3 11.7 10.3 8.5 7.8 7.2 6.5 5.2 5 4.1 5 5.1 6.1 13.1 23 32.2 36.2 38.8 39.6 25.3 38.5 48.9 52.7 52.2 58.8 62.2 60 61.6 63.8 56.3 46.8 44.6 54 64.9 74.1 83 97.4 107.6 103.7 102.7 106.2 104.4 108.6 108.6 110.4 116.8 126.3 132.7 138.7 141.7 141.1 135.3 130.7 121.2 117.9 120.2 123.5 114.3 105.9 105.1 116.2 125.3 121.1 113.9 123.5 129.1 124.8 125 121.5 115.6 109.1 107.7 113.3 113.7 113.5 120.6 122.4 123.9 125.6 125.8 130.1 133.1 136.5 148.3 155.4 158.6 163 168.4 173.3 179.9 186.1 187.3 190.8 192.4 196.5 199.1 199.4 198.6 197.7 196.7 195.1 193.6 191.4 189.1 186.7 186.1 183.4 180.9 179.6 180.5 182.4 182.6 182.4 187.6 192.9 200.1 203.2 216 228.6 235.9 245.6 247.4 252.2 261 277.7 295.2 314.2 325.5 329.4 328.9 334.1 339.2 349.4 362.9 369.8 370.4 367.1 363 361.5 369.8 379.8 392.3 403.6 412.1 412 408.9 405 399.7 394.6 391.2 387.3 382.9 380.1 377.9 375.6 373.8
262.3 251.6 243.2 232.6 227.2 220.7 214.4 209.2 206 196.1 198.9 199.5 196.2 190.2 186 184.7 186.6 188.4 190.4 190.2 188 186.2 182.9 179.2 175.6 171.8 162.2 149.9 137.9 127.6 118.4 108 102.1 96.9 89.3 81.7 74.5 64 55.5 47.1 36.4 26 17.3 13.4 13 12.8 12.1 9.8 8.5 8.2 7.8 6.9 4.7 5.1 4.3 5.1 5.5 5.8 14.3 24.7 30.4 33.5 36.7 22.8 36.2 50.1 52.6 64.3 80.3 79.4 69.1 78.9 73 56.7 39.4 32.1 36.2 52.4 66.5 76.4 95.5 107.3 97.7 97.9 91.2 91.9 104.8 117.7 114.3 125.8 132.2 137.3 144.2 148.6 143.7 146 142.4 133.9 124.4 119.6 126.1 119.5 101.9 101.4 110.3 115 115.9 112.2 111.2 115.8 119.2 117.5 114.4 110.4 103.7 101.2 105.3 107.4 110.9 114 119.3 120.1 122.6 132.3 138.7 142 143.3 151.1 159.7 160.9 162.3 167.7 172.2 179.2 186.6 188.7 191.2 192.8 195.8 200 199.7 199.5 199 199.9 196.8 194.1 192.9 191.1 187.1 185.7 184.1 180.6 179.5 178.8 178.1 179.3 178.3 183.1 187.9 194 197.9 205.6 213.7 222.3 227.5 234 241 250.1 261.7 276.3 290.4 304.3 309 311.3 312.6 318.3 326.2 336.1 341.7 339.5 336.6 352.9 368.2 379.5 390 404.8 417.4 419.6 417.7 412.7 406.8 400.2 394.8 389.7 383.8 379.2 377.3 375.2 374.2 371.8
269.6 262.5 251.2 241.7 233.5 226 220 216 212.8 208.9 211.6 211.8 210.2 206.9 206 202.7 200.6 201.2 201.9 201.5 199.7 197.9 194 189.9 186.7 183 178 170.1 159.6 147 138.2 126.8 122.9 119.6 113.9 103.4 94.2 80.1 69.9 61.7 53.2 44.1 32.6 19.8 14.4 13.2 11.8 11.1 10.2 9.2 7.5 6.3 4.8 4.5 5.6 5.5 4.8 4.4 5.5 12 20.1 29.8 35.7 21.5 29.1 41.2 47.6 67.7 72.9 72.9 75.7 83.1 68.3 53.6 37.7 24.9 23.8 32.5 49.8 62 84.5 101.3 93.3 89 82.4 86.6 108.4 118.3 119 129 134.9 139.7 144.7 150.1 155.7 159.4 152.4 138.8 131.4 121.8 120 118.6 106.2 96.5 101.4 105.5 105.8 106 103.3 105 110.9 111.5 108.5 105.5 100 98.9 102.8 110.4 115.5 118.7 120.9 124.6 127.3 137.3 143.3 148.3 149.7 155.4 159.4 161.2 165.7 165.3 170.5 175.4 184.5 190 191.8 192.9 195.1 198.2 200.4 200.5 201.4 202.6 201.2 197.9 193.8 192 190.6 187.1 184.6 182.3 177.7 176.1 176.1 175.2 174.9 181.8 182.3 183.1 187.3 194.3 202 206.4 212.8 224.1 233.3 236.7 245.1 259.3 270.1 282.5 290.8 293.5 295.5 302.4 307.4 307.5 317.5 336.8 357 371.3 382.4 392.8 404.8 417.6 419.9 420.6 417.4 413 406.5 400.6 393.2 388 382.9 378.2 374.8 373.8 372.9 370
273.9 271.2 263 252.1 242.9 234.9 230.4 226.7 220.7 217 219.7 222 222.2 221.8 220.2 218.9 217.6 216.3 215 213 211.3 209.4 204.6 200 196.4 192.7 188 181.9 174.2 164.9 157.5 148.4 138.2 133.4 125.1 115.8 105.8 94.9 84.8 76.9 68.6 59.3 49 37.7 24.6 15.8 13.2 11.7 11.3 10.9 8.5 6.6 4.7 4.9 4 4 3.8 4.4 3.6 5.7 6.4 15.9 31.4 20 18.2 20.7 33.2 43.4 44.4 46.5 55.1 67.4 54.3 45.3 32.2 21.2 17.8 20 29.7 41.3 61.7 81.8 90.7 81.1 68.9 80.1 99.7 120.9 117 120.6 128.7 139.4 150.6 157.5 156.3 158 154.6 143.5 140.4 134.3 127.3 112 105.9 94.8 92.2 92.3 96.5 99.1 98.7 97 105.4 106.3 104.1 101.7 98.4 99 103.3 108.6 115.3 118.8 122.5 128.6 129 139 148.4 149.9 151.8 156.2 161.8 162.5 163.5 163.6 166.9 170.6 182.4 189.1 192.4 193.4 193.7 194.5 199.4 201.6 202.6 204.4 205.1 202.4 198.6 193 192.1 193.5 189.9 185.2 178.3 177.9 175.2 173.8 173.3 173.4 176.2 179.5 178.9 183.1 188.8 195 204.4 214.8 222 225.3 231.1 242.2 255.7 267.8 275.7 277.9 280.7 296.5 310.6 327 344.3 360.8 373.1 382.5 393.7 402.4 417.6 421.4 419.7 417.6 413.9 409.3 404 397 389.6 384.3 379.2 376.1 373.9 371 368.9 368.3
272 271.6 269.3 261.4 251.4 242.3 238.1 232.9 226.8 221.9 225.6 229.4 231.8 232.8 233 231.9 230.4 229 227.7 225.1 222 219.2 215.2 211.3 206.4 202 196.9 190.8 185.7 179 171.5 163.7 155.1 144.1 134.8 127.1 118.3 109.6 100.4 89.5 82 73.1 63.2 51.6 40.1 28.5 18.2 13.4 11.4 11.1 9.7 7.8 6.4 5.4 5.2 5.3 4.6 4.5 3.6 4.6 5.5 6.7 11.5 15.2 14.3 14.1 13.5 14.7 20.8 31.9 39.2 45.5 42.2 38.4 30.9 18.2 14.9 13.7 12.2 20.7 34.5 51.7 60.3 62 73.7 58.3 83.4 119.5 126.9 121.5 121.8 127.9 140.4 151.9 154.3 150.2 149.6 147 145.4 144.8 135.7 115.9 98.6 98.1 91.2 84.8 86 88.9 91.1 91.1 98.7 101.9 99.5 98.3 96 97.6 103 106.3 110.7 117.1 123.2 129.3 130.9 141.7 151.9 152.3 151.9 153.7 158.8 160.9 161.5 161.4 164.8 168.3 175.7 187.5 190.7 192.5 193 193.3 195.2 199.2 201.7 204.7 207.7 206.8 204 196.7 193.8 196 194.3 188.9 183.9 182.2 177.2 174.5 174.3 172.1 172.5 174.9 175.7 175.9 178.9 184 188.8 201.7 210.7 219.4 224.6 235.3 245.4 253.3 260.1 270.3 285.5 302.4 326.6 346.1 359.9 371.4 380.7 392.2 403.7 412.8 415.6 417.5 416.5 413.2 409.2 405 399.8 392.6 385.8 380.5 376.1 373.8 371.6 369.3 367.6 366.9
266.2 266.1 265.7 262.7 258.5 250.2 244 237.2 232.5 229.8 232.3 235.8 238.3 240.2 242.8 244.6 243.3 241.9 240.4 238.6 235.3 230.6 226.3 222.2 217.2 210.9 205.6 200.9 193.8 188.5 183.1 176.1 167.5 158 147.4 136.3 130.3 122.3 112.1 103.5 96.3 87.2 78.7 66.5 54.9 43.4 32.9 21.3 14.3 11.3 10.8 9 9.2 9.3 7.2 4.5 3.8 3.5 4.2 4.7 5 5.9 6.7 12.4 12.5 11.9 10.5 9.1 13.8 26.9 42.6 42.7 35.6 28.6 25.1 15.7 12.3 10.2 7.5 8.3 11.8 26.7 49.5 66.3 69.9 45.6 57.5 87.7 115.7 116.5 106.1 112.9 130.9 147.7 149.5 142.6 138.5 141.7 146.3 149.9 144.8 118.4 99.3 92 88.5 79.8 76.9 80.7 85.1 88.8 85.1 90.2 92.9 92.4 94.1 96.4 101.7 105.8 109.6 115.5 122.5 129.4 136.1 139.6 150.5 151.4 150.8 151.9 153.6 156.5 159.4 160.8 165 168.2 172.6 181.3 185.9 190.3 191.9 192.8 193.6 195.2 199.6 202.1 204.6 206.8 205.5 201.9 195.1 193.9 194.2 191.2 188.1 185.2 181 178.5 176.1 172.9 171.6 172.4 173.1 172.7 173.9 177.5 183.2 191.8 207.9 217.7 222.5 224 233.1 241.6 258.8 272.7 284.6 302.8 330.3 351.4 364.8 376.1 387.9 400.6 412.4 417.6 416.5 414.4 410.1 406 403.4 399.3 394.2 387.5 382.3 377 374.2 371.5 369 366.5 363.8 364.1
264.9 263 261.9 260.2 258.5 254 247.6 242.3 241.2 237.9 236.5 241.3 244.4 247.6 250.9 252.9 255.6 254.7 254.1 253.5 250 244.5 238.3 232.5 226.6 220.7 214.8 210.4 205.6 198.8 192.7 186.7 180.3 170.5 160.9 150.5 138.8 130.1 123.5 114.1 106.2 100.7 91 82 71.2 60 48.2 38.3 25.4 16.3 12.7 11.8 11.8 11.8 11 6.6 4 4.2 4.1 4.1 4.9 4.4 3.9 5.8 9 10.2 10.2 9.9 11.6 14.8 20 23.2 26.2 21.1 15.4 12.1 8.8 7.4 5.1 5.8 6.2 8.5 27.4 51.4 53.3 8.3 26.9 44.2 70.5 80.2 79.8 98.7 119.3 137.5 142.4 132.9 127.6 124 135.2 141.7 133.5 114.1 102.2 90.7 80.9 77.1 73.6 74.6 79.6 81.6 79.9 80.7 84.6 87.4 91.3 92.8 102.3 104.6 105.3 111.6 114.3 127 135.1 139.6 145.1 149.2 150.6 151.1 152 155.5 158.8 160 164.7 165.8 165.1 172.2 178.8 185 189.7 192.1 193.7 194.5 196.8 199.7 203 204.6 205.1 202.5 200.3 198.1 193.3 192.4 194.2 189.5 182 177.7 174.6 173.8 172.4 171.7 171.7 171.7 171.7 173.7 178.4 186.5 199.1 210.2 221.6 214.4 229.7 242.2 253.6 268.2 280.7 302.2 332.7 352.5 364.9 372.8 382.9 392.5 405.5 415 414.2 411.9 407.3 402.2 395.5 390.4 387 381.6 376.6 373.5 369.3 368 365.5 362.7 358.3 360.6
265.8 264.2 261.6 260 257.5 253.5 249.7 246.4 246 243.6 241.4 245.2 249.4 251.9 259.2 261.7 262.3 265.8 267.8 268.6 267.6 263.2 256.2 246.9 238 230.9 224.3 217.7 212.3 207.7 202.2 197.6 192.3 186.3 177 165 154.3 146 135.5 127.4 117.4 110.6 102.9 95.3 85.5 76.2 64.2 53 41.1 31.4 20.7 14.6 14.5 13.9 11.7 8.5 3.7 4.3 3.7 4.8 4.6 4 3.8 3.9 3.6 4.1 8 5.8 6 4.9 10.7 14.5 15.8 15 13.6 10.2 6.8 5.1 5.2 5.1 4.6 5 7.4 20.2 29.4 7.3 13.9 13.3 33.1 56.4 55.1 67.1 83 101 126.1 123 121.4 120.2 122.8 127.3 123.1 108.4 111.7 91.1 80.7 72.7 71.6 71.7 72.4 74.1 74.3 75.2 77.6 78.5 86.7 92.9 99.6 107.3 114.2 121.3 126.1 127.5 128.8 133 142.7 145.5 151 150.1 151.3 154.1 157.4 159.3 160.8 161 164.8 172.9 179.1 183.9 186.6 189.1 191.9 194.1 195.2 197.7 202.1 205.2 205.6 205.4 203.7 202 202 199 197.3 193.2 187 185.3 177.9 174.4 173.2 172.3 171.7 171.7 171.7 172.4 176.1 180.2 189 193 200.4 211.6 220.1 235.1 245 258 274.7 294.8 316.9 336.8 352.9 362.2 369 378.8 388 408.3 410.4 407.6 403 397.5 389.5 383 374.4 367.2 364.7 363.3 362.1 361.6 360.6 358.1 355.5 354.5
269.2 270 267.8 261.4 257.9 255.1 253.2 249.1 246.5 244.6 243 245.5 252.4 256.3 260.8 268.3 269.4 271.7 275.7 279.1 282.6 282 276.1 266.8 254.5 242.6 233.4 226.1 220.3 214.9 209.7 205.1 200.9 196.5 191.5 183.9 172.4 163.8 154.9 141.4 129.1 119.5 110.7 105.3 98.1 89.5 79.3 69.2 58.6 47.3 35.7 24.2 17.8 15.4 13 8.2 3.7 3.4 3.5 3.6 3.9 5 5.6 5.5 4.3 4 4.1 4.3 7.3 7.4 5.9 12.2 14.7 14 11.9 8.2 4.5 4.7 5.1 4.4 4.5 4.6 4.8 4.9 6.2 5.2 4.9 5.4 6.8 23 20.7 34.6 41 49.3 111.6 116.8 120.7 122.7 118.2 118.7 108.8 103.2 100.8 93.4 79.3 71.3 68.5 69 69.3 70.2 70.9 72.2 74 82.3 91.5 97.8 102.6 110.1 119.2 126.5 130.9 133.7 135.6 141.1 147.5 152.3 154.4 154.9 152.4 151.9 153.9 157 158.1 158.4 165.3 172.3 178.6 181.2 184.1 188 190.7 193 194.5 196.6 200.7 206 208.2 206.8 206.7 208.3 208.2 205.3 201.9 199.1 192.1 190.5 190.1 179.5 174.7 173.2 172.6 172.2 171.7 172.7 174.9 178.9 182.7 186.8 191.9 202.7 211 223.2 234.3 246.6 265.5 280.6 299 318.1 332.8 346.3 352.2 360.9 369.5 391.5 400.1 399.7 396.9 391.1 383.8 375.8 368.4 360.9 353.5 348.3 349.8 351.6 351.1 350.8 350.8 350.6
276.4 272.8 272.1 268.4 261.8 258.4 255 251.2 248.3 246.2 245.2 244 248.8 255.7 261 267.2 274 275 280 285.7 289.9 292.5 290.4 282.9 272.5 260.2 246.1 235.4 228.6 223.1 218.1 212.5 207.9 203.9 198.9 195.4 189.3 180.4 172.3 162.7 148.8 135.5 122 113.4 107.5 100.3 92.4 83.9 72.5 62.1 50.5 38.5 26.9 19.3 13.2 6.9 3.2 3.8 3.2 3.1 3.2 4.9 5.7 4.1 4.7 3.7 4.8 4.9 5.8 10.2 11.3 11.5 9 8.4 9 5.1 4.1 3.7 4.2 4.7 5.3 5.4 5.2 5.1 4.8 4.9 4.6 4.9 5.2 5.6 5.8 7.8 11.7 15.2 28 48 60.1 76.6 92.2 99.5 109.1 110.7 99.1 89.4 77.8 70.4 66.9 64.6 68.6 68.9 69.8 70.7 73.8 81.2 90.8 99.4 106.2 115.4 124.2 131.1 137.5 138.9 139 143.1 152.5 163.1 164.3 162 156.2 152.1 151.2 152.2 154 156.2 162.4 169.2 177.7 181.8 183.3 186.5 189.2 192 194.5 196.7 199.7 206 209.8 208.7 211.4 212.7 212.7 210.5 207.9 205.8 203.2 193.7 191.7 188.9 180.6 174.2 173.5 172.7 171.7 172.4 174.4 176.7 179.1 180.8 185.7 195.1 202 210.9 224.4 237.2 253 269.3 282.7 296 310.2 319.9 329.6 339.6 346.4 359.5 385.7 388.2 385.8 380.4 374.4 367.7 359.7 352.4 345.8 334 327.4 330.2 340.3 343.5 344.5 345.4
274.8 275.4 271.2 269.3 264.2 263 260 256.6 254 250.1 249.9 249.8 248.3 250.9 255.1 263.5 270.4 276 278.3 283.2 297.2 299.6 297.8 293 285.5 276.6 264.7 247.2 236 228.4 222.4 218.6 215.3 211.2 206.3 202.5 198.5 193.2 186.3 176.2 165.6 153.2 141.4 126.6 116.7 109 102.6 96.2 86.9 76.9 65.4 54.2 43.7 31.3 18.8 9.7 3.8 4 3 2.7 3.1 2.5 3.5 3.1 3.3 3.9 5.6 5.5 5.6 8.1 9.5 10 10.8 8.1 4.8 2.6 2.6 1.3 3.4 5.8 5.6 5.5 5.2 5.2 5.3 5.3 5.3 5.2 4.7 5.2 5.7 4.5 5 4.9 5.2 8.1 20.5 33.3 42 73.4 97.1 110.3 104.8 85.8 76.8 69 65 62.7 65.6 67.6 68.4 69.4 72.7 80.6 91.6 102.7 110.1 118.1 127.8 139.9 145.8 140.9 140.5 141.8 153.8 163.9 166.4 163.4 158.4 150.9 150.6 151.2 153.6 156.5 161.2 166.6 173.4 178.3 182.6 185.5 187.1 189.4 192 195 199 205 209.7 210.2 213.7 215.2 218.1 214.9 211.8 209.2 206.8 200 193.9 188.1 181.7 176.9 179.7 174 171.7 171.7 172.3 174.6 176.5 177.7 178 185.1 192.8 206.7 220.7 229.2 238.3 258.4 270 279.5 291.8 299.7 306.6 315.7 324.8 331.7 348.7 367.7 370.4 366.9 362.7 355.1 341.9 330.1 322.1 319 318.5 319.6 329.8 336.1 337.6 333.5
272.9 273.1 272.6 269.1 266.7 265 263 259.1 257.3 254.5 252.7 251.2 251.4 251.5 253.7 257.2 263.9 271.8 278 280 292.5 304.1 306.9 302.5 293.9 283.5 275.5 263.6 248.6 240.8 236.2 233.1 227.5 223.6 217.2 211.5 206 202.7 197 189.9 180.1 168.9 157.8 145.9 133.9 119.9 111.2 105.8 100 91.3 81.1 70.1 59.3 47.1 33.2 19.9 9.6 5.9 6.2 5.6 4.5 3.1 3.7 3.3 3.4 3.4 5.2 5.7 5.8 5.8 6.5 6.4 6.3 4.8 2.5 3.1 2.5 2.1 1.2 3.7 5.4 5.3 4.9 4.7 4.8 4.4 4.9 5.3 5.3 5.4 5.2 5 5.2 5 4.9 4.5 5.9 7.9 23.8 47.8 79.6 89.6 90.6 83.4 71.6 65.8 61.8 60.4 61.5 64.5 65.6 67.6 73.2 79.8 89.7 100.2 108.4 117.4 127.8 138.2 141.7 143.5 140.7 141.4 151.7 160.6 161.2 161.6 157.8 150.2 149.2 149.3 152.5 155.5 165.5 168 174.9 178.2 181.2 183.9 186 187.6 190.6 193.8 199.3 203.5 208.3 210.5 214.9 217.1 220.4 220.9 219.8 217.5 214.8 206.6 198.7 192.4 184.4 178.9 178.1 177.5 171.7 171.7 171.7 171.7 173.4 174.2 174.8 182.2 188.3 197.7 212.4 222.5 232.1 241.8 256.2 267 274.1 285.4 291.7 297.5 304.3 311.5 320.2 334.5 345.7 347.7 342.3 332.5 323 319 315.4 311.8 308.5 311.7 315.5 325.6 322.7 316.9
271.9 272.8 272.4 269.2 266.1 264.4 262.9 263.3 259.5 257.3 256.2 255.8 255 255.1 255.4 258.4 261.7 263.6 270 280.1 285.6 293.4 307.4 308.6 304.6 294.6 284.2 273.8 261.3 254.2 248.6 245 238.8 234.3 229.5 224.7 218.9 213.7 208.5 202.3 193.2 184.4 175 165.3 153.7 142.3 128.7 116.4 107.8 101.1 95.4 85.6 74.8 63.8 52.8 39.3 25.9 19.6 15.5 12.5 9.4 5.3 3.7 3.5 3.3 2.5 4.7 5.1 5.6 4.8 4.3 3.7 4.1 2.1 3.1 3 2.7 2.4 2.7 1.4 2.1 5.3 4.7 4.6 4.5 4.4 4.9 5.2 5.1 5.2 5 5.4 5.3 5.2 5.1 5 5 5.3 6.8 18.1 42.2 65.7 70.2 70.7 66 59.8 56.4 58.4 53.8 57.8 65.1 68.5 76.1 80.9 88.1 96.1 106.5 118 124.9 131.3 137.7 140.8 140 141.1 147.4 153.2 156.4 157.5 154.4 149.8 147.6 147.2 149.3 155.4 163.9 167.2 172.7 176.9 179.7 182.2 184.8 187 189.8 193.9 198.1 203.5 207.4 210.2 215.7 219.5 222.3 222.3 225.4 226.6 224.2 220.3 210.9 200.8 191.4 181.5 176.8 174.8 171.7 171.7 171.7 171.7 171.7 171.7 171.9 177.7 181.8 190.5 201.5 210.9 222.7 234.5 244.7 252.9 260.9 268.4 277.3 282.1 287.3 292.2 298.7 311 331.9 339.8 335.8 329.8 321.6 311.3 302.7 298.7 297.1 301.4 304.6 298.7 305.1 312.9
272.1 275.9 272.9 270.7 267 264.2 262.5 261.3 260.4 258.8 258.8 260 259.3 257.6 258.9 262.4 264 266.7 271.2 278.5 284 288.1 290.9 302.4 304.2 301 291.3 281.9 271.8 262.5 257.1 252.8 248.8 245 241.1 238.8 233.3 226.3 219.9 213 204.6 195.4 187.9 179.8 169.9 160.2 149.8 138.4 126.7 115.5 108.4 100.8 90 79.9 70.1 61.1 51 38.9 30.7 24.2 19.8 15.1 10.3 5.9 4.5 2.8 3.9 4.4 4.4 3.2 3.6 3.3 2.9 3.6 3 3.1 2.9 2.5 2 2.8 2.6 5.6 4.3 4.5 4.7 5 4.8 5.1 4.9 5.1 4.5 5.4 5.4 5.4 5.3 4.7 5.2 5.2 5.4 7.2 22.2 37.4 41.2 56.4 56.7 55.3 48.8 51.7 47.8 52.8 61.1 66.5 73.6 82.9 89.2 94.5 105.1 115.1 121.5 129 137.6 138.7 140.3 142.5 142.7 146.3 149.9 153.9 153 147.6 145.3 144.6 146.5 153 160 164 167.5 173.1 178.1 180.9 184 188.7 190.8 195.2 198.8 203.3 206.6 209.2 216.3 222.5 226.6 230.9 234.3 234 232.2 229.7 224.2 214.6 202.4 188.5 178.2 171.7 171.7 171.7 171.7 171.7 171.7 171.7 171.7 174.5 175 182.5 191.8 201.2 213.4 224.4 232.8 241.5 248.6 254.6 261.9 269.6 275.5 281 289.2 300.7 315 338.5 339 331.5 320.4 305 293.7 284.5 283.7 284.2 288.9 302.7 308.3 317.3
267.8 270.1 272 270.9 267.5 264.6 262.1 260.2 259.6 259.1 259.1 260 263 262.8 264.4 266.1 268.6 272.6 278.7 281.1 285.5 289.6 290.3 292.2 294.5 296.4 293.8 285.4 276.8 266.8 261.9 258.5 255.5 254.1 250.8 249.1 247.8 243.9 237.4 230.2 222.9 215.5 204.7 193.8 182.9 172.8 164.1 156.7 147.2 137.5 127.7 117.8 107.9 98.1 88.6 80.1 70 56.9 46.8 38.7 31.5 26 22.2 17.1 12.7 8.7 4.5 2.6 2.8 3 3 2.9 3.9 3.6 3.6 3.3 2.9 2 2.7 2.7 2.5 4.8 4.4 5 5.4 5.6 4.4 4.5 4.7 4.8 5.2 5.3 5.4 5.4 4.1 2.2 5.1 5.3 5.5 5.7 6.7 11.7 21.4 33 45.6 52.2 51.9 49.3 43.4 48.4 57.9 63.2 74 84.1 91.7 95.8 101 110.9 115.6 125.7 135.6 136.5 141.6 143.9 142.7 143.9 145.2 147.5 148 145.3 141.2 144 145.2 148.8 158.7 162.9 163.4 167.8 175.3 180.9 183.6 187.8 191.1 193.7 198.3 201.8 206.4 210.9 220.9 225.7 228 230.7 234.7 236.6 237.3 236.3 235.4 227.7 212.9 193.4 187.8 173.6 171.7 171.7 171.7 171.7 171.7 171.7 171.7 171.7 171.7 176 185.2 191.2 202.3 211.7 221.3 226.4 236.3 244.9 249.5 255.5 262.6 270.4 278.7 287.4 296.4 319.4 333.3 330.1 316.4 296.3 282.3 275.9 273.5 282.9 295.8 306.7 315.5 320.6
264.3 266 269.6 271.5 269.6 266.7 263 260.6 259.4 259 258.1 257.4 259.1 266.4 270.9 272.1 274.2 277.2 279.8 282.4 286.1 291.4 295.4 297.4 292.7 291.8 289.4 284.5 278.5 271.1 264.6 261.3 259.1 259.2 258.4 255.3 256.6 254.9 252.4 248.5 242.7 234.2 225.8 215.6 203.6 189.8 176.7 169.2 162.5 154 145.6 137.5 127.6 116.9 108 99.4 87.7 75 64.8 55 46.1 38.7 33.6 25.9 19.9 16.6 13.4 10.8 9.5 6.9 7.6 7.9 7.1 6.2 4.9 3.3 2.7 2.6 2.6 2.7 2.7 4.4 2.4 2.2 3.2 2.7 2.1 2.3 1.9 3.4 4.8 5 5.1 4.8 1.9 1.9 1.9 5.4 5.5 5.5 5.4 5.6 6.7 15 30.2 38.5 48.5 43.6 35.9 42.2 51.4 62.3 73.3 84.2 92.6 97.9 103.1 109.2 116.3 122.3 128.5 133.6 141.6 143.5 143.3 143.5 142.8 142.1 144 140.6 138.7 140.8 141.4 145.2 158.1 160.6 161.5 167.6 173.3 179.5 184.6 186.9 190.8 193.8 196.5 205.6 205.5 213.7 223.2 228.3 232.9 232.7 234.3 236.2 237.9 236.4 235.1 232.3 225.9 206.1 191.2 179.7 171.7 171.7 171.7 171.7 171.7 171.7 171.7 171.7 171.7 173.4 178 185.6 190.4 199.7 205 211.6 220.5 230.1 237.7 243.7 247.9 256.1 266.5 273.5 279.8 289 301.1 310.2 297.1 280 273.1 270.6 271.6 285.6 302.2 315.2 319.2 319
262.4 261.6 262.5 266.9 268.6 267.3 266.3 263 259.1 258.1 257 256.5 256.6 259.4 269 272.1 275.9 281.9 286.5 286.8 291.5 295.5 299.8 301.7 300 292.4 286.5 279.6 273.9 270 265.1 262.8 262 261.5 262.4 261.7 263.5 266.1 263.9 260.2 257.2 251.3 243.1 233.9 222.8 211.3 195.9 181.9 172.8 168.5 161.9 154.4 146 135.9 128 117 106.2 95.4 84.7 75 64.6 54.4 45.9 37.3 29.5 26.2 19.9 17.4 16.1 15.1 14.6 14.6 14.1 12.2 9.3 4.8 2.9 2.8 2.9 2.9 2.7 5.4 2.3 2.2 2.2 1.9 2.4 2.5 2 3.9 4.5 4.7 3.9 3.1 1.8 1.8 1.6 5.2 5.4 5 4.9 4.8 5.2 6.3 11.4 24.4 33.8 34.6 24.3 33 46.3 60.9 72.8 84 93.2 99.5 104.6 110.3 118.4 125.8 129.7 134.7 140.3 143.9 148.8 148.5 143.3 140.2 139.7 137.1 138.8 138.7 137.4 142.2 154.6 154.2 159.5 164.6 170.1 176.8 181.5 187 191.8 193.8 195.9 200.5 206.5 221 228.1 234.3 238 237.8 239.1 240.8 243.4 242.3 238.1 235.2 229.1 220.6 205.2 188.7 174.7 171.7 171.7 171.7 171.7 171.7 171.7 171.7 171.7 171.7 171.7 177.1 183.6 188 196.3 200.4 206.5 213.2 220.1 226.8 234 240.5 251.2 260.7 267.1 270.1 276.2 283.9 280 270.6 267 263.1 279.5 296.4 306 313.2 315.3 313.9
259.8 259.3 257.7 257.7 262.6 266.4 266.4 265.1 260.1 258 256.9 255.7 255.8 257.2 261.7 266.4 275.9 284.7 287.1 285.6 290.8 295.5 296.7 302.2 303.8 299.4 294.5 284.6 273.2 264.8 261.4 260.9 262 262.4 263.6 267 269.4 275.4 276.4 272.5 268.7 262.5 255.8 247.6 238.6 227.1 214.2 201.3 186.6 178.2 173 167.6 161.6 153.2 143.7 133.5 122.3 111.6 101.5 92.1 83.6 72.8 64.7 54.8 46.7 40 33.6 27.6 24.8 22.4 19.8 19.5 18.8 17.4 15.3 11.1 5 2 3 2.8 1.4 5.8 2.2 2.3 2.3 2.5 2.8 2.4 1.6 2.3 3.3 2.4 2 2.3 1.9 1.8 4.9 5.1 5.4 5.5 5.6 4.7 4.3 4.9 6.6 7.2 15.1 18.6 10 24.6 48.5 56.1 69.4 81.7 90.6 98.8 106.2 111.3 120.1 127.7 132.3 137.9 141.6 144.6 148.2 150 142.4 138.4 136.8 132.8 134.4 136.8 132.9 137.3 144.1 150.8 155.5 161.4 168.7 176.7 182.7 188 194.1 195.2 196.3 202.9 210.6 221 230.5 240.9 248.8 248.2 243.8 244 245.1 245.2 245.5 243.6 239.4 231.1 219.7 203.1 186.8 173.8 171.7 171.7 171.7 171.7 171.7 171.7 171.7 171.7 171.7 174.9 176.7 181.9 185.2 190.2 196 201.2 206.9 215.1 223.8 230.3 234.9 240.3 247.7 254.2 260.6 266.8 267.6 263.5 255.6 271.1 291 303.1 306.4 305.5 305.6 303.1
252.6 254.8 255.3 254.6 260.1 263.4 263.1 264.1 260.9 257.7 256.2 254.9 253.8 253.3 260.4 264.1 271.4 279 282.7 281.2 281.6 284 288.3 294.4 300.1 301.7 302.1 295.3 282.4 268.1 259.4 256.4 254.1 256.1 259.6 266.5 273.3 277.6 282.7 281.6 276.5 270 263.4 256.3 245.6 236.5 223.4 211.7 200.7 190.9 182.7 179.5 174.7 167.7 157.7 148.6 138.3 127.6 118 108.7 99.2 88.9 80.1 71.1 63.2 54.9 46.2 39.4 34.9 33.6 29.8 27.3 24.6 22.5 19.9 16.8 13.2 5.4 2.8 1 3.4 3 2.3 2.3 2.5 2.5 2.5 1.6 2.4 2.4 2.1 2 1.9 2 2 4.9 4.7 5 5.2 5.4 5.6 5.7 5.7 5.3 5.6 6.3 8.4 7.9 12.1 16.2 39.3 49.7 60.9 75.4 87.8 98.8 106.2 112.7 119.6 127.2 134.2 139.7 143.5 144.6 145.3 145.1 139.8 137.5 134.3 134 130.6 130.5 130.6 131.3 136 144.8 151.5 159 168.2 176.7 186.8 194.2 196.2 199.1 199.1 208.9 214.7 225.3 238.7 247.3 252.9 255 250.7 247.8 248.1 251.7 251.8 247 244.9 241.1 232.5 216.1 198 184.1 174.7 171.7 171.7 171.7 171.7 171.7 171.7 171.7 171.7 171.8 172.9 176.9 180.5 184.1 187.6 192.9 198.7 204.2 209.3 216.1 224.5 229.8 235.3 241.9 247.8 254.7 259.1 249.7 254.7 282.4 293.4 301 302.7 297.9 293 285
246.5 248.7 250.1 249.5 251.6 259.9 261.3 260 260.5 257.8 255.6 253.2 251.3 250.3 251.7 256.2 260.1 267.6 274.7 274.7 274.6 274.8 276.1 280.2 284.1 288.7 290.1 291 284.1 272.7 262.2 255.8 250.1 248.6 246.7 252.4 263.9 268.3 276.3 280.9 277.4 274.9 267.4 259.7 252.6 239 227.4 216.6 206.8 201.8 196.5 191.3 185.6 179 171.2 163.2 153.3 143.1 133.4 125.1 115 105.1 95.4 87.2 78.6 71.4 62.4 55.8 47.6 41.9 39.7 36.3 31.7 30.8 26.9 23.4 18.4 14.3 4.8 2.4 2.9 2.8 2.9 3.3 2.7 2.6 2.5 2.2 2.4 2.2 1.9 1.6 2.2 2.1 1.8 4.8 4.8 4.9 5.1 5.3 5.5 5.6 5.6 5.6 5.5 6.2 6.3 6 7.9 13.6 22.5 40.9 58.3 74.6 88.1 98.9 109.2 115.4 120.1 124.5 128.9 132.9 138.6 139.6 137.7 129.8 135.4 135 136.2 136.2 131.6 123.1 127.5 128.2 134 140.2 147.1 152.3 158.1 169.5 181 191.2 198.3 206.4 209.7 218.1 219.9 228.7 243.1 251.2 256.3 256 253.2 250.2 249.7 251.6 253 252.3 248.1 246.6 238.8 228.2 212.3 196.7 183.7 174.7 171.7 171.7 171.7 171.7 171.7 171.7 171.7 171.7 171.7 175 175.8 179.2 181.4 184.9 190 193.2 198 203.9 211.2 218.7 225.9 232 235.8 239.8 241.9 240.6 267.9 286.1 294.1 292.3 290.4 284.9 277.7 271.7
239.1 242.4 243.8 244.7 245.9 248 253.5 255.6 255.3 256.7 255.1 252.2 249.4 248.8 248.1 248.1 249 250.9 257.2 264.4 268.1 268.8 266.8 265.5 267.3 268.7 273.2 278.2 275.9 270.6 262.8 256.8 254.9 249.7 247.3 244.3 241.8 250.9 258 267.4 272.6 268.5 267.3 260.8 252.6 241.8 227.9 218.5 208.6 206.8 203.8 201.8 194.8 187.8 181.8 174.3 166.6 155.9 148.9 140.8 130.4 122.1 112.4 103.4 94.3 86.4 79.1 71.9 63.2 54.7 47.7 43.9 41.8 39.1 34.3 29.9 25.5 19 14.5 9.5 6.7 2.9 1.4 3.3 1.6 2.7 1.3 1.9 2.5 2.3 1.4 1.6 2.6 2.1 1.6 2.8 3.8 3.9 5 5.3 5.4 5.5 5.4 6 5.8 6.3 6.1 4.1 3.1 3.2 10.9 36.3 55.5 70 86.1 100 112.3 119.4 122.4 126.4 126.9 127.4 126.4 126.1 124.9 123.2 122.6 128.7 134.5 136.9 134.1 131.1 119.4 118.3 124.2 133.2 142.1 150.4 164.1 174.7 186.9 198.1 206.9 214.1 221.3 225.4 227.8 240 250.1 254.5 259.3 258.8 256.5 253.9 250.7 249.7 250.1 250.2 248.9 246.9 249.3 233.2 220.9 210.2 194.3 183.7 173.7 171.7 171.7 171.7 171.7 171.7 171.7 171.7 171.7 172 174.3 176.4 176.3 179 182.6 185.9 188.3 194.3 198.7 205.8 213 224 231.3 233.3 231.6 245.6 267.1 282.3 288.2 286.3 282.7 276.7 271.3 263.1
235.1 238 240.1 244.2 245.5 247.7 246.9 247.2 250.1 253.2 250.6 249.7 247.6 246.9 245.4 244.6 247.5 249.5 255 254.7 256 259.8 262.6 264.6 268 268 265 262.8 260.5 258.2 255.7 253.8 251.3 249.7 249.8 247.1 244.1 233.9 236.2 241.4 249.5 253.3 256.6 255.6 250.1 237.8 228.5 217.9 208.9 209 209.7 208.2 204.8 199.2 189.7 183.2 176.8 174 163.6 155.6 146 139 130.7 120.5 111.8 101.2 93.4 87 78.2 72.2 63.8 57.8 51.1 48.9 41.8 35.7 32.3 27.2 22.4 17.3 13.2 9.6 5.3 3.9 3 2.2 1.9 3.3 3 3.5 1.1 2.3 2.4 1.9 1.4 1.6 1.6 1.6 1.6 3.2 5.3 5.4 5.3 5.3 6.1 6.1 5.9 5.8 5.3 2.8 4.4 18.4 45.9 65.8 83.6 103.8 114.3 124.3 127.5 129.4 131 129.5 128.2 125.6 124 122.4 119.1 117.9 117.1 120.5 123.5 120.2 116.5 119.5 132.4 140.3 148.7 160.6 171 174.4 186.2 201.1 211 221.4 230.2 233.4 235.2 241.6 250 262 268.4 269.9 266.1 261.5 254.6 248.8 245 244.7 246.3 244.8 246.4 244.9 236.2 223.5 205.3 194.8 179.6 171.7 171.7 171.7 171.7 171.7 171.7 171.7 171.7 171.7 171.7 171.7 172.8 175.1 178.2 181.5 183.7 188.8 192.6 196.5 201.6 207.4 218.9 226.5 221.8 240.3 258.5 268.1 275.5 281.5 278.3 274.5 265.5 256.3
228.6 232.8 237 239.4 242.8 243 244.1 243.5 242.5 243.3 244.4 245 245.3 244.7 243.1 243.8 247.2 250.6 253.2 253.5 252.4 255 259.7 266.2 268.9 266.9 263.3 261.2 258.9 256.1 254.3 252.4 250.9 249.6 247.7 246.2 241.3 234.9 225.7 224 224.4 224.6 225.6 230.7 227.9 229.4 227.4 218 206.9 206 211.9 211.4 209.8 206.4 204.7 197.7 191.8 189.3 184.5 172.8 162.4 154.1 147.3 137.1 127.1 120.2 109.5 101.5 93.3 86.3 77.8 72 65.1 60.1 52.7 45.6 40.1 33.9 29.8 25.6 20.2 15.6 12.5 5.7 3.1 3 2.3 2.9 3.2 2.9 3 3.1 2.7 1.8 2 1.6 1.1 1.1 1.2 1.6 3.6 5.3 5.2 5.1 6 5.8 5.6 5.6 5.2 5.4 3.1 3.4 23.2 55.4 79.9 99 113.6 126.4 133.8 135.6 137.1 133.5 132.1 132.7 131.6 126 122.8 116.1 114.7 114.1 116.2 116 112.7 119.7 134.6 142 149.1 159.9 169.1 175.1 184.9 202.5 212.5 224.6 232.6 237.2 239.8 247.1 252.4 264.6 273.6 270.9 268 265.4 258.7 247 241.3 237.2 237.5 239 240.1 240 235.2 231.1 220.9 203.3 186.6 177.3 172.5 171.7 171.7 172.2 174.8 171.7 171.7 171.7 171.7 171.7 171.7 172.1 174 176.2 178.5 181.6 184.5 189.6 194.2 199.2 204.2 210.4 208.3 232.7 243 257.8 260.4 264 270.9 268.6 255.5 241.6
222.5 226.5 230.7 231.8 237.3 239.6 240.8 241 240.7 240.3 239.8 240 240.1 240.6 240.8 240.7 240.9 243.6 246.4 245.2 245.6 246.1 254.7 261.5 265.2 266.1 262.2 260.8 261.6 259.5 257.2 253.1 251.4 249.6 248.8 244.2 237.5 232.5 225.7 220 212.6 211.8 211.8 208.7 205.1 204.7 211.6 209.5 202.9 197.2 206.7 212.3 211.3 211.3 211 210.1 206.3 202.5 196.3 189.9 183.3 170.6 160.1 153.8 143.4 138.5 130.6 119.2 108.5 101.5 95 86.8 80 73.2 65.2 57.7 51.1 44.6 38.4 32.4 27.2 21.9 17.8 13 6 3.5 2.4 2.4 2.8 2.7 2.3 3.3 2.6 1.9 2 1.9 1 0.7 1 1.4 3.6 5.3 5.6 5.5 5.3 5.6 5.5 5.5 5.1 4.8 4.1 3.8 3.6 35.4 63.8 85.2 108.4 123.8 133 136.6 137.4 135.2 134.3 137.6 142 142.9 134.5 121.9 114.2 112.9 112.2 111.4 111.8 117.7 130.6 139.5 148.6 158.2 165.8 175.6 182.9 197.6 209.7 218.6 226.1 234.6 237.4 242.7 253.4 265.9 273.2 271.7 266.6 260.6 252.1 243.3 231.4 226 222.6 227.7 228.7 232.6 229.7 225.4 223.6 208.5 196.6 186 177 178.1 177.8 176.1 174.4 171.7 171.7 171.7 171.7 171.7 171.7 171.7 171.7 171.7 174.3 177.4 180.4 181.4 187.4 191.7 191.6 193.2 205.7 214.1 224.1 233.2 235.1 243.2 241.4 236.7 230.5 223.1
217.1 222.8 224.9 227.2 233.4 236.6 240.3 239.9 239.7 239.4 238.9 239.1 239.5 239.5 239.9 239.9 239.6 239.2 240 240.6 242 242.8 250.1 255.1 259.3 260.3 259.3 260.3 262.1 265.3 265.4 262.1 254.9 251.7 251.2 249.4 241.8 229 224.8 217.8 211.9 207.2 204.9 203.9 201.1 198.6 196.5 195.1 194.3 193.3 195.1 203 206.8 210.8 211.6 212.5 210.9 209.1 204.9 199.2 191.9 185.3 176.2 166.9 159.4 155.6 150.3 141.3 129.8 118.8 108.6 100.9 93.4 86.5 78.8 72.2 65.1 57.7 49.6 42.1 35.4 28.7 24 18.8 13.5 6.7 3.5 2.8 2.4 2.9 3.5 3.5 2.7 2.4 2.1 2.1 1.3 1.6 1.1 1.5 3.9 5.1 5.6 5.8 5.4 5.3 5.3 5.3 5.1 5.1 3.8 3.5 3.2 8.1 33.6 63.7 91 109.2 120.7 131.8 138.6 136.5 135.3 142 150.7 150.2 145.8 135.2 115.2 111.8 107.6 106.4 108.4 114.8 126 134.3 144.3 152.8 162.3 172 180.5 189.8 199.8 211.7 221.8 227.3 232.5 235.8 243.2 251.9 262.2 265 261.1 250.8 241.9 231.3 220.6 211.8 214.2 218.9 220.4 222.3 221.3 215.4 211.8 207 198.2 187.2 179.2 185.2 180.7 179.2 177.6 173.9 173.1 172.2 171.7 171.7 171.7 171.7 171.7 171.7 171.7 172.2 174.2 176.8 179.6 183.4 180.9 188.5 193 199.6 203.5 208.6 212 213.6 212.1 209.3 205.3 204.2
210.8 216.6 220.4 226.2 230.8 233.3 235.5 238.7 238.6 238.4 238.2 239 239.4 239.2 238.9 239.1 238.7 238.2 238.2 238.2 239.9 240 242 246.7 252.1 255.4 254.2 256 259.5 265.1 268.1 266.6 259.2 253.7 253.6 255.8 249.1 233.6 222 216.7 209.9 205.7 203.5 201.5 201.1 199.4 194.7 193.5 192.6 191.8 190.8 190.1 195.9 202.3 207.8 211.3 212.7 210.3 208.1 204.3 201 192.9 186.5 179.6 172.2 170.1 164.5 158.7 150.2 140.1 129.1 119.4 109.2 99.8 92.4 84.7 77.2 69.2 61.6 54 45.7 37.9 30.9 24.7 18.4 13 6.7 3.7 3.1 3 3.3 1.2 3.2 2.9 2.5 2.3 1.6 2 1.9 4.5 5 5.1 5.4 4.4 3.8 3.9 3.6 3.5 3.3 3.9 4.4 3.2 3 2 12.2 36.9 52.7 76.1 99.4 127 140 140.8 140.2 140.9 151.5 155.5 147.1 131.3 118.1 111.7 106.6 104.5 106.9 108 117.8 130.8 141.8 151.8 161.5 170.2 181.1 189.9 197.8 210.7 219.5 224.7 230.4 234.6 240.1 240.9 243.5 247.9 247.5 238.9 227.4 218.7 210.7 208.7 212.5 217.5 217.7 215.2 211.6 206.8 202.2 198.3 193.5 187 181.9 180.8 182.5 185.1 185.4 178.6 179.2 175.1 173.4 171.7 171.8 172.1 171.7 171.7 171.7 171.7 171.7 173.5 174.8 176.7 177.4 180 184.9 188.9 191 194.2 196.4 197.4 198.4 195.4 192.9 191
207.7 212.4 217.9 223.4 229.6 232.1 234.2 235.5 236.5 236.1 236.8 238.6 239.6 239.6 239.1 238.7 238.1 237.7 236.9 236.4 237 237 237 239.7 243.5 252 251.3 250.6 254.9 256.2 265.4 264.4 260.7 253.2 250.2 255.8 252.9 239.1 222.2 216.6 207.9 204.4 201.6 200.6 201.9 202.5 198 192.9 192 191 190.1 189.4 188.9 188.6 194.6 202.1 206.7 208.7 207.5 205.8 203.2 199.2 193 188.4 184.3 181.3 177 171.9 166.5 159.4 150.4 141.5 130.4 118.8 106.9 98.1 89.7 81.3 73.6 65.9 56.4 48.3 40.6 32.9 26.2 19.9 14.4 6.8 4.5 3.3 3.1 2.3 2.9 2.6 2.5 2.3 1.5 1.4 2.8 3.4 3.3 2.9 2.5 2.6 2.7 2.6 2.6 2.7 2.7 2.5 2.7 3 3.1 2.7 2.1 14.2 33.9 54.1 76.9 111.2 128.2 137.3 138.8 144.2 145.6 149.4 149.7 131.7 118.4 109.2 104.4 102.6 104.1 107 114.6 126.9 139 151.6 159.6 167.1 176.4 185.4 192.7 200.1 212.5 220.5 230.4 241.6 245.8 241 236.8 233.1 229.2 225.3 214.9 207.8 204.1 203.9 209.6 212.7 214.2 217 216.9 214.2 203.6 195.3 192.7 187.7 185 182.3 182.5 184.6 185 182 183.5 182 177.8 176.9 174.1 174 173.9 172.8 171.7 171.7 171.7 169.8 170.7 173.3 174.3 174.5 173.9 179.5 183.6 185.7 185.9 186.8 187.2 186.3 184.6 184.3
198.2 207.6 213.3 220.3 225.1 230.4 234.6 233.7 232.7 233.5 235 236.9 239.8 241.3 242.2 239.5 238.7 237.9 237.2 236.4 235.3 234.1 232.7 232.5 236.8 241.5 247.2 245.7 247.3 247.3 250.4 257.5 256.4 250.4 244.9 240.7 247 235.4 224.1 215.1 207.1 204.8 201.4 198.7 199 202.7 200.8 195.9 193.6 191.4 190.1 189.4 188.8 188.3 187.7 188.1 194.8 198.7 203.8 204.1 203 200.2 198.2 194.3 190.6 188.5 188.7 184 180 176.1 167.3 160.3 149.8 139 127.3 115 103.8 94.3 85.5 77.1 67.4 59 51.3 43.6 35.5 27.7 21.2 14.7 7.5 3.9 3.4 3 2 2.6 2.2 1.8 1.5 2.4 2.9 2.9 2.8 2.8 2 2.8 2.4 2.6 2.4 2.5 2.4 2.5 2.6 2.8 3 2.9 2.5 3.6 14.2 34.6 56.1 78.3 100.4 116.3 126.7 136 139.2 135.8 136.9 132.3 118.6 109.3 105.5 103.9 102.6 111.4 119 125.4 133.8 145.7 153.9 161.6 168.4 177.5 186.5 192.4 206.1 216.2 230.7 247.1 248.3 244.5 236.5 224.6 215.2 207.4 201.2 200.3 201.5 202.4 205.5 207 207.3 213.2 225.7 227.4 215.1 200.9 193.3 189.2 186.7 184.7 185.6 186.8 189.2 185.5 183.9 185.9 181.6 179 176.9 175.9 176.2 175.5 173.7 171.8 172.1 170.1 168.3 170.2 171.5 171.8 171.2 168.3 172.5 178.2 179.5 180.5 181.2 180.4 180.1 180.5
193.6 197.9 208.9 217.6 224.5 226 230 233.9 230.4 231.4 233.8 235 238.7 240.8 244.3 241.7 239.7 239.2 237.9 236.8 235.9 234.7 233.6 231 234.2 234.5 238.9 240.8 239.9 239 237.9 242 244.4 243 235.7 229.4 231.7 227.8 216.6 212.3 206.8 201.9 201.9 195.9 197.4 197.5 198.3 198.7 199 194.7 192.1 190.7 189.1 188.6 187.8 187 186.5 186.5 192.5 198.1 199.9 198 198 196.1 194.7 194.5 194.4 195.2 192.2 187.7 182.6 176.7 167.2 157.7 146.9 134.8 122.6 109.3 99.8 89.6 80.1 69.7 61.8 54.1 46.3 37.4 29.4 22.8 16.4 8.2 4 2.9 2 1.8 1.8 1.8 2.2 2.7 2.7 2.8 2.8 2.9 1.5 2.6 1.9 2.5 2.4 2.2 2.3 2.5 2.6 2.7 2.9 1.7 1.8 3.3 2.9 20.5 42.3 62 72.5 87.6 102.9 119.6 120.7 122 123.6 124 115.8 105.7 103.1 100.4 97.8 111.4 118.3 123.1 130.1 139.3 148.2 156 163.6 171.7 178.9 186.4 198.5 212.2 226.9 238.3 244.6 241.5 231 218.2 206.8 200 199 199.1 200.4 201.4 202.1 203.6 207 211 222.6 227.8 230.6 218.5 202.7 191.5 186.9 186.2 185.8 185.7 186.3 187.1 187.5 189.9 189.9 183.9 181.5 179.4 179.2 178.5 176.4 173.7 170.7 168.6 167.1 167.5 169.7 169.6 168.4 163.4 166.1 171.6 172.9 173.4 175.3 175.2 175.3 175
188.9 192.3 199.4 209.3 221.2 223.5 226.4 226.4 228.6 232.6 234.9 235.7 236.9 239.4 242.3 241.7 240.3 239.9 240 237.1 235.8 233.8 232.6 229.5 230.2 230.7 235.2 235.3 235.7 234.1 230.2 234.6 233.8 229.7 223.8 220.9 214.2 211.3 209 209.8 205.1 200 197.5 193.9 192.1 193.9 195.8 197.2 198.1 198.1 195 195 191.9 189.4 188.4 187.6 186.5 185.6 185.7 186 189 193.5 194 193.8 196.7 200 202.1 198.3 199.6 199 194.5 190.8 185.7 174.8 165.2 154.5 146.4 138.3 126.3 112.2 98.1 86.3 76.7 67.3 56.6 47.4 37.6 30.2 23 16 8.4 4.2 2.1 2.1 2.1 2.4 2.6 2.7 2.7 2.7 2.8 2.5 2.6 2.6 2 2.2 2.5 2.3 2.3 2.5 2.6 2.7 2.8 1.5 2.2 2.5 2.8 2.6 21.1 43.3 56.5 67.9 82.7 91.7 99.5 117.2 114 110.7 109.1 101.3 95 92 90.3 104.5 114.8 122.1 128 134.5 143.1 151.3 158.9 166.3 173.5 180.7 189.3 200.1 211.3 221.6 227.4 231.4 222.6 212.5 203.8 198.8 198.5 199.2 200.4 200.5 202.5 203.4 204.8 206.5 213.5 219 217.8 213 208.7 199.1 188.9 187.3 186.8 187.3 186.9 187.5 187.8 190 191.6 192 186.6 182.7 182.4 181.3 179 177.5 175.6 173 171.2 167 163.6 162.3 160.6 159 161.8 161.5 160.5 164 167.5 169.5 170.1 169.8
183.5 187.5 190.6 198.6 205.5 216.9 222.6 222.7 228.4 236.4 237.7 238.2 238.2 240.1 243 241.3 240.4 239.5 239.2 238.1 235.7 232.7 231.3 229.8 226 225.6 225.9 230.7 230.5 228.1 226.1 226.7 223.5 214.3 213.2 211.8 211.4 215.7 210.1 203.2 200.6 197.9 192.9 190.2 187.8 191.7 193.5 196.3 197.4 198.7 198.1 199.7 200.8 196.5 191 188.5 187.2 186 185.6 185.6 185.3 185.3 188.5 191.2 196.5 202.8 208.7 209.3 205.3 204.4 202.7 202 198.5 190.9 181.4 172.2 166.5 159.8 146.5 132.1 118.4 107.5 95.2 82.3 71.3 59.8 49.7 38.8 30.8 23.5 15.5 7.1 3.3 2.4 2.7 2.6 2.4 2.7 2.8 3 2.7 2.9 2.8 2.7 2.7 1.7 2.2 2.5 2.4 2.5 2.6 3 2.7 1.8 2.4 2.7 2.6 2.7 2.3 19.4 33.7 47.1 60.6 71.6 88.6 101.7 106.7 105.7 103.2 97.4 90.4 86.8 85 95.9 109.4 120 128.4 132.7 138.8 147 153.8 161 168.3 176.1 184.2 192.4 200.5 204.7 208.1 216.9 217.5 213.2 203.4 197.8 198.4 197.3 203.9 206.1 210.5 208.2 207.1 206.9 208.1 214 218 207.4 203.4 199 193.8 189.6 190.3 188.4 188.1 188.2 188.5 191.3 192.5 193.7 190.3 188 187.2 185.7 184.6 180.8 178.4 176.3 174.8 172.6 168.8 169.6 169.5 165.1 157.2 156.2 155.7 155.7 157.9 159.8 163 164.5
175.7 180.1 184.6 190.6 197.5 202 213 219.2 227.2 237 239.9 239.7 239.8 241.1 242.3 241.5 240.6 239.8 238.8 237.5 235.1 231.7 230.1 228.1 225.8 223.4 223.5 226.1 224.8 222.8 222.7 216.5 212.6 211.3 210.5 210.1 208 208.4 205.6 200.7 198.1 196.7 190.4 186.6 185 186.9 189.9 191.7 196.5 198.2 197.7 198.1 203.1 200.9 196.2 193.6 189.4 186.6 185.8 185.4 185.4 185.1 184.2 184.2 190.8 200.7 207.6 211.3 212.1 210.1 209.8 211.4 206 201.1 192.9 183.9 176.4 173.6 160.9 148.8 135.6 127.8 118.7 108.7 91.5 75.2 62 50.7 40 30 21 14.5 5.8 2.7 2.6 2.3 2.4 2.6 2.8 3 3.3 2.8 2.8 2.8 2.7 2.3 2.6 1.7 1.9 2.5 2.8 2.9 2.5 2.2 2.5 2.5 2.5 2.5 2.6 3.2 19.2 33.7 41.8 53.7 70.7 90.3 108.8 105.2 101.4 94.2 86.8 80.9 79 86.4 101.1 114.9 126.2 134 139.6 146.4 152.5 159.1 164.8 172 180.1 188.9 191.9 191.5 198.9 204.1 209.8 207.6 199.6 194 188.4 188.2 195.7 208.4 217.1 218.9 214.7 211.2 211 214 214.2 220 219.1 212.7 204.8 193.6 190.9 193.3 191.3 190.4 190.9 193.9 194.8 196.1 196.3 191.5 191.1 190.3 188.4 186.1 183.5 179.9 177.2 175.8 175.4 173.4 171.5 169.8 166.4 161.3 157.3 150.7 151 152.7 154.1 158.2
165.4 171 176.9 180.4 188.3 200.3 206.6 214.1 221.9 230.6 239.4 241.2 241.4 241.7 241.6 241.5 241.2 240.4 239.6 236.6 234.5 230.8 228.5 226.4 224.4 222 221.3 222 221.3 218.8 217.1 214.1 212.3 211.2 211.9 211.6 210.7 208.9 204.5 203 202.1 201.9 193.2 184.7 182.5 184.8 186.5 189.5 190.4 194 196.3 195.1 196.7 200.1 199.7 196.3 191.5 187.7 186.4 185.5 185.1 184.5 183.9 183.4 183.4 184.5 199.3 206.6 211.8 214.2 217.5 222.9 219.8 209.1 202.3 192.5 183.1 178 172.6 159.9 150 139.2 131 124 112.3 96 78.2 63.2 51.7 39 29.2 19.9 13 4 2.3 2 2.3 2.6 2.8 2.9 2.2 2.6 2.3 2.4 2.4 2.7 2.5 2.2 2.5 2.2 1.4 2.8 2.4 2.4 2.4 2.4 2.4 2.4 2.5 2.8 3.6 17.6 31.1 42.1 53.9 67.6 87.9 101.4 104.7 95.5 84.9 78.1 75.5 78.7 90.1 104.6 119.3 131.3 138.5 145.9 151.9 156.4 161.4 171.2 176 180.1 182.8 183.5 183.3 189.2 189.9 192 189.4 183.6 173.9 176.7 186.3 194.2 210 221.3 222.9 221.9 222.1 223 220.3 230.3 235.2 230.5 222.4 204.1 195.2 193.7 194.6 195.6 196.5 197.1 198.5 201 201.6 197 195 195.1 193.5 192.7 189.5 186.8 184.9 183.6 181.4 179.2 176.6 174.6 172 168.9 165.6 160.2 153 147.6 147.2 148.5
154.5 163 170 170.9 180.9 190.3 201.7 205 215.3 223.5 231.5 237.2 238.2 240 240.7 240.6 241.1 241.5 240 237.4 234.7 230.8 228.2 227.1 224.9 222.4 220 218.8 218.2 217.7 217 215.2 213 212.6 213 212.8 212.8 212.1 210.5 207.5 203.6 201.3 196.6 186.7 180.4 180.4 183.5 186 187.7 192.1 193.4 191.7 193 197.3 201.9 197.3 193.2 189.4 187.6 186.7 186.3 185.9 185.2 185.1 184.4 184.2 183.5 191 206 213.6 215.1 218.8 224.5 222.3 212.5 199.8 189.1 182.4 174.7 168 156.7 144.8 136 127.5 119.5 105.1 91.2 78.2 64 50.3 39.2 27.8 19.8 11.2 3.3 2 2.3 2.6 2.3 1.9 2.6 2.3 2.1 1.7 1.7 1.9 2.3 1.8 1.6 1.3 1.6 1.8 2.3 2.3 2.3 2.3 2.3 2.3 2.5 2.9 2.8 2.9 17.6 29.9 39.3 47.4 62.5 87.4 100.9 96.7 84.7 77.4 73 72.4 80.8 94.3 107.7 122.6 133.7 141.9 151.1 155.2 159.5 168.8 176 177.3 175.8 175.1 171.6 171 173.4 171.8 167.1 167 163.5 167.4 174.7 187.4 194.7 204.9 215.2 221.7 228 228.1 226.1 219.6 231.4 235.1 231.9 216.9 202.6 201.3 201.3 200.3 201.9 201.6 204 206.2 207.9 207.1 198.3 198.3 198.3 198.2 197.2 195 193.1 189.5 187.1 185.1 181.5 179.4 177.8 172.9 169.4 165.2 160.7 155.2 148 143.6
