ncols 200
nrows 200
xllcorner 110000
yllcorner 890000
cellsize 50
336.3 349.4 362 366.6 370.5 368.3 368 369.6 371.9 374.4 376 376.3 375.2 372.7 368.7 336 294.6 274.3 270.8 255.7 207.4 198.7 208.3 231.7 241.8 260.1 294 305.9 301 297.3 288.4 265.9 226.1 202 184.6 173.4 152.2 138.5 128.8 124.5 124.1 127.4 132.9 141.4 155.8 165.9 176.8 182.4 182.1 183 189.1 187.4 185.5 194.1 213.8 215.5 196 189.1 166.2 163.6 121.2 101.5 93.3 92.7 82.2 79.1 91.7 86.6 73.1 80.6 94 109.7 104.9 101.5 93.3 98.6 96.5 89.8 86.4 84.7 79.8 83.1 88.7 86.1 90.7 91 100.1 92.6 89.7 95.6 87.6 84.2 74 65.7 65.4 55.8 52.5 51.1 53.1 64.6 60.5 62.7 60.6 57 55.4 48.8 23.9 6.2 4.5 4.9 8 10.2 19.7 27.2 19.3 15.6 14.9 18.6 21.3 20.9 21.7 20 21.6 26 28.8 28.5 25 21.1 22.9 20.9 19.4 13.9 18.6 16 19.4 19.1 20.7 19.2 14.9 9.2 10.6 7.6 7.3 12.2 7.6 -1 6.2 16.2 27.1 37.9 50.3 58.4 57 63.3 55.6 55 51.1 52.8 53.3 46.7 41.3 37.5 27.9 17.4 8.5 8.5 8.5 10.2 12 26.5 35 49.2 62.1 80 89.9 105.1 118.2 123.8 129.5 129.8 134.3 141.7 142.7 147.8 145.1 140.6 143.7 150.2 148.8 142.5 143.9 151 168.9 184.7 202.8 212.2 216.5 215.6 206 210.7
357.5 369.3 377.3 380.1 382.1 380.2 377.7 374.8 376.3 377.5 378.1 378.2 376.9 374.6 370.5 361 326 301.1 286.7 264.8 228.9 223.5 232.4 261.4 283.9 292.9 308.3 314.6 313.9 307.5 299.1 275.7 239.2 216.8 202.3 188.6 183.7 151.3 142.4 134 132 135.5 143.7 146.5 159.8 170.2 180.9 182.8 188.8 191.4 194.9 189.4 197.3 205.6 229.8 239.7 244.4 229.7 204.5 184.3 152.7 113 103.8 102.8 97 87.4 84.3 85.7 81.7 86.1 103.7 105.9 104.6 99.8 92.5 96.8 96.6 97.3 89.7 85.4 79.6 78.5 86.2 90.5 88.7 93.7 99.1 93.3 92.2 93.2 88.4 92.3 80.9 71.9 56.6 54.2 59.2 58.3 53.9 60.3 66.9 66.6 66.4 64.8 63.5 58.1 51.1 27.5 4.3 5 -2.2 -2.2 -2.2 9 11.6 10.2 7.7 20.5 22.3 20.6 17.1 15 13.4 21.6 25.1 27.5 28.8 25.4 19.4 16.9 13.3 7.1 3.7 13.2 18 15.2 14.9 13.7 10 2.6 1.2 -2.2 -2.2 6.2 8.8 1.8 4.3 15.4 25.3 34.8 44 55.7 51.7 53.2 51.4 45.4 52.9 60.7 64 54.4 44.2 36.5 27.2 8.5 8.5 8.5 13.8 16.6 25.7 35.7 43.5 58 75.1 89.2 111.7 124.3 132.6 139.6 143.2 143.3 141.4 153.6 151.6 147.5 144.7 139.6 143.4 139.2 133.2 137.7 140.3 143.1 152.5 171.3 198 207.7 219.1 220.6 211.7 198
375.3 379.1 383.2 386.1 387 385.8 383.3 379.7 378.1 378.3 378.1 378 377.7 375.3 371.7 365.4 356.2 341.3 311.2 271.7 248.9 243.3 257.9 293.6 312.5 321.3 321.5 323.5 321 316.4 307.2 283 244.3 225.5 211.4 217 211 178.7 155.4 153.6 156 155.3 157.1 163.1 162.2 179.2 184.5 186.3 193.6 197 202.9 198.4 207.2 213.4 235.9 257.1 267.7 266.3 242.3 216.6 183.4 124.2 115.2 119.2 108.1 103.2 90.6 84.4 82.5 99.1 111.7 109.9 104.3 101.2 92.5 93 92.4 90.7 88.1 88.4 90.1 77.4 80.5 85.5 89.1 90.4 99.6 94.6 93.2 89.8 92.9 89 86.5 76.5 65.1 57.4 60.3 59.8 57.1 59.5 73.1 72.1 74 77.2 74.3 68.3 63 47.6 24.1 6.8 -2.2 -2.2 -2.2 -2.2 -2.2 6.2 7.6 15 20.3 17.3 15.5 10 12.1 14.3 18.7 24.2 29.7 33.8 20.6 16 11.9 6.7 2.1 9.3 13.6 14.8 15.2 11.4 4.5 -2.2 -2.2 -2.2 -2.2 -2.2 -2.2 -2.2 -2.2 9.6 21.1 29.5 40.2 47.2 47.7 51.3 37.4 42.2 48 52.6 55.3 51.5 38.3 28.1 19.7 8.5 8.5 9.4 12.8 22.1 32.9 38.4 55.6 72.3 97.6 115.8 133.1 144.1 147.7 154.5 151.6 150 148.7 152.6 154.4 152.9 150.4 135.6 135.4 130.9 131.3 131.3 133.8 139.8 150.9 165.1 181.4 203.3 209.2 219.8 207.4 198.3
384.5 388.7 391.8 391.2 390.7 389.6 386.5 383.1 379.4 378.2 377.7 377.5 376.4 374.3 371.1 365.8 357.1 348 337.8 293.7 274.7 263 287.8 314 330.4 332.9 331.8 329.3 328.1 323.7 314.5 288.1 252.1 232.6 222.7 224.8 218.4 198.8 172.1 167.5 169.9 174 172.2 175.1 176.7 183.6 190.5 192.3 199.8 202.5 207.6 207.7 208.7 217.1 238.6 260.1 275.3 278 263.1 239.9 211.1 138.7 121.3 131.1 125 111.9 98.9 89.2 85.3 99.8 115.4 116.4 106 100.3 93.9 88.2 87 87.7 84.1 81 81.6 80 80.5 86.8 92.3 88.7 92.9 93.3 90.1 94.1 93.5 83.5 80.4 82.8 73.7 66.4 62.7 61.4 66.9 68.7 74.3 75.9 81.4 86.3 84.9 78 70.6 60.1 40.3 37.9 15.3 -2.2 -2.2 -2.2 -2.2 -2.2 -2.2 8.2 7.9 6.3 7.7 5.2 7.1 9.9 19.7 24.1 25.7 25.9 20.5 11.6 8.5 3.2 -2.2 -2.2 -2.2 5.7 8.2 8.8 0.4 -2.2 -2.2 -2.2 -2.2 -2.2 -2.2 -2.2 -2.2 6.6 19.2 32.3 43.1 51.2 48.1 42.5 31.5 34.8 36.4 40.1 39.8 37.4 29.2 22.1 16.2 8.5 8.5 11.7 21.8 28.8 38.3 51.7 71.9 104 123.1 138 150 157.8 163 162.6 161.6 156.9 158.3 163.2 162.1 164.5 148.2 133.7 132.4 130.9 130.9 130.9 130.9 136.2 153.3 166.1 169.9 184.1 198.7 206.9 207.8 195.2
393.7 393.9 395.3 395.6 394.8 392 388.4 383.2 379.4 376.6 375.5 375.3 374.4 372 368.6 363.5 356.5 348.2 338.2 321.2 319.1 312 323.2 338.2 338.9 340.4 338.7 336.7 334.4 329.1 321.3 295.2 253.9 239.5 232.7 237.5 225.2 216.9 193 190.7 183.7 193.4 195.9 199.3 196.7 184.9 198.2 196 203.6 207.3 214.5 216.8 216.6 229 257.6 269.6 274.3 279.1 270.4 250.2 221.6 167.6 142.1 136.2 140 117.3 102.7 93.1 89.6 93.2 105.7 111.3 104 96.8 88.3 84.3 81 81 83.9 84.3 88.5 85.4 77.7 79 87.9 86.4 87 88.9 86.5 89.8 90.7 81.5 80.3 80 76.9 72.3 74.8 78.7 76.6 76.4 77.2 79.7 84.1 86.7 87.5 84.1 76.2 67.9 48.9 40.3 27.5 19.9 -2.2 -2.2 -2.2 -2.2 -2.2 -2.2 -2.2 -2.2 -2.2 -2.2 -2.2 10.7 16.9 22.9 20.4 17.9 17 10.7 6.8 -2.2 -2.2 -2.2 -2.2 -2.2 -2.2 5.8 -2.2 -2.2 -2.2 -2.2 -2.2 -2.2 -2.2 -2.2 -2.2 7.4 26.6 42.5 51.5 51.4 46.9 39.7 35.6 27.5 25.3 37.8 41 36.1 28.4 14.9 10.8 9 9.4 23.5 32.4 41.1 56 68.3 101.2 120.7 135.2 147.4 155.3 161.4 169.2 172.8 168.7 171.2 171.1 172.9 166.9 164.4 152.4 140.1 138.7 133.8 130.9 130.9 130.9 135.8 147.4 164.3 167.7 172.7 187.1 192.6 196.9 189.3
399.5 399.5 399.9 399.1 396.5 393.3 387.1 382.3 376.3 372.7 372.3 371.5 370.3 369 364.5 358.9 352.7 344.3 334.9 333.4 334.3 336 338.2 343.1 343.7 345.9 344.2 342.9 340.4 334.9 327.9 299.1 260 245.8 242.5 241 231.8 226 213.2 213.1 207.1 211.5 220.9 228.2 217.2 202.9 196.4 200.9 205.6 212.6 219.2 221.6 225 243.8 265.6 276.9 273.3 272.7 254.9 246.2 218.2 188.5 174.1 154.5 134.7 122.4 112.6 103.5 94.1 93.6 100.9 103 103.5 89.2 87.7 80.9 81 81 82.5 85 86 80.6 78.6 77.9 76 76 80.4 78.5 80.3 83.9 82.6 80.7 82.3 81.3 78.9 77.1 77.5 77.6 85.1 88.6 77.7 86.3 96 85.7 87.8 85.7 77 68.5 51.2 37.7 26.2 26.3 16 -2.2 -2.2 -2.2 -2.2 -2.2 -2.2 -2.2 -2.2 -2.2 -2.2 -2.2 8.4 14.5 21.5 14.7 12.3 -2.2 -2.2 -2.2 -2.2 -2.2 -2.2 -2.2 -2.2 2.5 -2.2 -2.2 -2.2 -2.2 -2.2 -2.2 -2.2 -2.2 -2.2 14.8 26.8 43.2 54.8 51.6 51.3 47.6 40.7 34.1 28.1 21.6 22.4 18.9 11.9 11.9 11 13 13.6 39.1 43.5 51 64.5 84 114.3 126.6 142.3 152.1 160.1 166.8 169.3 172.4 172.4 168.7 165.7 174 167.2 163.4 149.9 149.1 134 131.1 130.9 130.9 130.9 140.6 150.5 158.8 167 168.9 174.8 180.1 177.6 172.7
404.3 402.7 402.1 400.9 396.2 390.6 384.6 378.4 371.5 368.3 367.2 365.6 365 362.3 358.7 353.9 347.5 340.2 332.9 331.2 333.6 336.7 341.2 344 345.7 348.3 348.7 348.2 346.1 342.6 333.4 303.9 271.6 257.4 255.2 258.7 248.2 244.4 237.2 237.4 247.1 249.9 243.3 244.7 225.3 217.9 209.1 206.2 212.7 217.4 218.2 222.5 226.3 247.1 268.6 277.6 278.1 272.4 260 251.2 226.3 206.7 204.3 192.3 152.7 133.5 116.8 107.8 100.3 96.4 108 102.7 96.5 84 81.4 81 81 81.1 81 81 87.3 84.5 81.7 89.2 85.2 79.6 75.9 75.9 79 80.4 80.3 75.2 76.5 77.1 77.7 79.6 80.4 78 82.6 87.5 90.3 88.6 93.3 94.5 91.5 91 85.6 76 63.3 42.7 42.6 26.4 18.4 15 -2.2 -2.2 -2.2 -2.2 -2.2 -2.2 -2.2 -2.2 -2.2 -2.2 -2.2 -2.2 -2.2 9 -2.2 -2.2 -2.2 -2.2 -2.2 -2.2 -2.2 -2.2 -2.2 -2.2 -2.2 -2.2 -2.2 -2.2 -2.2 -2.2 -2.2 -2.2 -2.2 14.3 33.3 43.1 48.8 53 46.8 46.8 51.1 48.2 42 32 28.3 20.1 21.7 17.9 18 13.1 35.2 55 54.5 59.2 80.9 102.8 116.8 133.8 141.5 151.7 156.3 161.2 165.1 170.9 169 170.9 158.3 163.9 155.1 148.5 153.3 150.4 131.5 130.9 130.9 130.9 130.9 142 152.2 164.9 170 173 171.9 170.9 165 157.8
406.3 404.3 401.3 399.6 394.6 388.1 381.7 373.4 366 361.2 360.5 356.9 356.2 353.7 350.6 346.6 341.2 333.2 327.4 328 331.2 336.6 339.1 344.2 346.5 349.6 351.8 352.8 352.4 350 343.8 321.1 288.9 272.1 271.6 273.7 274.2 278.1 264.6 264.2 272.6 272.4 266.8 253.9 239 236.1 229.6 221.9 216.5 219.6 220.1 223.1 227.3 246.9 267.4 278.9 278.6 267.9 262.9 255.3 244.5 233.2 217.3 212.1 185.5 154.6 131 116.6 113.1 105.7 109.9 106 99.6 88.5 80.9 80.8 84.5 85.4 88.2 82 83.7 87.2 86.7 89.4 87.3 86.8 82.8 84.3 79.1 76.4 76.2 72.9 72 72.6 73.9 73.2 80 75.6 76.7 89.8 92.1 95.2 90.3 89.6 91.2 89.3 91.8 82.1 67.7 54.8 44.9 38.9 26.2 20.4 16.7 16 -2.2 -2.2 -2.2 -2.2 -2.2 -2.2 -2.2 -2.2 -2.2 -2.2 -2.2 -2.2 -2.2 -2.2 -2.2 -2.2 -2.2 -2.2 -2.2 -2.2 -2.2 -2.2 -2.2 -2.2 -2.2 -2.2 -2.2 -2.2 -2.2 -2.2 -2.2 -2.2 30.1 36.1 42.2 39.6 47.2 48.8 51.1 49.6 43 37.4 29.9 20.9 16.3 12.5 14.7 13.8 16.7 48.4 61 75 103.6 111.2 124 131.6 138.8 146.2 151.4 156.7 163.2 170.7 165.5 157.1 153.5 142.8 146.3 147.4 146.6 141.5 134.3 130.9 130.9 131.1 132.5 143.4 154.5 167.9 169.8 168.8 166.7 159.3 158.6 153.2
405.8 404 397.8 393.3 389.1 383.5 376.3 365 360 357.2 353.3 348.4 347.3 344.2 341.2 339 333.7 323.8 319.6 321.8 326.8 332.7 337.2 342.5 347.5 351.4 354.6 357.5 358.6 358.2 354.6 342.1 317.5 292.6 287 290.4 291.6 290.1 294.7 295 304.1 307.1 294.2 276.3 253.5 247.2 251.8 238.6 223.3 223.4 221.6 219.2 226.1 240.1 263.2 275.6 275.1 266.4 263.8 255.8 248.5 237.9 223 211 200.2 177.9 149.9 131.3 118.9 111.8 113.8 113.1 108.3 99.6 88.4 93 91.7 90.9 89.5 83.8 84 85 86.4 88.2 89.1 87.3 83.5 82.2 81 81.7 74.5 74.1 74.2 74.9 72.2 75.7 73 76.4 78.3 88.2 94.3 95.1 95 91.9 88.7 86.7 90.4 83.2 73 60 42.6 45.5 37.8 21.3 18.9 20 20.5 -2.2 -2.2 -2.2 -2.2 -2.2 -2.2 -2.2 -2.2 -2.2 -2.2 -2.2 -2.2 -2.2 -2.2 -2.2 -2.2 -2.2 -2.2 -2.2 -2.2 -2.2 -2.2 -2.2 -2.2 -2.2 -2.2 -2.2 -2.2 -2.2 -2.2 -2.2 -2.2 24.9 35.8 38.2 47.7 51.5 53.5 50.4 38.3 44.1 25.3 16 12 9.1 10 2.6 15.7 49.1 70.2 87.4 108.3 113.7 126.3 133.7 141.9 146.5 151.7 155.3 161.9 168.7 163.4 163.6 154.3 149.2 134.2 135.8 138 140.2 134.3 130.9 130.9 130.9 135.2 142.4 151.8 160.2 158.6 167.5 169.5 167.4 159.4 153.6
400.1 399.7 393.7 387.4 382.7 378.1 368.3 360.6 353.8 348.6 344.2 341.4 334.1 330.9 329.3 326.7 323.4 316.7 315 314.6 317.6 326.4 333.4 340.7 346 352.5 357.6 363.1 367.1 368.2 367 359.4 343 316.3 302.4 302.9 310 310.6 313.2 319 320.1 323.2 318.6 309.7 285.5 254 248.7 239 230.6 227.2 227.6 221 223.2 226.7 248.7 261.9 261.9 263.4 262.1 255.5 250.4 239.7 229.5 224 201.8 182.8 162.7 149.5 128.7 119.6 120.2 116.9 110 104.3 101.9 104.6 103.6 102 94.5 88.1 85.7 87.1 86.6 87.5 86.8 84.8 83.3 83.2 81.9 82.7 80.2 72.3 70.7 70.5 72.1 71.5 74.8 71.6 78.7 86.1 92.4 94.7 98.1 90.2 93.5 91.7 84.6 83.7 78.1 62.8 42.3 41.4 35.8 19.9 19.3 26.2 25.5 19.8 -2.2 -2.2 -2.2 -2.2 -2.2 -2.2 -2.2 -2.2 -2.2 -2.2 -2.2 -2.2 -2.2 -2.2 -2.2 -2.2 -2.2 -2.2 -2.2 -2.2 -2.2 -2.2 -2.2 -2.2 -2.2 -2.2 -2.2 -2.2 -2.2 -2.2 -2.2 17.9 26.1 26.5 39.3 44.3 45.4 40.9 29.8 26.2 23.6 16.3 7.2 6.6 -2.2 -2.2 16.7 52.2 73.6 96.3 105.6 116.4 128.8 130.9 131 137.4 146 151.1 159.5 156.4 153 154.6 151.2 151 135.4 140.2 132.6 131.2 132 130.9 130.9 130.9 131.9 144.2 146.3 151.3 160.2 169.6 179.3 180.4 171.5 152.4
396.3 393.1 390.3 381.5 374.9 368.1 360.8 354.8 344.3 336.3 329.5 325.3 322.4 317.9 316.3 314 313.6 307 307.5 307.2 312.6 320.9 330.5 339.7 346.8 354 361.3 368.9 374.2 376.8 378 375.4 361.8 337.9 321.6 318 320.6 327.2 330.6 335.4 336.7 338.7 336.3 328.3 304.6 274.7 253.7 245.7 235.7 231.7 232.8 233.8 225.8 226.8 235.5 256.1 250.9 255.7 253.1 257.9 247.7 241.3 232.8 231.2 215.1 196.7 175.3 161.9 147.4 125.9 125.4 119.3 113.3 110 110.9 116.1 115.2 106.5 100.1 89.4 88.5 87.9 87.4 87.6 86.4 84.3 83.3 81.3 81.1 80.5 83 76.5 67.6 68.1 74.3 76.9 72.1 73 70 81.6 90.1 98.4 99.5 92 93.1 98.5 90 72.9 68.3 62.5 46.1 44.5 30.9 20.7 23.8 28.3 30.5 25.4 14.4 -2.2 -2.2 -2.2 -2.2 -2.2 -2.2 -2.2 -2.2 -2.2 -2.2 -2.2 -2.2 -2.2 -2.2 -2.2 -2.2 -2.2 -2.2 -2.2 -2.2 -2.2 -2.2 -2.2 -2.2 -2.2 -2.2 -2.2 -2.2 -2.2 -2.2 -2.2 10.9 17.5 29.9 35.9 35 29.1 19 19.4 19.1 10.5 -2.2 -2.2 -2.2 -2.2 28.6 59.9 85.2 96.3 103.8 113.5 119.6 123.3 126.2 124.2 134.1 141.7 139.5 149.5 152.3 150.3 151.1 148.2 138.2 147.6 145.6 137 130.9 130.9 130.9 130.9 130.9 136.2 148.9 159.7 173.6 179.2 184.2 183.1 176.5 162
390.7 389.6 385.2 375.8 365.8 360.2 353.1 346 331.7 323.1 315.4 309.5 307 303.5 302.5 302.5 302.4 299.4 300.8 302.3 308.4 317.7 327.4 338.5 347.4 355.4 363 374.2 380.3 386 389.3 389.9 384.8 367.4 342 337 339.4 344.2 348.5 349 348.6 349.3 352 335.7 310 294.8 272.3 251 237.4 229.4 230.9 231.9 227.4 223.4 231.3 243.5 247.2 252.1 250.1 249.2 253.7 248.8 234.8 235 230.8 212.4 184.4 165.2 151.4 133.3 122.6 123.5 118.1 115 113.3 121.1 123.6 114.6 108.5 91.7 88.1 89.7 91.3 90.2 90.4 85.7 81.4 77.3 81 80.6 85.7 75.4 67.3 66.5 71.2 74.8 77.4 73.8 69.7 70.4 81.9 90.2 91.9 89.2 88.9 96.9 84.2 73.6 58.7 51.7 44.5 46.5 43.3 28.7 29.4 31.5 34.4 27.7 15 4.7 -2.2 -2.2 -2.2 -2.2 -2.2 -2.2 -2.2 -2.2 -2.2 -2.2 -2.2 -2.2 -2.2 -2.2 -2.2 -2.2 -2.2 -2.2 -2.2 -2.2 -2.2 -2.2 -2.2 -2.2 -2.2 -2.2 -2.2 -2.2 -2.2 -2.2 -2.2 7.1 15.3 26.4 23.6 16.7 9.5 -2.2 9.6 -2.2 -2.2 -2.2 -2.2 1.5 45.2 71 88.8 92.2 98 101.8 107.8 109.2 113.9 113 116.9 121.8 119.8 121.2 136.6 131.8 141.1 133.5 140.6 144 146.2 133.6 130.9 130.9 130.9 130.9 130.9 141 156.2 169.9 178.6 184.2 182.8 181.9 177.7 169.1
384.1 384.6 379.3 371.7 359.7 353.5 345.6 336.1 320.7 310.5 302.6 298 296.7 290.7 290 288.8 288.4 290.8 292.5 296.8 304.4 313 324.4 335.9 347.6 355.9 366 377 387.2 392.2 399.5 402.5 401.2 389.1 366.8 370.6 372.7 371.5 369.6 367.4 362.4 359.7 358.2 346.7 320.6 299.7 290.4 265 243.7 228.2 230.2 226.8 221.6 221.6 224.3 230.6 232.2 234.9 242.9 243.1 238.1 236.9 236.5 239 238.3 223.7 193.1 174.1 157.1 138.9 115.4 116.4 116 113.5 115.2 121.8 125.7 116.1 111.3 108.8 92.5 92.5 97.2 92.6 92.5 90.1 80.6 73.9 73.4 73.7 78.9 75.1 63.8 59.9 63.8 68.9 72.2 75.9 66 60.8 71.7 79.1 86.6 85.5 92.1 87.4 80.1 76.4 65.8 45.9 43.9 49.2 35.1 34 30.8 26.8 26.8 24.4 19.4 9.6 -2.2 -2.2 -2.2 -2.2 -2.2 -2.2 -2.2 -2.2 -2.2 -2.2 -2.2 -2.2 -2.2 -2.2 -2.2 -2.2 -2.2 -2.2 -2.2 -2.2 -2.2 -2.2 -2.2 -2.2 -2.2 -2.2 -2.2 -2.2 -2.2 -2.2 -2.2 -2.2 -2.2 14 10.2 6.3 -2.2 -2.2 -2.2 -2.2 -2.2 -2.2 -2.2 6.1 49.1 64.1 77.6 83.1 87.3 95.7 98.2 91.3 91.1 99.4 107.6 112.3 105.5 108.5 113 109.7 117.8 129.4 133.2 143.1 138.7 146.4 143.6 133.8 130.9 132.1 130.9 139 159.7 171.2 176.2 183.4 184.9 182.7 175.5 158.2
378.1 374.2 371.1 365.5 354.9 344.2 334.9 324.7 310.7 297.4 291.9 288.8 284.2 281.8 281 277.4 277.2 280.9 285.7 289.4 299.1 308.9 320.7 334.2 346.3 356.5 367.4 379.6 389.7 400 409.8 415.2 415.8 410.1 401 402.4 400.1 394 391.5 384.2 370.1 364.1 361.1 352.1 324.2 304.6 287.9 269.8 249.9 228.2 222.6 222.2 220.1 221.5 218.9 228.7 228.5 226.6 231.3 234.9 240.2 229.6 233.1 235.2 237.2 224.4 206.7 191.1 168.5 133.1 113.5 113.5 113.5 119.9 119.8 124.5 129.3 116.1 113.9 110.6 102.6 93.3 93.2 91.6 91.5 90 81.5 73.1 66.4 66.9 66.7 64.6 62.1 58.3 55.3 63.8 66.5 69.1 66.9 65.8 63.9 72.1 82.7 80.2 82.4 79.6 78.9 70.9 64.6 50.8 44.3 32.9 34 35.4 36.3 33.5 23.9 23.8 18.7 12 1.3 -1.2 -2.2 -2.2 -2.2 -2.2 -2.2 -2.2 -2.2 -2.2 -2.2 -2.2 -2.2 -2.2 -2.2 -2.2 -2.2 -2.2 -2.2 -2.2 -2.2 -2.2 -2.2 -2.2 -2.2 -2.2 -2.2 -2.2 -2.2 -2.2 -2.2 -2.2 -2.2 -2.2 -2.2 10.2 -2.2 -2.2 -2.2 -2.2 -2.2 -2.2 -2.2 12 48.9 65.7 65.3 69.4 69.5 77.8 75.8 70.2 68.4 76 93.1 86.4 80.4 91.9 91.3 103.5 111 113.1 118.5 133.3 142.9 150.2 148.9 155 144.1 135.5 130.9 139.7 151.5 162.1 172.9 180.9 185.1 177.6 160.3 150.2
369 364.6 360.5 356.1 346.9 331.5 325 313.2 300.2 287.2 281.5 277.9 272.1 270.5 270.9 271 265.8 271.5 275.8 285 293.5 304.8 315.2 331.6 345.8 356.5 368.3 380.6 392.1 406.2 417.1 423.8 425 422.9 419.6 420.3 418 415 409.3 398.3 381.4 369.5 364.3 353.2 325 304.9 288.5 272.5 256.6 235.8 224.8 219.5 219 218.8 213.8 217.1 217.4 221.1 224.3 225.2 231.8 226.9 222.2 227 232.9 223.9 211.1 198.5 176.9 133.5 113.5 113.5 113.5 121.2 120.7 122.1 126.3 119.1 115.4 108.1 103 91 91.8 83.8 83.8 85.8 82.5 79.7 67.2 62.1 60.7 60.9 57.9 53.8 53.5 57 59.1 56.4 57.6 59.8 60.5 58 68.7 65.4 71.4 75.9 80.7 81.3 57.1 52.9 29 22.8 25.7 38.9 44 39.4 31.7 23 21.4 12.6 5.6 -2.2 -2.2 -2.2 -2.2 -2.2 -2.2 -2.2 -2.2 -2.2 -2.2 -2.2 -2.2 -2.2 -2.2 -2.2 -2.2 -2.2 -2.2 -2.2 -2.2 -2.2 -2.2 -2.2 -2.2 -2.2 -2.2 -2.2 -2.2 -2.2 -2.2 -2.2 -2.2 -2.2 -2.2 -2.2 -2.2 -2.2 -2.2 -2.2 -2.2 -2.2 -2.2 8.5 42 49.8 53.7 59.7 57.5 61.7 54.9 49.5 48.5 55.5 68.6 64.8 61.1 70.6 79.6 91.6 99.3 105.2 113.2 125 137.2 153.8 157.7 159.6 157.6 144.4 132.7 134.7 146.7 149.3 161.1 175.6 181.7 172.8 152.1 131.4
360.5 358.1 353.2 345.7 338.1 326.7 312 300.8 289.7 279.9 271.5 266.3 260.6 257.1 260 263.3 262.3 263.6 271.3 280.6 287.4 298.7 310.4 326.3 343 355.7 367.6 381.5 394.3 406.1 418.6 426 430.3 431.7 432.7 432.2 432.7 429.4 420.6 411.7 396.1 375.1 365.5 352.8 330.9 313 294.2 281.3 260.1 237.9 225.4 219.3 216.6 212 207.5 207.2 208.3 214.8 209.4 212.4 217.3 215.2 215.1 220.1 220.8 220.5 215.4 206.2 185.7 146.6 121.4 118 122.8 118 120 117.6 116.1 114.6 105.1 100.6 95.7 88 85.5 84.7 79.7 75.7 77.2 76.9 63.5 59.2 58.3 57.7 54.4 51.5 55.8 53.8 54.4 50.6 48.5 52.4 53.7 48 43.8 47.3 60 67.4 77.6 76.4 64.3 43.2 26.2 21.9 21.9 42.4 45.9 37.1 33.2 29.9 18.9 15.1 6.5 -2.2 -2.2 -2.2 -2.2 -2.2 -2.2 -2.2 -2.2 -2.2 -2.2 -2.2 -2.2 -2.2 -2.2 -2.2 -2.2 -2.2 -2.2 -2.2 -2.2 -2.2 -2.2 -2.2 -2.2 -2.2 -2.2 -2.2 -2.2 -2.2 -2.2 -2.2 -2.2 -2.2 -2.2 -2.2 -2.2 -2.2 -2.2 -2.2 -2.2 -2.2 -2.2 -2.2 33.5 40.9 40.5 45.3 51.1 55.9 49.9 42.7 38.8 38.4 45.9 53.6 45.4 59.5 66.7 82.2 97.4 114.9 115.1 122 140.2 158.8 154.2 152.7 153.7 149.5 139.4 132.1 139.8 145.8 153.7 171.2 175.8 165.5 142.3 129.4
351.6 351.6 345 337.1 329.2 317.5 299.7 291.7 279.3 269.5 261.5 259.3 255.9 252.2 254.2 255.2 254.6 259.7 267.4 272.7 283.8 294.8 308.7 323.1 339.7 352.7 366.9 382.3 394.5 408.2 419.4 428.1 434.2 438.6 440.3 444.8 444.4 440.9 433.1 420.3 406.7 380 364.4 352 336.5 321 303 283.9 266.5 243 225.5 216.9 214 207.7 205.9 205.7 207.3 209 205.7 203.3 197.1 198.8 198.8 208.1 212 214.5 210.3 204.2 189.7 167.1 141.4 128.9 130.2 127.7 118.7 117.6 115.7 109.6 109 98.1 92 86.6 89.3 86.9 86.4 71.3 70 70.8 65.1 62 61.6 52.8 50.3 46.9 55.1 52.1 47.4 47.1 46.9 43.7 40.7 38.7 35.6 41 55.2 59.4 68.1 67.1 55.7 42.1 25.8 21.9 21.9 32.1 39 36 31.3 30.5 24.3 12 7.4 -2.2 -2.2 -2.2 -2.2 -2.2 -2.2 -2.2 -2.2 -2.2 -2.2 -2.2 -2.2 -2.2 -2.2 -2.2 -2.2 -2.2 -2.2 -2.2 -2.2 -2.2 -2.2 -2.2 -2.2 -2.2 -2.2 -2.2 -2.2 -2.2 -2.2 -2.2 -2.2 -2.2 -2.2 -2.2 -2.2 -2.2 -2.2 -2.2 -2.2 -2.2 -2.2 -2.2 25.5 33.3 39.9 46.2 54.1 63.3 58.5 43.6 37 33.8 39.5 41 40.7 53.5 67.4 87.1 99.1 113 124.6 136.7 141.3 152.7 148.9 151 146.5 141.5 135.9 128.5 131.5 146.1 150.6 160.8 162.3 160.3 141.3 124.8
345.1 346.4 338.6 328.6 321.5 306.2 294.2 281.2 269.5 262.8 255.2 252.2 249.9 246.9 247.7 244 242.7 253.4 262.1 270.1 278.2 291.6 305.4 320 336.3 349.8 365.1 381.7 393.2 406.3 419 430.3 438 443.4 446.2 451 455.3 452 443 428.4 409.7 394.1 374.3 354.5 342.3 328.6 305.3 286.4 261.9 244.1 226.7 220.7 212.5 202.3 201.3 201.1 202.4 199.1 198.4 196.9 182.4 175.9 183.3 192.3 197.7 209.8 204.4 193.9 191.1 167.2 144 132.7 139.5 138.4 126.7 124.2 123.5 109.8 105.1 99.8 86.9 84.4 83.9 82.6 87.5 71.2 64.2 58.1 59.9 57.8 56.9 49.8 42.2 41.6 48.6 50 45.9 47.5 39.4 41.2 33.6 32.1 31.1 34.5 42.6 46.9 58.2 57.5 54.1 44.1 24.5 21.9 21.9 22.2 31.1 27.5 27.9 28.8 30.2 16.5 9.9 -2.2 -2.2 -2.2 -2.2 -2.2 -2.2 -2.2 -2.2 -2.2 -2.2 -2.2 -2.2 -2.2 -2.2 -2.2 -2.2 -2.2 -2.2 -2.2 -2.2 -2.2 -2.2 -2.2 -2.2 -2.2 -2.2 -2.2 -2.2 -2.2 -2.2 -2.2 -2.2 -2.2 -2.2 -2.2 -2.2 -2.2 -2.2 -2.2 -2.2 -2.2 -2.2 -2.2 23.4 31.8 36.7 44.1 45.4 56.4 47.7 40.6 38.6 32.5 27.4 24.2 34.9 50.1 70.5 84.2 97.2 120.1 130.5 138.6 140.7 143.4 147.5 149.8 148.1 140.8 141.1 134 129 141.6 145.1 157.4 158.3 143.9 135.2 128.3
339.2 340.9 337.1 325 310.7 300.6 289.1 272.7 265.2 256.6 251 246.1 243.6 236.6 236.3 234.8 233.2 247.4 256.7 263.5 274 285.9 301.6 316.3 330.6 344.3 360.6 378.3 391.4 403 417.1 430.1 439 446 450.6 457.7 465.6 464.3 448.1 434.4 416.7 396.6 384.2 359.3 343.4 331.7 312.5 291 266.8 247.6 235 224.2 210 202.6 199.7 196 198.6 198 199.2 192 183.8 173.4 167.7 172.9 184.2 197.4 190 181.6 177.5 163.6 143.4 132 139 136.4 133.6 135 117.8 110.1 106.9 95.3 89.6 88 87 78.9 75.7 69.1 64.5 58.3 49 49 49.5 49.6 39.6 36.6 36.1 39.2 40.5 40 36.2 31.7 27.9 25.4 24.9 30.4 32.8 35.1 46.4 46.1 43.2 34.3 21.9 21.9 21.9 21.9 21.9 21.7 24.8 23.1 18 17.3 4.2 -2.2 -2.2 -2.2 -2.2 -2.2 -2.2 -2.2 -2.2 -2.2 -2.2 -2.2 -2.2 -2.2 -2.2 -2.2 -2.2 -2.2 -2.2 -2.2 -2.2 -2.2 -2.2 -2.2 -2.2 -2.2 -2.2 -2.2 -2.2 -2.2 -2.2 -2.2 -2.2 -2.2 -2.2 -2.2 -2.2 -2.2 -2.2 -2.2 -2.2 -2.2 -2.2 -2.2 20.8 31.9 38.8 46.5 45.9 53.4 45.1 42.8 39.2 29.5 20.7 26.8 34.6 46.5 66.5 85.5 105 122.5 130.8 134.1 134.3 133.6 139 139.5 139.3 140.1 141.7 133.4 121.1 138.2 143.5 146.4 152.8 144.7 134.1 124.4
331.6 337.2 333 320.6 305.7 290.3 279.4 270.2 260.6 253.4 246.4 239.3 236.2 232.1 231.7 231.3 231.2 244 251.2 256.5 266.5 280.9 296.2 310.2 326.1 341.7 354.4 372.2 386.5 397.5 413.5 426.1 437.3 446.4 451.9 457.1 462.9 461.8 453.5 439.6 423.8 405.3 386.6 368.4 350.3 338.1 320.4 294.7 270.5 252.8 237.8 227.5 215.7 204.9 195.6 196.5 193.2 190.7 188.7 183.6 176 176.5 170.7 160.9 164.8 168.6 171.9 163.7 160 148.9 137.7 122.1 139.7 139.1 135.4 142.6 137.8 105.8 101.4 100.5 91.4 91.8 88.6 83 76.9 69.5 63.5 55.9 49.7 44.4 43 43.2 38.5 36.2 34.3 34 35.4 31.6 29.9 27.3 26.3 23.3 23 25.7 27.7 34.1 48 41.6 37.4 24.7 21.9 21.9 21.9 21.4 25.5 23.2 19.7 18.9 13.3 8.7 6.4 -2.2 -2.2 -2.2 -2.2 -2.2 -2.2 -2.2 -2.2 -2.2 -2.2 -2.2 -2.2 -2.2 -2.2 -2.2 -2.2 -2.2 -2.2 -2.2 -2.2 -2.2 -2.2 -2.2 -2.2 -2.2 -2.2 -2.2 -2.2 -2.2 -2.2 -2.2 -2.2 -2.2 -2.2 -2.2 -2.2 -2.2 -2.2 -2.2 -2.2 -2.2 -2.2 -2.2 20.9 31.1 45.1 45.8 43.6 44.7 35.2 29.3 18.5 18.1 20 24.2 34.7 49.1 66.3 86.2 104.1 117 121.7 127.6 125.4 121.6 130.4 138.1 137.9 137.2 132.9 128.1 114.6 133.2 133.1 138.5 139.4 152.4 136.1 130.7
325.2 327.1 323 315.3 300.2 287.2 275.2 266 254.5 246.1 241.6 235.7 233.5 227.2 224.7 226.5 229.8 238.4 245.4 249.7 259.4 273.7 289.2 304.8 319.1 331.9 347.8 364.9 380.2 391.7 405.9 419.6 433.6 444.2 450.2 455.8 461.6 461.6 455.4 442.7 425.5 411.7 393.9 373.7 355 341.2 321.7 302.4 279.5 256.8 245.5 231.5 222.1 210.9 197.1 194.4 190.9 188.6 184.3 180.5 171.9 173.9 170.7 166 155.1 158.5 155.8 148.5 149.5 138.1 133.9 116.4 133.3 144.4 142.5 141.3 135.1 123 99.4 97.9 91.2 91.8 89.5 83.9 77.5 71.3 59.8 51.7 47.3 39 35.4 29.8 31 32.7 36.8 31.6 30.7 27.1 26.7 25 22.7 22.1 22.3 23 25.1 30.9 38 29.8 30.4 21.9 21.9 21.9 21.9 21.9 21.9 21.2 26.3 24.7 26.1 20 6.2 -2.2 -2.2 -2.2 -2.2 -2.2 -2.2 -2.2 -2.2 -2.2 -2.2 -2.2 -2.2 -2.2 -2.2 -2.2 -2.2 -2.2 -2.2 -2.2 -2.2 -2.2 -2.2 -2.2 -2.2 -2.2 -2.2 -2.2 -2.2 -2.2 -2.2 -2.2 -2.2 -2.2 -2.2 -2.2 -2.2 -2.2 -2.2 -2.2 -2.2 -2.2 -2.2 -2.2 -2.2 23.7 41.1 43.5 38.9 31.7 21.8 17.4 15.8 16.7 20.7 26.6 32 46.9 69.8 90 102.4 104.1 115.5 114.6 107.4 109.3 119.4 130.5 133 128.9 125.4 116.6 106.5 113.3 129.1 121.8 122.3 130 142.6 127.9
316.7 319.2 316 310 299.6 283.2 271.2 261.4 252 241.5 237.4 231.9 225.8 222.1 222 222.5 224.1 231.4 240.1 242.8 253.3 267.2 279.5 296 309.2 324 338.6 355.6 370 384.3 397 410.6 425.7 436.4 444.9 451.9 457.5 457.7 453.2 444.4 430.9 417.9 400.8 374.8 357.5 341.5 328.4 312.6 289 269.3 255.9 239.8 224.4 211.1 198.4 198.1 189.5 185.8 181.6 175 171.1 171.3 166.3 164.4 152.5 146 149.1 139.3 138.5 135.9 116.4 116.4 128.7 139.4 141.2 136.2 129.4 116 99.8 93.6 89.9 89.3 89.7 85.7 82.3 76.6 62.4 47.1 35.9 31.2 29.5 32 28.3 28.5 29.5 32 36.3 35.5 25.4 26.5 22.2 21.5 22 23.9 25.8 28.5 28.2 27.7 25.2 21.9 21.9 21.9 21.9 21 21.9 22.8 23.1 23.8 23.9 27.5 29.2 15.5 8.2 -2.2 -2.2 -2.2 -2.2 -2.2 -2.2 -2.2 -2.2 -2.2 -2.2 -2.2 -2.2 -2.2 -2.2 -2.2 -2.2 -2.2 -2.2 -2.2 -2.2 -2.2 -2.2 -2.2 -2.2 -2.2 -2.2 -2.2 -2.2 -2.2 -2.2 -2.2 -2.2 -2.2 -2.2 -2.2 -2.2 -2.2 -2.2 -2.2 -2.2 -2.2 -2.2 20.7 38.4 40.9 41.1 34.5 19.3 17 17.2 16.3 16 20.9 31.9 46.2 63.3 83.4 89.1 92.2 92.2 91.5 91.9 95.1 105.7 121 121 118.8 114.9 102.8 96.1 102.7 111.1 123.3 117.4 106.3 110.3 110.1
306.3 311.8 308.7 303.7 296.7 282.4 268.4 258.4 249.9 240.3 232.5 226.6 221 217.9 216.2 216.1 222.2 226.4 231.6 239.2 245 257.3 272.6 286.7 300.6 315.1 330 344.8 359.4 372.3 385.2 399 414.2 427 437.1 444.9 450 452.3 450.8 444 434 422.4 404.3 378.4 363.7 346.4 331.5 316.5 297.2 279.5 263.5 243.3 226 214.1 204.9 200.2 193 186.1 177.6 174.1 164.2 163.1 164.2 162.9 152.4 140.3 132.2 137.7 129.7 131.4 116.4 116.4 127.7 140.1 139.1 135.9 127.7 120.5 102.9 93.2 97.6 91.9 91 82.2 80 77.1 66.1 47.6 32.5 33.3 30.5 28.8 29.6 28.8 27.7 28.6 31.5 38.9 32.4 24.7 24.4 21.9 21.6 24.8 31.2 25.5 27.8 36.5 26.9 21.3 21.9 21.9 21.9 24.7 36.7 34.5 26.5 34 30.8 29.6 27 20.8 12.4 4.9 -2.2 -2.2 -2.2 -2.2 -2.2 -2.2 -2.2 -2.2 -2.2 -2.2 -2.2 -2.2 -2.2 -2.2 -2.2 -2.2 -2.2 -2.2 -2.2 -2.2 -2.2 -2.2 -2.2 -2.2 -2.2 -2.2 -2.2 -2.2 -2.2 -2.2 -2.2 -2.2 -2.2 -2.2 -2.2 -2.2 -2.2 -2.2 -2.2 -2.2 -2.2 -2.2 20.4 36.5 41 35.4 21.6 20.4 23.5 22.6 12.7 15.9 25.4 41.2 54.3 69.2 69.3 71.2 74.2 76.4 83.6 84.2 93.7 103.7 110.7 108.3 103.9 87.9 83.7 96.2 93.1 115.9 118.9 108.1 100.3 101.3
297.8 302.3 301.3 297.1 290.7 282.6 266.1 255.5 245.6 236.8 227.3 221.9 216.5 213.8 212.5 209.6 216.4 221.9 225.2 231.6 239.9 248.9 265.1 277.2 290.8 303.9 316.5 332.6 347.3 360 371.9 387.9 403.9 415.4 427.1 434.4 442.2 445.6 445.1 440.8 433 422.8 406.2 382.4 365.1 346.7 333.9 320.6 304.1 285.3 269.2 252.7 234.5 219.5 211.4 201.4 196.3 188.3 182.5 175.3 165.6 163.7 164.1 157 155.6 150.5 138.8 132.6 119.5 116.8 116.4 116.4 118.9 139.3 134.9 130.2 125.1 123.2 117 101.9 94.1 94.9 90.1 85.3 80.4 73.4 64 48.8 35.1 34.6 31.5 29.3 28.8 31.2 28.8 27.4 28.1 29.6 30.1 26.3 22 18.4 19.2 31 34.8 27.5 29 34.7 33.9 30 21.9 21.9 21.9 27.5 42.1 32.2 25.7 25.7 29.3 24.9 23.1 19.8 9 1.8 1.8 1.8 -2.2 -2.2 -2.2 -2.2 -2.2 -2.2 -2.2 -2.2 -2.2 -2.2 -2.2 -2.2 -2.2 -2.2 -2.2 -2.2 -2.2 -2.2 -2.2 -2.2 -2.2 -2.2 -2.2 -2.2 -2.2 -2.2 -2.2 -2.2 -2.2 -2.2 -2.2 -2.2 -2.2 -2.2 -2.2 -2.2 -2.2 -2.2 -2.2 -2.2 -2.2 19.9 33.3 24.9 24.6 29.4 28.5 17.8 11.5 11.3 20.5 40.2 55.4 57.4 59.8 69.7 67.3 68.1 74.5 73.2 77.8 78.8 92.6 95.7 96.6 76.7 71.9 82.8 77.8 98.8 101.4 97 87.7 90.7
290.2 297.5 296 292.5 288.3 280.5 265.1 251.7 242 232.2 224.5 217.8 211.1 206 207.2 199.7 207.6 212.8 215.8 223.1 231.9 241.1 255.9 269 280.7 290.6 305.9 321 334.6 347.5 359.4 374 390.7 403.7 414.8 423.9 432.7 437.2 439.3 436.7 430.6 419.2 402.5 383.2 364.2 349.2 334.5 321.9 309.9 296.5 277.8 269.6 246.7 225 217.7 209.2 203.4 193.7 187.5 176.6 168.5 162.2 160.3 159.1 159.8 154.4 147.9 139.5 125.3 116.4 116.4 116.4 116.4 132.4 132.4 133.1 125.1 118.6 121.5 110.1 102.5 91.4 88.5 85 82.6 77.9 64.5 53.3 46.4 44.1 34.1 29.1 28.8 36.3 29.3 29.1 27.7 28.1 27.3 23.6 19.8 13.7 18.2 25.7 27.6 21.9 23.4 29.1 35.4 36.8 21.4 21.9 21.9 22.5 31.5 38.1 28.4 17.5 24.4 18.9 22.5 9.7 -2.2 -2.2 -2.2 5.6 -0.1 -2.2 -2.2 -2.2 -2.2 -2.2 -2.2 -2.2 -2.2 -2.2 -2.2 -2.2 -2.2 -2.2 -2.2 -2.2 -2.2 -2.2 -2.2 -2.2 -2.2 -2.2 -2.2 -2.2 -2.2 -2.2 -2.2 -2.2 -2.2 -2.2 -2.2 -2.2 -2.2 -2.2 -2.2 -2.2 -2.2 -2.2 -2.2 -2.2 -2.2 -2.2 -2.2 20.2 23.4 21.3 13.4 9.2 2.8 9.4 18.5 35.1 54.5 55.9 57.5 61.4 59.1 59.5 62.7 64.3 55.2 55.6 69.3 76 77.6 63.7 59.9 68.4 67.4 84.9 82.8 81.8 85.6 91.9
287.9 290.3 292.2 289.1 283.1 276.3 264.3 246.9 237.3 228.5 220.3 214.3 207.2 204.5 197.8 193.2 202.2 204.8 206.8 213.4 224.2 233.8 249.1 261.9 271.1 280.4 293.7 309.5 322.6 335 347.4 361.8 376.6 389.8 400.8 412.6 422.1 429.4 431.8 430 425.7 416.5 401.7 382.9 364.8 349 336.5 320.8 307.4 297.8 285.7 272.5 254.6 241.7 229 220.6 206.3 200.5 188.8 178.5 172.7 166.8 159.9 159.2 157.5 156.4 146.1 142.8 136.1 125.4 116.4 116.4 116.4 124 126.8 121.1 116.4 116.4 118.4 111 106.3 99.9 91.8 90.9 83.7 77.3 74.2 61.9 47.7 41 42.6 32.5 28.9 36.3 29.4 30.9 26.4 26.6 25.9 20.2 13.6 13.6 13.2 13.5 18 16.4 16.7 22.7 37.8 45 24.2 21.9 21.9 21.9 23.1 24.4 23.1 19.3 15.3 12.3 9.3 1.1 -2.2 -2.2 -2.2 -2.2 -2.2 0.7 -2.2 -2.2 -2.2 -2.2 -2.2 -2.2 -2.2 -2.2 -2.2 -2.2 -2.2 -2.2 -2.2 -2.2 -2.2 -2.2 -2.2 -2.2 -2.2 -2.2 -2.2 -2.2 -2.2 -2.2 -2.2 -2.2 -2.2 -2.2 -2.2 -2.2 -2.2 -2.2 -2.2 -2.2 -2.2 -2.2 -2.2 -2.2 -2.2 -2.2 -2.2 -2.2 -2.2 -2.2 -2.2 -2.2 -2.2 2.7 17.4 31.1 41.9 46 44.5 46.1 53.3 53.7 60.4 60.1 47.4 39.4 39.5 47.9 51.2 49.6 49 48.6 62.2 73.2 73.6 77.7 84.1 87.8
280.1 285.4 288 286.3 281.7 274.6 263.8 247 235.2 223.9 217.1 210 201.9 197.8 196.6 191.3 198.9 201.3 203.2 207.2 217.1 228.8 243.7 252.5 262.6 271.6 284.4 296.2 311.9 324.4 336.9 352.2 365.7 378.5 390 400.5 411.4 419.7 423.4 422.5 419.2 410.4 397.3 380.9 364.7 351.7 340.3 326.3 309.7 297.9 287.8 277.5 264.5 254.7 244.6 225.6 215.1 202.4 192.8 182.1 178.7 170.8 164.5 154.2 152.2 153.8 149.7 143.7 139.2 130.8 123.6 116.4 116.4 119.3 120.8 116.4 116.4 118.9 123.1 120.8 113.6 107.8 103.1 90.8 87.1 84.5 74.8 70.9 61.2 42.1 40.9 31 30.4 30.3 28.3 31.2 26.3 25.4 25.1 21.6 13.8 17.4 13.2 13.2 15.4 12.3 12.8 19.3 27.9 35.9 24.7 21.9 22.3 20.7 21.9 30.1 34.4 22.7 12.7 6.6 -2.2 -2.2 -2.2 -2.2 -2.2 -2.2 -2.2 7.5 8.8 1.7 -2.2 -2.2 -2.2 -2.2 -2.2 -2.2 -2.2 -2.2 -2.2 -2.2 -2.2 -2.2 -2.2 -2.2 -2.2 -2.2 -2.2 -2.2 -2.2 -2.2 -2.2 -2.2 -2.2 -2.2 -2.2 -2.2 -2.2 -2.2 -2.2 -2.2 -2.2 -2.2 -2.2 -2.2 -2.2 -2.2 -2.2 -2.2 -2.2 -2.2 -2.2 -2.2 -2.2 -2.2 -2.2 4.7 14.2 23.1 34 37.8 42 41.4 46.7 52 56.8 54.9 39.8 30 28.8 33 38.9 39.7 39.2 39.5 56 61.3 67.5 76.8 81.3 85.7
274.6 283.8 286.6 282.2 278.7 272.5 260.4 245 231.5 222.7 211.3 207.8 199 192.2 188.4 186.9 194.7 197.7 200.8 204.9 214.2 225.8 235.1 245.9 255.5 263 273.7 287.3 301.6 314 327 340.4 355.7 370.2 381.8 391.8 401.6 409.9 415.6 417.4 415.1 407.3 395.6 385.2 369.8 352.7 343.2 331 315 306.6 291.8 283.8 273.2 261.9 252.3 241 225.6 207.2 198.3 183.5 180.8 177 168.3 159.6 148 148 151.1 145.9 144.6 135.4 127.9 120.6 121 122.5 116.4 118.1 116.4 120.8 122.8 121.9 132 133.4 118.1 97.4 90 87.9 79.8 71 63.8 52.1 39.7 33.1 35 38.4 28 25.5 25.4 30.7 31.6 28.9 25.7 27.3 21.5 20.1 22.5 13.4 12.9 14.7 14.1 19.6 17.7 22.3 25.6 26 21.9 21.9 33.6 32.9 13 1.9 -2.2 -2.2 -2.2 -2.2 -2.2 -2.2 -2.2 9.5 14.4 17.9 -2.2 -2.2 -2.2 -2.2 -2.2 -2.2 -2.2 -2.2 -2.2 -2.2 -2.2 -2.2 -2.2 -2.2 -2.2 -2.2 -2.2 -2.2 -2.2 -2.2 -2.2 -2.2 -2.2 -2.2 -2.2 -2.2 -2.2 -2.2 -2.2 -2.2 -2.2 -2.2 -2.2 -2.2 -2.2 -2.2 -2.2 -2.2 -2.2 -2.2 -2.2 -2.2 -2.2 -2.2 -2.2 -2.2 10.3 17.1 29.9 36.9 41.1 36.3 37.3 42 44.7 46.9 37.1 17.6 14.1 25.3 26.5 34.3 31.1 41.9 52.8 54.3 66.3 72.2 80.5 86.5
273.4 282.8 284.8 281.6 277.3 269.9 257.6 243.2 226.6 217.4 208.6 201.8 196.6 190.2 180.9 184.1 187.3 193.2 196.1 198.1 207.4 219.1 223.3 236.8 248.1 259.5 268.4 280.1 293.7 307 319.3 332.7 347.1 362.5 375.4 386.1 394.9 405.1 411 413.9 412.7 406.7 397 387.3 374.2 360.3 348 333.1 313.8 303.5 294.4 287.5 279.5 271.1 260.3 254.2 239.2 220.8 202.3 184.1 180.9 177 168.2 163.6 157 150.5 147.2 143.3 143.3 137.4 132.9 120.9 128.2 127 116.4 116.4 128.7 132.2 125.8 124.6 136.6 136.3 135.7 123.8 100.6 87 81.1 73.5 61 52.1 48.2 42.1 34.4 38.1 38.8 37.5 32.3 30.1 29.1 31 29.3 28.3 23.1 21.6 23.9 16.3 15.7 11.5 6.4 2.3 -2.2 20.9 25.2 26.3 29 25.5 26 25.6 12.6 10.3 6.8 -2.2 -2.2 -2.2 -2.2 -2.2 -2.2 -2.2 14 17.5 12.8 -2.2 -2.2 -2.2 -2.2 -2.2 -2.2 -2.2 -2.2 -2.2 -2.2 -2.2 -2.2 -2.2 -2.2 -2.2 -2.2 -2.2 -2.2 -2.2 -2.2 -2.2 -2.2 -2.2 -2.2 -2.2 -2.2 -2.2 -2.2 -2.2 -2.2 -2.2 -2.2 -2.2 -2.2 -2.2 -2.2 -2.2 -2.2 -2.2 -2.2 -2.2 -2.2 -2.2 -2.2 14.1 23.7 30 32.1 28 29.5 27.8 27.6 28.7 27.7 28.3 24.5 11.6 4.2 11.9 13.6 21.5 26.9 39.3 48.3 50.7 66.1 71.5 81.4 82
273.5 281.9 285 281.5 277.1 268.5 253.5 240.3 226.3 214 204.6 199.5 192.7 188.4 173.8 180.2 183.8 189.5 191.1 194.1 203.1 210.3 217.9 230.1 241.3 254.3 264.1 274.2 287.6 301.2 313.1 327.1 339.9 356.4 369.4 379.3 391.7 400.6 407.1 410.7 410.1 405.7 399.9 395.2 382.3 371.1 356.5 341.6 322.2 306.4 294.4 290.2 283.2 277.2 269.9 258.2 243.5 223.3 202.6 187.3 182.7 178.5 169.3 163.8 159.1 147.4 148.1 136.6 134.6 136.4 133.4 118.9 124.8 120.3 116.4 119.4 128.7 129.8 128.1 127 146.4 151.9 145.3 137.3 127.6 101.1 80.1 71.8 64.2 47.3 48 46.7 41.2 40 41.2 36.4 32.7 26.1 28.7 26.7 23.9 21.7 16.3 19 23.2 13.2 11.2 7.9 -2.2 -2.2 -2.2 17.2 21.6 28.6 31.7 32.6 32.1 22 15.9 16 19.2 11.8 3.7 0.9 4.2 -2.2 -2.2 -2.2 -2.2 16.2 13.8 -2.2 -2.2 -2.2 -2.2 -2.2 -2.2 -2.2 -2.2 -2.2 -2.2 -2.2 -2.2 -2.2 -2.2 -2.2 -2.2 -2.2 -2.2 -2.2 -2.2 -2.2 -2.2 -2.2 -2.2 -2.2 -2.2 -2.2 -2.2 -2.2 -2.2 -2.2 -2.2 -2.2 -2.2 -2.2 -2.2 -2.2 -2.2 -2.2 -2.2 -2.2 -2.2 -2.2 -2.2 -2.2 31.4 38.1 43.4 36.6 29.9 28.3 30.7 24.3 21 18.1 16 -2.2 -2.2 -2.2 -2.2 11.5 22.8 35.8 40.9 52.8 64.9 78.3 87.6 79.6
269.1 277.4 281.9 281.8 274.5 266.7 251.6 238.8 225.6 213 204.4 195.3 189.3 183.9 172.2 175.7 181.8 185.1 189.6 194.4 204 210.3 215.5 226.5 239.1 250.9 261.9 271 284.4 297 309.7 323.6 338.8 352.4 363.7 374.8 387.2 396.8 404.2 409.3 410.3 406 401.9 394.4 383.9 373.6 367 348.6 334.3 316.6 302.9 289 288.5 281.7 271.1 258.8 249.8 226.5 201.2 190.8 179.6 175.3 168.3 161.7 154 148.8 149.4 136.7 128.6 135.8 132.5 121.1 114.7 118.6 116.4 120.2 118.3 123.9 123.1 141.2 154.9 156 158.6 144.3 129.8 108 96.7 68.8 70.9 52.5 43.8 44.3 42.9 37.7 39.5 36.3 30.1 24 25.8 21.7 14.2 12.2 10.6 18.7 13 8.8 7.1 -2.2 -2.2 -2.2 -2.2 12.3 21.6 28.1 36.3 32.8 32.5 23.5 18.5 21.6 27.9 21.9 13.2 5.2 7.8 -2.2 -2.2 -2.2 -2.2 -2.2 -2.2 1.1 -2.2 -2.2 -2.2 -2.2 -2.2 -2.2 -2.2 -2.2 -2.2 -2.2 -2.2 -2.2 -2.2 -2.2 -2.2 -2.2 -2.2 -2.2 -2.2 -2.2 -2.2 -2.2 -2.2 -2.2 -2.2 -2.2 -2.2 -2.2 -2.2 -2.2 -2.2 -2.2 -2.2 -2.2 -2.2 -2.2 -2.2 -2.2 -2.2 -2.2 -2.2 -2.2 -2.2 -2.2 22.7 32.3 38.2 33.3 25.1 15.6 12.5 9.9 6.6 9 -2.2 -2.2 -2.2 -2.2 -2.2 12.4 17.5 36.8 42.7 44.1 59 74.4 82.2 80.5
265.3 273.6 277.9 275.6 274.2 267.2 252.6 236.1 222.2 210.7 199.8 190.9 185.5 178.7 167.4 175.3 178 180.7 185.3 191.2 198.8 206.6 216.2 225.6 237.2 249.1 260.5 268.9 281.9 293.2 306.3 320.3 332.3 345.7 358.6 370 381.2 394 402.2 408 410.6 408.8 404.1 397.6 389.4 376.8 366.5 349.8 335.8 321.8 307.7 295.1 291.8 281.5 267.4 259.7 245.5 229.3 203.4 192.5 181.2 176.2 168.4 161.1 152.2 146 143.9 136.8 127.8 130.2 125.3 118.5 113.8 121.3 116.4 123.4 126.6 117.7 124.3 135.5 146.6 156.6 163.4 148.2 126.1 117 99.6 85.1 62.4 54.6 46.9 41.8 36 36.4 32 32 27.2 21.6 22.3 20.1 10.2 10.5 10.6 10.5 5.6 1.8 -2.2 -2.2 -2.2 -2.2 -2.2 16.4 17.9 21.1 33.3 32.8 33 31.9 28.3 33.4 31.1 33.6 19.3 12.6 2.6 -2.2 -2.2 -2.2 -2.2 -2.2 -2.2 -2.2 -2.2 -2.2 -2.2 -2.2 -2.2 -2.2 -2.2 -2.2 -2.2 -2.2 -2.2 -2.2 -2.2 -2.2 -2.2 -2.2 -2.2 -2.2 -2.2 -2.2 -2.2 -2.2 -2.2 -2.2 -2.2 -2.2 -2.2 -2.2 -2.2 -2.2 -2.2 -2.2 -2.2 -2.2 -2.2 -2.2 -2.2 -2.2 -2.2 -2.2 -2.2 -2.2 -2.2 -2.2 -2.2 -2.2 20.8 22.9 12.9 7.3 -2.2 -2.2 -2.2 -2.2 -2.2 -2.2 -2.2 -2.2 -2.2 17.6 24.1 32.2 42.7 41.7 41.2 57.6 68.4 73.1
261.7 271.1 273.2 274.8 273.9 263.8 248.5 230.3 220.1 210 195.2 187.5 181.6 176.3 168.3 173.4 172.9 176.6 184.1 191.5 198.2 206 214.1 223.3 236.4 247 256.8 267.1 278.2 289.6 302.9 317.3 331.5 343.3 355.1 364.9 375.3 389.7 399.6 406.5 412.3 413.8 409.6 402.7 391.9 381.9 371.3 359.1 347.9 332.4 317.2 303.8 291.5 278.4 269.2 259.4 253.5 234.1 208.4 191.1 179.9 172.8 166.7 161.3 147.5 140.6 141.8 130.6 121.9 122.5 119.2 113.2 110.3 118.2 124.3 128.1 129 126.1 119.1 119.2 133.9 157.7 160.2 153.1 125.9 115.5 109.8 93.5 78.4 54 46 40.2 33.5 34.2 33.1 23.3 19.3 16.7 17.7 19.6 10.6 12.4 15 8.2 7.2 -0.1 -2.2 -2.2 -2.2 -2.2 -2.2 8.6 9 17 26.4 31.9 33.9 41.7 35.8 31.5 32.4 27.6 22.3 16 11.5 -2.2 -2.2 -2.2 -2.2 -2.2 1.6 -2.2 -2.2 -2.2 -2.2 -2.2 -2.2 -2.2 -2.2 -2.2 -2.2 -2.2 -2.2 -2.2 -2.2 -2.2 -2.2 -2.2 -2.2 -2.2 -2.2 -2.2 -2.2 -2.2 -2.2 -2.2 -2.2 -2.2 -2.2 -2.2 -2.2 -2.2 -2.2 -2.2 -2.2 -2.2 -2.2 -2.2 -2.2 -2.2 -2.2 -2.2 -2.2 -2.2 -2.2 -2.2 -2.2 -2.2 -2.2 -2.2 10.4 -2.2 -2.2 -2.2 -2.2 -2.2 -2.2 -2.2 -2.2 -2.2 -2.2 14 24.7 34.7 39.8 38.1 39.1 39.3 43.7 60.2
259 271.4 273.5 276.8 269.8 259.7 243.7 225.1 209.6 200.7 191.7 182.7 175.5 174.6 168 169.5 170.9 175.1 177.9 188 196 205.6 215.3 222.5 235.9 246.1 254.7 264.3 275.6 285 297.2 311.4 326.8 338.7 350 361.2 371.2 386.5 395.2 406.9 413.4 413.9 409.2 403.8 393.5 380.9 373.8 365.6 355.9 343.9 331.8 317.2 305.2 289.1 270.7 255.2 242.5 226.7 209 193.8 178.8 167.8 166.3 154.7 146.4 137.4 135.4 123.5 117.8 115.4 112.7 107.6 107 119.9 124.6 126.7 123.4 125.4 124.2 123.5 121.2 128.6 144.3 139.8 136.2 116.8 113.8 94.4 81.9 64.5 48.3 33.7 30.7 22.3 28.5 20.9 13.1 8.9 16 20.4 12.9 2 8.1 9 11.9 5.4 -2.2 -2.2 -2.2 -2.2 -2.2 19.1 23.5 21.5 25.9 38 35.9 33.6 33.4 30.5 31.7 32.1 33.3 18.4 19.5 9.3 -2.2 -2.2 -2.2 -2.2 8.3 -2.2 -2.2 -2.2 -2.2 -2.2 -2.2 -2.2 -2.2 -2.2 -2.2 -2.2 -2.2 -2.2 -2.2 -2.2 -2.2 -2.2 -2.2 -2.2 -2.2 -2.2 -2.2 -2.2 -2.2 -2.2 -2.2 -2.2 -2.2 -2.2 -2.2 -2.2 -2.2 -2.2 -2.2 -2.2 -2.2 -2.2 -2.2 -2.2 -2.2 -2.2 -2.2 -2.2 -2.2 -2.2 -2.2 -2.2 -2.2 -2.2 -2.2 -2.2 -2.2 -2.2 -2.2 -2.2 -2.2 -2.2 -2.2 -2.2 -2.2 10 24.3 31.7 33.7 30.9 31.5 30.4 37.7 38.4
256.7 265.5 270.5 270.7 267.3 255.3 242.3 223.8 210.1 199.4 190 179 172.5 171.3 167.1 165.3 167.6 173 175.4 184.3 194.7 205.7 214.3 224 240.4 248.9 254 261 269 281 292.7 307.9 320.3 333.9 346 357.1 368.5 381.1 396 408.2 413.5 411.7 404.8 399.1 391.1 381.5 374.3 367.1 360.8 353.8 339.6 327.3 315.8 305.1 278.4 264.7 252.1 229.6 209.6 193.8 182.2 165 158.8 153.2 140.7 129.4 127.4 117.2 108.9 108.5 111.8 107.2 104 108.1 120.4 120.9 122 132.3 134.8 133.4 134.8 129.9 122.8 118 118.8 100.5 95.3 82.5 74.3 62.2 45.3 36.7 20.4 23.8 15.6 19.5 6.5 5.4 10.4 10.9 9.6 1.7 3.3 1.8 2.6 11.3 -2.2 -2.2 -2.2 -2.2 -2.2 17.6 19.5 21 36.1 31 36.5 31.7 29.1 29.9 36.3 29.8 22.8 21.6 19.2 8.6 -2.2 -2.2 -2.2 -2.2 -2.2 -2.2 1.5 8.2 -2.2 -2.2 1.8 -2.2 -2.2 -2.2 -2.2 -2.2 -2.2 -2.2 -2.2 -2.2 -2.2 -2.2 -2.2 -2.2 -2.2 -2.2 -2.2 -2.2 -2.2 -2.2 -2.2 -2.2 -2.2 -2.2 -2.2 -2.2 -2.2 -2.2 -2.2 -2.2 -2.2 -2.2 -2.2 -2.2 -2.2 -2.2 -2.2 -2.2 -2.2 -2.2 -2.2 -2.2 -2.2 -2.2 -2.2 -2.2 -2.2 -2.2 -2.2 -2.2 -2.2 -2.2 -2.2 -2.2 -2.2 -2.2 28.2 31.2 24.3 27 31 27.7 34.8 34.4
250.5 262.5 266.2 268.3 261.1 252.4 238.5 219.3 208.1 197.2 188.1 175.8 169.5 168.1 163.6 155.8 166.3 167.6 176.3 184.7 190.8 200.7 209.3 223.4 235.9 240.5 249.6 258.8 265.1 278.3 290.4 302.2 315.5 327.6 341.6 353.5 369.2 382.1 396.1 408.3 411.8 409.5 403.2 394.7 387.8 378.9 374.1 369.6 362.6 356.5 344.2 331 323.9 312 295.9 271.8 258 249.2 226.2 203.2 183.3 170.1 151.8 144 130 125.1 121.2 111.2 104.1 106.4 106.2 103.6 104.3 106.4 114.7 123.5 126.6 133.2 136 138.2 136.4 132.4 126.6 115.2 101.1 85.9 77.2 75.3 73 61.1 39.2 43.1 24.2 18.6 15.6 9.2 -2.2 -2.2 -2.2 -2.2 -2.2 -2.2 -2.2 -2.2 -2.2 10.3 -2.2 -2.2 -2.2 -2.2 -2.2 -2.2 -2.2 14 25.7 26.5 26.3 24.6 24.1 34.2 30.4 26.5 21 19.2 25.2 18.2 -2.2 -2.2 -2.2 -2.2 -2.2 -2.2 11.3 10.5 -2.2 -2.2 -2.2 2.2 -2.2 -2.2 -2.2 -2.2 -2.2 -2.2 -2.2 -2.2 -2.2 -2.2 -2.2 -2.2 -2.2 -2.2 -2.2 -2.2 -2.2 -2.2 -2.2 -2.2 -2.2 -2.2 -2.2 -2.2 -2.2 -2.2 -2.2 -2.2 -2.2 -2.2 -2.2 -2.2 -2.2 -2.2 -2.2 -2.2 -2.2 -2.2 -2.2 -2.2 -2.2 -2.2 -2.2 -2.2 -2.2 -2.2 -2.2 -2.2 -2.2 -2.2 -2.2 -2.2 -2.2 -2.2 15.7 27.1 16.3 21.1 28.2 28.3 35.3 38.1
248.3 253.7 261.9 261.1 253.8 243.8 230.4 213.8 203 194.8 184.8 171.1 168.5 165.5 161.1 154.1 163.2 168.3 174.9 181.2 185.7 193.8 204.8 219.8 226.6 232.8 245.1 252 260.5 271.4 283.2 294.7 308.7 322.2 336 354.1 369.9 382.8 396.3 405.7 408.8 406 399.7 390.5 384.5 377 372.7 369.3 363.8 359.8 348 335.2 327.2 312.9 301.2 281.4 264 256.9 234.7 218.4 206.2 183.3 155.6 139.9 127.5 119.4 112.8 101.6 101.8 101.9 111.3 107.4 107.6 109.5 119.1 120.8 125 130.6 133.5 140 136.3 136.1 129.1 122.3 103 86.2 74.1 65.3 64.3 54.9 41.3 30.2 25.6 25.8 9.4 7.3 -2.2 -2.2 -2.2 -2.2 -2.2 -2.2 -2.2 -2.2 -2.2 1.1 -2.2 -2.2 -2.2 -2.2 -2.2 -2.2 -2.2 9.2 13.3 12.1 14.9 20.2 19.5 23.7 25.2 25.1 19 20.8 15.7 14.9 -2.2 -2.2 -2.2 -2.2 -2.2 -2.2 5.1 8.3 -2.2 -2.2 4.4 -2.2 -2.2 -2.2 -2.2 -2.2 -2.2 -2.2 -2.2 -2.2 -2.2 -2.2 -2.2 -2.2 -2.2 -2.2 -2.2 -2.2 -2.2 -2.2 -2.2 -2.2 -2.2 -2.2 -2.2 -2.2 -2.2 -2.2 -2.2 -2.2 -2.2 -2.2 -2.2 -2.2 -2.2 -2.2 -2.2 -2.2 -2.2 -2.2 -2.2 -2.2 -2.2 -2.2 -2.2 -2.2 -2.2 -2.2 -2.2 -2.2 -2.2 -2.2 -2.2 -2.2 -2.2 -2.2 -2.2 15.3 9.2 10.8 19.5 17.2 23.4 31.4
241.2 249 251.1 251.4 245 235 223.8 209.7 198.5 190.4 179.8 170.2 166.2 162.7 158.4 151.3 158.4 165.1 171.8 177.8 184.4 191.8 196.9 207.2 216.9 230.6 238.1 248.3 257.8 266.2 276.9 290.9 305.3 320 338.2 355.5 371 380.9 392.5 401.4 403.4 398.9 393 386 379.2 375.9 373.3 370.9 366.7 359.1 351.5 336.1 327 314.7 303.2 284.7 264.6 251.3 238.6 222.2 207.7 191 158.7 147.9 125.6 113 104.4 101.4 103.5 108.3 116.2 114.3 111.8 109.7 114.2 121 125.7 130.1 132.9 134.3 136.4 131.1 128.4 120.6 112 96.3 88.5 78.6 58.4 40.9 31.2 21.8 18 22.5 13 1.8 -2.2 -2.2 -2.2 -2.2 -2.2 -2.2 -2.2 -2.2 -2.2 -2.2 -2.2 -2.2 -2.2 -2.2 -2.2 -2.2 -2.2 -2.2 11.9 24.7 10.8 10.4 9.1 16.5 20.7 25.8 19.2 15.2 15.2 -2.2 -2.2 -2.2 -2.2 -2.2 -2.2 -2.2 0.5 1.3 -2.2 7.2 6.5 -2.2 -2.2 -2.2 -2.2 -2.2 -2.2 -2.2 -2.2 -2.2 -2.2 -2.2 -2.2 -2.2 -2.2 -2.2 -2.2 -2.2 -2.2 -2.2 -2.2 -2.2 -2.2 -2.2 -2.2 -2.2 -2.2 -2.2 -2.2 -2.2 -2.2 -2.2 -2.2 -2.2 -2.2 -2.2 -2.2 -2.2 -2.2 -2.2 -2.2 -2.2 -2.2 -2.2 -2.2 -2.2 -2.2 -2.2 -2.2 -2.2 -2.2 -2.2 -2.2 -2.2 -2.2 -2.2 -2.2 -2.2 -2.2 -2.2 -2.2 -2.2 -2.2 12.9
234.4 238.4 239.6 238.1 233.6 224.5 212.3 201.4 193.4 184.6 176.8 164.2 162.6 160.9 155.9 150.2 155.2 160.1 165.2 175.2 179.6 185.9 195.6 205.1 215.8 224.1 234.2 242.1 253.7 263.1 274.3 286.3 300.1 319.6 341 354.1 366.4 375.7 386.1 391.7 393.5 390.3 386 381.1 374.5 372.2 372.1 370.5 367 361.9 353.5 342.7 334.3 315.4 301.5 284.7 269.8 260.7 241.2 224.8 211 189.2 159.3 140.1 124.7 115.1 110.1 103.3 99.8 103.8 110.8 113.6 110.6 109.5 115.2 121 128 128.3 130 129.3 130.2 126.3 120.1 115.4 101.9 98.4 93.5 87.2 71.1 45.3 36.6 32.1 20.9 8 1.8 0.6 -2.2 -2.2 -2.2 -2.2 -2.2 -2.2 -2.2 -2.2 -2.2 -2.2 -2.2 -2.2 -2.2 -2.2 -2.2 -2.2 -2.2 -2.2 -2.2 17.7 12.8 6.9 8.1 15 15.8 15 16.6 13.6 6.4 -2.2 -2.2 -2.2 -2.2 -2.2 -2.2 -2.2 -2.2 -2.2 -2.2 -2.2 2.4 -2.2 -2.2 -2.2 -2.2 -2.2 -2.2 -2.2 -2.2 -2.2 -2.2 -2.2 -2.2 -2.2 -2.2 -2.2 -2.2 -2.2 -2.2 -2.2 -2.2 -2.2 -2.2 -2.2 -2.2 -2.2 -2.2 -2.2 -2.2 -2.2 -2.2 -2.2 -2.2 -2.2 -2.2 -2.2 -2.2 -2.2 -2.2 -2.2 -2.2 -2.2 -2.2 -2.2 -2.2 -2.2 -2.2 -2.2 -2.2 -2.2 -2.2 -2.2 -2.2 -2.2 -2.2 -2.2 -2.2 -2.2 -2.2 -2.2 -2.2 -2.2 -2.2 -2.2
222.8 225 231 226.8 221.9 210.6 201.7 192.8 183.8 177.3 172 160.8 159.4 158.6 153.4 147.2 153 157.6 162.2 172.4 177.2 183.3 190.7 201.5 211.9 222.5 229.3 240.4 247.8 258.2 268.9 280.8 298.6 318.7 339.1 352 362.5 369.3 379.6 383 383.7 382.6 377.7 373.1 368.4 368.5 369.7 370.3 368.8 363.9 357.1 343.3 333.8 322 298.9 287.2 270.9 256.4 234.7 225.8 216.3 184.2 160.9 135.6 123.9 114.2 106.2 101.1 100 100.6 107.1 111.5 112.9 110.1 115.8 120 131.3 128.7 130.5 124.1 124 128.8 120.3 104.2 93.1 89 86 82.1 69.5 50.4 37.6 30.4 24 17.1 5.6 0.7 -2.2 -2.2 -2.2 -2.2 -2.2 -2.2 -2.2 -2.2 -2.2 -2.2 -2.2 -2.2 -2.2 -2.2 -2.2 -2.2 -2.2 -2.2 -2.2 -2.2 -2.2 -2.2 12.4 10.3 11.1 9.7 8.8 8.2 11.2 8.1 -2.2 -2.2 -2.2 -2.2 -2.2 -2.2 -2.2 -2.2 -2.2 -2.2 -2.2 -2.2 -2.2 -2.2 -2.2 -2.2 -2.2 -2.2 -2.2 -2.2 -2.2 -2.2 -2.2 -2.2 -2.2 -2.2 -2.2 -2.2 -2.2 -2.2 -2.2 -2.2 -2.2 -2.2 -2.2 -2.2 -2.2 -2.2 -2.2 -2.2 -2.2 -2.2 -2.2 -2.2 -2.2 -2.2 -2.2 -2.2 -2.2 -2.2 -2.2 -2.2 -2.2 -2.2 -2.2 -2.2 -2.2 -2.2 -2.2 -2.2 -2.2 -2.2 -2.2 -2.2 -2.2 -2.2 -2.2 -2.2 -2.2 -2.2 -2.2 -2.2 -2.2 -2.2
212.9 214.6 216.4 213.6 208.8 200.4 191.5 182.2 176.5 171.4 165.3 158.4 156.4 154.7 149.5 144.7 151 154.9 162.7 168.8 173.7 178.6 185.3 194.4 206.1 217.4 226.7 236.1 245.2 253.8 264.5 278.3 295.3 313.1 333.1 347.8 355.8 362.2 369.9 374.3 374.9 373.8 369.6 365.8 362.6 362.7 363.1 366.1 366.1 366.6 359.5 349.7 339.6 324 303.7 280.3 263.9 244.2 224.7 216.3 206 182.2 159.2 136.8 124.4 114.7 107.1 100.6 98.9 101.8 104.4 109.7 110.2 110.3 111.2 117.1 129.6 128.7 133.7 118.5 114.5 117.4 113 100.1 83.6 82.5 76.8 68.5 65.5 53.7 45.6 33.5 21.8 14.2 10.5 10.4 6.6 -2.2 -2.2 -2.2 -2.2 -2.2 -2.2 -2.2 -2.2 -2.2 -2.2 -2.2 -2.2 -2.2 -2.2 -2.2 -2.2 -2.2 -2.2 -2.2 -2.2 -2.2 10.7 8.8 7.6 7.5 8.4 10.9 9.7 9.7 -2.2 -2.2 -2.2 -2.2 -2.2 10.1 -2.2 -2.2 -2.2 -2.2 -2.2 -2.2 -2.2 -2.2 -2.2 -2.2 -2.2 -2.2 -2.2 -2.2 -2.2 -2.2 -2.2 -2.2 -2.2 -2.2 -2.2 -2.2 -2.2 -2.2 -2.2 -2.2 -2.2 -2.2 -2.2 -2.2 -2.2 -2.2 -2.2 -2.2 -2.2 -2.2 -2.2 -2.2 -2.2 -2.2 -2.2 -2.2 -2.2 -2.2 -2.2 -2.2 -2.2 -2.2 -2.2 -2.2 -2.2 -2.2 -2.2 -2.2 -2.2 -2.2 -2.2 -2.2 -2.2 -2.2 -2.2 -2.2 -2.2 -2.2 -2.2 -2.2 -2.2 -2.2
208.1 208.9 208 207.2 198.8 186.2 182.3 174.2 169.2 166 160.3 156.3 152 149.9 147 141.8 150 154 160.3 166 169.4 180.7 184.8 190.5 199.6 210 221.4 231.6 239 247.1 262.7 276.8 292 310 324.8 339.7 352.7 357.4 360.8 365.4 364.8 363.3 359.7 356.6 354.5 355.7 357.5 362.3 364.5 367 356.4 347.3 337.6 326.3 312.9 289 260.4 238 215.5 204.6 191.3 172.7 158.8 133.2 122.8 110.9 102.9 101.3 101.3 99.5 103 105.1 109.3 112.4 111.8 118.6 124.7 125.5 124.7 118.2 109.9 105.6 99 89.5 76.1 75.1 72.9 64.4 60.6 57.6 55.7 50 36.2 26.6 24.1 19 13.3 9.1 -2.2 -2.2 -2.2 -2.2 -2.2 -2.2 -2.2 -2.2 -2.2 -2.2 -2.2 -2.2 -2.2 -2.2 -2.2 -2.2 -2.2 -2.2 -2.2 -2.2 1.8 7.7 4.8 7.6 14.8 9 -2.2 -2.2 -2.2 -2.2 -2.2 -2.2 -2.2 -2.2 0.3 -2.2 -2.2 -2.2 -2.2 -2.2 -2.2 -2.2 -2.2 -2.2 -2.2 -2.2 -2.2 -2.2 -2.2 -2.2 -2.2 -2.2 -2.2 -2.2 -2.2 -2.2 -2.2 -2.2 -2.2 -2.2 -2.2 -2.2 -2.2 -2.2 -2.2 -2.2 -2.2 -2.2 -2.2 -2.2 -2.2 -2.2 -2.2 -2.2 -2.2 -2.2 -2.2 -2.2 -2.2 -2.2 -2.2 -2.2 -2.2 -2.2 -2.2 -2.2 -2.2 -2.2 -2.2 -2.2 -2.2 -2.2 -2.2 -2.2 -2.2 -2.2 -2.2 -2.2 -2.2 -2.2 -2.2 -2.2
196.5 199.9 197.5 194.9 188.8 176.3 170.6 165.8 162.9 159.8 154.7 151.8 144.8 144.7 141 137.9 148.1 153.6 155.9 161.4 167.2 175.1 180.3 187.6 195.2 203.7 215.3 222.5 234.5 245.1 258.5 270.3 284.2 306.3 323.1 337.9 345.7 350 352.1 354.5 354.2 351.7 349.7 347.4 346.4 347.5 350.2 353.1 361.4 366 356.9 351.7 344.4 329.3 311.2 293.8 266.9 233.4 212.3 195.8 181.7 169.9 149.8 127.3 113.3 106.8 103 98.9 98.9 99.9 103.1 101.2 104 107.9 110.2 116 121.6 122.7 126.9 118.4 114.1 95.8 84.6 77.9 73 72 67.4 64.2 63.2 62.2 59.4 58.8 50.2 36.4 34.8 35.7 23.4 13.7 -2.2 -2.2 -2.2 -2.2 -2.2 -2.2 -2.2 -2.2 -2.2 -2.2 -2.2 -2.2 -2.2 -2.2 -2.2 -2.2 -2.2 -2.2 -2.2 -2.2 -2.2 -2.2 -2.2 -2.2 -2.2 -2.2 -2.2 -2.2 -2.2 -2.2 -2.2 -2.2 -2.2 -2.2 -2.2 -2.2 -2.2 -2.2 -2.2 -2.2 -2.2 -2.2 -2.2 -2.2 -2.2 -2.2 -2.2 -2.2 -2.2 -2.2 -2.2 -2.2 -2.2 -2.2 -2.2 -2.2 -2.2 -2.2 -2.2 -2.2 -2.2 -2.2 -2.2 -2.2 -2.2 -2.2 -2.2 -2.2 -2.2 -2.2 -2.2 -2.2 -2.2 -2.2 -2.2 -2.2 -2.2 -2.2 -2.2 -2.2 -2.2 -2.2 -2.2 -2.2 -2.2 -2.2 -2.2 -2.2 -2.2 -2.2 -2.2 -2.2 -2.2 -2.2 -2.2 -2.2 -2.2 -2.2 -2.2 -2.2 -2.2 -2.2
186.5 190.1 189.5 185.5 178.4 170.1 162.7 155.6 152.8 154.6 151 146.7 142.3 140.5 138.5 135.1 145.9 151.7 152.9 156.9 163.8 167.3 173.4 181.1 189 197.5 206.4 213.1 233.1 244.6 252.2 268.8 283.4 298.7 321.3 333.1 339.2 341.6 340.3 342.7 342.3 340.9 340 338.4 338.9 341.4 344.7 351.2 356.3 360.4 357.7 350.2 341.2 328.8 314.8 292 265.7 229.5 205.2 190.4 175.8 159.6 149.3 125.7 111.4 106.6 102.6 98.9 98.9 98.9 104.9 100.4 98.9 102.6 106.7 116.7 120.1 119.6 115.7 109 108.4 92.2 79.7 73.7 66.7 67.7 71 66.4 66.7 68.6 64 59.5 49.6 42.6 38.4 41.3 43.1 13.7 -2.2 -2.2 -2.2 -2.2 -2.2 -2.2 -2.2 -2.2 -2.2 -2.2 -2.2 -2.2 -2.2 -2.2 -2.2 -2.2 -2.2 -2.2 -2.2 -2.2 -2.2 -2.2 -2.2 -2.2 -2.2 -2.2 -2.2 -2.2 -2.2 -2.2 -2.2 -2.2 -2.2 -2.2 -2.2 -2.2 -2.2 -2.2 -2.2 -2.2 -2.2 -2.2 -2.2 -2.2 -2.2 -2.2 -2.2 -2.2 -2.2 -2.2 -2.2 -2.2 -2.2 -2.2 -2.2 -2.2 -2.2 -2.2 -2.2 -2.2 -2.2 -2.2 -2.2 -2.2 -2.2 -2.2 -2.2 -2.2 -2.2 -2.2 -2.2 -2.2 -2.2 -2.2 -2.2 -2.2 -2.2 -2.2 -2.2 -2.2 -2.2 -2.2 -2.2 -2.2 -2.2 -2.2 -2.2 -2.2 -2.2 -2.2 -2.2 -2.2 -2.2 -2.2 -2.2 -2.2 -2.2 -2.2 -2.2 -2.2 -2.2 -2.2
176.1 176.1 177.2 177.9 171.5 164.5 155.5 153.3 149.5 148.8 146.4 142.1 138.4 135.2 135.8 133.7 141.2 146.5 149.7 152.4 157.7 163.8 170.1 176.4 183.3 191.8 197.2 210.9 228.2 241.4 252.2 264.9 277.4 294 312.9 325 330.8 330.5 327.1 331.7 331.5 331.3 329.4 329.4 332.1 336 339.7 345.3 351.7 353.4 351.4 350 341.1 331.3 317.7 286.4 263.6 229.9 204.5 187.4 173.6 163.3 141 127.8 113 107.7 103.1 98.9 98.9 98.9 101.6 98.9 98.9 102.3 106.6 111 119.9 113.5 105 103.2 99.3 90 85.4 77.7 69.3 66.2 68 67.6 66.4 68 61.8 56.4 50.3 48.9 43.2 41.2 46 32.3 -2.2 -2.2 -2.2 -2.2 -2.2 -2.2 -2.2 -2.2 -2.2 -2.2 -2.2 -2.2 -2.2 -2.2 -2.2 -2.2 -2.2 -2.2 -2.2 -2.2 -2.2 -2.2 -2.2 -2.2 -2.2 -2.2 -2.2 -2.2 -2.2 -2.2 -2.2 -2.2 -2.2 -2.2 -2.2 -2.2 -2.2 -2.2 -2.2 -2.2 -2.2 -2.2 -2.2 -2.2 -2.2 -2.2 -2.2 -2.2 -2.2 -2.2 -2.2 -2.2 -2.2 -2.2 -2.2 -2.2 -2.2 -2.2 -2.2 -2.2 -2.2 -2.2 -2.2 -2.2 -2.2 -2.2 -2.2 -2.2 -2.2 -2.2 -2.2 -2.2 -2.2 -2.2 -2.2 -2.2 -2.2 -2.2 -2.2 -2.2 -2.2 -2.2 -2.2 -2.2 -2.2 -2.2 -2.2 -2.2 -2.2 -2.2 -2.2 -2.2 -2.2 -2.2 -2.2 -2.2 -2.2 -2.2 -2.2 -2.2 -2.2 -2.2
158.4 160.3 165.1 168.5 160 154.2 152.3 147.3 144.8 143.2 142.8 140.2 136.2 132.6 132.1 128.3 137.5 140.2 144.9 148.1 154.7 157.7 162.8 171.6 180.4 183.9 196 209.9 225.6 235.3 248.7 260 271.5 289.7 305.4 316.4 320.6 320.2 319.9 322.7 322 321.9 321.2 322.1 324 328.6 333.4 338.5 344.8 346.8 349 346.6 340.4 332.7 315.3 290.2 258.4 230.2 203 181.6 169.7 156.6 146.8 126.9 112.8 106.6 104 98.9 98.9 98.9 101 101.9 98.9 101.4 101.5 104.7 113 108.4 98.8 98.2 95.7 90.2 84.4 76.4 71.2 67.3 66.6 65.9 67.3 64.4 60.9 54.9 53.2 48.2 42.3 41.2 43.4 32.3 2.4 -2.2 -2.2 -2.2 -2.2 -2.2 -2.2 -2.2 -2.2 -2.2 -2.2 -2.2 -2.2 -2.2 -2.2 -2.2 -2.2 -2.2 -2.2 -2.2 -2.2 -2.2 -2.2 -2.2 -2.2 -2.2 -2.2 -2.2 -2.2 -2.2 -2.2 -2.2 -2.2 -2.2 -2.2 -2.2 -2.2 -2.2 -2.2 -2.2 -2.2 -2.2 -2.2 -2.2 -2.2 -2.2 -2.2 -2.2 -2.2 -2.2 -2.2 -2.2 -2.2 -2.2 -2.2 -2.2 -2.2 -2.2 -2.2 -2.2 -2.2 -2.2 -2.2 -2.2 -2.2 -2.2 -2.2 -2.2 -2.2 -2.2 -2.2 -2.2 -2.2 -2.2 -2.2 -2.2 -2.2 -2.2 -2.2 -2.2 -2.2 -2.2 -2.2 -2.2 -2.2 -2.2 -2.2 -2.2 -2.2 -2.2 -2.2 -2.2 -2.2 -2.2 -2.2 -2.2 -2.2 -2.2 -2.2 -2.2 -2.2 -2.2
142 144 149.1 156.4 150.7 143.2 143.1 140 137.6 137.9 138.2 136.4 134.6 128.8 129.8 124.5 134.7 136.6 142.1 145.4 150.6 155.5 160.4 163.8 168.1 182 198.7 207.6 218.2 231.5 242.8 252.5 268 282.9 293.6 305.1 310.5 313.7 314.9 312.7 312 311.4 310.5 313.5 317.8 321.3 326.3 332.7 337.8 341.2 343.5 342.3 339.7 330.6 316.9 297 269.4 227.2 204.1 182.9 169 153.1 144.2 131.3 123.1 104.8 101.7 98.9 98.9 98.9 100.3 98.9 100.7 100.8 101.2 104.9 110.9 108.2 101 97.6 93 86.9 83.5 78.9 71.3 67.9 64.9 65.4 63.7 61.5 62.6 56.6 51.5 45.9 37.7 39.4 38.5 26.8 7.1 -2.2 -2.2 -2.2 -2.2 -2.2 -2.2 -2.2 -2.2 -2.2 -2.2 -2.2 -2.2 -2.2 -2.2 -2.2 -2.2 -2.2 -2.2 -2.2 -2.2 -2.2 -2.2 -2.2 -2.2 -2.2 -2.2 -2.2 -2.2 -2.2 -2.2 -2.2 -2.2 -2.2 -2.2 -2.2 -2.2 -2.2 -2.2 -2.2 -2.2 -2.2 -2.2 -2.2 -2.2 -2.2 -2.2 -2.2 -2.2 -2.2 -2.2 -2.2 -2.2 -2.2 -2.2 -2.2 -2.2 -2.2 -2.2 -2.2 -2.2 -2.2 -2.2 -2.2 -2.2 -2.2 -2.2 -2.2 -2.2 -2.2 -2.2 -2.2 -2.2 -2.2 -2.2 -2.2 -2.2 -2.2 -2.2 -2.2 -2.2 -2.2 -2.2 -2.2 -2.2 -2.2 -2.2 -2.2 -2.2 -2.2 -2.2 -2.2 -2.2 -2.2 -2.2 -2.2 -2.2 -2.2 -2.2 -2.2 -2.2 -2.2
125.2 130.3 135.9 140.2 140.4 138.7 136 137.4 130.3 133.6 134.1 129.1 127.2 127.3 128.5 116.9 129.7 136 139.5 144.4 146.2 154.6 156.8 160.3 166.3 180.3 193 203.9 214.8 226.7 235.5 246.7 261.4 273.7 285.7 293.1 300.3 301.6 302.5 300.6 301.6 301.6 300.5 304 308.6 314.3 318.9 324.7 330.1 333.2 336.6 338.6 334.6 328.1 318.1 302 275.2 236.1 208.9 184.9 165.2 156.8 144.6 134.8 126.1 111.3 104.7 99.3 98.9 98.9 98.9 100.6 101.7 99.3 102 105.8 111.5 108.8 102.5 100.3 95.8 92 85.2 81.1 73.9 72.2 70.2 66.5 62.8 62.2 65.9 61.1 54.5 44.8 40.1 37.8 28.7 18.2 12.1 1.3 -2.2 -2.2 -2.2 -2.2 -2.2 -2.2 -2.2 -2.2 -2.2 -2.2 -2.2 -2.2 -2.2 -2.2 -2.2 -2.2 -2.2 -2.2 -2.2 -2.2 -2.2 -2.2 -2.2 -2.2 -2.2 -2.2 -2.2 -2.2 -2.2 -2.2 -2.2 -2.2 -2.2 -2.2 -2.2 -2.2 -2.2 -2.2 -2.2 -2.2 -2.2 -2.2 -2.2 -2.2 -2.2 -2.2 -2.2 -2.2 -2.2 -2.2 -2.2 -2.2 -2.2 -2.2 -2.2 -2.2 -2.2 -2.2 -2.2 -2.2 -2.2 -2.2 -2.2 -2.2 -2.2 -2.2 -2.2 -2.2 -2.2 20.1 29.2 28.2 26.5 18.7 -2.2 -2.2 -2.2 -2.2 -2.2 -2.2 -2.2 -2.2 -2.2 -2.2 -2.2 -2.2 -2.2 -2.2 -2.2 -2.2 -2.2 -2.2 -2.2 -2.2 -2.2 -2.2 -2.2 -2.2 -2.2 -2.2
102.1 119.6 122.6 127.4 131.8 130.5 130.1 129.6 122.1 127.3 125.8 123.5 123.1 123.6 123.1 118 127.9 131.6 136.5 139.3 141.1 145.4 149.3 155.9 166.1 180.1 187.7 199.4 213.4 223.8 231.5 240.8 253.7 267.3 276.8 284 289 292.9 292.5 290.8 291.3 290.4 293.9 295.7 301 307 311.8 318 323.2 328.1 330.9 332 329.2 322.5 314.8 303.2 282.9 236.7 209.7 188.2 172.9 159.4 148.9 139.4 129.5 114.5 108 103.1 98.9 98.9 98.9 98.9 99.1 101.3 98.9 102.5 106.9 106.2 102.1 102.1 101.2 99.1 89.4 83.8 75.2 72.8 73.1 70.5 69.4 65.9 60.4 62.3 61.6 56.8 37.8 35.7 16.7 15 10.2 1.7 -2.2 -2.2 -2.2 -2.2 -2.2 -2.2 -2.2 -2.2 -2.2 -2.2 -2.2 -2.2 -2.2 -2.2 -2.2 -2.2 -2.2 -2.2 -2.2 -2.2 -2.2 -2.2 -2.2 -2.2 -2.2 -2.2 -2.2 -2.2 -2.2 -2.2 -2.2 -2.2 -2.2 -2.2 -2.2 -2.2 -2.2 -2.2 -2.2 -2.2 -2.2 -2.2 -2.2 -2.2 -2.2 -2.2 -2.2 -2.2 -2.2 -2.2 -2.2 -2.2 -2.2 -2.2 -2.2 -2.2 -2.2 -2.2 -2.2 -2.2 -2.2 -2.2 -2.2 -2.2 -2.2 -2.2 -2.2 14.3 25.9 40.9 40.8 34.3 39.9 30.3 26.6 18.5 -2.2 -2.2 -2.2 -2.2 -2.2 -2.2 -2.2 -2.2 -2.2 -2.2 -2.2 -2.2 -2.2 -2.2 -2.2 -2.2 -2.2 -2.2 -2.2 -2.2 -2.2 -2.2 -2.2 -2.2
80.4 98.6 107.4 112.7 122.5 124.4 124.4 119.2 113.8 117.4 121.3 121.8 120.7 120.1 119.9 111.3 123.4 127.3 131.5 134.6 136.7 138.8 140.8 150.2 160 171.4 186.7 197.9 207.4 218 223.2 235.4 247.3 261.2 266.9 275.2 279.7 282.5 283.7 280.4 280.7 280.2 282.3 286.7 290.7 297.7 303.3 309.8 314.9 318.7 321.2 323.3 322.8 318.9 308.7 295.2 271.3 242.4 212.9 190.9 175.7 165.1 155.7 148.1 139.3 119.6 119.8 107.8 107.7 98.9 98.9 98.9 101.1 100.6 98.9 105 105.8 106.5 104 103.2 105.4 101.7 91.9 85.1 77.7 74.1 74.9 73.7 72.8 68.9 63.3 53.5 55.6 52.4 36.6 26.1 22 9.1 2.5 0.8 -2.2 -2.2 -2.2 -2.2 -2.2 -2.2 -2.2 -2.2 -2.2 -2.2 -2.2 -2.2 -2.2 -2.2 -2.2 -2.2 -2.2 -2.2 -2.2 -2.2 -2.2 -2.2 -2.2 -2.2 -2.2 -2.2 -2.2 -2.2 -2.2 -2.2 -2.2 -2.2 -2.2 -2.2 -2.2 -2.2 -2.2 -2.2 -2.2 -2.2 -2.2 -2.2 -2.2 -2.2 -2.2 -2.2 -2.2 -2.2 -2.2 -2.2 -2.2 -2.2 -2.2 -2.2 -2.2 -2.2 -2.2 -2.2 -2.2 -2.2 -2.2 -2.2 -2.2 -2.2 -2.2 -2.2 10.6 19.6 30.2 36.1 48 42.2 42.4 34.1 26.7 22.6 12.4 -2.2 -2.2 -2.2 -2.2 -2.2 -2.2 -2.2 -2.2 -2.2 -2.2 -2.2 -2.2 -2.2 -2.2 -2.2 -2.2 -2.2 -2.2 -2.2 -2.2 -2.2 -2.2 -2.2
58.7 70.8 85.9 98.6 110.3 114.2 113.9 113.1 106.7 107.6 113.3 112.1 114 116.5 115.9 102.9 117.1 122.2 125.7 129.8 133.1 133 140.6 149.7 161.5 171.6 182.3 195.7 206.7 215.1 218.5 229.8 241 251.5 257.1 263.6 271.1 273.8 274.4 267.6 267.7 269.6 271.1 277.8 282.3 288.7 294.3 299.8 306.1 310.8 315.1 319.1 319.9 314.5 309.4 294.4 267 242.6 220 198.4 183.2 169.7 161.1 153.2 147.7 129.1 121.4 113.2 102.3 98.9 98.9 98.9 98.9 98.9 98.9 98.9 102.5 107.9 104.7 107.5 107.7 103.7 96.3 90.7 86.3 75 78.2 75.6 76.4 69.4 63.3 55.7 50.6 45.4 44.7 37.4 29 17 9.1 0.6 -2.2 -2.2 -2.2 -2.2 -2.2 -2.2 -2.2 -2.2 -2.2 -2.2 -2.2 -2.2 -2.2 -2.2 -2.2 -2.2 -2.2 -2.2 -2.2 -2.2 -2.2 -2.2 -2.2 -2.2 -2.2 -2.2 -2.2 -2.2 -2.2 -2.2 -2.2 -2.2 -2.2 -2.2 -2.2 -2.2 -2.2 -2.2 -2.2 -2.2 -2.2 -2.2 -2.2 -2.2 -2.2 -2.2 -2.2 -2.2 -2.2 -2.2 -2.2 -2.2 -2.2 -2.2 -2.2 -2.2 -2.2 -2.2 -2.2 -2.2 -2.2 -2.2 -2.2 -2.2 -2.2 15.4 18.8 28.4 34.1 40.2 51.1 39.8 35 32.3 23 20 15.9 16.6 -2.2 -2.2 -2.2 -2.2 -2.2 -2.2 -2.2 -2.2 -2.2 -2.2 -2.2 -2.2 -2.2 -2.2 -2.2 -2.2 -2.2 -2.2 -2.2 -2.2 -2.2 -2.2
47.5 53.8 68.1 74.4 95.8 104.6 105 97.2 95.5 99.8 104.3 107.7 108.1 111.2 113.6 101.7 114.6 119.9 122.9 125.8 126.3 128.3 140.7 149.3 160.9 170.6 177.9 189.7 203.3 210.3 214.2 218.8 230.8 243.9 249.2 255.4 259.7 266.1 266 259 260.6 262.2 263.8 269.4 273.3 279.2 284.9 292.5 299.7 305.2 313.1 318.2 319 315.9 309 293.2 270 245.6 227 205.5 193.3 176.6 164.4 156.8 150.4 138.3 125.9 120.4 108.8 104.1 99.6 98.9 98.9 98.9 98.9 98.9 99 106.2 103.7 103.1 108 102.4 105.1 94.5 89.3 82.6 79.1 76.9 74.5 72.7 66.3 66.3 57.7 55 47.2 41.9 33 19.8 8.2 1.6 -2.2 -2.2 -2.2 -2.2 -2.2 -2.2 -2.2 -2.2 -2.2 -2.2 -2.2 -2.2 -2.2 -2.2 -2.2 -2.2 -2.2 -2.2 -2.2 -2.2 -2.2 -2.2 -2.2 -2.2 -2.2 -2.2 -2.2 -2.2 -2.2 -2.2 -2.2 -2.2 -2.2 -2.2 -2.2 -2.2 -2.2 -2.2 -2.2 -2.2 -2.2 -2.2 -2.2 -2.2 -2.2 -2.2 -2.2 -2.2 -2.2 -2.2 -2.2 -2.2 -2.2 -2.2 -2.2 -2.2 -2.2 -2.2 -2.2 -2.2 -2.2 -2.2 -2.2 -2.2 -2.2 18.5 25.2 28.7 42.4 51.2 58.9 49.7 29.6 30.3 21.3 19.9 17 20.5 -2.2 -2.2 -2.2 -2.2 -2.2 -2.2 -2.2 -2.2 -2.2 -2.2 -2.2 -2.2 -2.2 -2.2 -2.2 -2.2 -2.2 -2.2 -2.2 -2.2 -2.2 -2.2
38.9 39.8 57.7 63.2 79.9 89.2 91.3 85.8 85.1 90 95.4 96.7 103.1 105.9 108.1 106.5 111.3 115.6 122.4 126.9 122.5 124.3 138.6 149.1 159.1 167.7 174.4 182.6 192.8 204.8 212.5 213.9 222.3 234.3 241.4 246.5 253.1 255.1 254.5 250.2 252.1 254.9 257.4 261.6 266 271.1 277.5 284.1 293 304 312.6 320 318.9 315.4 308.6 300.7 274.4 250.3 235.5 219.2 203.3 188.3 175.1 163.1 154.9 144.6 136.4 121.8 115.8 109.8 103.9 98.9 98.9 98.9 98.9 98.9 98.9 107.8 102.6 104.2 104.2 105 104.9 98 93.2 89.4 76.6 80 82.7 80.3 71 67.3 64.7 65.6 59.1 53.9 47.1 26.8 8.3 1.8 -2.2 -2.2 -2.2 -2.2 -2.2 -2.2 -2.2 -2.2 -2.2 -2.2 -2.2 -2.2 -2.2 -2.2 -2.2 -2.2 -2.2 -2.2 -2.2 -2.2 -2.2 -2.2 -2.2 -2.2 -2.2 -2.2 -2.2 -2.2 -2.2 -2.2 -2.2 -2.2 -2.2 -2.2 -2.2 -2.2 -2.2 -2.2 -2.2 -2.2 -2.2 -2.2 -2.2 -2.2 -2.2 -2.2 -2.2 -2.2 -2.2 -2.2 -2.2 -2.2 -2.2 -2.2 -2.2 -2.2 -2.2 -2.2 -2.2 -2.2 -2.2 -2.2 -2.2 -2.2 11.1 17.3 31.9 32.4 43.1 51.2 53.8 52.3 35.4 26.5 23.9 15.8 14.5 11.5 -2.2 -2.2 -2.2 -2.2 -2.2 -2.2 -2.2 -2.2 -2.2 -2.2 -2.2 -2.2 -2.2 -2.2 -2.2 -2.2 -2.2 -2.2 -2.2 -2.2 -2.2 -2.2
29.3 33.3 47.9 51.6 67.5 74.5 74.2 76.3 79.7 83.7 88.3 91.3 94 97.8 101.6 105 110.7 114.4 119 123.8 119.3 124.2 133.2 146.7 153.7 163 171.8 174.4 185.2 196.9 205.4 206 212.3 224.7 233.3 239 244.4 246.3 245.3 241.7 245.4 246.6 249.7 255.3 260.4 265.1 271.8 281.6 289.9 301 312.2 320.7 323.5 319.1 316.1 301.8 275 254.2 241.3 228.7 213.7 197.5 187.3 171.6 159.8 151.7 144.8 129.6 124.1 114.2 101.8 102.1 98.9 98.9 98.9 100 98.9 104 106.1 107 104.8 106.6 104.5 98.6 95.8 88.2 76.6 80.3 83.5 82 78.4 68.2 69.1 69.3 67.8 65.1 61.1 30.8 18.8 5.8 -2.2 -2.2 -2.2 -2.2 -2.2 -2.2 -2.2 -2.2 -2.2 -2.2 -2.2 -2.2 -2.2 -2.2 -2.2 -2.2 -2.2 -2.2 -2.2 -2.2 -2.2 -2.2 -2.2 -2.2 -2.2 -2.2 -2.2 -2.2 -2.2 -2.2 -2.2 -2.2 -2.2 -2.2 -2.2 -2.2 -2.2 -2.2 -2.2 -2.2 -2.2 -2.2 -2.2 -2.2 -2.2 -2.2 -2.2 -2.2 -2.2 -2.2 -2.2 -2.2 -2.2 -2.2 -2.2 -2.2 -2.2 -2.2 -2.2 -2.2 -2.2 -2.2 -2.2 -2.2 8.4 19.5 31.9 39.4 33.3 45.1 50.4 48.2 33.2 17.9 22.7 6.4 9.8 11.8 -2.2 -2.2 -2.2 -2.2 -2.2 -2.2 -2.2 -2.2 -2.2 -2.2 -2.2 -2.2 -2.2 -2.2 -2.2 -2.2 -2.2 -2.2 -2.2 -2.2 -2.2 -2.2
21.3 25.7 41.2 45.6 56.5 61 65.8 73.1 78.8 77.6 82.1 86.5 91.1 92.4 99 103.3 107 109.6 118 118.2 117 125.3 132.3 142.8 152.8 160.6 168.8 174.4 180.7 188.7 196.4 201 208.4 217.1 225.6 229.1 235.1 238.2 237.4 234.9 237 240.4 244.3 250 255.6 261.9 268.1 278.3 288.4 300.1 312.9 319.4 322.8 323.2 320.7 306 282.7 265.5 244.7 230.5 218.3 204.5 192.2 180.9 165.5 161.2 150.8 138.2 127.3 117.2 111.8 101.1 98.9 98.9 101.7 103.9 98.9 105.4 107.8 108.8 106.9 104.3 101.6 95.4 91.4 85.6 81.3 81.2 80.1 76.9 73.7 72.1 73.7 80.1 75.7 74.8 73.2 60.1 24.5 13.9 9.1 -2.2 -2.2 -2.2 -2.2 -2.2 -2.2 -2.2 -2.2 -2.2 -2.2 -2.2 -2.2 -2.2 -2.2 -2.2 -2.2 -2.2 -2.2 -2.2 -2.2 -2.2 -2.2 -2.2 -2.2 -2.2 -2.2 -2.2 -2.2 -2.2 -2.2 -2.2 -2.2 -2.2 -2.2 -2.2 -2.2 -2.2 -2.2 -2.2 -2.2 -2.2 -2.2 -2.2 -2.2 -2.2 -2.2 -2.2 -2.2 -2.2 -2.2 -2.2 -2.2 -2.2 -2.2 -2.2 -2.2 -2.2 -2.2 -2.2 -2.2 -2.2 -2.2 -2.2 7.8 24.6 32.8 41.9 33.6 35 52.6 52.9 41.2 25.1 9.3 3.9 11.5 17.1 11 -2.2 -2.2 -2.2 -2.2 -2.2 -2.2 -2.2 -2.2 -2.2 -2.2 -2.2 -2.2 -2.2 -2.2 -2.2 -2.2 -2.2 -2.2 -2.2 -2.2 -2.2
17 23.5 33.7 42.8 48.3 51.8 62 67.5 71.6 73.5 71.7 81.5 86.6 90.4 96 99.2 99.7 106.4 115.6 112 109.9 123.9 131.4 139.7 150.4 159 164 171.3 178.4 185.4 190.4 196.6 200.7 208.5 214.4 220 225.2 230.4 228.8 227.6 228.3 234 238.7 244.1 252.3 259.3 266.9 275.7 285.9 299.3 313.4 322.5 324.2 327.2 324.8 312.1 289.2 274.7 251.5 234.4 221.9 209.3 196.5 187.9 175 165.5 156.2 150.8 135.9 120 113.4 107.8 105.1 101.9 98.9 100.6 99.3 108.6 113.6 106.3 104.7 102.4 101.5 97 93.1 83.4 77.3 80.5 79.4 79.2 73.4 76.6 75.3 79.7 72.7 81.3 77 75.3 45.9 21.4 11.6 -2.2 -2.2 -2.2 -2.2 -2.2 -2.2 -2.2 -2.2 -2.2 -2.2 -2.2 -2.2 -2.2 -2.2 -2.2 -2.2 -2.2 -2.2 -2.2 -2.2 -2.2 -2.2 -2.2 -2.2 -2.2 -2.2 -2.2 -2.2 -2.2 -2.2 -2.2 -2.2 -2.2 -2.2 -2.2 -2.2 -2.2 -2.2 -2.2 -2.2 -2.2 -2.2 -2.2 -2.2 -2.2 -2.2 -2.2 -2.2 -2.2 -2.2 -2.2 -2.2 -2.2 -2.2 -2.2 -2.2 -2.2 -2.2 -2.2 -2.2 -2.2 -2.2 -2.2 -2.2 13 21.7 37.1 43 26.6 42.8 47.8 41.9 27 9.5 1.8 10.9 18.9 18.2 18.6 25.1 -2.2 -2.2 -2.2 -2.2 -2.2 -2.2 -2.2 -2.2 -2.2 -2.2 -2.2 -2.2 -2.2 -2.2 -2.2 -2.2 -2.2 -2.2 -2.2
16.3 20.7 30 38.4 39.3 47.8 59.1 63 64.8 68.4 65 74.6 79.8 82.6 90.9 97.7 93.4 102.6 110.7 104.6 102.7 118.6 125.7 133.1 144.6 152.2 160.1 165.6 169.4 179.8 184 188.8 196.7 197.6 207.2 212.7 215.4 219.2 221.9 220.2 227.4 232.3 235.7 240.6 248.5 257.9 266.1 274.7 283.8 298.5 314.1 322.5 326.3 330 329.5 320.6 302.6 289.1 256.9 238.6 226.5 217.1 202.2 191 182.8 172.2 164.2 154.7 145.3 128.8 122.8 116.9 106.8 102.9 98.9 98.9 98.9 104.6 108.3 109 105.3 102.8 101.5 97.2 92.1 85.3 79.4 76.8 76 75.2 73.4 78.2 84.8 75.5 71.1 77.4 80.4 71.6 61.6 32.7 24.3 -2.2 -2.2 -2.2 -2.2 -2.2 -2.2 -2.2 -2.2 -2.2 -2.2 -2.2 -2.2 -2.2 -2.2 -2.2 -2.2 -2.2 -2.2 -2.2 -2.2 -2.2 -2.2 -2.2 -2.2 -2.2 -2.2 -2.2 -2.2 -2.2 -2.2 -2.2 -2.2 -2.2 -2.2 -2.2 -2.2 -2.2 -2.2 -2.2 -2.2 -2.2 -2.2 -2.2 -2.2 -2.2 -2.2 -2.2 -2.2 -2.2 -2.2 -2.2 -2.2 -2.2 -2.2 -2.2 -2.2 -2.2 -2.2 -2.2 -2.2 -2.2 -2.2 -2.2 -2.2 2 15 30.5 32.1 17.1 16.6 21.6 32 26.2 19.8 -2.2 10.2 23.7 24.2 23.7 32.5 15.8 -2.2 -2.2 -2.2 -2.2 -2.2 -2.2 -2.2 -2.2 -2.2 -2.2 -2.2 -2.2 -2.2 -2.2 -2.2 -2.2 -2.2 -2.2
15.2 17 23.4 29.5 35.4 41.2 52.6 56.4 58.5 60.1 62.6 66 75.6 82.4 87.9 93.1 83.9 96.2 103.1 96.9 99.4 114.7 122.1 130.1 138.5 147.6 154.9 162.3 166.1 173.6 179.4 183.6 191.5 191.6 198 205.1 207.4 210.3 212 216.5 224 229.8 234 240.4 247 257.3 265.8 276 284.2 298.1 312.7 322.3 331.2 331.9 333.2 335.6 318 303 281.8 249.1 230.5 220 211.7 198.1 188.7 177.5 172.2 158.5 148.4 135.7 129.4 124 116.3 111 105.2 98.9 98.9 99.7 105.5 115 109.5 102.1 101.3 95.8 89.9 85.6 86 79.9 74.4 75.8 77 80.8 83.3 78.3 71.1 73 69.8 69.5 56.6 46.2 43.3 7.3 -2.2 -2.2 -2.2 -2.2 -2.2 -2.2 -2.2 -2.2 -2.2 -2.2 -2.2 -2.2 -2.2 -2.2 -2.2 -2.2 -2.2 -2.2 -2.2 -2.2 -2.2 -2.2 -2.2 -2.2 -2.2 -2.2 -2.2 -2.2 -2.2 -2.2 -2.2 -2.2 -2.2 -2.2 -2.2 -2.2 -2.2 -2.2 -2.2 -2.2 -2.2 -2.2 -2.2 -2.2 -2.2 -2.2 -2.2 -2.2 -2.2 -2.2 -2.2 -2.2 -2.2 -2.2 -2.2 -2.2 -2.2 -2.2 -2.2 -2.2 -2.2 -2.2 -2.2 -2.2 -2.2 -2.2 10.2 13.6 18.2 17.8 24.5 19.3 15.4 -2.2 -2.2 23.8 22.3 22 34.1 28.9 -2.2 -2.2 -2.2 -2.2 -2.2 -2.2 -2.2 -2.2 -2.2 -2.2 -2.2 -2.2 -2.2 -2.2 -2.2 -2.2 -2.2 -2.2
12.9 15.8 17.4 24.1 30.7 35.7 44.4 49 50.3 54.1 61.2 63.9 70.1 77.1 82.8 89.6 83 87.8 91.9 93.5 101.5 110.5 120.1 125.5 135.5 143.7 149.9 156.8 163.8 167.6 173 177.3 183.9 188.7 191.3 200.6 202.2 203.7 206.1 208.3 219.3 225.2 231.8 240.4 247.1 257 267.5 276.5 286.4 300.4 312.8 323.7 331.1 335.3 337.3 339 328.8 315.1 300.7 267.5 249.8 230.8 218.8 206.7 198.7 185.3 175.1 164.7 154.5 145.6 135.2 130.1 117.5 110.3 104.1 101.9 96.8 98.3 101.3 106.7 107.2 105.6 100.6 95.3 88.3 84.4 87.8 86.5 79.2 74.5 75.5 75.5 74.8 73.3 76.3 68.9 63.8 55.6 53.3 47.4 38.5 17.8 -2.2 -2.2 -2.2 -2.2 -2.2 -2.2 -2.2 -2.2 -2.2 -2.2 -2.2 -2.2 -2.2 -2.2 -2.2 -2.2 -2.2 -2.2 -2.2 -2.2 -2.2 -2.2 -2.2 -2.2 -2.2 -2.2 -2.2 -2.2 -2.2 -2.2 -2.2 -2.2 -2.2 -2.2 -2.2 -2.2 -2.2 -2.2 -2.2 -2.2 -2.2 -2.2 -2.2 -2.2 -2.2 -2.2 -2.2 -2.2 -2.2 -2.2 -2.2 -2.2 -2.2 -2.2 -2.2 -2.2 -2.2 -2.2 -2.2 -2.2 -2.2 -2.2 -2.2 -2.2 -2.2 -2.2 -2.2 7.4 22.1 22.8 20.7 30.2 27.7 -2.2 -2.2 -2.2 14.4 15.9 29.9 30 -2.2 -2.2 -2.2 -2.2 -2.2 -2.2 -2.2 -2.2 -2.2 -2.2 -2.2 -2.2 -2.2 -2.2 -2.2 -2.2 -2.2 -2.2
11.9 13 16.2 18.6 28.1 34.3 39.1 39 48.2 53.2 56.2 63.7 69.8 72.3 77.8 86.5 70.1 85 86.9 89.1 93.2 107 115.6 123.3 133.4 140.2 147.1 151.9 157.6 162 168.9 172.2 178.7 184.9 187.4 193.6 197.8 198 200.1 203.5 215.8 223 231.4 239.1 247.2 255.7 266.6 275.5 288.4 302.1 316.4 322.1 332.4 338.5 342.4 343 336.3 324.4 309.5 278.2 261.5 242.5 231.4 224.2 205.8 201.5 184.7 170 160.6 150.1 138.6 132.1 121.3 110.3 103.4 99.3 97.8 98.5 94.1 108.3 106 101.9 98 96.1 92.8 86.7 86.3 85.5 83.3 76.9 79 74.7 73.9 71.8 68.8 65.7 57.7 53.6 49.2 45.1 32.9 29.8 13 -2.2 -2.2 -2.2 -2.2 -2.2 -2.2 -2.2 -2.2 -2.2 -2.2 -2.2 -2.2 -2.2 -2.2 -2.2 -2.2 -2.2 -2.2 -2.2 -2.2 -2.2 -2.2 -2.2 -2.2 -2.2 -2.2 -2.2 -2.2 -2.2 -2.2 -2.2 -2.2 -2.2 -2.2 -2.2 -2.2 -2.2 -2.2 -2.2 -2.2 -2.2 -2.2 -2.2 -2.2 -2.2 -2.2 -2.2 -2.2 -2.2 -2.2 -2.2 -2.2 -2.2 -2.2 -2.2 -2.2 -2.2 -2.2 -2.2 -2.2 -2.2 -2.2 -2.2 -2.2 -2.2 -2.2 2.2 15.7 24.1 22.2 30.6 27.3 10.5 -2.2 -2.2 -2.2 -2.2 18.4 21.4 -2.2 -2.2 -2.2 -2.2 -2.2 -2.2 -2.2 -2.2 -2.2 -2.2 -2.2 -2.2 -2.2 -2.2 -2.2 -2.2 -2.2 -2.2
14.5 13.7 13.4 18.8 25.5 31.1 32.7 34.9 44.5 52.3 55.6 58.9 63 68.9 75.4 79.8 64.2 74.6 82.9 85.8 94.8 105.1 112.8 120.4 130 137.9 144.9 151.4 154.9 160.5 165.8 169.2 173.3 180.2 181.8 186.6 192.9 195.4 198 200.8 214.5 221.9 228.9 238 247.7 256.5 264 277.9 291.6 305.6 318.2 326.1 336.6 343.3 346.2 348.3 346.6 330.6 315.9 288.9 268.6 259.8 252.1 240.3 222.2 211 196.7 182 168.2 155 142.7 135.9 123.3 111.3 99.8 98.2 97.9 94 94 106.7 106.2 103.2 93.4 93.4 91.8 94.1 88 87.3 80.9 76.9 80.8 74.2 74.7 74.8 68.1 63.6 57.8 52.4 52.8 40.6 33.5 36.7 10.6 -2.2 -2.2 -2.2 -2.2 -2.2 -2.2 -2.2 -2.2 -2.2 -2.2 -2.2 -2.2 -2.2 -2.2 -2.2 -2.2 -2.2 -2.2 -2.2 -2.2 -2.2 -2.2 -2.2 -2.2 -2.2 -2.2 -2.2 -2.2 -2.2 -2.2 -2.2 -2.2 -2.2 -2.2 -2.2 -2.2 -2.2 -2.2 -2.2 -2.2 -2.2 -2.2 -2.2 -2.2 -2.2 -2.2 -2.2 -2.2 -2.2 -2.2 -2.2 -2.2 -2.2 -2.2 -2.2 -2.2 -2.2 -2.2 -2.2 -2.2 -2.2 -2.2 -2.2 -2.2 -2.2 -2.2 -2.2 16.6 27.9 27.2 33.9 40.9 21.4 -2.2 -2.2 -2.2 -2.2 -2.2 8.3 -2.2 -2.2 -2.2 -2.2 -2.2 -2.2 -2.2 -2.2 -2.2 -2.2 -2.2 -2.2 -2.2 -2.2 -2.2 -2.2 -2.2 -2.2
19.3 16.7 15.6 15.5 23.4 29.4 31 32.2 38.7 50.2 52 54.2 56.4 63.8 70.1 71.8 54 67.3 75.4 80.4 93.3 100.6 108.5 114.8 124.3 131 141.6 148 152.2 157.7 162.1 165.7 171.4 177.9 181.1 182.3 186.4 190 193.7 194.9 209.6 218.7 227.7 237.3 248.4 258.3 266.6 279.4 296.8 308 319.6 332.4 343 347.8 350.7 349.3 349 337.2 320.4 301.1 278.9 269.5 260.9 244.7 229.9 220 205.7 191.7 178.5 168.1 146.7 139.7 130.2 110.2 101 98.8 95.7 94.3 94 97.7 107.1 103.2 96.8 94.8 91.8 92.8 83.1 83.2 81.5 76.7 77.6 74.2 74.2 83.5 72.5 61.8 53.5 50.5 49.3 41.2 51 34.4 12.7 -2.2 -2.2 -2.2 -2.2 -2.2 -2.2 -2.2 -2.2 -2.2 -2.2 -2.2 -2.2 -2.2 -2.2 -2.2 -2.2 -2.2 -2.2 -2.2 -2.2 -2.2 -2.2 -2.2 -2.2 -2.2 -2.2 -2.2 -2.2 -2.2 -2.2 -2.2 -2.2 -2.2 -2.2 -2.2 -2.2 8.1 -2.2 -2.2 -2.2 -2.2 -2.2 -2.2 -2.2 -2.2 -2.2 -2.2 -2.2 -2.2 -2.2 -2.2 -2.2 -2.2 -2.2 -2.2 -2.2 -2.2 -2.2 -2.2 -2.2 -2.2 -2.2 -2.2 -2.2 -2.2 -2.2 -2.2 9.1 25.5 29.4 25.9 38 29.9 -2.2 -2.2 -2.2 -2.2 -2.2 -2.2 -2.2 -2.2 -2.2 -2.2 -2.2 -2.2 -2.2 -2.2 -2.2 -2.2 -2.2 -2.2 -2.2 -2.2 -2.2 -2.2 -2.2 -2.2
20.8 19.2 16.8 16.5 19.9 28.1 30.1 30 35.2 44.2 47 48.4 50 59 64.6 70.1 51.4 57.8 65.1 77.9 85.8 94.7 100.4 109.4 119.8 126.9 135.3 142.5 146.1 153.7 158.3 162 169.4 172.8 177.3 177.9 180 185.9 188.6 191.7 205.1 216.4 226.2 236.7 246.5 257 270 283.3 298.2 312 328.6 339.1 348.3 352.5 355.3 353.6 350.4 339.6 322.9 303.2 288.3 278.8 269.6 252.9 244.6 225.2 211.6 199.4 186.6 177.6 159.7 148.8 125 114.3 102.1 101 98.2 97.4 96.8 93.6 100.3 97.4 105.3 95.9 93.9 92.2 86.1 84.6 84.3 82.5 77.7 76.1 76.5 73.9 73.7 62.2 49.1 47.4 40.9 44.7 40.9 35.9 21.7 -2.2 -2.2 -2.2 -2.2 -2.2 -2.2 -2.2 -2.2 -2.2 -2.2 -2.2 -2.2 -2.2 -2.2 -2.2 -2.2 -2.2 -2.2 -2.2 -2.2 -2.2 -2.2 -2.2 -2.2 -2.2 -2.2 -2.2 -2.2 -2.2 -2.2 -2.2 -2.2 -2.2 -2.2 -2.2 -2.2 9.6 -2.2 -2.2 -2.2 -2.2 -2.2 -2.2 -2.2 -2.2 -2.2 -2.2 -2.2 -2.2 -2.2 -2.2 -2.2 -2.2 -2.2 -2.2 -2.2 -2.2 -2.2 -2.2 -2.2 -2.2 -2.2 -2.2 -2.2 -2.2 -2.2 -2.2 -2.2 17.9 23.3 20.9 30.5 18.7 -2.2 -2.2 -2.2 -2.2 -2.2 -2.2 -2.2 -2.2 -2.2 -2.2 -2.2 -2.2 -2.2 -2.2 -2.2 -2.2 -2.2 -2.2 -2.2 -2.2 -2.2 -2.2 -2.2 -2.2
22.3 21.7 20.3 18.2 18.7 22.3 27.1 28.5 31.6 36.9 45.1 44.4 48.2 50.3 58.9 59.3 48 53.6 64.7 69.8 79.9 88.8 95.3 103.3 113.6 122.2 127 134.5 140.7 150.8 155.6 159.8 165.8 168.1 173.7 172.4 175.7 180.2 184 188.7 201.4 213.7 224.4 234.7 245 253.1 265.8 282.7 298.7 316.9 333.7 341.5 347.7 352.5 353.5 354.7 352.7 343.8 321.2 300.9 288.3 278.5 273.2 267.3 255.3 239.5 224.8 207.8 195.6 182.7 172.2 143.6 131.6 117.4 110.4 107.6 95 97.2 99.8 98.7 95.8 99.7 102.1 100.3 100 92.5 90.5 86.1 87.4 86.3 80.1 78.1 78.1 74.4 66.4 58.8 48.6 41.4 44.7 35.9 33.4 33.4 23.7 -2.2 -2.2 -2.2 -2.2 -2.2 -2.2 -2.2 -2.2 -2.2 -2.2 -2.2 -2.2 -2.2 -2.2 -2.2 -2.2 -2.2 -2.2 6.6 -2.2 -2.2 -2.2 -2.2 -2.2 -2.2 -2.2 -2.2 -2.2 -2.2 -2.2 -2.2 -2.2 -2.2 -2.2 -2.2 -2.2 1 6.6 -2.2 -2.2 -2.2 -2.2 -2.2 -2.2 -2.2 -2.2 -2.2 -2.2 -2.2 -2.2 -2.2 -2.2 -2.2 -2.2 -2.2 -2.2 -2.2 -2.2 -2.2 -2.2 -2.2 -2.2 -2.2 -2.2 -2.2 -2.2 -2.2 -2.2 -2.2 14.2 15.2 -2.2 -2.2 -2.2 -2.2 -2.2 -2.2 -2.2 -2.2 -2.2 -2.2 -2.2 -2.2 -2.2 -2.2 -2.2 -2.2 -2.2 -2.2 -2.2 -2.2 -2.2 -2.2 -2.2 -2.2 -2.2 -2.2
26.1 23.8 21.3 21.7 20.9 21.6 23 27.6 29.2 34.4 40 42.8 45.5 46.5 55 54.8 42.9 49.9 57.2 67.3 70.6 80.5 88.7 94.7 108.4 116.7 123 126.2 137.9 145.7 151.5 155.4 158.8 164.5 170.1 171.5 173.5 176.6 180.9 183.8 197.5 210.4 221.1 228.7 241 247.6 262.4 283.8 301.7 322 336.9 347.6 347.1 348.6 350 352.5 349.2 344.8 331.1 311.2 291.4 276.8 268.8 268.4 260.2 249.9 237.9 220.7 209.4 189.7 164.7 144.4 133.8 122.2 113.1 106.5 95.7 94 97.9 94 89.8 101.4 103.9 108 103.7 94.9 91.4 86.7 84.7 83.9 76.5 79.3 77.7 70.7 63.2 57.2 45.1 37.1 36.3 35 33.7 33.6 26.7 17 -2.2 -2.2 -2.2 -2.2 -2.2 -2.2 -2.2 -2.2 -2.2 -2.2 -2.2 -2.2 -2.2 -2.2 -2.2 -2.2 -2.2 2.8 6 1.7 2.8 2 1.5 4.3 6.5 9.6 -2.2 -2.2 -2.2 -2.2 -2.2 -2.2 -2.2 -2.2 -2.2 -2.2 -2.2 -2.2 -2.2 -2.2 -2.2 -2.2 -2.2 -2.2 -2.2 -2.2 -2.2 -2.2 -2.2 -2.2 -2.2 -2.2 -2.2 -2.2 -2.2 -2.2 -2.2 -2.2 -2.2 -2.2 -2.2 -2.2 -2.2 -2.2 -2.2 -2.2 -2.2 -2.2 6.8 -2.2 -2.2 -2.2 -2.2 -2.2 -2.2 -2.2 -2.2 -2.2 -2.2 -2.2 -2.2 -2.2 -2.2 -2.2 -2.2 -2.2 -2.2 -2.2 -2.2 -2.2 -2.2 -2.2 -2.2 -2.2 -2.2 -2.2
32.3 28.9 24.2 26.8 27 23.1 23.4 24.1 28.5 31.7 34.4 40.7 43.2 44.4 49.5 42.1 37.3 40.5 50.2 59.5 65.6 71.2 78.3 87.7 95.8 108.7 116.8 118.7 127.9 140.6 147.8 148.7 153.7 158.9 168.3 171.6 173.1 174.8 178.7 181.5 198.9 209.8 215.3 224.1 235.4 242.6 265 285.6 307.2 324.7 337.7 352 350.7 347.1 349.8 350.8 347 342.4 330.3 312.2 303.3 286.4 274.7 273.1 265.5 265.8 252.4 234.3 221.9 210 166.2 150.4 138.1 129.3 114.4 107.3 91.6 91.5 93.2 96.4 90.4 98.2 106.5 105 99.3 93.6 87.5 86.2 86.3 82.9 73 81 77.6 68.4 60.3 47.9 44.5 38.7 35.6 28.4 34.3 33.4 30.8 10.9 -2.2 -2.2 -2.2 -2.2 -2.2 -2.2 0.1 -2.2 -2.2 -2.2 -2.2 -2.2 -2.2 -2.2 -2.2 -2.2 -2.2 5.2 5.3 5.5 6 14.7 7.9 16.1 14 13.1 10.7 9.9 -2.2 -2.2 -2.2 -2.2 -2.2 -2.2 -2.2 -2.2 -2.2 -2.2 -2.2 -2.2 -2.2 -2.2 -2.2 -2.2 -2.2 -2.2 -2.2 -2.2 -2.2 -2.2 -2.2 -2.2 -2.2 -2.2 -2.2 -2.2 -2.2 -2.2 -2.2 -2.2 -2.2 -2.2 -2.2 -2.2 -2.2 -2.2 -2.2 -2.2 -2.2 -2.2 -2.2 -2.2 -2.2 -2.2 -2.2 -2.2 -2.2 -2.2 -2.2 -2.2 -2.2 -2.2 -2.2 -2.2 -2.2 -2.2 -2.2 -2.2 -2.2 -2.2 -2.2 -2.2 -2.2 -2.2 -2.2 -2.2
37.3 34.4 32.6 32.6 34.5 27.4 25.9 27.4 25.5 32.7 32.8 38.1 41.3 39.9 40 36.6 37.1 40 43.8 53.8 60.1 68.2 73.2 80.3 88.4 99 105.5 111.1 119.9 134 141.2 142.8 148.5 158.2 164.8 166 166.7 167.5 172.1 181.2 194.6 204.7 214.6 225.1 236.2 244.6 266.8 288.4 307.8 323.3 338 347.8 349.7 344.1 348.1 349.2 339.6 336.1 328.8 311.5 306.8 297.5 280.9 279.7 270.8 266.7 262.8 253.8 237.9 217.7 178.5 149.7 143 135 116.1 104.1 96.5 92.9 91.5 94.4 92.5 93.8 103 101.9 95.6 92.7 88.4 82.4 80.7 83.9 74.2 78.1 80.1 65.3 53.4 48.7 41.4 33.5 33.5 27.1 26 22.9 20.7 11.6 -2.2 -2.2 -2.2 -2.2 -2.2 -2.2 1.8 -2.2 -2.2 -2.2 -2.2 -2.2 -2.2 -2.2 -2.2 -2.2 6.7 1.8 3.5 9.7 9.9 13.9 18 27.4 22.4 19 24.3 23.4 20.7 16.1 -2.2 -2.2 -2.2 -2.2 -2.2 -2.2 -2.2 -2.2 -2.2 -2.2 -2.2 -2.2 -2.2 -2.2 -2.2 -2.2 -2.2 -2.2 -2.2 -2.2 -2.2 -2.2 -2.2 -2.2 -2.2 -2.2 -2.2 -2.2 -2.2 -2.2 -2.2 -2.2 -2.2 -2.2 -2.2 -2.2 -2.2 -2.2 -2.2 -2.2 -2.2 -2.2 -2.2 -2.2 -2.2 11.5 -2.2 -2.2 -2.2 -2.2 -2.2 -2.2 -2.2 -2.2 -2.2 -2.2 -2.2 -2.2 -2.2 -2.2 -2.2 -2.2 -2.2 -2.2 -2.2 -2.2
44.2 40.9 39.1 36.4 41.6 38.3 28.6 30.5 29.5 23.7 31.5 36.8 39.8 38.2 36.6 33.6 35 33.4 40.9 47.8 56.9 63.8 70.5 76.6 83 91.7 96.6 102.6 110.4 124.5 129.2 136.2 140.4 151 158 163.5 161.2 163.3 169.6 179 189.5 200.4 209.2 221.7 234.5 245.6 265.1 287.1 304.7 320.8 333.4 340.4 345.1 343.4 341.8 341.4 326.8 322.9 323.4 307.9 307.4 301 287 285.2 290 277.6 260.8 252 246.3 223.8 193.7 161.6 145.3 133.8 113.2 106 99.8 92.6 94.3 96.2 87.8 83.6 102.9 106 99.3 92.6 84.3 83.3 75.5 75.3 76.3 65.6 65.9 65.7 52.5 44.6 38.2 33.2 32.3 25.3 21.5 17.2 17.1 14.8 -2.2 -2.2 -2.2 -2.2 -2.2 -2.2 1.8 -2.2 -2.2 -2.2 -2.2 -2.2 -2.2 4.7 12.9 3.8 8 6.9 15.9 15.8 19.7 24.6 20.4 37.7 23.8 24.3 29.2 29.8 40.5 34.2 10.6 -2.2 -2.2 -2.2 -2.2 -2.2 -2.2 -2.2 -2.2 -2.2 -2.2 -2.2 -2.2 -2.2 -2.2 -2.2 -2.2 -2.2 -2.2 -2.2 -2.2 -2.2 -2.2 -2.2 -2.2 -2.2 -2.2 -2.2 -2.2 -2.2 -2.2 -2.2 -2.2 -2.2 -2.2 -2.2 -2.2 -2.2 -2.2 -2.2 -2.2 -2.2 -2.2 -2.2 -2.2 -2.2 6 -2.2 -2.2 -2.2 -2.2 -2.2 -2.2 -2.2 -2.2 -2.2 -2.2 -2.2 -2.2 -2.2 -2.2 -2.2 -2.2 -2.2 -2.2 -2.2
54.4 48.9 47.5 40.9 44.3 48.4 39.9 35.2 31 29.2 24.9 32.3 37.6 33.2 31.7 31.6 31.4 31.5 36.1 45.3 56.1 61.7 67 71.3 77.1 81.7 90 98 106.4 114.8 122.8 130.9 136.2 144.4 151.6 158.4 157.4 165.6 171.1 173.9 180.7 196.7 204.7 217.8 229.5 242.5 264 286.6 305.7 320.8 328.6 333.2 340.5 337.8 335.3 337.2 321.3 315 304.3 304.9 308.9 302.7 288.2 292.1 298.2 289.4 279.9 258.2 247.2 232.8 203.4 174.3 154.8 131.9 122.4 108.5 98 94.7 92.3 90.6 91.6 83 91.9 98.5 98.5 96.5 87.7 80.4 73.9 67.9 67.4 68.4 74.9 66.6 51.6 43 33.8 32.5 32 23.8 21.7 18.5 20 15.1 -2.2 -2.2 -2.2 -2.2 -2.2 9.4 5.5 5.3 9.9 -2.2 -2.2 -2.2 -2.2 7.5 4.8 14.2 11.6 11.3 21.3 21.4 22.8 30 28.2 30.2 32 29.5 32.9 39.8 44.6 48.4 30.8 -2.2 -2.2 -2.2 -2.2 -2.2 -2.2 -2.2 -2.2 -2.2 -2.2 -2.2 -2.2 -2.2 -2.2 -2.2 -2.2 -2.2 -2.2 -2.2 -2.2 -2.2 -2.2 -2.2 -2.2 -2.2 -2.2 -2.2 -2.2 -2.2 -2.2 -2.2 -2.2 -2.2 -2.2 -2.2 -2.2 -2.2 -2.2 -2.2 -2.2 -2.2 -2.2 -2.2 -2.2 -2.2 -2.2 4.3 -2.2 -2.2 -2.2 -2.2 -2.2 -2.2 -2.2 -2.2 -2.2 -2.2 -2.2 -2.2 -2.2 -2.2 -2.2 -2.2 -2.2 -2.2
61.7 57.4 53.3 49.1 47.9 53.1 44.9 36.6 33.5 31.7 30.6 26.4 30 29.3 28 29 31.2 29.7 30.9 41.3 50.8 61.7 65.9 70.2 73.9 78.1 84.8 93.1 98.2 108.6 114.8 125.4 131.3 140 146.2 154.2 153.4 163.9 167.2 169.7 173.2 191.7 201.2 209.5 228.3 239.9 263.2 281.5 300.9 313.1 325 326.9 331.5 332.1 329.6 324.9 314.5 311 300.8 303.5 308.2 304.6 297.8 296.6 302.6 292.3 284.9 268.2 255.6 246.6 207.8 194.3 158.2 145.4 121.7 110.9 103.5 97 90.5 89.7 91.2 90.5 87.6 95.4 94.2 94.8 81.9 73 73.5 72.7 57.3 57.7 67.3 61 51 43.2 33.7 31.7 26.8 20 16.4 19.3 18.8 17.1 3.9 9.5 -2.2 -2.2 8.9 14.8 14.1 9.7 7.8 -2.2 -2.2 -2.2 -2.2 10.5 11.4 5.2 8.6 17.2 26 25.7 26 28.1 24.4 27.1 39.6 35.7 31.1 47.7 50.1 57.1 50.6 43.3 -2.2 -2.2 -2.2 -2.2 -2.2 -2.2 -2.2 -2.2 -2.2 -2.2 -2.2 -2.2 -2.2 -2.2 -2.2 -2.2 -2.2 -2.2 -2.2 -2.2 -2.2 -2.2 -2.2 -2.2 -2.2 -2.2 -2.2 -2.2 -2.2 -2.2 -2.2 -2.2 -2.2 -2.2 -2.2 -2.2 -2.2 -2.2 -2.2 -2.2 -2.2 -2.2 -2.2 -2.2 -2.2 -2.2 -2.2 -2.2 -2.2 -2.2 -2.2 -2.2 -2.2 -2.2 -2.2 -2.2 -2.2 -2.2 -2.2 -2.2 -2.2 -2.2 -2.2 -2.2
64.5 61.7 63.3 58 55.8 52 51.1 42.4 36 33 33.3 31.1 26.7 27.1 27.1 28.3 29 27.1 28.2 37.4 47.4 56.6 64.2 64.6 70.3 71.8 77.4 85.4 91.6 102.1 110.7 118.9 129.5 134.4 142.3 149.1 154.3 158.3 161.3 163.7 165 180.9 194.4 212.3 226.6 236 259.5 280.6 294.1 307 315.6 320.5 324.7 325.2 320.5 313.4 305.8 302.4 295.4 298.5 302.1 301.9 303.3 296.3 302.4 297.8 288.4 269.4 262.5 252.7 211.8 195.3 165.6 150.8 133.7 116.2 106.8 104.5 93.3 88.9 86.3 85.8 82 88.3 88.4 84 76.7 70.7 68.2 70.7 62.4 56.4 59.2 51.1 47.6 41.5 37.1 32.1 26.3 17.2 20.8 18.8 19.2 8.6 13.3 13 -2.2 -2.2 13.6 22.8 23 13.5 11.7 4.2 -2.2 -2.2 -2.2 -2.2 9.9 11.9 5.6 14.3 24.5 33.9 28.4 27.5 25 26.4 35.6 35.6 34.7 56.3 59.3 65.9 60.3 52.8 22.6 10.6 -2.2 -2.2 -2.2 -2.2 -2.2 -2.2 -2.2 -2.2 -2.2 -2.2 -2.2 -2.2 -2.2 -2.2 -2.2 -2.2 -2.2 -2.2 -2.2 -2.2 -2.2 -2.2 -2.2 -2.2 -2.2 -2.2 -2.2 -2.2 -2.2 -2.2 -2.2 -2.2 -2.2 -2.2 -2.2 -2.2 -2.2 -2.2 -2.2 -2.2 -2.2 -2.2 -2.2 -2.2 -2.2 -2.2 -2.2 -2.2 -2.2 -2.2 -2.2 -2.2 -2.2 -2.2 -2.2 -2.2 -2.2 -2.2 -2.2 -2.2 -2.2 -2.2
66.8 68.5 68.6 59.4 59.1 56.2 53.4 47 35 35 36.8 33.5 28 27.5 26.8 27.6 27.9 26.7 29.7 29.6 41.5 52.3 60.4 61.5 68.3 70.6 73.7 79.4 89.3 95.8 103 114.5 125.8 130.2 138.3 144 149.4 152.9 155.9 160.7 161.8 172.7 188.7 206.1 221 230.5 256.1 274.8 292.3 300.5 308.8 312.5 317.8 315.3 309.4 303.2 295 289.5 289.4 294.7 298.4 299.5 298.6 297.9 304.7 300.4 285.6 273.5 268.5 254.1 219.5 192.7 174.8 154 144.2 131.7 117.9 104.8 94.4 93.3 88.3 82.2 79.7 81.8 79.5 77.7 71.4 67.9 69.6 68.6 63.5 56.7 55.1 57.3 51.1 41.7 33.2 33.9 27.5 20.9 24.9 25 14 14.3 16.6 5.9 5.7 8.4 15.5 26.3 31.1 17.7 12.7 2.7 0.3 -2.2 -2.2 -2.2 -2.2 9.1 7.3 18.7 18 31.7 30.9 28.9 24.9 30.4 39.6 39.4 40.2 57.5 68.5 66.4 66 56.6 28.4 10.4 13.5 17.4 -2.2 -2.2 -2.2 -2.2 -2.2 -2.2 -2.2 -2.2 -2.2 -2.2 -2.2 -2.2 -2.2 -2.2 -2.2 -2.2 -2.2 -2.2 -2.2 -2.2 -2.2 -2.2 -2.2 -2.2 -2.2 -2.2 -2.2 -2.2 -2.2 -2.2 -2.2 -2.2 -2.2 -2.2 -2.2 -2.2 -2.2 -2.2 -2.2 -2.2 -2.2 -2.2 -2.2 -2.2 -2.2 -2.2 -2.2 -2.2 -2.2 -2.2 -2.2 -2.2 -2.2 -2.2 -2.2 -2.2 -2.2 -2.2 -2.2 -2.2
71 74.7 73.3 65.3 61.2 58.5 59.9 51.6 44.5 37.3 39.4 40.3 31 28.8 26.7 27.1 27.9 28.2 32.4 41.7 26.7 48.8 55.8 59.4 63.9 67.1 75.4 77.5 86 94.7 99.4 110.8 119.1 126.5 134.9 140.9 144.7 146.9 145.6 155 157.7 168 182.8 195.6 206.5 221.4 247.3 267.4 281.7 296.4 304 308 311.6 308.1 300.1 291.2 283.2 279.7 285.1 290.5 294.3 293.2 294.4 295.1 301.6 297 288.2 278.2 268.6 255.3 228.9 200.7 183.1 168.8 156.5 137 129.1 114.6 95.2 87.5 85.1 83.7 79.7 79.7 80 73.1 70 72 71.3 68.6 63.6 57.9 56.3 60.8 51.1 52 41.5 30.8 29.2 25.9 26.8 28.3 21.4 16 12.3 13.5 18 16.5 15.4 22.3 28 28.7 18.8 10.7 1.8 8.4 8.7 -2.2 -2.2 -2.2 8 21 21.3 28.9 34.8 35.3 28.5 26 42.7 47 48.2 61 72 68.5 69.7 59 35.8 21.7 13 14.4 4.9 -2.2 -2.2 -2.2 -2.2 -2.2 -2.2 -2.2 -2.2 -2.2 -2.2 -2.2 -2.2 -2.2 -2.2 -2.2 -2.2 -2.2 -2.2 -2.2 -2.2 -2.2 -2.2 -2.2 -2.2 -2.2 -2.2 -2.2 -2.2 -2.2 -2.2 -2.2 -2.2 -2.2 -2.2 -2.2 -2.2 -2.2 -2.2 -2.2 -2.2 -2.2 -2.2 -2.2 -2.2 -2.2 -2.2 -2.2 -2.2 -2.2 -2.2 -2.2 -2.2 -2.2 -2.2 -2.2 -2.2 -2.2 -2.2 -2.2
75.8 76.7 76 73.7 66.3 62.2 62.2 55.3 48.1 39.5 39.7 39.5 34.7 30.6 31.2 26.7 27.2 27.3 33.7 42.6 41.5 47.4 53.5 58.1 61.1 69.1 71.3 75.8 84 90.4 99.6 104 113.2 122.3 128.7 135.9 138.8 139.5 139.3 144.8 151.3 163.9 175.7 185.2 197.8 211.7 238.1 260.1 275.8 287.6 295.7 302.7 302.7 299.4 291.8 281.4 274.4 270.7 280.3 284.6 291.9 293.2 295.4 292.9 297.4 291.1 286.6 278.9 269.9 248.9 230.5 212 191 180.1 154.9 140.7 135.1 117 99.1 90.4 86 82.8 80 79.7 79.7 74.9 73.6 74.2 75.9 73.1 67.1 65.1 62.6 56.3 55.5 48.6 45.4 36.1 37.5 32.2 27.5 26 26.7 18.1 13 16.1 20.6 18.6 12.7 17.9 23.4 23.6 18.6 19.6 9.9 9.4 12.2 -2.2 -2.2 -2.2 2 21.6 27.7 33.9 40 39.2 29.2 27.5 43.7 51.4 56 63.8 71 70.6 67.4 60.6 36.2 17.7 12.3 13.9 6.5 -2.2 -2.2 -2.2 -2.2 -2.2 -2.2 -2.2 -2.2 -2.2 -2.2 -2.2 -2.2 -2.2 -2.2 -2.2 -2.2 -2.2 -2.2 -2.2 -2.2 -2.2 -2.2 -2.2 -2.2 -2.2 -2.2 -2.2 -2.2 -2.2 -2.2 -2.2 -2.2 -2.2 -2.2 -2.2 -2.2 -2.2 -2.2 -2.2 -2.2 -2.2 -2.2 -2.2 -2.2 -2.2 -2.2 -2.2 -2.2 -2.2 -2.2 -2.2 -2.2 -2.2 -2.2 -2.2 -2.2 -2.2 -2.2 1.9
79.2 77.5 79.6 78.1 71.6 67.1 63 59 48.2 45.5 42.7 41.5 39.7 30.9 32.7 26.7 26.7 26.7 33.3 41.6 48.5 28.8 52.2 56.6 60.5 64.5 68.8 74.8 81.5 87.1 91.9 98 107.4 119.1 123.9 131.7 128.9 134.4 137.6 144.9 150.8 159.2 169.8 177.3 189.5 211.2 229.7 252.3 266 280 283.1 289.9 290.7 286 280.8 273 266.9 265.7 270.9 278.9 287.1 296.2 294.3 287.8 292.7 293.1 283.1 278.2 267.6 246.6 227.9 215.7 199 185.1 160.4 145.4 137.7 116.5 104.9 95.5 88 83.9 83.3 79.7 79.7 80.9 86 80.7 73.3 72.6 69.2 67.3 65.9 58.6 63.4 54.9 45.2 39.3 45.1 35.7 32.6 32.3 27.3 26.5 20.5 20.4 19.4 20.9 17.8 18.6 22.4 27 28 35.5 23.7 13 10 8.3 0.3 -2.2 0.8 22 29.1 35.9 36.5 40 39.2 43.6 51.6 57.4 60.4 67.7 66.2 64.1 67.1 48.7 23.7 10.3 14.1 21.7 -2.2 -2.2 -2.2 -2.2 -2.2 -2.2 -2.2 -2.2 -2.2 -2.2 -2.2 -2.2 -2.2 -2.2 -2.2 -2.2 -2.2 -2.2 -2.2 -2.2 -2.2 -2.2 -2.2 -2.2 -2.2 -2.2 -2.2 -2.2 -2.2 -2.2 -2.2 -2.2 -2.2 -2.2 -2.2 -2.2 -2.2 -2.2 -2.2 -2.2 -2.2 -2.2 -2.2 -2.2 -2.2 -2.2 -2.2 -2.2 -2.2 -2.2 -2.2 -2.2 -2.2 -2.2 -2.2 -2.2 -2.2 -2.2 -2.2 0.6
79.1 77.3 78.6 80.9 77.6 70.6 64.5 60 59.3 48.5 44.8 45.5 41.1 35.9 34.3 32 26.7 26.7 32.2 41.9 49.5 26.7 50.8 58.4 57.3 61.4 65.5 74 80.6 84.5 90.3 97.7 103.1 113.3 115.8 120.1 124.7 128.3 132.6 140.7 144.9 149.9 165.7 173.6 181.6 201 221 238.8 256.8 269.8 275 279 278.9 274.3 267.3 260.1 260.3 260.8 267.2 273.5 285.7 297.6 292.7 286.5 291.6 292 279.4 270.1 264.3 247.5 227.9 215.2 203.2 187.2 166.7 150.7 137.3 121.1 111.3 100.5 96.7 90.4 84.7 82.7 82.3 87.6 89.5 83.9 77.8 73.5 69.2 69.9 67.8 63.1 61.1 58.7 48 44.8 48.1 40.5 36.2 40.1 31.8 33.9 34.2 30.3 26.9 21.6 16.9 16.9 19.6 28.6 35.8 42 35 15.3 12 9.9 6 5.3 -2.2 23 23.7 37 35.5 40.9 44.3 57.4 48.4 57.6 58.7 65.3 70.9 56 60 24.9 15 10.3 15.6 13.4 -2.2 -2.2 -2.2 -2.2 -2.2 -2.2 -2.2 -2.2 -2.2 -2.2 -2.2 -2.2 -2.2 -2.2 -2.2 -2.2 -2.2 -2.2 -2.2 -2.2 -2.2 -2.2 -2.2 -2.2 -2.2 -2.2 -2.2 -2.2 -2.2 -2.2 -2.2 -2.2 -2.2 -2.2 -2.2 -2.2 -2.2 -2.2 -2.2 -2.2 -2.2 -2.2 -2.2 -2.2 -2.2 -2.2 -2.2 -2.2 -2.2 -2.2 -2.2 -2.2 -2.2 -2.2 -2.2 -2.2 -2.2 -2.2 -2.2 -2.2
82 77.1 75.7 77.2 76.8 70 65.5 65.8 64 53.7 46 46.8 44.1 40.6 36.9 32.9 26.7 26.7 29.4 32.6 46.2 49.9 36.1 55.8 56.5 59.2 65.7 72.8 78.1 81.9 85.7 92.5 99.1 103.5 107.7 112.4 121.4 126.5 131.6 139.1 140.9 142.7 156.8 166 173.8 193.7 212.3 228.3 244.5 256.1 263 268.2 266.6 263.2 254.8 247.8 253.6 256 262.2 270.4 279.1 290.9 289.1 288.9 289 286.7 269.1 262 251.9 241.6 229.6 215.5 203.9 188.1 172.5 160.4 142.9 127.9 115 106.3 100.3 96 91.9 89.5 84.6 84.1 88.2 87.6 81.6 77.1 74.1 70 65.4 65 57 60.5 47.9 48.4 47.5 41.9 47 42.1 34.6 41.9 37.8 36.5 33.1 32.9 16.9 16.9 26.8 28 38.1 40.2 45.5 28.9 11.2 6.2 9.5 5.2 1.8 16 18.8 37.6 37.3 39.9 45.6 68.7 55.5 59.5 60.1 65.6 62.9 51.6 46.7 17.6 10.3 10.3 11.6 14.8 -2.2 -2.2 -2.2 -2.2 -2.2 -2.2 -2.2 -2.2 -2.2 -2.2 -2.2 -2.2 -2.2 -2.2 -2.2 -2.2 -2.2 -2.2 -2.2 -2.2 -2.2 -2.2 -2.2 -2.2 -2.2 -2.2 -2.2 -2.2 -2.2 -2.2 -2.2 -2.2 -2.2 -2.2 -2.2 -2.2 -2.2 -2.2 -2.2 -2.2 -2.2 -2.2 -2.2 -2.2 -2.2 -2.2 -2.2 -2.2 -2.2 -2.2 -2.2 -2.2 -2.2 -2.2 -2.2 -2.2 -2.2 -2.2 -2.2 -2.2
85 84.7 80.8 75.5 74.5 73.4 71.4 69.6 67.3 64.2 48.9 46.9 47.4 46.8 37 40.1 29.5 35.3 26.7 28.2 39.3 48.4 50 50.9 55.1 58.7 64.5 69.1 74 78.5 84.9 91.9 92.7 97.5 103.4 108.6 117.8 124.8 131.3 135.1 138.2 139.3 148.3 156.5 169.4 185.8 202.9 219.9 229.4 242.2 252.6 254.6 255 250.3 241.8 243.7 246.9 249.3 254.4 265.8 274.1 282.3 282.3 281.9 281.5 277.5 265 253.2 247 235.2 227.7 214.7 205.6 194.7 178.7 176.1 161.1 139.7 124.2 120.4 109.3 100 97.6 92.9 89.2 85 83.7 86.7 84.3 79.6 74.8 72.2 70.5 66 63 57.2 57.8 54.9 54.8 47.1 53.3 43.9 43.7 45 44.7 48.6 48.5 20.4 18.3 16.9 30 30.4 38.6 44.4 48.8 44.6 12.4 5.2 5.2 9.6 6.9 1.8 24.1 32.4 42 42.2 46.9 70 54.7 54 63.6 66 56.3 48.4 35.7 12.5 10.8 14.9 24.7 32 14.7 16.5 18.1 9.1 -2.2 -2.2 -2.2 -2.2 -2.2 -2.2 -2.2 -2.2 -2.2 -2.2 -2.2 -2.2 -2.2 -2.2 -2.2 -2.2 -2.2 -2.2 -2.2 -2.2 -2.2 -2.2 -2.2 -2.2 -2.2 -2.2 -2.2 -2.2 -2.2 -2.2 -2.2 -2.2 -2.2 -2.2 -2.2 -2.2 -2.2 -2.2 -2.2 -2.2 -2.2 -2.2 -2.2 -2.2 -2.2 -2.2 -2.2 -2.2 -2.2 -2.2 -2.2 -2.2 -2.2 -2.2 -2.2 -2.2
89 87.1 81.4 83.7 80.6 82 83.7 80.2 75 70.4 60 52.6 47.9 46.8 41.2 39.2 32.8 41.5 37.5 27.1 28.2 42.4 53.6 56.1 59.4 61.9 63.3 66.4 72.4 73.7 78.9 81.9 86 91.9 96.4 105.9 114.2 120.9 129.5 128.9 134.8 138 147.6 156.3 161.4 178 201.1 213.9 222.4 233 239 242.9 242.8 234.5 232.4 237 237.4 241.1 250.8 262 269 275.2 274.9 273.5 272.1 272.8 261.6 252.2 243.1 239 226.8 213.2 203.9 199.1 190.6 183.4 179 144 129 124.3 113 110.2 101.1 97.2 88.8 86.4 82.9 81.4 79.4 76.1 75.9 71.6 69.5 69 70.5 63.4 56 59.5 58.2 52.7 56.3 46.3 42 44.6 46.9 57.3 46.7 35.3 22.5 16.9 24.7 28.7 41.3 42.7 47.2 42.4 18.8 5.2 6 17.2 27 4.2 14.1 25.9 35.2 41.7 49.6 54.2 54.2 46.8 64 63.7 50.5 44.4 33.6 21 21 20.4 25.2 29.5 24.6 43 33.3 15.8 -2.2 -2.2 -2.2 -2.2 -2.2 -2.2 -2.2 -2.2 -2.2 -2.2 -2.2 8.5 -2.2 -2.2 -2.2 -2.2 -2.2 -2.2 -2.2 -2.2 -2.2 -2.2 -2.2 -2.2 -2.2 -2.2 -2.2 -2.2 -2.2 -2.2 -2.2 -2.2 -2.2 -2.2 -2.2 -2.2 -2.2 -2.2 -2.2 -2.2 -2.2 -2.2 -2.2 -2.2 -2.2 -2.2 -2.2 -2.2 -2.2 -2.2 -2.2 -2.2 -2.2 -2.2 -2.2 -2.2
93.4 93.3 92 93.7 90.1 94 90.2 87.3 82 74 70.4 61.3 56.1 48.3 49 47.8 32.4 32.1 30.6 27.1 34 33.5 53.1 64 69.4 62.2 62.5 65.5 67.8 71.3 76.2 80.6 83.4 87.6 91.7 96.3 108.7 116.5 122.7 119.1 128.6 129.5 146.7 151.7 162.9 168.7 190.4 205.5 213.8 220.7 228.3 229.9 228.9 222 226.8 228.8 232.2 229.9 246.2 255 260.8 266.2 269 265.7 258.9 263.1 255 248.2 244.7 236.5 223.7 213.7 209.3 201.2 195.8 193.4 175.6 155.9 136.6 128.7 117.6 114.2 110.1 97.8 95.4 94 90.2 81.8 80.6 79 77 75.9 73.8 71.1 72 68.9 62.4 56.3 61.4 54.9 55 51.6 40.5 42.6 51 51.2 49.3 42.1 23.2 19.5 17.1 30.7 41.1 39.2 41.4 38.5 24.9 5.2 8.3 19.1 23.4 6.7 15.5 23 36.4 38.2 45.6 50.5 51.9 43.4 57.5 58.9 49.6 40.1 32.2 18 18 22.7 20.6 31.1 37.3 46.9 41.6 22 6.8 -2.2 -2.2 -2.2 -2.2 -2.2 -2.2 -2.2 -2.2 -2.2 -2.2 -0.7 -2.2 -2.2 -2.2 -2.2 -2.2 -2.2 -2.2 -2.2 -2.2 -2.2 -2.2 -2.2 -2.2 -2.2 -2.2 -2.2 -2.2 -2.2 -2.2 -2.2 -2.2 -2.2 -2.2 -2.2 -2.2 -2.2 -2.2 -2.2 -2.2 -2.2 -2.2 -2.2 -2.2 -2.2 -2.2 -2.2 -2.2 -2.2 -2.2 -2.2 -2.2 -2.2 -2.2 -2.2
98.1 103 100.6 105.8 107.2 106.3 104.3 96 91.6 85.1 78.4 71.6 63.3 62.3 56 56.3 44.6 26.4 26.7 38.4 32.6 35.8 49.1 63 67 64.5 63.8 66.6 67.9 70.2 73.4 76.2 86.1 87.7 88.6 93.5 102 112.9 115.9 112.5 124.1 126.3 143 146.5 156 166.3 182 191.8 198.1 202.5 207 212.9 214.5 216.9 221.1 222.2 226.2 224 236 246.6 257.2 258.8 260.8 263.2 254.6 255.1 253 248.9 245.1 236.6 226.5 221.3 213.6 212.5 200.3 196.1 181.8 158 142.3 136.5 121.3 116.9 120.1 113.3 102.5 99.4 92.6 81.4 77.2 77.9 80.5 79.4 78.8 73.3 75.3 73.6 60.9 58.6 57.1 55.1 56.7 53.5 45.8 40.5 40.5 44 46.6 42.5 33.9 32 18.6 33.9 45.2 35.2 30.4 31.9 22.7 5.2 13.5 17.1 18.9 16.4 8 26.8 32.5 38.1 43.4 49 49.1 43.6 53.2 57.2 42.3 31.4 19.5 18 18 24.8 20.2 34.4 45.3 44.6 46.6 29.8 -2.2 -2.2 -2.2 -2.2 -2.2 -2.2 -2.2 -2.2 -2.2 -2.2 -2.2 -2.2 -2.2 -2.2 -2.2 -2.2 -2.2 -2.2 -2.2 -2.2 -2.2 -2.2 -2.2 -2.2 -2.2 -2.2 -2.2 -2.2 -2.2 -2.2 -2.2 -2.2 -2.2 -2.2 -2.2 -2.2 -2.2 -2.2 -2.2 -2.2 -2.2 -2.2 -2.2 -2.2 -2.2 -2.2 -2.2 -2.2 -2.2 -2.2 -2.2 -2.2 -2.2 -2.2 -2.2 13.4
102.7 104.5 110.1 115 114 117 115.5 109.4 101.9 96.7 89.4 83.9 77.3 72.7 64.1 60.3 48.8 29.7 27.8 33.3 36.2 38.2 46.7 51.9 64.2 64.5 64.3 66.5 66.4 67.9 72.1 77.1 87.3 87.5 88.5 92.2 98.5 107.6 109.2 111 117.9 122.3 133.3 142.7 149.5 155.7 165.4 173.3 185.5 193.5 195.9 196 206.8 210.8 210.4 214.3 216.6 220 231.2 240 248.6 253.3 256.4 262.1 257.2 254.6 256.3 248.2 245.6 241.9 228.6 223.7 225.6 212.9 203.9 195.5 178.6 165.5 150.3 136.5 133.3 133.2 129.3 122.2 107.2 104.9 98.7 95 81.4 77.2 84 81.4 79.5 79.7 81.3 78.4 68.9 60.7 62.1 57.3 59.1 51.3 44.2 40.5 40.5 40.5 44.2 45.2 45 35.3 18.9 35.9 56.9 29.9 30 29 19.5 14.5 17.9 8.9 17.8 14.5 12 25.8 31.4 38.3 41.6 49.5 45.4 47.4 44.2 42.7 33.3 24.3 18 18 19.3 27.8 23.4 38.1 49.1 53.8 45.8 33.2 -2.2 -2.2 -2.2 -2.2 -2.2 -2.2 -2.2 -2.2 -2.2 -2.2 -2.2 -2.2 -2.2 -2.2 -2.2 -2.2 -2.2 -2.2 -2.2 -2.2 -2.2 -2.2 -2.2 -2.2 -2.2 -2.2 -2.2 -2.2 -2.2 -2.2 -2.2 -2.2 -2.2 -2.2 -2.2 -2.2 -2.2 -2.2 -2.2 -2.2 -2.2 -2.2 -2.2 -2.2 -2.2 -2.2 -2.2 -2.2 -2.2 -2.2 -2.2 -2.2 -2.2 -2.2 -2.2 8.5
110.3 111.4 120.6 128.3 122 128.1 124.1 120.1 115.2 111 107.7 102.5 93.4 79.2 71.9 67.6 55.6 37.3 32.7 35.4 40.4 44.3 56.5 55.9 60.1 64.6 66.9 68.4 66.6 68.3 71.8 74.3 86 87.1 88 89.2 93.3 102.6 109.9 114.6 119 116.8 128.8 136.1 148.7 147.3 157.8 164.3 171.3 178.2 180.5 184.1 189.8 193 203.4 205.4 206.7 211.4 225.2 231.4 237.2 246.5 257.9 259.2 250.3 253 256 251 247.6 242.7 234.3 235.4 224.3 206.2 199.3 188.8 177.9 166.1 159.7 143.9 143.9 140.1 132.5 126.4 113.7 105.1 103.3 99.3 87.5 77.2 82.1 83.1 82.4 81.6 81 80.6 75.7 67 64 58.1 59.7 52.5 43.8 40.5 41.4 40.6 48.2 46.9 44.2 37.6 22 31.5 44.7 47.7 24.5 23 17.7 11.3 12.6 11.3 8.9 8.9 13.4 30.3 36.8 37.4 39.9 47.5 41.5 44.1 33.9 33.3 26.8 18.2 18 19.7 18 22 23.7 36.1 49 51.9 44.3 24.4 -2.2 -2.2 -2.2 -2.2 -2.2 -2.2 -2.2 -2.2 -2.2 -2.2 -2.2 -2.2 -2.2 -2.2 -2.2 -2.2 -2.2 -2.2 -2.2 -2.2 -2.2 -2.2 -2.2 -2.2 -2.2 -2.2 -2.2 -2.2 -2.2 -2.2 -2.2 -2.2 -2.2 -2.2 -2.2 -2.2 -2.2 -2.2 -2.2 -2.2 -2.2 -2.2 -2.2 -2.2 -2.2 -2.2 -2.2 -2.2 -2.2 -2.2 -2.2 -2.2 -2.2 -2.2 -2.2 -2.2
113.6 120.5 134.5 138.8 130.8 133.5 136.3 136.8 133.3 126.6 123.8 112.2 103.7 92.9 77.4 67.8 65.9 39.8 37.6 33.9 46.5 51.7 58.6 65.7 64.3 63.4 67.5 69.6 72.1 69.2 72 76.4 82.4 86.8 90.8 88 89.9 100 108.8 115.9 118.6 115.4 120 129.8 139.7 137.2 144.2 146.9 155.3 163.4 174 177.1 182.6 183.3 195.2 198 198 206 215.7 223 237.7 242.9 248.6 250 243.4 248.8 255.1 253.3 248.8 245.4 242.1 238.1 226.2 203.6 200 191.4 175 165.8 155.8 149.2 147.8 142.6 138.2 131 119.5 106 105.7 101.1 92.4 81.9 77.2 81.3 84.3 87.4 81 81.9 80.3 75.4 60.8 64.6 55.6 51.1 45.8 40.5 43.3 42.6 48.3 49 44 33.4 31.4 31.4 33.5 42.9 36.5 23.8 18.1 13.3 13 10.3 8.9 8.9 8.9 24.4 33.3 42.4 33.5 52.1 37.6 44.1 29.7 22 24 18 18 18 18 21.8 26.3 30.6 36.5 40.3 32 21.2 -2.2 -2.2 -2.2 -2.2 -2.2 -2.2 -2.2 -2.2 -2.2 -2.2 -2.2 -2.2 -2.2 -2.2 -2.2 -2.2 -2.2 -2.2 -2.2 -2.2 -2.2 -2.2 -2.2 -2.2 -2.2 -2.2 -2.2 -2.2 -2.2 -2.2 -2.2 -2.2 -2.2 -2.2 -2.2 -2.2 -2.2 -2.2 -2.2 -2.2 -2.2 -2.2 -2.2 -2.2 -2.2 -2.2 -2.2 -2.2 -2.2 -2.2 -2.2 -2.2 -2.2 -2.2 -2.2 -2.2
117.9 127.7 142.7 145.9 143.1 144.7 150 147.9 146.3 141.4 134.4 123.3 110.5 96.7 82.8 72.4 66.1 44 35.1 41.9 50 55.4 70.5 75 75.5 66.5 68.8 70.5 71.8 72.3 73.6 77 78.4 86.1 88.2 84.3 86.8 91.6 101.2 105.4 110.8 108.2 114.2 126.1 131.6 131 132.6 142.3 146.3 161.9 165.9 168.8 176 175.8 181.8 186.1 194.7 201.4 212.7 224.9 230.7 233.9 236.1 238.6 244.6 246.6 252.2 251.7 246.2 250.6 243.7 237.3 224.6 204 199.4 184.6 171.4 167 160.2 149.1 150.7 150 144.1 137.2 122.4 102 104.7 100.2 94.9 92.8 77.2 83.4 84.9 89.4 87.6 81 82.8 77.2 66.1 59.1 61.4 52 51.1 48.4 46.3 48.3 50.7 50 42.9 38 35.5 24.6 37.3 34.6 39.8 27.8 24.6 15.3 10.7 8.9 8.9 8.9 8.9 10.7 30.5 43.3 33.2 44.7 37.7 39.2 30.2 18 18 21 18 18 18 18 28.3 26 18.8 19.5 24.3 13.8 -2.2 -2.2 -2.2 -2.2 -2.2 -1.8 -2.2 -2.2 -2.2 -2.2 -2.2 -2.2 -2.2 -2.2 -2.2 -2.2 -2.2 -2.2 -2.2 -2.2 -2.2 -2.2 -2.2 -2.2 -2.2 -2.2 -2.2 -2.2 -2.2 -2.2 -2.2 -2.2 -2.2 -2.2 -2.2 -2.2 -2.2 -2.2 -2.2 -2.2 -2.2 -2.2 -2.2 -2.2 -2.2 -2.2 -2.2 -2.2 -2.2 -2.2 -2.2 -2.2 -2.2 -2.2 -2.2 -2.2
126.6 132.4 145.2 148.9 152.4 153.7 157.1 158.8 155 152.7 143.5 131.9 116.3 99.9 89.4 71.7 65.1 52.7 37.1 41.9 51.6 63.9 73.6 78.2 75.7 75.5 69.1 70.5 74.6 77.4 78.5 75.6 78.4 84.1 83.5 83.5 83.5 84.4 91.2 100.7 104 102.3 111.3 119.2 120.9 122.4 126.6 130 145.4 154.7 158.5 157.7 162.4 166.5 169.4 179.6 191.6 199.4 207.6 215.3 223 229.1 228.3 235.2 238.9 240.5 246.4 242.4 242.3 246.6 240.9 237.1 218.3 204.3 190.8 183.9 177.6 172.7 165.2 157.3 146.1 150.5 143.1 134 124.5 103.3 96.1 96.5 94.6 93.3 81.7 84 87 86.1 88 85.7 83.1 78 66.1 65.7 59.7 54 55.5 54.5 54.9 55 57.9 56.9 46.2 42.2 35.3 24.6 40.3 39.8 30.2 28.2 24.9 16.6 8.9 8.9 10.9 8.9 8.9 8.9 33.1 42.4 40.7 35.7 39 43.2 32.1 18 18 18 18 18 20.5 18 19.8 16.2 13.2 12 10.3 8 9.7 -2.2 -2.2 -2.2 -2.2 15.8 -2.2 -2.2 -2.2 -2.2 -2.2 -2.2 -2.2 -2.2 -2.2 -2.2 -2.2 -2.2 -2.2 -2.2 -2.2 -2.2 -2.2 -2.2 -2.2 -2.2 -2.2 -2.2 -2.2 -2.2 -2.2 -2.2 -2.2 -2.2 -2.2 -2.2 -2.2 -2.2 -2.2 -2.2 -2.2 -2.2 -2.2 -2.2 -2.2 -2.2 -2.2 -2.2 -2.2 -2.2 -2.2 -2.2 -2.2 -2.2 -2.2 -2.2
131.2 139.5 153.7 163.5 168.3 172.2 168.5 171 166.1 161.1 145.6 133.3 117.3 101.9 86.5 74 65.7 57.3 37.9 40.7 54.4 72.8 81.8 79.7 83.6 77.6 79.4 74 73.1 79.5 84.3 82.7 82.4 82.8 85.6 83.5 83.5 83.5 83.7 89.9 96.3 94.3 103.4 111.4 114.8 115.4 122.9 130.9 138.9 143.3 151 150.1 158.2 155.6 163.5 174.7 188.7 194.3 197.2 207.1 215.2 223.5 225.2 231.6 235.4 235.8 237.9 238.4 242.7 243.9 236.9 230.8 214 201.3 195.1 187.8 187.5 175 170.1 162.6 144.5 141.6 138.3 129.9 119.8 105.8 97.2 91.2 97.3 92.8 86.2 79.3 85.2 86.1 90.4 86.7 85.3 83.7 72.7 72.3 70.8 57.8 59 57.9 61.3 61.2 58.9 53.5 50.6 38.8 31.6 24.6 32.9 46.8 29.1 23.6 19.5 8.9 8.9 17 13.4 8.9 8.9 8.9 27.4 40 37.5 30.2 34 38.5 43.3 18 18 18 18 18 18 18 25.9 27.5 21.7 13.6 7.2 9 7.8 1.5 -2.2 16.1 14.6 12.1 -2.2 -2.2 -2.2 -2.2 -2.2 -2.2 -2.2 -2.2 -2.2 -2.2 -2.2 -2.2 -2.2 -2.2 -2.2 -2.2 -2.2 -2.2 -2.2 -2.2 -2.2 -2.2 -2.2 -2.2 -2.2 -2.2 -2.2 -2.2 -2.2 -2.2 -2.2 -2.2 -2.2 -2.2 -2.2 -2.2 -2.2 -2.2 -2.2 -2.2 -2.2 -2.2 -2.2 -2.2 -2.2 -2.2 -2.2 -2.2 -2.2 -2.2
134.8 143.9 162.2 175.5 176.8 182.9 183.5 180.8 177.1 171.9 160.4 136.5 120.6 101.9 84.8 74.6 62.5 55.6 49.9 41.7 59.8 71 74.9 80.4 84.2 87.7 87.8 84.1 78 77.5 83.1 85.8 85.6 83.5 85 83.5 83.5 83.5 83.5 86.6 91.2 89.8 99.8 104.9 106.1 110.2 112.6 120.7 128.9 135.3 139.8 140.5 141.2 147.7 155.7 175.8 180.3 187.4 190.9 202.4 212 215.4 219.4 224.9 230.6 232.3 232.5 235.8 238.8 236.1 233.5 224.4 211.2 199.9 198.2 188.4 187 179.5 173.8 165.3 150 131.8 131 126.6 119 107.1 98.5 92.9 90.2 89.5 86.3 81.7 84 85.6 87.9 87.6 87 84.6 85.4 86.4 77.1 68.2 57.1 59.9 61.6 66.3 62.6 56.6 52.7 39.5 27.6 24.3 31.8 50.6 32.3 24 21.6 9.3 13.6 21.5 14.9 8.9 8.9 8.9 14.7 29.1 32.7 30.5 29.4 39.5 44.2 22.9 22.4 18 18 18 18 18 25.6 32 29.1 22.7 16.5 12 7.1 9.6 17.1 13.5 10.2 -2.2 -2.2 -2.2 -2.2 -2.2 -2.2 -2.2 -2.2 -2.2 -2.2 -2.2 -2.2 -2.2 -2.2 -2.2 -2.2 -2.2 -2.2 -2.2 -2.2 -2.2 -2.2 -2.2 -2.2 -2.2 -2.2 -2.2 -2.2 -2.2 -2.2 -2.2 -2.2 -2.2 -2.2 -2.2 -2.2 -2.2 -2.2 -2.2 -2.2 -2.2 -2.2 -2.2 -2.2 -2.2 -2.2 -2.2 -2.2 -2.2 -2.2 -2.2
143.8 150.4 160.7 179.4 185.3 189.3 191 187.8 182.9 180.3 171.4 137.2 121.3 105.8 86 77 67.7 60.6 55.7 38.9 59.5 67.9 74.2 79.3 86.4 93 96.1 98.7 91.4 87.4 79.9 87.8 89.7 88.2 85.9 83.5 83.5 85.4 86.3 85.8 86.6 87.7 94.3 96.7 101 104.4 105.3 111 117.9 119.1 128.8 131.7 133.3 135.7 147.7 163.5 171.8 176.4 184.3 195 204.3 211 215.3 221.5 227.2 227.9 231.6 227.6 232.5 229.7 228.9 224.1 214.3 201.2 198.3 190.1 181.9 177.7 171 167.6 147.7 127.8 125.1 121.2 113.3 105.7 98.7 94.6 89.7 85.9 83.6 80.3 78.5 87.2 86.1 88.1 86.9 86.3 86.1 85.5 80.6 70.4 64.7 62.4 63.5 66.8 62.6 60.7 46.9 40.1 32.5 27.4 24.6 42.1 42.1 38 31.7 11.2 17 19 9.9 8.9 8.9 8.9 16.1 18.4 25.4 30.2 24.5 33.5 38 26.7 18 18 18 18 18 23.6 32.4 39.2 42 38.6 27.2 20.6 22.4 14.8 18.5 17.3 -2.2 -2.2 -2.2 -2.2 -2.2 -2.2 -2.2 -2.2 -2.2 -2.2 -2.2 -2.2 -2.2 -2.2 -2.2 -2.2 -2.2 -2.2 -2.2 -2.2 -2.2 -2.2 -2.2 -2.2 -2.2 -2.2 -2.2 -2.2 -2.2 -2.2 -2.2 -2.2 -2.2 -2.2 -2.2 -2.2 -2.2 -2.2 -2.2 -2.2 -2.2 -2.2 -2.2 -2.2 -2.2 -2.2 -2.2 -2.2 -2.2 -2.2 -2.2 -2.2
153.9 148.9 161.7 178.5 189 194 197 195 191.7 186.3 177.6 149.9 123.4 105.4 88 81.1 68.5 61.2 50.5 46.7 46.6 70.9 73.7 80.8 95.7 105.6 106.7 106.7 102.9 99.3 96.8 89.5 90.9 89.3 88.9 85.1 87.8 90.1 89 87.9 85.7 85.7 87.6 92.3 95 94.7 98.1 102.1 103.7 112.2 119.7 115.8 124 137.6 143.1 153.4 161.3 167.2 173.7 187.2 200.1 205.6 211.1 215.7 221.8 222.8 223 225.3 233.2 227.5 223.9 221.3 213 204.8 195.4 189.1 184.8 179.8 168.5 161.3 145.5 134.4 118.3 113.4 109.7 101.9 97.2 93 88.1 88.7 82.9 88.9 84.8 82 86.3 85.9 87.9 86.5 89.1 87.5 97.7 84.1 74.8 68.5 74 64.6 66.9 57 51.3 43.8 41.3 28.7 24.2 36.9 43.9 45.9 26.7 19.7 15.9 14.4 13 8.9 8.9 8.9 12.5 22.2 19.6 28.8 24 25.6 32.5 29.2 21.7 18 18 18 21.7 33.4 34.1 43.4 44.7 34.8 38 32.2 30.1 31.1 20.1 5.4 -2.2 -2.2 -2.2 -2.2 -2.2 -2.2 -2.2 -2.2 -2.2 -2.2 -2.2 -2.2 -2.2 -2.2 -2.2 -2.2 -2.2 -2.2 -2.2 -2.2 -2.2 -2.2 -2.2 -2.2 -2.2 -2.2 -2.2 -2.2 -2.2 -2.2 -2.2 -2.2 -2.2 -2.2 -2.2 -2.2 -2.2 -2.2 -2.2 -2.2 -2.2 -2.2 -2.2 -2.2 -2.2 -2.2 -2.2 -2.2 -2.2 -2.2 -2.2 -2.2
150.3 155.6 159.2 177.7 191.9 196.6 199.6 202.6 200 192.9 186.8 160.7 119.1 104.4 86.9 80.6 70.7 60.7 53 42.8 38.6 64.6 74 79.2 98.4 107.1 113.8 116 109.8 105.7 99.2 93.5 90.4 88.2 90.5 90 91.8 94.5 94.3 89.6 85.7 85.7 85.7 87.3 90.2 89.1 91.8 94.5 99.7 103.3 106.4 108.2 118.4 129.7 138.1 147.5 152.2 158.4 169.1 181.8 193.3 203 208.1 210.8 218.8 218.7 222 218.4 234 230 222.5 218.9 213.5 204.2 194.8 191 184.2 175.1 168.4 156.4 136.3 133 120.8 117.9 111.6 109.2 104.9 94.9 89.2 91.4 92 93.4 88 77.7 83.4 87.9 85.4 87.6 90 88.7 97.8 88.6 76.4 74.7 73.5 69.4 67.4 65 56.8 48.7 49.9 41.5 27.2 31.1 32.3 33.8 24.6 18.1 8.9 8.9 8.9 8.9 12.1 13.4 20.9 24.2 25.2 22.6 20.9 21.8 25.9 24.1 21 18 18 20.9 28.3 35.6 34 39.6 35.8 41.2 39.6 30.8 31.9 30 20 -2.2 -2.2 -2.2 -2.2 -2.2 -2.2 -2.2 -2.2 -2.2 -2.2 -2.2 -2.2 -2.2 -2.2 -2.2 -2.2 -2.2 -2.2 -2.2 -2.2 -2.2 -2.2 -2.2 -2.2 -2.2 -2.2 -2.2 -2.2 -2.2 -2.2 -2.2 -2.2 -2.2 -2.2 -2.2 -2.2 -2.2 -2.2 -2.2 -2.2 -2.2 -2.2 -2.2 -2.2 -2.2 -2.2 -2.2 -2.2 -2.2 -2.2 -2.2 -2.2 -2.2
142.5 155.4 162.9 175.5 191.9 196.9 200.2 201.2 198 196.8 190.2 166.7 132.6 102.4 89.1 78 71 62.6 58.9 38.7 38.6 57.1 67.8 81.7 101.1 108.3 112.7 116.2 117.9 116.1 113.5 106.7 102.3 89.4 91.5 92.3 93.3 96.5 98.3 95.5 87.8 88.4 89.5 93.6 93.7 91.3 89.2 89.2 94.8 96.5 95.7 98.9 116.4 122.9 135.1 142.8 146.6 150.8 161.6 176.2 184 194.5 198.9 207.4 209.5 214.4 220.2 221.3 224.4 225.6 218.1 214.6 216.7 202.7 193.8 188.1 182.3 174.4 165.1 146.9 134.9 124.7 118.8 118.4 110.3 109.7 103.2 98.5 93.7 94.6 98.2 98.4 95.8 77.7 77.7 88.7 84.6 85.6 91.7 87.4 88.6 94.6 80.6 76.7 81.4 79.5 69.8 67.6 66.3 58.7 59.5 59.7 33.3 26 26.5 26.3 17.8 18.8 10.4 8.9 8.9 8.9 12.5 17.6 18.2 28.1 31.6 33.1 25.4 19.7 19.8 21.7 18 18 22 18.8 18 28.8 27.4 28.9 37.3 42 34.1 27.8 25.1 22.9 25.2 19.7 -2.2 -2.2 -2.2 -2.2 -2.2 -2.2 -2.2 -2.2 -2.2 -2.2 -2.2 -2.2 -2.2 -2.2 -2.2 -2.2 -2.2 -2.2 -2.2 -2.2 -2.2 -2.2 -2.2 -2.2 -2.2 -2.2 -2.2 -2.2 -2.2 -2.2 -2.2 -2.2 -2.2 -2.2 -2.2 -2.2 -2.2 -2.2 -2.2 -2.2 -2.2 -2.2 -2.2 -2.2 -2.2 -2.2 -2.2 -2.2 -2.2 -2.2 -2.2 -2.2
143.3 154 158.8 171.4 189.2 195.1 199.5 199.9 202.3 200.3 190 171.3 150.6 100.6 88.6 79.6 75.4 67.5 59.4 45 38.6 39.4 62.2 83.5 97.7 114.1 119.1 122.4 125.3 125.8 122.5 122.7 116.8 108 94.4 95.9 96.9 101.3 102.5 104.3 86.8 85.7 88.4 91.4 95.7 92 91.2 89.2 91.5 93.8 102 97.9 99.6 123.6 130.1 137.5 142.7 145 156 169.1 181.7 187.3 193.8 201.3 208.4 209.3 211.8 212.9 217.1 216.9 211.4 214.5 216.7 210.1 202.4 186.6 180.9 167.3 153.9 139.6 132 121.9 120.8 109.3 107.8 104 105.6 101.3 96 97.2 105 102.5 98.6 80.2 77.7 82.9 83.9 78.8 83.7 86.1 85.8 91.4 90.8 76.4 77.8 92.8 88.3 68.1 71.7 66.7 65.2 66.6 42 24.6 29.5 22 22.6 17.2 8.9 8.9 8.9 17.1 24 23.3 27.9 33 33.7 42.6 34.7 24.9 23.1 20.3 18 18 21.3 18.9 18 18 26.8 27.1 38.7 40 30.9 23.9 22.9 26.4 31.2 30.6 17.8 -2.2 -2.2 -2.2 -2.2 -2.2 -2.2 -2.2 -2.2 -2.2 -2.2 -2.2 -2.2 -2.2 -2.2 -2.2 -2.2 -2.2 -2.2 -2.2 -2.2 -2.2 -2.2 -2.2 -2.2 -2.2 -2.2 -2.2 -2.2 -2.2 -2.2 -2.2 -2.2 -2.2 -2.2 -2.2 -2.2 -2.2 -2.2 -2.2 -2.2 -2.2 -2.2 -2.2 -2.2 -2.2 -2.2 -2.2 -2.2 -2.2 -2.2 -2.2
138.7 150.5 155.5 165.6 187.8 193.8 196.4 205.3 203.5 196 186.4 176.6 143.4 105.1 92.3 81.2 77.5 74 63.7 53.5 46.7 38.6 54.5 79.1 99.9 119.3 127.6 136.7 137.2 137.3 133.9 131 126.3 122.2 108.8 99.2 101.3 99.4 99.1 96.3 92.3 85.7 91.4 93.1 94.5 94.3 89.2 89.3 91.1 95.2 104.6 101.5 102.2 115.9 124.6 130.9 139.3 143 149.6 167.4 177.4 182.4 187.3 195.6 205.2 203 207.3 213.7 216.1 217.6 212.9 211.4 210.5 211.2 206 187.2 175.8 167.5 145.8 135.8 129.7 129.4 121 110.3 107.7 105.8 107.6 104.4 96.2 102 104.9 104.5 98.2 83 78.7 80.5 84.9 79.3 82.9 86.8 83.7 92.7 98.1 84 78.3 86.4 97.1 77.7 65.1 66.9 61.8 63.4 48.6 20.4 29 20.8 20.4 16.3 12.7 17.2 13.3 29.6 32.6 35.4 30.1 36.9 41.8 54.7 44.6 31.5 21.4 22.5 19.1 18 18 21.5 18 18 24.9 30 31 28.5 25.3 22.9 23.5 36.7 45.7 41.3 20.7 21.6 -2.2 -2.2 -2.2 -2.2 -2.2 -2.2 -2.2 -2.2 -2.2 -2.2 -2.2 -2.2 -2.2 -2.2 -2.2 -2.2 -2.2 -2.2 -2.2 -2.2 -2.2 -2.2 -2.2 -2.2 -2.2 -2.2 -2.2 -2.2 -2.2 -2.2 -2.2 -2.2 -2.2 -2.2 -2.2 -2.2 -2.2 -2.2 -2.2 -2.2 -2.2 -2.2 -2.2 -2.2 -2.2 -2.2 -2.2 -2.2 -2.2 -2.2
133.5 147.5 153.7 161.4 176.8 189.5 197.3 206.6 206.5 200.5 190.1 176.3 145.4 127.7 105.9 90 83.5 76.8 68.4 57 51.4 39.1 47.4 67.8 103.3 124.8 139.3 145.9 149.4 152.4 145.5 143.6 138.4 134 129.6 117.3 101.4 103.7 95.9 95.1 90.8 85.7 94.7 98.8 97.2 94.4 89.2 89.2 91.7 95.3 103.9 102.5 100.5 106.1 116.1 128.6 136.1 142.2 149.4 162.6 177.8 180.2 178.3 193.4 198.5 202.2 207.7 211.2 213.2 214.6 213.4 210.8 205.4 207.4 202.3 185.3 168.9 156.5 142.5 132 130.4 125.4 116 110.4 103.7 105.6 107.7 99.9 102 102 103 100.8 97.9 87.8 81 83.8 88.9 79.2 81.6 82.4 82 85.5 87.5 84.9 78.2 80.9 93.4 82.6 63.5 63 55.4 52.9 42.1 18.1 25.9 25.7 21.2 13.9 15.6 19.2 24.2 36.3 40.2 41.9 37.3 37 36.6 47.9 53.8 36.3 28.2 21.6 19.8 21.1 21.5 21 21.9 18 23.6 32 38.5 29.2 25.1 22.9 32.4 42.9 48 43.3 19.7 24.9 13.4 -2.2 -2.2 -2.2 -2.2 -2.2 -2.2 -2.2 -2.2 -2.2 -2.2 -2.2 -2.2 -2.2 -2.2 -2.2 -2.2 -2.2 -2.2 -2.2 -2.2 -2.2 -2.2 -2.2 -2.2 -2.2 -2.2 -2.2 -2.2 -2.2 -2.2 -2.2 -2.2 -2.2 -2.2 -2.2 -2.2 -2.2 -2.2 -2.2 -2.2 -2.2 -2.2 -2.2 -2.2 -2.2 -2.2 -2.2 -2.2 -2.2
129.2 141.9 149.9 161.4 169.2 185.4 198.3 205.2 208 201.1 193.6 177.3 145.3 129.4 112.2 102.2 97.4 90.4 76.6 63.7 59.9 58.3 48.6 69.1 98.3 121.3 150.1 155.7 158.5 161.9 159.2 152.3 151.1 147.6 133.6 129.2 121.6 101.4 94.9 97.5 94 85.7 89.5 91.8 91.5 91.1 89.2 89.2 91.2 94.5 99.9 97.6 98.8 106.5 117.6 130 134.4 137.7 146.2 158.5 171.4 172.9 179.3 183.3 189 202.1 208.4 214.2 212 206.6 212.7 209.7 200.9 199.5 191.1 178.4 162.4 149.9 139.6 131.8 131.6 127.9 115.9 114.7 102.5 103.8 106.6 99.7 105.3 103.2 99.8 100.3 97.2 92.1 84.3 82.2 89.9 79.6 78.3 82.6 80.6 78.9 80.5 90.8 78.4 74.7 82.9 88.7 71.6 53.4 54.5 49 34.8 18.3 17.4 22.9 16.5 16.1 18.6 19.2 25.8 39.7 42.1 41.5 40.7 44.8 46.1 50.2 48 35.2 29.7 22.1 19.4 19.9 21.7 24.5 30.3 18 18 31.4 32.3 29.4 28.7 23.7 37 45.5 43.7 31 14 17.7 16.1 -2.2 -2.2 -2.2 -2.2 -2.2 -2.2 -2.2 -2.2 -2.2 -2.2 -2.2 -2.2 -2.2 -2.2 -2.2 -2.2 -2.2 -2.2 -2.2 -2.2 -2.2 -2.2 -2.2 -2.2 -2.2 -2.2 -2.2 -2.2 -2.2 -2.2 -2.2 -2.2 -2.2 -2.2 -2.2 -2.2 -2.2 -2.2 -2.2 -2.2 -2.2 -2.2 -2.2 -2.2 -2.2 -2.2 -2.2 -2.2 -2.2
117.2 131.3 148.4 162.3 177.6 180.8 194.7 203.1 203.8 204.9 196.3 165.8 152.5 135.7 119.5 111.2 109.3 99.9 89.1 72.1 64.7 62.4 54.6 71.6 103.8 116.4 155 160.9 166 169.5 163.1 158.1 157.2 155.9 148 136.7 132.5 113 104.9 94.5 98.4 85.7 85.7 92 93.5 89.2 89.2 89.2 89.2 92.9 96.5 98.2 101.5 105.8 110 121.3 129.9 134.6 140.6 156.9 162.8 162.5 177.2 183.6 191.1 206.1 210.3 208.7 210.5 200.7 207.8 205.9 196.6 201.1 184.4 173.7 160.8 152 141.5 135 134.6 126.8 114.4 111.3 104.6 103.8 102.4 98.6 100.3 99.1 96.7 97.6 98.3 98.8 87.3 74.9 85.7 81.9 77.2 80.6 80.8 82.4 77.4 85.2 77.5 72.5 76.8 78.5 73.5 56.2 44.7 40.7 29 20.7 17.8 21.5 16.5 18.8 19.7 20.2 31.3 40 41.1 44 44.6 51.3 52.9 48.4 55 36.6 26.4 23.8 23.6 25.5 25 27.5 23.9 24.4 23.9 21.9 25.3 31.3 31.1 25.4 39.5 39.7 30.5 20 5.4 12.2 -2.2 -2.2 -2.2 -2.2 -2.2 -2.2 -2.2 -2.2 -2.2 -2.2 -2.2 -2.2 -2.2 -2.2 -2.2 -2.2 -2.2 -2.2 -2.2 -2.2 -2.2 -2.2 -2.2 -2.2 -2.2 -2.2 -2.2 -2.2 -2.2 -2.2 -2.2 -2.2 -2.2 -2.2 -2.2 -2.2 -2.2 -2.2 -2.2 -2.2 -2.2 -2.2 -2.2 -2.2 -2.2 -2.2 -2.2 -2.2 -2.2 -2.2
109.8 128 147.5 161.1 183.4 183.8 189.6 202.7 202.8 201.9 188.9 165.5 156.6 145.4 129.1 119.5 113.9 103.7 96.3 75 68.5 67.1 55.6 66.1 93.9 114.3 151.8 162.2 167.4 170.2 169.7 166.1 164.8 164.9 154.8 152 143.4 131.6 110.7 104 109.5 85.7 85.7 91.8 93.8 90.9 93.9 90.8 89.2 90.8 94.1 98 98.9 105.3 110.1 113.9 128 133.7 141 149.9 157 160.9 170 183.2 182 191.2 206.3 208.7 211 205 193.9 194.6 189.1 190.4 180.7 170.4 162.4 149.8 141.2 134.7 129.4 122.3 119.4 111.9 103.7 101.2 100.3 98 96.9 95.8 94 92.1 100.3 94.7 83 72.2 82 80.9 79.3 79.3 79.3 82.6 77.7 75.3 79.1 76.3 65.1 66.6 67.4 52.1 43.6 33.9 25.6 18.3 20.9 16.2 16.5 16.5 16.5 21.7 32 39.8 39.5 42.7 48.3 47.1 44.9 39 51.8 36.7 27.4 27.8 25.2 31.7 27.6 30.7 23.6 24.4 18 22.6 20.2 25.6 28.6 31.2 37.2 33.6 23 9.9 -2.2 4.9 7.1 -2.2 -2.2 -2.2 -2.2 -2.2 -2.2 -2.2 -2.2 -2.2 -2.2 -2.2 -2.2 -2.2 -2.2 -2.2 -2.2 -2.2 -2.2 -2.2 -2.2 -2.2 -2.2 -2.2 -2.2 -2.2 -2.2 -2.2 -2.2 -2.2 -2.2 -2.2 -2.2 -2.2 -2.2 -2.2 -2.2 -2.2 -2.2 -2.2 -2.2 -2.2 -2.2 -2.2 -2.2 -2.2 -2.2 -2.2 -2.2 -2.2
108.6 127.1 146.9 163.3 184.9 198 193.5 200.7 212 203.4 182.4 170.6 158.1 147.2 142.7 129.3 123.2 115.4 98.7 84.6 74.8 69 61.4 63.3 90 108.2 142.1 162.1 162.4 166.9 171.3 171.7 170.5 171.4 166.8 157.7 153.6 145.5 127.1 118.7 106 94.4 85.7 88.9 93.3 97.5 101.9 95.1 89.2 89.2 94.1 96.5 98.5 104.6 112.5 116.2 125.7 133.7 139.1 140.6 144.7 153.1 168.1 174.4 177.4 185.8 194.1 205.7 213.6 209.8 184.5 186.2 190.1 183.4 171.5 165.4 157.9 147.8 135.6 130.3 131.4 126 119.9 108.3 102.8 93.4 93.8 94.8 90.8 90.3 87.4 84.3 89.6 87.3 83 70.6 69.7 79.4 84.5 79.3 79.3 79.3 85.2 71.6 75.4 69.1 55.1 58.7 57.6 52.6 41.9 25.1 19.9 19.4 22.3 19.5 17.6 16.5 16.5 24.2 33.9 43.4 38.6 37 38.6 41.9 39.9 39 51.2 56.7 38.8 28.5 24.1 28.8 29.4 31 33.5 22.9 18.9 20.1 21.1 19.3 25 31.4 31.6 24 15.7 -2.2 -2.2 -2.2 -2.2 -2.2 -2.2 -2.2 -2.2 -2.2 -2.2 -2.2 -2.2 -2.2 -2.2 -2.2 -2.2 -2.2 -2.2 -2.2 -2.2 -2.2 -2.2 -2.2 -2.2 -2.2 -2.2 -2.2 -2.2 -2.2 -2.2 -2.2 -2.2 -2.2 -2.2 -2.2 -2.2 -2.2 -2.2 -2.2 -2.2 -2.2 -2.2 -2.2 -2.2 -2.2 -2.2 -2.2 -2.2 -2.2 -2.2 -2.2 -2.2 -2.2
103.1 122.4 141.4 161.3 185.7 204.9 212 202.3 214.2 203.8 182 175.5 163.3 155.1 145.6 138.2 132.8 123.7 101.2 85.3 79.2 71 68.4 60.3 84.2 101.4 120.7 143.4 155.8 163.1 168.2 170.3 171.8 176.8 171.1 164.6 161 150.1 130.9 129.2 120.3 101.7 90.5 89.9 92.8 92.8 91.1 90.7 89.2 91.2 92 99.3 99.9 108.3 113.3 116.3 123.1 131 140.2 132.5 140.6 146.8 161.9 166.6 177.2 180.6 191.3 195.3 206.4 202.1 181.5 180.7 179.4 176.5 170.5 167.1 155 145 136.2 135.3 130.5 121.3 114.5 107.6 103.7 91.8 92.3 95.6 90 89 84.1 81.3 86.3 87.2 80.5 62.7 66.1 78.2 82.1 80.5 79.3 79.3 87.1 74.2 69.2 62.8 52.1 51.6 53 51.3 45 35.3 25.9 22.3 23.7 22.8 16.5 16.4 16.5 21.6 32.1 44.6 38.7 33.3 32.7 37.5 38.8 39.9 43 72.1 68.9 42.3 26.6 31 30.4 31.5 33.8 35.6 23.2 24.4 22 15.5 18.6 30 27.7 15.2 3.7 -2.2 -2.2 -2.2 -2.2 -2.2 -2.2 -2.2 -2.2 -2.2 -2.2 -2.2 -2.2 -2.2 -2.2 -2.2 -2.2 -2.2 -2.2 -2.2 -2.2 -2.2 -2.2 -2.2 -2.2 -2.2 -2.2 -2.2 -2.2 -2.2 -2.2 -2.2 -2.2 -2.2 -2.2 -2.2 -2.2 -2.2 -2.2 -2.2 -2.2 -2.2 -2.2 -2.2 -2.2 -2.2 -2.2 -2.2 -2.2 -2.2 -2.2 -2.2 -2.2 -2.2
103.7 116.6 139.7 159.7 178.9 203.1 211.6 214.4 209 186.4 174.3 169.8 166.8 164.3 146.9 146.3 143 133.2 119.4 90.9 77.8 76.2 69.7 59.9 73.3 94.9 108.1 126.8 141.1 157.9 163.7 169.6 167.4 178.1 180.4 172.8 164.5 160.6 139 135.5 138.1 101.3 95.5 90.4 97.9 99.6 95 91.4 89.2 92.9 92 95.2 99.9 109 116.6 123.4 119.9 126.5 135 129 137 145.4 149.1 159.9 171.9 173.3 183 191.8 193.8 195.9 187.5 184.2 171.6 167.9 167.7 164.8 157.1 150 143.7 139.9 130.2 122.9 116.8 111.7 104.9 95.1 90.1 92.6 87.3 86.5 82 79.2 79.7 81.7 70.1 65.5 67.4 73 79.9 80.8 79.3 79.3 88.5 76.4 67.3 59.4 52.3 49.1 53.7 49.5 50.8 44.5 43 29.9 25.1 23.9 17.8 18.1 20.8 21.5 27.9 41 46.1 49.4 31.8 32.9 36.3 38 41.1 60.7 70 54.8 46.2 35.6 36.9 36.9 39.2 38 27.6 32.7 36.4 18.1 9.2 28.6 23.6 7.3 -2.2 -2.2 -2.2 -2.2 -2.2 -2.2 -2.2 -2.2 -2.2 -2.2 -2.2 -2.2 -2.2 -2.2 -2.2 -2.2 -2.2 -2.2 -2.2 -2.2 -2.2 -2.2 1.6 -2.2 -2.2 -2.2 -2.2 -2.2 -2.2 -2.2 -2.2 -2.2 -2.2 -2.2 -2.2 -2.2 -2.2 -2.2 -2.2 -2.2 -2.2 -2.2 -2.2 -2.2 -2.2 -2.2 -2.2 -2.2 -2.2 -2.2 -2.2 -2.2 -2.2 -2.2
99.5 115.9 128.5 148.7 165.4 190.2 204.8 216.2 188.9 178.3 171.7 174.2 171.3 164.4 155.8 161.7 151.3 153.3 122 97.6 78.1 78.3 72.6 63.7 69.1 80.9 96.9 114.7 127 155 165.1 173.9 169.8 184.3 187.5 177.8 173.1 162.7 142.5 137.7 138.1 127.3 96.4 97.6 101 97.2 97.2 95.1 89.2 89.2 90.8 94.2 102.4 110.7 120.7 120.2 118.4 116.5 126.4 125.6 132.4 136.8 137.3 154.4 159.7 169.1 175.3 183.9 185.6 191.2 192 184.1 174.2 164.8 165.4 162.5 158.8 158 145.5 137.9 127.4 118.5 115.7 114.6 107.2 93.8 89.7 89.3 87.2 84.9 80.3 76.4 73.3 74.4 74.5 66.6 59.4 70.9 71 80.7 82 82.9 83.8 78.3 72.7 58.7 56 49.1 54.3 49.1 49.1 50.5 51.1 42.8 39.9 26.2 19.9 16.2 22.5 21.2 25.1 42.8 52.7 53.6 36.6 28.8 31 33.3 36 35.3 53.5 58.2 49.4 51.7 43.1 37.1 38.7 40.6 30.6 32.2 33.9 32.8 11.4 8.5 13.5 -2.2 -2.2 -2.2 -2.2 -2.2 -2.2 -2.2 -2.2 -2.2 -2.2 -2.2 -2.2 -2.2 -2.2 -2.2 -2.2 -2.2 -2.2 -2.2 -2.2 -2.2 -2.2 -2.2 -2.2 -2.2 -2.2 -2.2 -2.2 -2.2 -2.2 -2.2 -2.2 -2.2 -2.2 -2.2 -2.2 -2.2 -2.2 -2.2 -2.2 -2.2 -2.2 -2.2 -2.2 -2.2 -2.2 -2.2 -2.2 -2.2 -2.2 -2.2 -2.2 -2.2 -2.2 -2.2
96.3 103.1 119.1 132 141.5 162 174.8 191.6 173.6 170.8 176.5 169.8 165.8 158.4 156.5 161.8 165 159.2 127.7 96.1 78 79.3 74.8 64.7 66.1 66 81.6 106.1 124.2 151.1 164.1 174.9 173.1 180.9 185.4 177.6 172.8 156.8 142.5 132.4 136.3 130.5 115.5 98.9 100.7 99.7 97.6 93.7 89.2 89.2 91.2 94.4 104.6 115.7 120.7 114.7 112.3 112.6 122.1 123.1 124.7 129.6 134.1 140.8 154 163.2 171.4 179.9 179.4 186.2 191.3 173.1 175.2 162.4 165.4 164.9 168.9 159.5 148.4 136.5 123.8 116.9 116 112.9 106.3 101.3 90.7 89.2 87.1 79.4 75.9 75.9 72.7 73.3 73 60.3 57.8 62.9 67.3 80.4 85.3 82.8 89.5 80.6 71.4 58.6 54.2 51.8 53 50 49.1 56.7 51 49.6 50.1 34.6 23 22.1 20.1 16 24.9 41.2 49 47.4 43 28.7 33.7 31.4 35.8 43 30.5 54 48.6 48.9 42.9 49.4 40.5 36.2 28.9 25.8 29.4 27.1 18.1 9.7 -2.2 -2.2 0.8 -2.2 -2.2 -2.2 -2.2 -2.2 -2.2 -2.2 -2.2 -2.2 -2.2 -2.2 -2.2 -2.2 -2.2 -2.2 -2.2 -2.2 -2.2 -2.2 -2.2 -2.2 -2.2 -2.2 -2.2 -2.2 -2.2 -2.2 -2.2 -2.2 -2.2 -2.2 -2.2 -2.2 -2.2 -2.2 -2.2 -2.2 -2.2 -2.2 -2.2 -2.2 -2.2 -2.2 -2.2 -2.2 -2.2 -2.2 -2.2 -2.2 -2.2 -2.2 -2.2 -2.2
96.9 97.3 104.5 117.7 123.3 137.7 153.7 156.6 162.1 165.3 163.7 156.5 155.5 158.3 156.5 160.9 155.6 149.2 129.9 104.5 77.6 74.3 69.9 60.7 57 73.7 78.7 99.9 119.4 152.4 168.2 182.2 174 181.4 180.7 170.6 160.9 144.5 141.4 127.8 132 130.5 109.3 109 109.1 110.3 97.3 99.1 89.2 89.2 89.3 98.9 106.3 115.1 115.8 114 108.7 110.9 109.5 119.6 119.7 126.9 132.2 137 145.2 152.3 156.5 172.1 173.2 180.4 191.9 170.9 166.9 161.2 156.4 164 170.8 164 153.2 144.6 129.1 120.3 118.2 112.3 107.3 103 93.8 97.4 85.7 75.6 73.5 74.1 73.1 72.6 70.5 57.5 57.8 60.1 70.2 81.1 94.3 87.9 88.5 81.3 67.9 58.5 53.1 54.1 49.6 49.1 49.1 56.2 63 59.2 55.3 47.9 27.2 24.4 16 16 22.8 36.2 42.1 43.8 39 27.5 27.6 29.3 33.3 39.2 36.6 37.1 47.7 50.8 43 52.8 55.1 37.5 24.5 22 22.9 21.4 14.4 6.7 -2.2 -2.2 -2.2 -2.2 -2.2 -2.2 -2.2 -2.2 -2.2 -2.2 -2.2 -2.2 -2.2 -2.2 -2.2 -2.2 -2.2 -2.2 -2.2 -2.2 -2.2 -2.2 -2.2 -2.2 -2.2 11.3 -2.2 -2.2 -2.2 -2.2 -2.2 -2.2 -2.2 -2.2 -2.2 -2.2 -2.2 -2.2 -2.2 -2.2 -2.2 -2.2 -2.2 -2.2 -2.2 -2.2 -2.2 -2.2 -2.2 -2.2 -2.2 -2.2 -2.2 -2.2 -2.2 -2.2
95.8 98.6 100.2 105.3 112.4 115.8 128.2 136.1 143.7 148.1 155.9 144.2 147.4 154.7 163 163.4 159.1 147.9 131.8 112.9 81.4 72.1 66 56.9 47 70.4 79.1 96 108.9 128.8 158.1 171 177 179.1 174.6 169.4 147.5 132.4 122.6 126.4 129.6 121.7 121.2 119.5 109.8 108.3 107.2 94.9 95.7 90.2 98.1 99.7 104 110 110.9 108.1 105.5 109.6 108.5 109.8 112 115.1 121.7 126.9 139.4 148.7 145 157.1 164.4 170.5 169.2 164.6 159.5 154.2 154.2 160.3 166.5 169.7 164.7 142.2 129.7 124.1 121.4 113.3 108.7 99.8 87.7 87.4 88.7 74.2 72.5 71.8 71.2 73.1 70.6 65.2 57.8 57.8 80.7 84 95.4 88.6 82.3 75.4 67.9 65 61.6 56.7 49.1 49.8 52.2 58.6 65.8 61.8 57.5 55 28.1 24.2 17.9 16 20 33.1 35.7 36 30.5 27.8 27 27.2 33.8 40.2 36.4 31.4 51.8 46.2 41.2 51.2 49.1 37.5 26.8 26.5 16.2 12.7 11.9 10 7.6 -2.2 -2.2 -2.2 -2.2 -2.2 -2.2 -2.2 -2.2 -2.2 -2.2 -2.2 -2.2 -2.2 -2.2 -2.2 -2.2 -2.2 -2.2 -2.2 -2.2 -2.2 -2.2 -2.2 -2.2 6.6 -2.2 -2.2 -2.2 -2.2 -2.2 -2.2 -1.7 1.2 -2.2 -2.2 -2.2 -2.2 -2.2 -2.2 -2.2 -2.2 -2.2 -2.2 -2.2 -2.2 -2.2 -2.2 -2.2 -2.2 -2.2 -2.2 -2.2 -2.2 -2.2 -2.2
94.4 97.3 99.8 96.5 99.9 103.1 116.7 122.7 125.1 128.5 136.7 135.8 131.3 150.4 156.3 162.8 156.8 145.1 135.2 119.8 85.4 65.7 64.6 58.9 46.4 60.6 74.9 82.2 100.3 114.7 147 155.4 165.4 169.8 169.8 158.1 130.7 114.8 119.6 125.5 128.3 118.6 119.1 122.8 117.3 109.3 103.9 102.7 89.3 89.5 94 96 102.9 103.3 106 102 103.8 108.4 105.7 101.9 104.4 110.3 118.1 124.3 132.1 143.3 143.4 148.9 153.2 157.9 158.7 172.7 154.2 154.3 154.2 158.1 157.5 160 155.4 143.6 124.5 120.3 115.8 110.6 100.3 90.1 85.7 83.7 86.2 76.2 75.1 68.8 68.9 72 67.6 65.8 57.8 64.6 83 87.5 98 93.3 81.9 77.9 72.9 70 63.1 59.3 53 52 55.4 61.7 67.6 64.8 63 57.8 32.9 27.4 21.6 16 26.8 33.7 32.3 25.7 26.4 24.7 26.6 25.9 32.7 44.8 44.2 32.8 53.1 52.6 33.5 35.7 35.2 30.5 24.7 24.6 27.6 20.3 17.7 15.4 13 10.3 8 -2.2 -2.2 -2.2 -1.2 -2.2 -2.2 -2.2 -2.2 -2.2 -2.2 -2.2 -2.2 -2.2 -2.2 -2.2 -2.2 -2.2 -2.2 -2.2 -2.2 -2.2 -2.2 -2.2 -2.2 -2.2 -2.2 -2.2 -2.2 -2.2 1.8 2.8 -2.2 -2.2 -2.2 -2.2 -2.2 -2.2 -2.2 -2.2 -2.2 -2.2 -2.2 -2.2 -2.2 -2.2 -2.2 -2.2 -2.2 -2.2 -2.2 -2.2 -2.2 -2.2
103.8 97.4 96.4 91.6 90.6 94.3 106.4 113.3 111.9 106.9 110.7 119 123.6 126.9 147.7 149.8 143.9 142.4 128 110.7 85.5 72.2 62.5 57.6 45.5 42.8 66.6 73.3 97.4 116.7 135.8 146.1 159.5 163 164.3 152.2 125.8 114.8 114.8 114.8 118.9 117.1 118.1 122.3 113.7 118.5 107.7 103.4 100.8 89.4 89.4 95 99.5 102.8 103.1 100.5 104.5 105.3 107.8 106.8 103 109.1 112.9 119.4 125.6 130.8 139.2 145.9 152.4 148.2 165.5 159.1 156.4 164.1 155.7 164.4 166.6 151.2 144.5 139.7 123.4 116.4 110.5 105.2 97.4 86.1 88.1 87.3 80.9 72.6 72.7 72.3 69.6 69.7 63.4 61 57.8 69.1 86.5 90.9 90.4 94.8 89.7 82.7 82.5 76.5 73.1 67.2 62.1 53.2 59.2 59.5 67.3 69.1 68.6 61.4 38 21.9 23.9 16.8 28.7 33.9 38 24.2 24.2 24.2 30.7 27.2 25.9 41.7 44.6 32.7 32.2 35.6 28.9 26.8 25.4 24.5 24.9 31.7 33.4 37.3 31.1 23.5 20.9 15.5 11.2 -2.2 -2.2 -2.2 9.5 -2.2 -2.2 -2.2 -2.2 -2.2 -2.2 -2.2 -2.2 -2.2 -2.2 -2.2 -2.2 -2.2 -2.2 -2.2 -2.2 -2.2 -2.2 -2.2 -2.2 -2.2 -2.2 -2.2 -2.2 -2.2 -2.2 6.2 -2.2 -2.2 -2.2 -2.2 -2.2 -2.2 -2.2 -2.2 -2.2 -2.2 -2.2 -2.2 -2.2 -2.2 -2.2 -2.2 -2.2 -2.2 -2.2 -2.2 -2.2 -2.2
120 105.5 95.7 93.2 89.5 92 97.5 102.1 93.8 86.1 95.1 102.8 100.6 111.5 128.1 133.1 137.9 139.9 124.6 104.1 83.6 72.8 61.1 52.9 47.1 41.6 54.6 69.4 89.8 103.8 117.2 127.2 136.8 153.8 157 156.5 124.5 115.1 114.8 114.8 116.3 114.9 116.3 116.8 115 114.1 112.1 105.9 101.9 92.3 89.4 89.4 95.6 98.1 97.8 99.9 102.7 103.9 101.7 98.3 95.3 102.8 104.5 108.3 115.5 125.7 133.2 143.1 153.7 153.9 148.7 154.4 148.5 151.5 155.1 158.8 164 160.5 138.9 129.6 121.1 116.6 111 108.4 91.3 87.9 88.3 83.7 75.2 70 65.4 65.2 66.5 67.1 70.5 65 57.8 60.2 86.2 98.7 95.3 95.5 87.6 84.3 86.6 89.4 79 72.8 62.3 52.3 60 65.9 68.1 71.2 75.7 70.7 35.1 26.4 21 20 26 33.7 35.1 29.5 24.2 24.2 28.8 30.1 30.9 31.6 38.4 32.2 25.9 24.1 23.5 34 43.9 28.3 39.1 50.7 39.3 40.6 41.8 34.1 25.6 32 23.7 19.2 14.1 12.4 10 -2.2 -2.2 -2.2 -2.2 -2.2 -2.2 -2.2 -2.2 -2.2 -2.2 -2.2 -2.2 -2.2 -2.2 -2.2 -2.2 -2.2 -2.2 -2.2 -2.2 -2.2 -2.2 -2.2 -2.2 -2.2 -2.2 2.7 2.7 -2.2 -2.2 -2.2 -2.2 -2.2 -2.2 -2.2 -2.2 -2.2 -2.2 -2.2 -2.2 -2.2 -2.2 -2.2 -2.2 -2.2 -2.2 -2.2 -2.2 -2.2
137 121.5 101.3 93.8 92.3 88 91.7 89.4 90.2 83.4 84.7 87.6 91.2 97.3 111.2 120.5 124.9 128.2 118.8 98.8 86.5 71.6 56.6 52.3 45.5 42.4 46.7 63 79.9 89.7 100.3 114.4 121.5 135.8 152.8 164.2 146.5 118.9 114.8 118.8 122.2 127 120.2 113.7 117.5 114.8 116.7 110 104.4 101.2 98.4 94.8 92.6 93.4 97.7 98.3 101.1 99.9 94.8 88.5 83.8 94.8 93.5 97 104.5 117.1 129.5 137 146.2 151.2 148.6 153 144.8 150.6 151.3 153.6 149.3 158.2 136.4 126.2 120.9 112.6 109.8 104.7 94.4 88.8 81.7 77.6 71.1 65.7 62.6 62.7 62.9 69.3 73 67.2 61.6 59.2 70.8 99.7 103 93.7 87.9 82.7 85.9 94.4 85.6 77.8 67.1 56.3 67 72.8 71.9 77.5 78.6 68.1 34.6 26.4 21.5 20 31 27.7 33.8 32.4 29.3 24.1 25 30.9 37 32.9 32.5 23.8 23.5 23.5 23.5 31 41.1 27.1 44.8 47.2 43.9 54.6 45.4 40.3 48.3 42.5 32.6 28.9 26.7 20.7 15.9 -2.2 -2.2 -2.2 -2.2 -2.2 -2.2 -2.2 -2.2 -2.2 -2.2 -2.2 -2.2 -2.2 -2.2 -2.2 -2.2 -2.2 -2.2 -2.2 -2.2 -1.6 -2.2 -2.2 -2.2 -2.2 -2.2 -2.2 -2.2 -2.2 -2.2 -2.2 -2.2 -2.2 -2.2 -2.2 -2.2 -2.2 -2.2 -2.2 -2.2 -2.2 -2.2 -2.2 -2.2 -2.2 -2.2 -2.2 -2.2 -2.2
171.4 142.1 114.9 95.1 94.5 90.7 84.7 84.1 86.3 85 83.3 81.3 86.5 92 96.6 104.8 109.5 110.1 105.5 97.2 84.3 73.4 56.8 47 42.2 40.3 47.3 52.6 71.5 82.2 88.7 97.6 106 117.3 137.9 152.7 154.3 131.2 119.2 117.2 128.8 138.1 132.3 113.7 122.5 127.3 129.7 114.5 103.7 99.8 100.2 95.8 91 81.1 87.9 99.4 96.5 93.3 87.4 84 80.9 84.1 85.3 89.4 93.1 103.4 113.2 126 136.3 140.1 135.5 132 136 150 151.6 152.4 138.5 143.1 125.5 115.6 110.8 105.1 108 98.7 95.2 89.7 83.2 81.8 79.3 66.5 62.6 62.6 62.6 68.4 68.2 71.3 68 59.1 60.3 87.6 85.8 86.1 83.5 79.8 82.4 87 87.5 84.3 75.4 61.8 67.7 72.9 76.3 82 80.2 69.8 32.9 27.2 30.6 21.5 23.2 26.4 26.3 35 32.3 27.1 24.1 27.4 32.3 26 29.9 22.1 29.2 23.5 23.5 25.6 27.4 23.1 35 36.3 41.7 50.6 56.4 63.2 58.7 51 41.8 37.6 33.7 29.5 21.5 11.2 -2.2 -2.2 -2.2 -2.2 -2.2 -2.2 -2.2 -2.2 -2.2 -2.2 -2.2 -2.2 -2.2 -2.2 -2.2 -2.2 -2.2 -2.2 -2.2 -2.2 -2.2 -2.2 -2.2 -2.2 -2.2 -2.2 -2.2 -2.2 -2.2 -2.2 -2.2 -2.2 -2.2 -2.2 -2.2 -2.2 -2.2 -2.2 -2.2 -2.2 -2.2 -2.2 -2.2 -2.2 -2.2 -2.2 -2.2 -2.2
191.9 159.3 139.9 120.6 99.9 96.1 90.9 86.6 82.6 82.5 82.6 78.9 80.9 80.2 86 94.4 99.1 99.6 93.8 91 82.3 71.4 54.8 42.4 39.5 39.7 43.9 45.9 61.8 69.1 76.3 84.5 87.5 100.2 121 137.9 145.8 141.6 121.6 122 137.3 144.9 145.3 133 123.5 130.7 132 126.7 102.8 100.1 97.1 97.9 95.4 81.9 75.9 88.6 94.4 90.3 83 79.8 76.6 76.3 81.3 79.4 88.7 99.1 104.9 114.6 125.2 132.3 130.7 131.5 137.7 142 144.1 148.7 145.7 133.2 124.9 117.8 106.4 102.6 99.4 97.1 93.8 87.3 85.9 92.4 82.7 63.4 62.6 62.6 62.6 64.5 66.6 71.9 74.7 54.7 61.5 75.9 76.3 84 82.8 84.5 79.8 82 86.9 84.7 76.3 66.1 61.3 71.7 78 86 85.7 74.2 34.8 26.1 21.7 22.4 18.1 28 26.5 30.6 29.7 27.8 30.9 23.9 26.1 28.3 24.1 21.7 23.9 26.6 23.5 23.5 24.2 24.7 23.5 32.1 45.2 64.7 69.7 74.2 65.5 60.6 56.9 53.5 38.5 28.7 22.5 8.2 -2.2 -2.2 -2.2 -2.2 -2.2 -2.2 -2.2 -2.2 -2.2 -2.2 -2.2 -2.2 -2.2 -2.2 -2.2 -2.2 -2.2 -2.2 -2.2 -2.2 -2.2 -2.2 -2.2 -2.2 -2.2 -2.2 -2.2 -2.2 -2.2 -2.2 -2.2 -2.2 -2.2 -2.2 -2.2 -2.2 -2.2 -2.2 -2.2 -2.2 -2.2 -2.2 -2.2 -2.2 -2.2 -2.2 -2.2 -2.2
206.6 193.7 165.6 140 125.2 107.2 95.6 97.1 85.3 82 78.3 80.1 78.9 76.8 80.4 88 92.9 88.4 83.5 78.8 73.9 61.4 45.7 37.6 34.5 40.6 40.3 44 48.3 61.1 65.2 71.6 75.9 88.6 106.8 116.1 126 133.5 108.3 119.1 130.9 139.3 141.7 134.1 124.4 123.8 126.2 117.7 106 94.7 97.3 96.5 97.4 86.4 77.7 74.9 74.9 74.9 74.9 74.9 74.9 75 75.7 77.4 84.8 93.5 102.1 109.3 113.5 124.9 124.5 131.3 140.5 142.2 139.6 144.1 146 137 125.8 120.7 116 105.2 99.4 96.4 87.5 83.8 85.6 82 72.8 66.1 61.7 62.6 62.6 69.3 71.6 68.3 68.7 54.7 54.7 76.3 79.3 83.9 84.2 86.9 80 80.9 87.5 82.8 81.9 74 65.1 74.3 81.3 84.5 85.8 68.2 34.4 23 18.4 18.3 13.2 24.1 22.3 22.5 26.6 32.6 46.5 33.6 24.6 24.3 22.3 20.7 26.5 34.1 33.7 23.4 25.4 23.5 23.5 29.3 44.6 71 78.4 76.5 74.5 75.4 65.6 51.1 44.3 32.8 20.9 -2.2 -2.2 -2.2 -2.2 -2.2 -2.2 -2.2 -2.2 -2.2 -2.2 -2.2 -2.2 -2.2 -2.2 -2.2 -2.2 -2.2 -2.2 -2.2 -2.2 -2.2 -2.2 -2.2 -2.2 -2.2 -2.2 -2.2 -2.2 -2.2 -2.2 -2.2 -2.2 -2.2 -2.2 -2.2 -2.2 -2.2 -2.2 -2.2 -2.2 -2.2 -2.2 -2.2 -2.2 -2.2 -2.2 -2.2 -2.2 -2.2
222 215.5 200.1 159.4 158.3 130.9 107.2 93.5 87.3 77.6 75.6 76.7 73.5 77.2 72.9 81.4 84.1 83.2 80.5 72.4 65 52.8 41 33.3 33.2 36 41.1 42.1 40 55.8 58.2 61.2 64.1 77.3 92.9 109.2 109.2 115.7 94.9 105.4 119.4 129.7 130.5 123.8 114.9 116.4 119.3 121.5 105.9 90 96.2 97.6 95.7 94.7 78.6 75.8 74.9 74.9 74.9 75.6 78 75.6 78 80.2 85.3 92.6 101.1 109.5 111.4 118.1 126.4 133.6 140.2 141.8 136.2 134.4 134.4 132.2 127.9 130.8 128.3 116.2 97 91.3 86 83.5 77.5 67.3 65.4 64 59.8 60.8 62.6 66.6 70.1 69.9 64.6 54.7 54.7 74.7 84.5 87.5 89.4 87.4 80.2 80.2 85.5 83.8 82.5 78.7 71.6 72.2 73.2 77 77.4 59.6 34.1 24.4 17.3 17.8 13.2 14.3 16.3 16.3 23.8 30.5 47.6 40.5 33.1 21 20.7 20.7 26.7 41.4 34.5 24.7 23.5 23.2 24.8 29.7 47.2 74.4 84.8 71.7 76.6 79.2 72 57 48.1 37.2 26.6 11.5 -2.2 -2.2 -2.2 -2.2 -2.2 -2.2 -2.2 -2.2 -2.2 -2.2 -2.2 -2.2 -2.2 -2.2 -2.2 -2.2 -2.2 -2.2 -2.2 -2.2 -2.2 -2.2 -2.2 -2.2 -2.2 -2.2 -2.2 -2.2 -2.2 -2.2 -2.2 -2.2 -2.2 11 -2.2 -2.2 -2.2 -2.2 -2.2 -2.2 -2.2 -2.2 -2.2 -2.2 -2.2 -2.2 -2.2 -2.2
227 228.2 209.5 189.6 174.9 156.3 117.9 101.6 86.1 76.7 72.3 70.4 71.4 70.8 71.1 79.6 80.2 74.7 72.9 68.3 58.6 47.2 37.8 32.3 33.6 35.6 41.8 43.5 38.7 46.8 53.5 54.1 55.9 61.2 71.5 88.6 103.3 98.3 77.6 87.7 99.7 111.8 114 114.7 104.1 108.5 108.8 112 103 88.4 90.7 93.3 92.3 89.8 83.9 81.7 75 74.9 74.9 83 81.6 79.5 82.9 84 89.4 95.7 101.6 104.3 107.2 111.3 120.6 134.5 134.7 141.5 140.3 141.5 135.2 134.7 132.5 132.4 138.7 122.9 100.7 91 86.5 83.8 76.9 67.9 65.6 65.9 62.9 60.3 61.9 74.4 73.5 66.5 57.9 55.2 62.3 77 85.8 89.9 89.7 83.8 80.2 82.4 88.6 90.2 86.9 82.9 80.8 62.4 66.2 65.2 64.5 52.1 33.8 21 13.2 13.2 13.2 13.2 13.2 17.2 23.3 27.3 36.6 38.3 33.1 24 20.7 20.7 25.3 40.5 37.9 24.9 23.5 24.3 25.4 34.1 52.7 77.8 74.1 69.5 72.1 68.7 72.5 58.4 49.7 44.2 35.1 14.9 2.7 11 3.4 -2.2 -2.2 -2.2 -2.2 -2.2 -2.2 -2.2 -2.2 -2.2 -2.2 -2.2 -2.2 -2.2 -2.2 -2.2 -2.2 -2.2 -2.2 -2.2 -2.2 -2.2 -2.2 -2.2 13.1 8.8 2.3 -2.2 -2.2 -2.2 -2.2 -1.7 -2.2 -2.2 -2.2 -2.2 -2.2 -2.2 -2.2 -2.2 -2.2 -2.2 -2.2 -2.2 -2.2 -2.2
237 230.6 228.5 209.9 185.4 160.2 126.9 112.8 91.6 78.6 73 69.4 68 63.5 62 68.2 72.5 73 66.1 58.4 50.1 43.1 34.3 30.8 36.2 35.3 42.1 45.5 34.6 40.7 43.3 47.9 51.6 54.5 58.8 69.5 81.2 91.2 68.9 65 91.6 94.2 102.3 102.3 93.9 95.8 97.8 100.9 92.7 87.5 86.6 88.4 93.4 92.5 89.2 94.3 86.5 75 74.9 85.3 85.7 82.8 90.2 89.7 91.4 98.7 102.4 106.4 107.4 110 116.7 125.3 130.3 136.9 146.4 141.7 142.6 143.3 141.7 140.1 133.5 124.6 116.4 105.7 100.5 86.9 78.2 74.6 72.2 65.6 60.1 59.7 61.3 69.2 75.4 67.1 54 55.3 60.9 67.8 81.4 86.4 90.7 83.2 80.2 80.2 88.1 94.3 88 86.2 81.7 61.2 59.2 49.6 47.2 39.1 28.1 19.1 13.2 13.2 13.2 13.2 18 17.1 21.5 25.4 33.9 34.8 24.8 23.3 21.2 20.7 20.7 30.9 33.6 23.6 23.5 23.8 25.2 38.7 62 75.7 73.9 70.9 72 67.1 68.9 61.2 52.2 48.7 41.9 18 14.1 17.6 7.2 -2.2 -2.2 -2.2 -2.2 -2.2 -2.2 -2.2 -2.2 -2.2 -2.2 -2.2 -2.2 -2.2 -2.2 -2.2 -2.2 -2.2 -2.2 -2.2 -2.2 -2.2 8.8 1.8 4.6 2 -2.2 -2.2 -2.2 -2.2 -2.2 -2.2 -2.2 -2.2 -2.2 -2.2 -2.2 -2.2 -2.2 -2.2 -2.2 -2.2 -2.2 -2.2 -2.2 -2.2
248.7 242.2 233.9 208.7 174.5 155.5 135.9 115.9 99.4 88 74.5 69.3 67.7 63.8 59 59.6 65.2 64.3 61.9 54.2 41.7 36.5 33.2 29.6 34.8 32.5 36.5 37.7 35 36 39.2 39.4 43.9 47.3 51.7 59.8 66 77.9 81.8 54.6 67 81.9 85.4 95.5 85.9 78 86.8 86.4 85.5 86.1 85.1 88.9 88.6 88.7 86.6 90.7 91 86.6 74.9 74.9 85.3 86.1 86.1 91 86.7 92.1 100.9 103.5 105.4 107.8 111 118.5 121.5 135.4 141.5 142.4 149.9 148.7 148.4 142.7 145.8 147.7 140.2 136.6 124.9 105 99.2 89.8 82.9 72.8 60 59.7 59.7 64 65.6 60.4 53.7 55.7 62.5 70.7 73.2 84 86.7 85.5 82 80.2 82 92.3 91.8 89.8 87.5 59.7 48.7 42.3 30.1 26.4 27.1 26 13.2 13.2 13.2 13.2 17.9 16.1 21.6 23.4 29.4 30.5 25.4 28 25.6 20.7 20.7 21.8 31.2 26 31.9 32.8 26.8 42.3 63.3 74 78 72.5 79.4 80.3 70 57.9 54.5 53.1 40.1 17.1 22.1 21.7 17 -2.2 -2.2 -2.2 -2.2 -2.2 -2.2 -2.2 -2.2 -2.2 -2.2 -2.2 -2.2 -2.2 -2.2 -2.2 -2.2 -2.2 -2.2 -2.2 -2.2 -2.2 -2.2 -2.2 -2.2 -2.2 -2.2 8.4 -2.2 -2.2 -2.2 -2.2 -2.2 -2.2 -2.2 -2.2 -2.2 -2.2 -2.2 -2.2 -2.2 -2.2 -2.2 -2.2 -2.2 -2.2
248 247.2 234.9 217 184 156.7 149.8 122.1 105.3 93.3 81.8 65.8 65.2 62.9 62.2 54.2 56.5 56.4 56.3 50 39.2 32.9 27.2 27.2 30.8 29.7 31.4 37.8 34.1 26.4 36.2 36.7 41.6 42.5 47.6 52.4 60.9 69.5 70.5 64.8 56.5 68.4 71.5 77.7 80.8 76.7 84.2 78.6 79.4 78.1 80.4 81.4 88.6 90.5 87.3 86.6 90.4 91.2 84.8 78.7 74.9 86.1 84.1 86.8 86.9 88.7 93.1 99.3 102 106.6 110.3 114.8 122.5 130.7 130.9 140.8 150.2 151.9 155.1 161.3 154.3 149.9 152.5 152.2 143.2 128.8 125.6 108.5 97.6 89.6 66.9 59.7 60.1 59.8 67.8 66.2 52.8 57.8 58.6 69.3 69.9 79.5 84.5 89.2 80 76.7 82.1 84.3 93.7 90.3 88.5 76.5 51.5 33.7 27.4 24.8 28.9 27.8 17.7 13.2 13.2 13.2 14.9 17.1 28.3 24.4 25.6 27.7 30 32 28.9 28 24.3 20.7 28.4 32 38.6 45.5 41.3 44.4 61.6 68.3 72.5 74.4 78.9 75.7 73.1 60 47.7 48.8 34.9 15.7 23.5 29 26.5 8.3 -2.2 -2.2 -2.2 -2.2 -2.2 -2.2 -2.2 -2.2 -2.2 -2.2 -2.2 -2.2 -2.2 -2.2 -2.2 -2.2 -2.2 -2.2 -2.2 -2.2 -2.2 -2.2 -2.2 -2.2 -2.2 1.1 -2.2 -2.2 -2.2 -2.2 -2.2 -2.2 -2.2 -2.2 -2.2 -2.2 -2.2 -2.2 -2.2 -2.2 -2.2 -2.2 -2.2 -2.2
252.6 248.5 238.3 226 197.3 162.9 151.2 133.1 116.8 109.7 99.2 78.8 58.6 55.3 54.3 54.5 53.2 53.6 51.4 47.1 38.1 27 25.9 26.6 29 27.5 31.6 34.9 33.3 20.3 30.5 35.6 38.9 40.1 43.5 48.2 54.5 58.7 65.2 61.8 48.4 57 56.5 63.3 68.2 71 69.1 72.3 73.8 75.1 76.1 77.8 83.6 84.8 86.4 88.6 88.8 88.6 88.7 90.3 76.3 74.9 76.4 87.5 88.4 89.4 92.6 94.2 101.1 106.1 109.3 112.9 121.4 122 124.3 140.4 157.9 170.5 163.3 163 159.6 154.2 150.7 144.6 140.7 129.8 122.6 114.7 112 84.8 68.6 59.7 59.6 63.3 64.2 57.6 52.4 57.1 59 57.3 65.5 73.8 76.8 84.5 82.3 77.9 82.5 82.1 86.5 88.7 83.8 73.6 44.7 31.3 23.7 26.3 24.6 21 17 13.7 13.2 13.2 13.2 18.5 29.4 29.1 28.3 32.9 30.4 29.9 31.5 35.5 31.2 20.5 23.7 32.2 45.4 45.8 43.9 46.9 48.8 65 67 68.9 67.9 69.5 66.6 58.7 54.7 39.5 31.4 16.5 20.4 33.4 24 9.1 -2.2 -2.2 -2.2 -2.2 -2.2 -2.2 -2.2 -2.2 -2.2 -2.2 -2.2 -2.2 -2.2 -2.2 -2.2 -2.2 -2.2 -2.2 -2.2 -2.2 -2.2 -2.2 -2.2 -2.2 -2.2 -2.2 -2.2 -2.2 -2.2 -2.2 -2.2 -2.2 -2.2 -2.2 -2.2 -2.2 -2.2 -2.2 -2.2 -2.2 -2.2 -2.2 -2.2 -2.2
251.8 249 240.9 227.4 205.5 180.7 159.6 143.4 121.2 120.5 115.3 91.1 74.1 60.1 58.2 51.1 49.6 53.7 46.8 41.8 30.4 27.1 25.8 28.1 27.6 26.6 27.1 32.3 31.9 19.1 22.8 30.2 34.7 36.1 40.2 44.1 48.1 51.7 54.4 54.1 49.9 50.8 47.8 52.5 55.8 60.1 46.3 61 66 71.7 72.3 67.1 77.9 84.5 86.6 87.7 89.4 89.9 91.1 90.5 87.5 78.5 78.2 83.8 97 91.4 85.7 92.8 96.5 97.6 105.8 110.1 115.4 122.3 120.8 143.9 159.3 170.8 163.2 170 172.4 154 155.7 147.5 142.9 135.8 127.6 118.9 102.8 93 83.1 57.3 61.1 67.9 62.1 52.2 52.9 59.5 64 55.2 63.5 71.8 72.1 77.2 78.2 76.9 75.6 82.8 82.4 84 76 66.2 50.9 32 22.1 22.2 19.3 18.7 19.9 19.1 13.2 13.2 13.2 22.7 28.3 33.6 33.5 38.7 36 31.6 34.5 42.4 42.5 25.9 20.5 19.8 40 34.7 39.1 39 43.5 46.1 57.6 64.3 56.7 59.7 65.1 57.5 52 33.4 21.7 9.1 22.9 31.3 24.3 15.1 -2.2 -2.2 -2.2 -2.2 -2.2 -2.2 -2.2 -2.2 -2.2 -2.2 -2.2 -2.2 -2.2 -2.2 -2.2 -2.2 -2.2 -2.2 -2.2 -2.2 -2.2 -2.2 -2.2 -2.2 -2.2 -2.2 -2.2 -2.2 -2.2 -2.2 -2.2 -2.2 -2.2 -2.2 -2.2 -2.2 -2.2 -2.2 -2.2 -2.2 -2.2 -2.2 -2.2 -2.2
250.5 250.3 242.4 226.2 216.6 192.5 172 150.5 134.8 126.4 128.4 107 81.7 74.1 58.8 56.5 50.3 48.1 47.6 40.8 29.7 30.5 30.1 26.2 26.4 23.9 25.1 28.6 29.9 26 21 28.3 29.9 29.8 37.9 42.1 42 45.1 45.4 46.2 45.6 42 44.5 45.7 53.3 45.3 42.2 48 56.8 64 68.6 68.2 68.1 82 85.5 87.6 90.4 91.7 94.5 93.5 88.8 84.6 76.8 71.4 85.7 87.1 87 85.1 88.3 99.5 102.8 106.4 115.4 119.2 122.9 133.9 147.5 167.1 168 163.2 169.4 166.1 155.7 150 147.8 143.7 135.2 122.3 106.9 96.3 90.3 60.6 58.3 65.4 58 52.2 55.3 61.4 66 55.2 61.5 68.3 70.5 73.9 73.1 74 78.6 78.6 84.3 86.4 68.2 64.6 59.9 30.4 22.4 23.8 21.2 21 23.7 29.6 17.2 13.2 13.2 24 34.1 41.8 43.5 45.2 34.9 35.3 33.3 44.8 49.2 34 19.3 20.2 21.4 28.8 33.4 29.6 31.5 34.5 36.7 43.7 47.1 44.3 51.5 48.8 40.1 28.5 10.5 6.1 16.2 20 15.1 3.9 -2.2 -2.2 -2.2 -2.2 -2.2 -2.2 -2.2 -2.2 -2.2 -2.2 -2.2 -2.2 -2.2 -2.2 -2.2 -2.2 -2.2 -2.2 -2.2 -2.2 -2.2 -2.2 -2.2 -2.2 -2.2 -2.2 -2.2 -2.2 -2.2 -2.2 -2.2 -2.2 -2.2 -2.2 -2.2 -2.2 -2.2 -2.2 -2.2 -2.2 -2.2 -2.2 -2.2 -2.2
245.9 253.6 246.6 230.8 218.3 202.5 180.4 163 145.3 134.6 129.8 120 98.9 84 68.2 58.4 57.6 53.1 48.6 45.4 40.7 38.9 36.1 28.8 21.9 21.3 20.9 24 21.8 19.8 19 25.5 24.8 27.6 31.6 33.8 37.7 38.3 41 40.8 37.9 35.5 36.4 38 41.5 47 43.5 36.3 50 53.3 59.3 59.5 62.6 71.6 80.3 85.5 88.3 87.9 91 92 93 91.7 85.7 70.3 80.1 87.2 82.9 81 87.3 93.5 98.2 105.1 111.6 116 120.7 124.1 137.2 159.9 166.3 168.7 169.8 167.8 163.5 156 152.6 152.8 139.8 124.4 112.7 99.6 94.7 69.4 52.3 60.9 52.3 51.7 56.7 58.8 62.7 62.4 58.5 60.8 59.6 66.4 68.8 73.7 75.4 68.7 75.1 77.4 67.9 62.1 54.3 29.5 25.9 28 33 32.6 27.6 26.6 22.1 13.2 15.1 29.9 40 52.4 48.7 48.8 41.2 28.9 28.1 40 44.2 39.1 22.5 20.5 19.2 19.1 26.3 26.7 33 35.3 28.6 28.1 30.3 34.3 37.4 42 31.7 13.5 6.3 6.1 5.7 9.4 7.4 7.5 7.4 5 -2.2 -2.2 -2.2 -2.2 -2.2 -2.2 -2.2 -2.2 -2.2 -2.2 -2.2 -2.2 -2.2 -2.2 -2.2 -2.2 -2.2 -2.2 -2.2 -2.2 -2.2 -2.2 -2.2 -2.2 -2.2 -2.2 -2.2 -2.2 -2.2 -2.2 -2.2 -2.2 -2.2 -2.2 -2.2 -2.2 -2.2 -2.2 -2.2 -2.2 -2.2 -2.2
239.9 253 245.7 232.8 223.9 208.5 196 172.2 156.2 142.4 132 123 111.7 99.6 82.4 59.6 58.6 64.4 57.1 46.5 43.8 43.9 38.2 26.8 23.8 23 18.5 18.8 19 19 19 19 19 25.3 30 33.4 33.8 33.2 32.9 32.7 30.9 29.6 27.6 33 30.5 35 35.4 33.5 38.7 44.8 52.2 59 51.7 68.5 75 77.1 87.1 90.1 93.2 94.2 91.9 84.9 88.6 76 71.3 74 79.3 81.2 80.9 87.8 96 100.2 106.4 113.9 115.9 127.9 140.9 165.7 178.8 172.8 174 173.4 169.8 171.5 165.5 159.2 156.6 143.4 115.3 100.8 90.6 76.9 51.1 52.6 49.2 47.4 51.9 61.4 63 60 57.6 58.4 58.7 59.9 70.7 73.6 73 70.2 70.1 75.4 70.9 81.1 61.1 35 31.7 37.8 50.7 51.6 32.3 27.1 22.2 13.4 15.6 32.1 41 52.1 61 60.3 43.4 38.1 28.1 32 38.2 35.9 22.2 16.5 19.5 27 26.6 29.1 27.8 35.7 26.6 24.6 29.3 41.5 42.9 33.2 22.5 11.9 10.9 6.1 9.1 9.6 9.5 10.8 9.6 5.7 -2.2 -2.2 -2.2 -2.2 -2.2 1.7 -2.2 -2.2 -2.2 -2.2 -2.2 -2.2 -2.2 -2.2 -2.2 -2.2 -2.2 -2.2 -2.2 -2.2 -2.2 -2.2 -2.2 -2.2 -2.2 -2.2 -2.2 -2.2 -2.2 -2.2 -2.2 -2.2 -2.2 -2.2 -2.2 -2.2 -2.2 -2.2 -2.2 -2.2 -2.2 -2.2
225.7 248.5 245.6 232.7 226.1 213 204.2 185 170 149.7 138 125.1 117.3 109.1 94.3 80.2 67 68.8 66.7 58.3 43.6 40 37.7 30.5 26.6 24.2 20.3 18.5 19 19 19 19 19.2 22.8 25.2 31.1 30.1 27.5 27.8 27.2 24 22.5 21.3 25.4 26.8 29.4 33.3 26.6 25.4 37.3 45.9 49.8 46.3 57.4 68.6 75.7 85.6 94.4 99.6 91.5 86 82 79.7 78.7 73.9 69.6 71.3 75.9 79.2 82.8 93.7 95.6 98 107.2 115 127.1 140 165.1 176.7 174 177.3 175.3 175 175.7 169.4 163.7 158.6 144.3 121.3 96.3 91.2 74.2 52.8 47.5 50.9 47.1 48.7 56 63.4 51.7 50.9 60 60.4 63.2 60 65.3 69.2 68.5 69.2 74 75 72.8 64.3 37 31.4 41.4 47.9 51 29.3 22.2 15.9 13.4 13.2 35.4 41.2 51.2 57.3 53 40.2 40.2 29.2 26.3 32.1 30.2 27.8 14.9 18.9 28.5 34.6 26.7 25.9 24.1 18.3 29.2 20.9 35.4 34.2 18.4 9.9 11.9 7 6.1 12.3 14.8 19.7 17 14.5 8.5 -2.2 -2.2 -2.2 -2.2 -2.2 -2.2 -2.2 -2.2 -2.2 -2.2 -2.2 -2.2 -2.2 -2.2 -2.2 -2.2 -2.2 -2.2 -2.2 -2.2 -2.2 -2.2 -2.2 -2.2 -2.2 -2.2 -2.2 -2.2 -2.2 1.1 -2.2 -2.2 -2.2 -2.2 -2.2 -2.2 -2.2 -2.2 -2.2 -2.2 -2.2 -2.2
214.2 234.8 238.3 228.6 221.6 215.9 207.6 198.6 176.8 154.2 137.9 122.9 114.3 105.6 99.7 93.8 80.7 70.3 69.8 69.8 57.8 41.9 38.1 33.8 30.2 26.2 19.2 19 19 19 19 19 21.1 31.9 35.6 29.9 29 27.7 25.6 22.7 21.9 19 18.8 18.1 27 25.5 24.1 19.6 20.8 36.7 47.3 47.4 35.8 45.3 62.1 73.7 83.6 87.3 89.2 90.3 84 84.5 82 77.9 76.5 72.2 67.2 70.2 74.6 75.3 87.2 91 92.8 101 110.2 119.7 140.3 160.3 166.1 167.9 175.6 176.7 174.4 170.9 170.5 164 152.2 146.7 126.6 107.3 87.2 65.8 55.1 47.1 47.1 47.1 50.3 57.2 60.7 53.2 49.6 55.6 58.7 66.8 62.9 59.4 60 65.6 66.6 65.4 69.7 72.5 68.7 43.7 36.1 37.8 44.2 38 29 22.4 18.8 17.9 13.2 31.6 36.1 44.8 52.6 49 38 36 30.4 30.1 24 25.2 24.2 14.5 18.1 23.6 38 32 23.7 19.2 9.8 18.7 17.2 22.6 23.7 7.8 5.3 7.2 6.7 6.1 8 20.2 26.2 21.3 18.2 14.5 -2.2 -2.2 -2.2 -2.2 -2.2 -2.2 -2.2 -2.2 -2.2 -2.2 -2.2 -2.2 -2.2 -2.2 -2.2 -2.2 -2.2 -2.2 -2.2 -2.2 -2.2 -2.2 -2.2 -2.2 -2.2 -2.2 -2.2 -2.2 -2.2 5.1 -2.2 -2.2 -2.2 -2.2 -2.2 -2.2 -2.2 -2.2 -2.2 -2.2 -2.2 -2.2
207.3 227.1 231.9 225.2 224.3 223.6 216.4 206.5 191.5 161.1 138.8 124.4 115.9 104 97.4 97.1 92.1 71.2 67 72.4 64.4 53.1 39.8 36.4 34.9 34.5 26.5 19 19 19 19 19 19 31.5 39.4 35.4 32.8 33.7 31.9 22.8 20 18.1 18.6 18.1 25.9 26 22.1 19.5 17.4 31.1 38.4 44.3 37.1 33.8 57.3 66.9 74.3 79.9 85.1 84.4 84 82.4 80.1 74.1 74.3 68.8 67.9 64.9 78.2 80.6 78.4 83.2 86.7 90 104.7 116.4 129.9 150.8 158.7 164.4 161.9 164.7 166 164 163.8 159.5 150.8 139.9 127.5 103.5 89.7 71.7 64.3 48.4 47.1 47.1 49.1 52.4 61.1 57.9 50.5 58.4 54.7 65 67.3 63.1 66.9 67.4 65.8 65.8 69 73.6 74.7 55.4 40.4 34.3 29.8 30.1 27.2 22.5 18.3 15.6 13.2 29.5 31.4 37.9 41.3 45 39 38.3 36 29.4 25.2 21.2 15.9 17 14.2 21 31 29 20.8 17.2 6.1 6.5 5.8 6 7.4 10.7 5.3 6.2 6.1 6.1 6.1 15.5 24.1 22.7 20.1 19 -2.2 -2.2 9.2 -2.2 -2.2 -2.2 -2.2 -2.2 -2.2 -2.2 -2.2 -2.2 4.8 -2.2 -2.2 -2.2 -2.2 -2.2 -2.2 -2.2 -2.2 -2.2 -2.2 -2.2 -2.2 -2.2 -2.2 -2.2 -2.2 5.3 -2.2 -2.2 -2.2 -2.2 -2.2 -2.2 -2.2 -2.2 -2.2 -2.2 -2.2 -2.2
204.3 215.8 227 226.1 226 224.5 223.3 212.9 204.9 183.9 150.1 129.5 115.8 107.5 100.9 97.5 95.2 83.2 66.6 70.1 65 59.4 47.5 39.4 38.9 32.1 28.5 22.1 23.1 27.2 19 19 22.9 31.7 37.2 38.3 34.3 31.6 30.6 28.3 25.5 20.4 20.8 19.9 19.1 22.2 20.4 17.4 17.6 26.3 30.4 39.6 37.4 30.6 42.3 58.8 66.6 71.8 79.6 79.4 80.1 76.8 75.4 72.3 74.9 67.8 64.3 63.6 64.8 74.9 75.7 79.9 86.5 95.2 105.9 108.6 114.6 136.1 144.9 151.7 149.5 154.6 156.7 156.7 156.7 158.2 150.7 133.8 110.9 86.5 80.7 71.9 63.2 56.4 47.1 47.1 47.1 51.4 56.4 58.7 51.6 58.1 56.3 57.7 68.7 72.1 68.7 68.1 68.9 68.3 69.8 67.9 63 63.8 46.2 42.4 20.6 21.8 26 19.3 14.6 14.6 14.9 31 34.6 34.5 45.2 41.1 40.5 38.2 37.5 31.1 29 23 20.2 14.2 14.2 16.6 25.2 26.7 20.5 21.5 13.9 6.2 6.4 14.3 6.6 9.8 8.1 6.1 11.6 6.1 6.6 14.8 19.8 19.7 14.9 20.7 9.5 1.8 3.8 -2.2 -2.2 -2.2 -2.2 -2.2 -2.2 -2.2 -2.2 7.1 16.5 -2.2 -2.2 -2.2 -2.2 -2.2 -2.2 -2.2 -2.2 -2.2 -2.2 -2.2 -2.2 -2.2 -2.2 -2.2 -2.2 -2.2 -2.2 -2.2 6.4 -2.2 -2.2 -2.2 -2.2 -2.2 -2.2 -2.2 -2.2 -2.2
198.2 212.1 217.3 226.7 228.1 228.2 228.8 221.9 208.8 194.2 162 143.3 118 117.5 105.8 97.8 98.6 95.5 79.5 65.8 65.2 59.7 51.1 48.7 38.3 28.6 26.5 24.3 26.2 28.8 19 19 31 35.2 40.3 42 39 34.5 33.6 29.6 25.7 24.9 20.4 18 18.1 20.2 21.3 16.5 14.5 20.2 28 31.7 35 30.2 32.3 50.9 60.8 68.1 74.9 77.5 79.5 76 75 73.5 70.3 69 69.4 62.3 62.3 72.4 77.4 77.2 84.4 91.6 101.1 109.7 115 125.2 139.2 142.8 143.5 144.2 148.6 148.3 149.2 146 141.5 130.1 102.2 74.2 66.4 63.5 59.1 51.7 47.1 52 50.9 47.1 44.9 52.5 45.8 56.3 62.1 53.9 68 73.3 72.9 72.7 68.6 74.1 74.1 60.1 58.6 66.1 53.3 27.8 21.7 17.7 18.8 11.6 11.6 15.4 19.6 24.4 40.8 35.2 40.1 49.7 45.5 39 42.8 29.2 29.7 28.6 24.7 14.2 14.2 14.1 20.9 23.3 27.4 25.8 16.8 7.8 13.2 14.2 13.3 11.2 7.1 6.1 6.1 6.1 6.1 14.9 16.5 15.7 7.8 20.1 -2.2 -2.2 -2.2 -2.2 -2.2 -2.2 -2.2 -2.2 -2.2 -2.2 19.3 14.3 15.6 17 -2.2 -2.2 -2.2 -2.2 -2.2 -2.2 -2.2 -2.2 -2.2 -2.2 -2.2 -2.2 -2.2 -2.2 -2.2 -2.2 -2.2 -2.2 -2.2 -2.2 -2.2 -2.2 -2.2 -2.2 -2.2 -2.2 -2.2 -2.2
191.4 205.2 211.1 220.7 223.7 228 224.5 222.2 215.6 204.2 179.4 150 123 114.5 105.7 98.5 101.9 102.8 88.2 80.6 66.4 60.5 54.7 53.4 53.7 39.2 26.7 28.4 22.6 19.5 17.7 19 36.4 39 42.7 47.8 42.2 35.6 28.2 28.8 27.3 24.1 19.6 18 17.8 18.1 21.3 14.5 14.5 17.8 24.5 27 35.7 34.7 32.3 41.6 51.6 61.2 66.3 72.7 75.9 75 74.2 70.1 65.2 68 67.6 62.3 62.3 62.3 71.6 75.1 76.6 90 101.4 109.8 111.2 128.1 136.8 139.9 141.1 143.2 144.9 145.9 142.6 134.5 130.9 115.7 98.1 78.3 67.3 65.7 52.8 49.5 50.9 49.8 46.1 53.4 45.3 40.8 42.7 40.8 61.7 56.4 60.8 78 76.5 67.8 67.4 69.6 76.8 60.7 58.6 60.5 45.7 24.3 20.8 15.1 12.4 11.6 11.6 11.6 14.6 23.5 39.8 38.4 38.6 53.9 53.5 44.1 36.3 26 29.7 36.4 28.1 16.2 18.5 23.3 17.3 25.6 29.2 22.4 13.3 9.1 8.2 10.7 14.8 15.6 6.1 6.1 6.1 6.1 6.1 11.1 11.9 8.8 3.8 4.8 -2.2 -2.2 -2.2 -2.2 -2.2 -2.2 -2.2 -2.2 -2.2 12.1 24.6 19 23.1 27.8 11 -2.2 -2.2 -2.2 -2.2 -2.2 -2.2 -2.2 -2.2 -2.2 -2.2 -2.2 -2.2 -2.2 -2.2 -2.2 -2.2 -2.2 -2.2 -2.2 -2.2 -2.2 -2.2 -2.2 -2.2 -2.2 -2.2 -2.2
183.1 192.4 200.4 216.4 217.6 218.6 219.7 217.3 217.2 207.3 184.7 157.6 135.7 116.4 105.8 99 103.5 101.2 92.9 88.4 77.4 66.3 55.7 54.8 54.8 50.7 33.6 31.3 27.7 16.1 18.9 19.1 33.1 36.1 39.9 42.5 42.5 35.3 32.9 28.2 30.6 26 24.5 19.6 17.4 18.1 21.6 16.5 14.5 18.6 23.2 29.6 33.4 32.1 30.8 31.8 43.5 53.5 57.3 62.1 65.3 68.6 67.3 65.1 62.5 62.3 63.4 62.3 62.3 62.3 64.6 75.7 76.7 82.5 93.2 105.2 110 122 134.6 138.7 145.2 141.8 144.4 143.2 135.9 128.5 127.1 113 90.3 78.5 66 57.6 50.3 49.5 56.9 51.3 43.1 47.4 51.4 42.7 33.9 35.3 56.5 55.6 48.5 67.3 71.5 62.5 62.2 63.6 61.7 69.4 69 68.8 38 28.9 15.5 13.9 13.4 11.6 11.6 11.6 11.6 18.5 33.7 43.5 41.6 40.8 54.4 45.9 31.5 25.6 27 35.4 38.2 21.3 15 22.7 19.1 18.1 23.7 20.5 8.2 8.2 13.1 8.1 6.5 6.2 6.1 6.1 6.1 6.1 6.1 13.3 10.5 7.3 4.9 2.1 -2.2 -2.2 -2.2 -2.2 -2.2 -2.2 -2.2 -2.2 14.3 13.4 17.6 18.4 19.2 24.9 18.2 -2.2 -2.2 -2.2 -2.2 -2.2 -2.2 -2.2 -2.2 -2.2 -2.2 -2.2 -2.2 -2.2 -2.2 -2.2 -2.2 -2.2 -2.2 -2.2 -2.2 -2.2 -2.2 -2.2 -2.2 -2.2 -2.2 -2.2
168 180.3 191.9 202.1 208.3 208.5 211.8 213 211 202 193 176.3 140.8 120.4 111.2 102.5 102 101.4 99.3 91.6 79.8 78.7 66.9 52.4 54.4 60.6 44.2 22.1 21.2 15.7 17.1 13.1 24.2 34.1 39.2 43.2 43.1 36.3 38.1 28.2 30.9 27.5 26.8 26.3 23.1 18.1 21.7 20.7 14.5 15.1 16.7 22 25.4 25.3 24.2 30.5 34.7 43.2 53.7 61.2 63 62.4 65.8 74.5 62.6 62.3 62.3 62.3 62.3 62.7 62.3 64.2 71.4 80.6 89.4 101.7 107.1 113.1 130.1 136.4 139.6 140.2 140 140.4 132.5 123.3 113.5 97.8 84.9 76.7 65.5 56.6 53.5 51 54.1 53.6 40.3 42.4 44.8 39.5 38.2 39.5 47.4 48.9 43.9 54 55.7 53.8 53.7 54.7 65.9 65.8 64.8 56.6 43 29.6 16.1 11.6 11.6 11.6 11.6 11.6 11.6 20.3 19.6 39.2 44.9 37.3 47.5 43.3 33.2 25.7 27.1 33.8 45.2 25.3 12.7 20.1 18.8 22.8 17 16.7 21.8 12.1 16.2 9.2 6.4 6.1 6.1 6.1 6.1 6.1 6.1 8.7 6.8 6.6 6.2 14.5 1.8 -2.2 -2.2 -2.2 -2.2 -2.2 -2.2 19 20.7 24.8 18.1 17.4 18.1 19.3 19.8 9.2 -2.2 -2.2 -2.2 -2.2 -2.2 -2.2 -2.2 -2.2 -2.2 -2.2 -2.2 -2.2 -2.2 -2.2 -2.2 -2.2 -2.2 -2.2 -2.2 -2.2 -2.2 -2.2 -2.2 -2.2 -2.2 -2.2
154.1 172.1 176.7 188.1 194.8 196.7 197.1 197.7 199.7 196.6 189.4 174.1 146.1 121.7 111.8 102.8 108.6 104.8 97.8 86.7 82.4 78.5 79.8 51 46 53.5 44.5 23.4 13.1 15.7 13.1 13.1 16.5 29.6 43.7 51.7 49.1 43.6 36 36.7 37.4 34.2 27.3 22.8 20.7 18.1 18.1 17.9 14.5 14.5 14.5 18.3 24.4 26.7 21.7 27.7 29.4 35 41.9 54.5 58.9 59.6 67.8 65.4 60.1 62.9 62.6 64.3 65.6 64.4 64 62.3 64 76.4 84.7 89.5 102.5 112.4 112.8 126.4 133.3 135.4 132.1 132.8 130.5 127.8 113.6 89.2 76.2 71.8 63.7 56 53.6 56.6 61.6 60.7 40.7 39.9 35.2 39.5 32.7 36.6 40.1 47.8 43.4 44.5 58.2 54.9 54.1 52.4 56.2 61 49 43.4 36.7 26.5 15.5 11.6 11.6 11.6 11.6 11.6 11.6 19 21.2 46.8 42.4 35.5 32.4 31.6 40.7 25.9 21.9 32.5 41.4 38.3 13.7 14.6 17.1 17.2 17.6 17.3 19.9 16 16.2 14.5 13.3 6.2 6.1 6.1 6.1 6.1 6.1 6.1 5.8 9.7 6.1 9.6 18.4 6.8 8.8 -2.2 -2.2 12 13.6 18.3 23.3 31.8 32.8 15.7 16.7 22.8 24.3 22.2 -2.2 -2.2 -2.2 -2.2 -2.2 6.2 -2.2 -2.2 -2.2 -2.2 -2.2 -2.2 -2.2 -2.2 -2.2 -2.2 -2.2 -2.2 -2.2 -2.2 -2.2 -2.2 -2.2 -2.2 -2.2 -2.2
147.2 155 171.2 181.4 181.7 182.6 183.1 187.7 184.2 186.3 186.5 177 151.8 116.5 115.8 109.2 112.5 108 100.1 88.2 81.5 76.4 74.3 53.8 36.4 36.4 37.8 32.4 15.1 12.1 13.1 16 13.1 30.3 44 50.6 49.2 47.1 43.6 41.1 39.6 38.8 32.2 27.1 22.9 17.5 19.3 21 14.5 14.5 14.5 16.1 20.2 24.4 20.4 24.7 30.1 35.8 44.5 43.2 52.6 56.6 58.7 63.5 59.1 64.4 64.9 71.2 71 78.1 73 71.1 67.5 77.9 87.5 97.7 100.6 108.3 109.5 110.5 105.5 113.2 122.9 124 124.8 119.8 104.1 93.6 81.5 66.8 57.3 54.2 54.2 57.6 60.6 62.9 54.1 40.6 34.3 33.7 34.5 29.8 38.2 52 44.1 39.3 48.1 57.4 57.9 55.3 49.4 43.6 46.4 40 32.9 26.5 18.7 11.6 11.6 11.6 11.6 11.6 11.7 17.6 17.5 30 48.9 45.7 30.1 29.3 30.5 26.5 19.6 26.1 42.5 35.4 15.4 11.9 13.5 18.1 28.8 27.5 22.8 20.1 22.5 20.4 20.8 13 6.1 6.1 6.1 6.1 6.1 6.1 6.1 6.1 6.1 7.8 20.1 16.8 7.2 -2.2 7.8 19.8 14.6 16.7 22.2 29.4 34.4 22.9 10.8 15.9 23.8 25.7 -2.2 -2.2 -2.2 -2.2 -2.2 -2.2 -2.2 -2.2 -2.2 -2.2 -2.2 -2.2 -2.2 -2.2 -2.2 -2.2 -2.2 -2.2 -2.2 -2.2 -2.2 -2.2 -2.2 -2.2 -2.2 -2.2
142.7 144.9 159.7 173.2 174.2 177.1 172.8 172.8 167.8 172.3 180.4 176 156.2 116.5 116.6 112.4 111.3 113.9 101.1 90.5 83 73 69.8 56.7 45.6 24.7 27.2 34.5 28.3 19.9 16.6 19.9 13.1 27.5 39.7 48.1 47 46.9 50.8 54.5 48.4 43.8 40 33.6 27.6 22.9 19 24.7 22.3 15 18.3 23.9 20.6 22.5 21.9 20.4 26.5 28.8 37.5 41.3 48 49.5 48.2 53 58 64.6 74 76.9 77.2 79.7 78.3 73.9 73.5 69.7 78.7 95.3 97.3 103.9 107.8 102.7 94.9 96.1 94.9 95.4 96.6 101.6 94.2 87 71.5 65.6 61.8 57.9 54.1 57.8 57.8 57.8 60.3 50.1 36.5 34.4 35.7 26.8 37.2 44.8 43.7 43.7 38.7 49.6 52.9 53 52.8 44.1 43.5 40.7 27.6 26.3 19.7 11.6 11.6 11.6 11.6 11.6 11.6 17.3 17.3 18 41.7 41.5 24.9 20 22 20.8 19.8 20.9 29.3 26.8 18.4 12.7 21.3 21.5 33 27.3 20.7 20.3 27.9 23.3 17.8 6.8 6.1 6.1 6.1 6.1 6.1 6.1 6.1 6.1 11.8 14.2 39.5 32.6 16.1 1.8 17.4 20.4 20.8 14.5 16.4 25.8 22.8 26.5 15.6 7.9 11.5 16.6 -2.2 -2.2 -2.2 -2.2 -2.2 13.4 1.4 -2.2 -2.2 -2.2 -2.2 -2.2 -2.2 -2.2 -2.2 -2.2 -2.2 -2.2 -2.2 -2.2 -2.2 -2.2 -2.2 -2.2 -2.2 -2.2
141.1 140.4 146.8 158.9 164.1 166.8 167.4 160 157.9 159.6 161.4 165.7 156 121.5 113.9 113.8 112.3 112.1 93.7 90.3 81.9 72.1 66.9 52.9 43 25.9 10.3 22.8 29 28 9.5 19.1 13.1 18.9 33.3 43.4 46.9 45.8 54.7 63.5 58 45 49.9 39.5 33.1 27 21.3 23.3 21.7 17.1 17.1 20.3 23.8 22 22.8 20.4 28.2 29.1 31.5 34.5 38.4 44.2 45.1 48.4 57 71.9 81 84.8 89.7 89.2 84.1 82.2 78.7 76.5 75.3 92.7 94 104.2 107.3 98.1 91.2 94.6 88.6 82.5 75.2 69.9 75.4 66.8 66.3 63.7 56.9 54.2 54.2 54.2 57.8 59.8 60.4 52.5 38.3 28.6 28.6 24 32.6 43.1 40.6 43.8 36.3 56.1 56.9 55.7 52.7 49.4 41.4 36.7 35.3 43.1 21.3 11.6 11.6 11.6 11.6 11.6 14.6 15.9 20 17.2 22.9 30.3 25.1 23.1 19.4 19.4 19.4 19.4 21.9 27.2 20.1 11.3 16.4 21.6 32.1 31.3 19.4 19 24.4 29.5 19.7 6.1 6.1 6.1 6.7 6.1 6.1 6.1 8.2 6.1 6.1 23.9 32 41.8 17.9 10.1 20 21.2 21.4 11.4 19 10.2 13.4 10.6 9.9 -2.2 -2.2 13.1 -2.2 -2.2 -2.2 -2.2 5.5 -2.2 -2.2 -2.2 -2.2 -2.2 -2.2 -2.2 -2.2 -2.2 -2.2 -2.2 -2.2 -2.2 -2.2 -2.2 -2.2 -2.2 -2.2 -2.2 -2.2 -2.2
141.2 137.5 141.2 148.4 153.8 156.7 160 153.1 151.2 152.8 148 150 145.9 133.1 107.4 107.6 109.1 104.6 92.3 82.1 79.9 71.8 59.5 47.6 39.6 27.9 14.1 5.1 15.5 23.1 16.8 14.9 17.5 15.5 31.1 41.8 42.9 46 53.7 59.7 60.9 43 46.4 42.5 38.5 32.9 28.5 23.6 26.5 23.2 15.7 16.6 22.9 25.2 20.4 20.4 25.6 26 30.6 32.5 31.6 38.1 45.5 51.6 61.2 84.7 86.8 89.7 93.3 93.2 90.1 87.1 84.2 85.7 82.9 84.5 93.6 101.2 108.2 98.1 90.1 87 82 79.3 73.5 63.4 56.3 56.4 64.8 66.9 64.8 57.1 54.4 54.4 58 54.7 50.2 49.7 32.3 21.3 21.2 19.4 28.6 34.6 40.3 50 35 42.5 55.9 59.6 55 55.3 43.1 37.8 42.7 37.4 27.4 12.9 11.6 11.6 11.6 12.7 16.2 16.8 18.8 20 33.6 21.5 19 27.1 24.3 19.4 19.4 19.4 17.5 21 17.3 10.1 13.3 21.3 24.8 27 19 19 20.6 31.4 30.7 6.1 6.1 9.4 8.3 6.1 6.1 6.1 5.9 6.1 6.1 17.9 27.6 29.1 23 19.7 30.9 17.8 11.4 9.9 9.9 7.9 4.5 6.9 -2.2 -2.2 -2.2 -2.2 9.4 -2.2 -2.2 -2.2 8.8 -2.2 -2.2 -2.2 -2.2 -2.2 -2.2 -2.2 -2.2 -2.2 -2.2 -2.2 -2.2 -2.2 -2.2 -2.2 -2.2 -2.2 -2.2 -2.2 -2.2 -2.2
139 134.5 134.4 142.8 147.3 148.6 149 146.3 148.7 147.4 142.1 129.9 127.4 134 110.8 102.4 115.2 99.9 90 82.6 78.7 70.9 57.4 52.1 42.8 31.5 13.5 8.1 3.7 14.8 17 6.4 16.7 17.9 28.2 40.1 47.1 48.8 55.2 58 55.2 46.1 41.1 43.2 42.6 34.7 32 22.9 27.2 26.6 11.4 17 19.5 20.7 24.8 20.4 25 27.7 25.9 33 33 35 43.1 52.8 69 82 87.8 91.5 96 98.1 95.7 92.8 90.2 87 85.8 79.9 87.1 95.2 102.8 105.7 92.6 89.2 81.4 79.3 74 75.3 59.1 56.3 60.5 56.3 58.1 56.7 57.5 58.4 60.7 56.3 49.3 43.4 31 11.7 14 20 31.5 30.9 43.9 41.6 33.1 40.1 52.9 55.2 55.2 53 44.2 40.8 30.8 34.6 24 11.8 11.6 11.6 11.6 15.6 21.2 21.1 19.7 17.4 18.8 17.1 17.1 21.3 25.5 19.6 19.4 19.4 22.2 12.9 12.3 11.7 16.4 24 20.2 24.7 19.4 18.1 26 31.6 32.6 6.1 7 19.3 8.2 5.2 6.1 6.1 6.1 6.1 6.1 11.5 14.2 14.2 18.6 28.7 33.8 18.6 11.2 9.9 9.8 10.4 6.4 7 -2.2 -2.2 -2.2 -2.2 -2.2 -2.2 -2.2 -2.2 -2.2 -2.2 -2.2 -2.2 -2.2 -2.2 -2.2 -2.2 -2.2 -2.2 -2.2 -2.2 -2.2 -2.2 -2.2 -2.2 -2.2 -2.2 -2.2 -2.2 -2.2 -2.2
139.4 134.1 132 134.5 142.5 145.7 143.5 147.2 148.4 147.5 140.5 129.5 115.1 126.3 122.7 98 105.3 97.6 85.2 83.7 76.1 69.2 59.8 53.5 44.4 28.2 24 14 3.9 8.7 11.6 12.1 5.2 11.9 32.3 39.3 48.9 49.3 61.3 65.3 64.6 54.9 44 37.5 35.1 33.3 31.4 25.4 23.2 21.1 10 14.1 21.9 28.2 25.5 22 20.4 27.6 25.9 33.1 37.9 42.9 48.2 56.1 69.5 80.2 90.2 98.7 97.5 100.1 99.7 96.7 96.1 93.4 87.7 87.5 84.5 90.2 103.1 105.1 96.5 96.7 90.7 80.8 76.6 65.9 59.1 54.2 54.7 46.1 43.9 41.8 59.9 59 62.8 58.6 50.3 42.9 31.9 16.7 11.6 22.4 29.2 36.3 38.1 46.3 40.4 30.1 35.7 49.5 47.5 46.9 38.4 37.3 39.5 25.6 18.2 14.1 14 12 11.6 15.2 18.9 21.9 21.2 16.4 16.4 18.5 20.3 24.2 25.8 21.1 21 19.2 22.1 14.7 10.3 10.3 16.6 20.6 19.1 24 30.9 29.5 23.6 30.3 24.8 7.5 9.1 19.9 9.8 8.5 6.1 6.1 6.1 6.1 6.1 18.7 15.8 13.3 9.9 24.7 19.7 14.1 9.9 12.8 16.1 14.9 9.4 12.1 -2.2 -2.2 -2.2 -2.2 -2.2 -2.2 -2.2 -2.2 -2.2 -2.2 -2.2 -2.2 -2.2 -2.2 -2.2 -2.2 -2.2 -2.2 -2.2 -2.2 -2.2 -2.2 -2.2 -2.2 -2.2 -2.2 -2.2 -2.2 -2.2 -2.2
144.5 133.2 131.6 132.7 142.4 137.8 139 146.7 149.5 143.7 140.2 132 120.5 114.5 116.5 97.5 105.7 98.1 76.2 77.1 69.3 64.7 60.8 57.7 42.5 32.1 22.4 14.9 6.4 5.1 6.5 4.5 6.7 3 32.8 41.3 47.4 45.7 54.3 61.3 62.3 56.5 49.5 43.8 35.4 33.2 34.7 27.8 17.5 15.3 10.1 10.9 19.9 33.1 31.4 26.6 22.9 23.4 25.9 40.1 45 47.7 50.8 63.2 71.1 84.6 92.2 96 102.6 104.5 105.9 108.5 106.4 99.6 94.5 91.4 86.8 82.9 93.8 99.5 103.7 106.1 86.2 81.1 67.3 59.3 59.1 56.6 49.8 50.3 45.9 37 36.3 40.2 44.7 57.2 50 38.8 31.8 8 7.6 19.2 30.6 32.7 31.9 46.3 35.7 21.7 25.6 39.5 42.2 37.2 30.8 28.9 31.9 28.3 19.2 11.9 11.9 11.7 11.6 13.2 18.5 22 22.1 18.9 16.4 16.4 16.4 18.9 27.9 22.4 19.4 24.6 25.8 33.4 15.2 10.3 10.3 18.8 21.2 22.4 29.6 24.7 16.8 21.7 8.1 5.1 9.9 9.4 9.2 9.7 6.1 6.1 6.1 6.1 11.1 23.9 20.6 9.9 9.9 9.9 9.9 9.9 9.9 17.1 26.9 19 21.3 20.2 16.1 -2.2 -2.2 -2.2 -2.2 -2.2 -2.2 -2.2 -2.2 -2.2 -2.2 -2.2 -2.2 -2.2 -2.2 -2.2 -2.2 -2.2 -2.2 -2.2 -2.2 -2.2 -2.2 -2.2 -2.2 -2.2 -2.2 -2.2 -2.2 -2.2
146.6 136.1 128 130.1 133.7 134.9 131 141.2 144.8 139.8 136.3 131.1 126 113.1 109.8 97.8 94.7 94.4 85 70.4 66.1 61.5 57.7 50.3 39.9 32.3 31.5 16.2 8.9 3.3 7.2 11.7 -2.2 -2.2 -2.2 44.8 39.3 44 52.7 60 58 51.4 46.9 43.1 37.2 34.4 40.3 47 32.1 9.6 2.2 6.1 19.7 27.3 27 24.4 21.7 26.2 32.2 38.5 48.2 58.8 59 68.3 75.3 87.3 95 99.1 106.3 108.4 108.4 111.4 114.7 102.9 94.6 95.3 93.4 86.8 82.9 90.6 96.8 101.5 90.4 76.7 63.8 56.9 56.8 52.4 50.2 44.8 45.8 39.2 34.6 26.1 24.7 27.4 31.4 23.3 16.9 7.6 7.6 8.3 23.9 27.4 28.1 39.2 35.4 21.9 16.3 19.8 29.2 28.8 27.7 28 26.8 24.1 18.3 11.9 14.5 12 11.6 11.9 18.9 25.8 27.3 21.8 16.4 16.4 16.4 16.4 23.2 27.3 18.8 31.1 33.8 32.3 22.2 20.4 10.3 14.7 19.2 17.2 24.4 20.7 15.1 9.9 5.6 7.4 14.2 5.7 6.1 7.6 6.1 6.1 6.1 12.6 16.6 28.5 23.6 9.9 9.9 9.9 9.9 9.9 9.9 14.8 21.3 27.7 35.4 37.5 32.4 -2.2 -2.2 -2.2 -2.2 -2.2 -2.2 -2.2 -2.2 -2.2 -2.2 -2.2 -2.2 -2.2 -2.2 -2.2 -2.2 -2.2 -2.2 -2.2 -2.2 -2.2 -2.2 -2.2 -2.2 -2.2 -2.2 -2.2 -2.2 -2.2
148.4 141.1 133.1 130.6 128.7 126 124.1 134.4 137 134.6 132.6 127.7 131 119.1 107.5 91.8 88.4 88.3 86.9 72.4 61.9 57.7 55.8 47.9 41.5 31.2 35.2 19 9.5 -2.2 -2.2 17 10.3 -2.2 -2.2 45.2 34.6 44.5 53.2 53.2 53.9 52.1 36.1 37.7 36.7 34.4 42.3 42.9 28.3 12.7 8.6 3.1 9.1 17.2 22.6 21.1 20.4 20.8 32.2 36 47.7 57.4 63.2 74.9 84.3 89.1 100.7 106.9 110.7 112 112.3 117.1 118.5 108.5 105.6 99.1 102.7 103.8 85.1 77.9 85.5 87.1 88 64.5 61.4 62.4 62.2 54.9 48.3 41.9 39 34.4 32 25.9 25.6 20.7 20.8 21.4 15.1 7.6 7.6 7.6 11.1 19.9 23.9 19.7 34.8 17.3 14.5 21.4 36.2 27.8 21 25.1 26.9 25.2 16 11.9 12.1 11.6 11.6 11.6 21.5 29.2 29.6 23.6 16.4 16.4 16.4 16.4 20 30.4 23.2 30.3 29.8 29.9 31.5 24.2 10.3 12 13.3 16.3 16.9 15.8 15.6 18.4 5.5 13.4 22.4 13.3 7.2 6.1 6.1 6.1 6.1 10 13.8 16.1 25.6 9.9 9.9 9.9 13.8 9.9 20.7 18.7 29.9 27 34.9 45.6 41.7 21.7 -2.2 -2.2 -2.2 -2.2 -2.2 -2.2 -2.2 -2.2 -2.2 -2.2 -2.2 -2.2 -2.2 -2.2 -2.2 -2.2 -2.2 -2.2 -2.2 -2.2 -2.2 -2.2 -2.2 -2.2 -2.2 -2.2 -2.2 -2.2
153.2 145.9 136.4 127.2 124.5 125.6 126.3 125 130 130.8 126.5 121.3 124.4 121 111.4 99 80.1 84.9 81 71.2 56.9 49.8 50.1 47.2 38.8 32.9 25.4 20.6 8.4 -2.2 -2.2 16.8 -2.2 -2.2 -2.2 14.3 24.5 35.2 51.7 45.9 47.4 44.2 34.6 34.4 36.4 39.5 39.5 39.5 28.6 8.8 4.3 -2.2 10.2 9.8 15.9 17.5 18.2 21.1 30.6 36.8 45.3 58.1 70.2 79.5 87 90.5 106.5 113.2 117.9 114.9 118.9 119.1 120.8 113.3 104.8 103.9 102.8 99.9 92.7 72.4 70.5 73.9 73.8 63.9 66.1 66.9 62.4 61.8 59 42.1 37.6 35 30.7 25 22.8 21 15.6 14.5 9.2 7.6 7.6 7.6 12.5 16.5 17.7 15.4 17.1 11.5 12.4 14.1 23.5 32.9 17.1 24.9 28.1 20.6 11.9 17.5 13.5 11.6 16.7 13.5 23.7 37.8 34 29.5 16.4 17 16.4 16.4 26.5 32.2 29.4 25.1 29.1 41.5 31.7 19.8 10.3 12.1 12.9 17.3 19.1 25.2 19.2 19.7 5.8 20.8 22.9 17.7 9.3 6.1 6.1 6.1 6.1 9.5 20.8 15.5 14 12.9 9.9 9.9 19.8 11 20.6 33.3 32.4 29.7 39.7 49.5 44.9 26.6 13 -2.2 -2.2 -2.2 -2.2 -2.2 -2.2 -2.2 7.8 -2.2 -2.2 -2.2 -2.2 -2.2 -2.2 -2.2 -2.2 -2.2 -2.2 -2.2 -2.2 -2.2 -2.2 -2.2 -2.2 -2.2 -2.2 -2.2
160.1 149.1 138.5 129.3 127.7 121.8 124.5 122 122 124.5 122.3 119.6 118.9 117.5 111.4 96 69.8 73.9 72.5 66 52 45.4 43.4 43.4 38.3 30.9 24.7 21.8 3.9 -2.2 -2.2 -2.2 -2.2 7.4 -2.2 -2.2 12.9 30 41.8 38.7 37.1 33.4 36.5 26.8 30 37.3 27.7 31.2 24.1 9.9 6.8 -2.2 4.8 10.7 15.5 19.1 19 32.7 34.4 42.5 46.9 55.6 65.2 79 89.7 93 113.3 126.9 120.2 120.2 123.5 125 115.9 113.9 106.9 105.1 103.3 94 90.1 85.8 69 72.1 70.5 65.9 72.4 69.7 66.6 61.8 62.5 52.4 35.9 30.7 32.4 29.5 22.7 23.3 19.2 13.2 7.6 7.6 7.6 7.6 7.6 10.7 13.6 12.9 9.2 10.1 9.3 8.1 14.6 20.4 14.8 13.9 28.2 16.9 14.3 15.2 16.2 10.8 18.2 14.9 23.8 31 34.9 33.9 19.3 17.4 16.4 16.4 24.2 31.1 34.9 28.8 34.5 41.5 33 12.1 10.3 11 14.5 21.3 27.3 22.8 27.5 15.5 7.4 25.7 24.1 11.4 6.1 6.1 8.5 8.4 6.1 7.3 15.9 21.9 16 9.9 9.9 9.9 9.6 18.1 26.2 32.1 31.4 39.5 46.2 49.7 48 36.6 20.9 17.5 -2.2 -2.2 -2.2 -2.2 -2.2 -2.2 11.1 -2.2 -2.2 -2.2 -2.2 -2.2 -2.2 -2.2 -2.2 -2.2 -2.2 -2.2 -2.2 -2.2 -2.2 -2.2 -2.2 -2.2 -2.2 -2.2
170.2 155 142 128.1 129.4 124.9 121.9 119.9 119.6 119 115.7 116 111.4 108.6 107.8 95.9 69.8 68.7 62 60.6 46.5 41 36.5 39.2 37.2 29.9 26.8 24.2 18.4 9.7 -2.2 -2.2 -2.2 -2.2 11.7 7.3 -2.2 -2.2 19.6 28.6 30 31.4 30.5 24.5 24 34.5 25.8 24.3 18.1 9.1 6.5 -2.2 6.5 8.5 13.9 15 17.5 29.4 39.8 47.3 48.2 53.9 69.1 82.5 93.9 100.2 108.3 123.6 120 125.5 128.3 116.4 114.2 106.6 105.3 108 107.9 99.1 87.3 82.2 67.2 68.7 72.5 66.1 66.5 67.2 66.2 61 58.4 54.2 39.4 30.2 29.3 23.9 20.7 18.1 17.4 11.1 7.6 7.6 7.6 8.9 7.6 8.4 12.3 13.3 2.4 10.1 15.3 1.7 7.5 11.4 10.4 9.2 13.3 13.5 20.4 21.5 17.3 12.5 18.3 17.1 23.4 30.1 32.9 37.1 33.2 16.6 16.4 16.4 30.2 29.2 29.7 39.9 25.5 34.3 21.6 10.3 10.3 10.3 17.9 23.5 34.1 37.6 15.7 12.8 7.1 23.6 18.1 19 14 6.1 6.1 6.1 6.1 6 10 18.2 19 9.9 9.9 9.9 9.9 18.3 29.4 43.6 38 49.2 47.8 59.7 53 41.4 37.9 28.4 9.9 -2.2 -2.2 -2.2 -2.2 -2.2 -2.2 -2.2 -2.2 -2.2 -2.2 4.1 -2.2 -2.2 -2.2 -2.2 -2.2 -2.2 -2.2 -2.2 -2.2 -2.2 -2.2 -2.2 -2.2 -2.2
173.3 157.7 152.3 130.9 128.9 128 121.2 119.5 118.1 119.5 115 123.7 109.8 105.9 102.9 87.7 67.5 61.6 60.7 51.1 43.3 37.8 37.7 34.7 34.2 30.3 30.2 30.4 19.6 8.8 -2.2 -2.2 -2.2 -2.2 6.9 9.8 -2.2 -2.2 10.2 16.4 22.9 26.1 31.7 24.9 18.7 24.1 21.1 16.8 17 10.5 7.9 -2.2 5.1 7.8 8.3 15.5 21.3 27.6 35.3 46.2 49.3 53.5 72.2 81.7 90.6 100.6 105.6 119.4 120.8 123.9 128.6 114.9 111.8 101.4 102.3 110 99.8 94.1 85.1 77.3 67.2 58 65.5 64 63.5 66.6 65.2 63 56.7 56.2 44.4 31.8 26.5 25.7 19.2 15.9 12 7.7 12.2 16.5 9.8 10.6 7.6 7.6 14.3 11 -2.2 -2.2 10.7 -2.2 -2.2 -2.2 -2.2 8 13 22.1 21.2 22.4 16.9 17.1 21.3 22.4 28.5 32.4 41.9 40.5 33 16.4 16.4 17.5 32.4 31.1 33.3 30.1 18.5 20.1 11.9 10.3 11.2 10.3 18.9 30 36.5 31.9 16.4 7.6 8.5 16 19.2 21.8 15.5 6.2 6.2 6.1 6.1 6.1 5.8 24.1 30 18.1 9.9 12 9.9 9.9 31.1 37.1 36 44.3 56.6 68 55.9 46 43.9 36.4 19.2 -2.2 -2.2 -2.2 -2.2 -2.2 -2.2 -2.2 -2.2 -2.2 -2.2 1.5 -2.2 -2.2 -2.2 -2.2 -2.2 -2.2 -2.2 -2.2 -2.2 -2.2 -2.2 -2.2 -2.2 -2.2
181.5 164.8 157 138.1 138.5 129.7 127.7 119.4 120.7 117.3 110 116.2 109.9 108.6 99.4 85.4 75.2 57.5 54.8 50.7 47.8 38.6 36.6 33.6 33.2 33 30.8 33.2 36.8 14.5 -2.2 -2.2 -2.2 -2.2 -2.2 18.6 17.1 -2.2 -2.2 -2.2 16.3 24.8 26.5 20.7 13.6 14 16.4 9 10.9 7.1 1.1 -2.2 -2.2 4.2 7.8 12.1 17.6 24.7 33.5 45.8 51.9 54.1 71.1 81.5 86.7 103.9 108 112 125 121 127.2 115.8 101.4 101.4 105.4 102.4 99.8 91.7 83.9 73.5 66.3 60.2 61.5 66.4 66.3 62.7 67.7 64.3 61 56.3 49.3 38.1 29.8 20.7 16.5 15.8 10.7 12 19.4 22.4 16 13.6 8.5 8.7 11.2 12.8 -2.2 -2.2 -2.2 -2.2 -2.2 -2.2 -2.2 -2.2 23.4 21.2 37.2 24.7 12 19.4 29.4 29.6 32.8 43.6 44.3 47.8 38.6 18.7 16.4 16.4 31.2 29.6 21.3 15.4 12.4 11 10.3 14.9 22.2 10.3 15.2 26.6 29.1 18.1 11.3 7.8 8.8 9.3 14.9 16.2 6.6 6.1 8.5 6.1 6.1 6.1 7.6 27.7 38.7 28.7 9.9 9.9 9.9 11.3 14.8 29.9 41.1 41.2 49.5 60.6 58 53.1 46.2 35.3 14 -2.2 -2.2 -2.2 -2.2 -2.2 -2.2 -2.2 -2.2 -2.2 -2.2 -2.2 -2.2 -2.2 -2.2 -2.2 -2.2 -2.2 -2.2 -2.2 -2.2 -2.2 -2.2 -2.2 -2.2 -2.2
187.3 175.2 162.1 150.1 141.2 138.8 126.5 119.9 122.4 117 112.6 106.9 108.3 111.4 95.3 86.6 78.7 66.7 58.4 52.1 50.5 47.7 44 41.4 40.9 36.2 37.5 35.2 34.4 25.7 -2.2 -2.2 -2.2 -2.2 9 17.8 16 5.4 -2.2 -2.2 6.3 13.4 22.7 21.5 11.2 8.4 10.6 7.6 1.6 -2.2 -2.2 -2.2 -2.2 5.9 6.4 12.9 18.7 26 33.4 45 50.1 51.7 67.4 76.4 84.9 97.2 110.2 113.7 120.5 115.9 123.9 112 102.1 101.4 108.4 104.4 97.5 94.1 88.3 80.2 69.6 60.9 51.8 64.8 65.8 63.2 62.6 60.9 61.5 56.3 46.7 36.8 29 23.1 16.8 11.9 14 28.1 22.9 23.1 22.1 20.9 17 9.5 11.1 6.2 -2.2 -2.2 -2.2 -2.2 -2.2 -2.2 -2.2 -2.2 25.1 33.4 38.1 36.5 10.3 22.1 30 36.3 32 49.6 55.3 49 52.7 21.6 18.1 16.4 31.1 24.9 25.6 17.2 11.3 10.3 10.3 11.7 26.1 10.9 17.5 27.8 17.5 16.8 19.8 8.3 13.8 8.9 6.4 6.2 6.1 6.1 6.1 6.1 6.1 6.1 12.5 30.8 31 34.6 27.9 12.3 19.5 21.8 18.2 23 35.4 37.4 37.4 58.6 57.5 54.3 46.8 36.3 16.9 -2.2 -2.2 -2.2 -2.2 -2.2 -2.2 -2.2 -2.2 -2.2 -2.2 -2.2 -2.2 -2.2 -2.2 -2.2 -2.2 -2.2 -2.2 -2.2 -2.2 -2.2 -2.2 -2.2 -2.2 -2.2
198.9 182.8 163.1 155.7 141.2 141.6 132.8 118.3 122 122.7 112.2 103.9 102 100.3 95.3 87.3 73.4 65 64.1 55.8 60.8 59.4 54 47.9 45.9 42.9 39.2 36.5 33.6 22.6 -2.2 -2.2 -2.2 -2.2 8.6 23.6 24.8 21.9 -2.2 -2.2 -2.2 8.1 23.7 23.9 11.5 11.3 7 -2.2 -0.8 -2.2 -2.2 -2.2 -2.2 3.8 6.8 14.3 19.3 26.3 32.8 41.9 50.7 51.6 60.7 72.8 84.7 100.8 113.6 120.5 117.3 109.3 111.4 105.2 103.1 103.2 106.8 103.8 95.8 93.6 89.6 82 70.6 61 51.6 52.8 57.1 53.7 56.6 57.7 53.9 50 45.4 34.8 26 22.7 19.8 16.8 17 27.5 22.6 24.8 31.3 24.6 18.6 11.2 11.8 -2.2 -2.2 -2.2 -2.2 -2.2 -2.2 -2.2 -2.2 19.7 18.2 28.5 28.5 24.8 8.6 22.1 28.7 33.4 30.1 43.9 49.9 54.1 45.8 17.7 19.9 16.4 33.7 31.8 36.3 29.9 12.4 10.9 13 10.3 16.4 8.3 9.2 12.2 14.7 20 12.8 10.5 13.2 16.4 13.4 13.5 6.1 6.7 6.1 6.1 6.1 6.1 11.2 18.6 32.8 38.5 42.9 25 25 24.7 25.2 21.9 26.3 33.8 37.5 44.3 47.6 48.4 49.3 41.8 32.8 17.8 -2.2 -2.2 -2.2 -2.2 -2.2 -2.2 -2.2 -2.2 -2.2 -2.2 -2.2 -2.2 -2.2 -2.2 -2.2 -2.2 -2.2 -2.2 -2.2 -2.2 -2.2 -2.2 -2.2 -2.2
200 188 169.2 158.4 141.6 140.8 133 123.7 117.3 116.3 108.4 103.5 96 91.6 89.3 83.5 69 66.5 69.8 63 68.2 71 68.2 58.1 48.4 44.1 41 37.9 33.3 26.7 19.7 -2.2 -2.2 12.3 9.3 23.4 23.5 24.6 3.4 -2.2 -2.2 -2.2 16.9 21.6 12.8 9.1 -2.2 -2.2 -2.2 -2.2 -2.2 -2.2 -2.2 6 11.8 15.9 20.6 26.2 31.4 37.7 47.5 50.5 56.2 68.3 82.6 99.3 109.3 119.5 120.8 113.4 104.5 104.5 108.6 104.9 105 99.7 96 90.1 85.7 79.4 67 58.2 51 43.7 57.7 53.1 54.4 56.5 54.7 55.4 50.7 38.8 30.6 31.9 31.4 23.5 26 24.7 23.9 22.6 32.4 34 26.6 14.9 -2.2 -2.2 -2.2 -2.2 -2.2 -2.2 -2.2 -2.2 -2.2 8.8 22.8 20.3 21 15.3 5.4 15.1 25.2 28.3 27.8 33.3 50.5 52.3 44.1 29.5 16.5 16.4 25.3 31.9 37.9 28.1 14.9 15.6 12.5 12.1 13.6 8.4 9.1 16.2 9.9 18.7 1.9 15.5 25.1 20.5 14.2 15.4 6.1 6.1 6.1 6.1 6.1 6.1 9.5 17.1 20.1 39.8 37.1 33.4 28.5 30.2 26.7 25.9 23.9 35.3 38.6 36.6 39 45 49.3 46.4 39.6 26.9 -2.2 -2.2 -2.2 -2.2 -2.2 -2.2 -2.2 -2.2 -2.2 -2.2 -2.2 -2.2 -2.2 -2.2 -2.2 -2.2 -2.2 -2.2 -2.2 -2.2 -2.2 -2.2 -2.2 -2.2
201.9 188 172.4 167 143.2 141.2 134.3 127 124.1 109.7 109 100 97 88.6 81 76.4 70.6 71.7 70.2 66.6 68.4 68.6 68.3 62.9 51.3 45.8 37.1 35.7 33.4 35.9 33.3 18.7 16.2 21 17.9 23.1 24.3 21.1 14.2 -2.2 -2.2 -2.2 -2.2 16.4 16.7 12.6 -2.2 -2.2 -2.2 -2.2 -2.2 -2.2 -2.2 5.8 12.6 16.6 23.1 30.2 34.8 33.7 46.7 49.2 57.2 68.4 78.3 94.9 106.1 111 116.7 112.5 110.5 108.3 110.1 107.5 105.3 103.6 96.6 87.1 83.9 82.5 70 57.3 56.2 51.6 42.5 52 49.3 59.3 62.7 60.1 54.5 45.2 33.7 34.3 30.4 23.5 31.4 30.8 28.1 24.5 26.6 31.7 34.7 16.5 -2.2 -2.2 -2.2 -2.2 -2.2 -2.2 -2.2 -2.2 -2.2 7.4 16.1 7.7 14.1 5 8 17.9 19.6 25.3 28.4 33.6 40.2 52 54 46.2 20.6 21.7 21.4 24.4 34.3 26.6 26.5 30.1 21.2 21.4 21.4 16.5 8.3 10.4 4.9 7.2 -2.2 15.2 26 31.7 21.4 14.4 6.1 6.1 6.1 6.1 6.1 6.1 15.6 25.9 21.5 14.6 20.2 37.9 42.1 34.4 33.1 24.8 24.8 30.4 33.5 38.9 36.4 44 46.3 46.5 40.3 28.3 18.2 -2.2 -2.2 -2.2 -2.2 -2.2 -2.2 -2.2 -2.2 -2.2 -2.2 -2.2 -2.2 -2.2 -2.2 -2.2 -2.2 -2.2 -2.2 -2.2 -2.2 -2.2 -2.2 -2.2
201.7 187.4 173.9 160.7 144 145.5 138.2 131.4 129 110.7 108.7 98.2 92.9 89.7 85.3 82 73.9 75.5 70.5 68.5 66.6 68.5 67.4 63.9 56.9 48.6 38.5 35.3 34.2 34.8 33.8 23.6 18.7 27.2 32.2 27.8 25.9 21.7 14.9 11.6 -2.2 -2.2 -2.2 8.1 14.2 12 -2.2 -2.2 -2.2 -2.2 -2.2 -2.2 -2.2 -2.2 13.6 18.1 27.2 30.5 34 36 44.2 48.8 59.9 69.1 77 89.4 100.4 108.9 111.9 110.3 115.5 107.7 107.7 102.6 103.8 97.8 95.1 90.9 81.7 76.4 63.4 72.2 69.4 53.3 42 39.1 43.7 51.6 53 53.2 55 51.8 40.7 35.4 24.8 28.7 39.6 40 34.8 33.2 31.3 25.2 16.9 10.2 -2.2 -2.2 -2.2 -2.2 -2.2 -2.2 -2.2 -2.2 -2.2 -2.2 8 12.4 -2.2 -2.2 15.1 21.4 23.1 25.7 24.8 32.1 29.4 43.9 48.1 41.6 22.1 20.3 30.5 33.8 35.7 29.1 29.8 38.2 34.7 32 26.9 19.5 12.4 12.8 -2.2 -2.2 -2.2 -2.2 18.3 30.2 30.5 26.8 12.7 6.1 6 6.1 6.1 5.9 24.8 31.7 29 9.9 10.5 39.3 44.6 41.1 31.7 24.8 24.8 25.5 36.9 41 39.6 44 44.5 39.7 35.3 24.5 15.4 -2.2 -2.2 -2.2 -2.2 -2.2 -2.2 -2.2 -2.2 -2.2 -2.2 -2.2 -2.2 -2.2 -2.2 -2.2 -2.2 -2.2 -2.2 -2.2 -2.2 -2.2 -2.2 -2.2
191.3 183.1 174.5 161.2 149.4 147.6 141.8 132.9 130.2 117.3 99.5 97 91.9 92.4 90.1 85.1 76.4 73.4 69.1 71.7 65.8 65.4 66.7 66.1 60.4 52.7 46.7 41.5 39.9 33.9 36.9 34 25.7 29 36.1 35.8 28.7 25.6 20.1 14.1 13.3 -2.2 -2.2 -2.2 2.4 8.6 -2.2 -2.2 -2.2 -2.2 -2.2 -2.2 -2.2 -2.2 12.1 13.7 21.9 26.1 28.2 32.6 38.7 49.1 61.3 66.8 76 83.3 95.6 101.9 106.9 111.4 118.4 120.1 109.3 102.6 101.8 99.4 99.1 90 84 77 74.1 79.6 70.7 54.8 45 42.5 35.6 49.7 50 54.7 54.9 48.4 38.8 33.9 27.9 42.3 43.5 44.8 43.5 38.2 38.4 37.7 26.1 20.9 11.9 -2.2 -2.2 -2.2 -2.2 -2.2 -2.2 -2.2 -2.2 -2.2 -2.2 12.7 -2.2 -2.2 24.4 25.6 22.6 24.4 22.9 27.6 30.3 49.9 47.1 30.9 24.3 24.2 34.4 45.5 40 38.9 42.5 47.9 50.4 34.2 25.5 19.1 8.2 7.2 -2.2 -2.2 -2.2 -2.2 12.4 21.2 29.7 30.7 13.7 10 10.4 9.8 5.7 12.9 24.9 28.1 28.4 9.9 9.9 39.8 48.5 33.1 26.5 28.9 24.8 27.8 35.4 44.9 45.9 40.7 38.8 36.4 32.4 17.3 -2.2 -2.2 -2.2 -2.2 -2.2 -2.2 -2.2 -2.2 -2.2 -2.2 -2.2 -2.2 -2.2 -2.2 -2.2 -2.2 -2.2 -2.2 -2.2 -2.2 -2.2 -2.2 -2.2 -2.2
199.1 188.4 176.1 167.3 153.1 145.9 146.1 130.2 129 122.4 113.2 86.2 88.4 93.5 90 83.6 78.4 75.8 69 72.8 70.2 64 63.9 63.8 57.1 56.1 49.8 45.1 45 42.2 39.6 41.2 35.1 29.8 39.2 39.9 33.9 25.9 24.9 19.4 11.4 9.6 -2.2 -2.2 -2.2 6.6 4.4 -2.2 -2.2 -2.2 -2.2 -2.2 -2.2 -2.2 6.6 8.6 14.8 21.6 25.7 33.5 42.1 49.6 60 63.6 75.1 84 93.4 96 103.1 109.5 115 115.9 108.1 104.4 105.2 101.2 101.5 94.7 91.4 80 78 79.6 77.5 63.4 51.7 42.6 36.2 34.8 45.1 52.9 53.9 51.7 41.9 31.1 26.9 44.3 43.8 44.4 47.5 41.5 42.6 43.5 40.1 28.4 14.6 7.2 -2.2 -2.2 -2.2 -2.2 -2.2 -2.2 -2.2 -2.2 -2.2 1.6 -2.2 -2.2 14.4 28 31.9 24.3 24.3 27.2 39.4 49.8 38.9 30.7 29.8 25.4 36.8 43.8 47.5 44.6 47.7 56.6 52 39 24.8 13.8 -2.2 -2.2 -2.2 -2.2 -2.2 -2.2 17.3 18.7 29.3 40.5 23.6 14.4 22.5 10.1 7.6 22 33.7 24 21 9.9 9.9 38.2 33.8 33.2 33.1 33.9 24.5 32.6 39.3 43.9 46.1 39.3 37.2 33.6 31.1 -2.2 -2.2 -2.2 -2.2 -2.2 -2.2 -2.2 -2.2 -2.2 -2.2 -2.2 -2.2 -2.2 -2.2 -2.2 -2.2 -2.2 -2.2 -2.2 -2.2 -2.2 -2.2 -2.2 -2.2 -2.2
198.8 187.6 183 168 152.5 141.4 145.9 136.1 124.6 121.6 116.3 92.8 82.7 92.9 90.5 80.9 79.2 78.2 72.5 69 73.9 66.2 65 62.1 61.7 57.6 62.3 63.1 60.8 49.5 45.2 43 40.5 34.4 36.8 37.2 34.5 28.1 28.8 23.6 18.9 13.1 -2.2 -2.2 -2.2 7.3 5.2 -2.2 -2.2 -2.2 -2.2 -2.2 -2.2 -2.2 -2.2 5.1 12.2 15.6 24.4 33.5 38.1 45.8 54.3 61.4 72.5 80.3 84 94 103.5 110.6 116.1 116.4 111.7 104.7 106.1 101.8 102.2 99.4 91.1 86.9 84.1 84 78.2 67.2 58.4 57 37.1 35.6 39 46.9 49.4 43.8 41.5 28.8 21.4 35.5 38.2 44 46 45.1 52.2 44.5 36.5 30.9 23.6 10.7 -2.2 -2.2 -2.2 -2.2 -2.2 -2.2 -2.2 -2.2 -2.2 -2.2 -2.2 -2.2 -2.2 19.1 26.3 31.3 32.4 27.6 29.7 49.9 43.3 37 41.9 25.6 32.4 47.7 53.7 47.4 52.2 58.6 51 37.5 36.3 22.3 -2.2 -2.2 -2.2 -2.2 -2.2 6.5 14.8 21.3 35.4 40.2 35.4 16.9 28 17 11.4 24.4 22.9 30.8 22.3 9.9 16.8 14.4 43.2 32.1 37.3 40.5 39.5 37.3 35.2 35.1 37.9 34.3 40.5 30.7 22.7 -2.2 -2.2 -2.2 -2.2 -2.2 -2.2 -2.2 -2.2 -2.2 -2.2 -2.2 -2.2 -2.2 -2.2 -2.2 -2.2 -2.2 -2.2 -2.2 -2.2 -2.2 -2.2 -2.2 -2.2 -2.2
214.8 190.1 181.1 171.9 159.8 140 138.6 134.3 123.8 121.6 110.1 100.2 81.9 80.3 89.4 85.4 82.1 79.7 76.8 76.2 73.1 66.8 66.7 65.4 62.3 65.2 70 78.1 78.4 62.6 52.9 47.5 44.1 34.1 33.8 41.1 37 41.7 34.6 30.8 25.2 14.8 -2.2 -2.2 -2.2 -2.2 6.6 -2.2 -2.2 -2.2 -2.2 -2.2 -2.2 -2.2 -2.2 -2.2 8 14.4 21.7 27.3 36.1 45.8 57.8 65 75.3 85.5 84.4 92.7 93.9 96.1 103.3 108.7 109.4 107.3 104.5 103.4 103.8 98.1 94.7 86.7 81.9 82.4 78.1 77.8 67.1 60.2 50.5 40.3 31.2 35.1 47.3 43.2 37.6 26.4 17.9 24.5 32.8 34.5 34.4 42.3 43 42.4 38.8 33.9 33.5 22.6 14 -2.2 -2.2 -2.2 -2.2 -2.2 -2.2 -2.2 -2.2 -2.2 -2.2 -2.2 -2.2 25.5 35.7 33.4 32.3 44.8 28.4 30.7 36.1 37.4 37.1 33.1 28.2 58.3 52.8 49.3 49.5 50.1 35.6 32.5 35.9 40.8 16 -2.2 -2.2 10.9 9.1 20.4 18.2 29.8 40.3 37.6 32 29.8 23.8 25.9 15.8 20.5 20.9 33.1 18 10.8 21.3 16.7 31.6 36.1 45.2 46.3 45.7 38.7 33.3 30.9 24.7 24.3 24 16.6 -2.2 -2.2 -2.2 -2.2 -2.2 -2.2 -2.2 -2.2 -2.2 -2.2 -2.2 -2.2 -2.2 -2.2 -2.2 -2.2 -2.2 -2.2 -2.2 -2.2 -2.2 -2.2 -2.2 -2.2 -2.2 -2.2
222.7 209.6 187.8 177.3 160.3 140.7 134.5 131.5 119.8 118.4 111.7 103.1 84.9 78.4 79.9 83.4 84.3 82 80.8 78.1 74.7 68.2 67.5 70.1 72.3 77.6 80 82.6 89 76.7 63.3 54.5 47.2 38.9 42.9 49.8 50.8 51.3 46.1 26.6 24 18.5 10.1 -2.2 -2.2 -2.2 -2.2 -2.2 -2.2 -2.2 -2.2 -2.2 -2.2 -2.2 -2.2 -2.2 -2.2 13.6 18 24.1 31.5 43.5 58.9 61.2 71.3 78.3 82 87.9 89.9 96.4 101.6 104.3 112.3 107.2 109.2 111.9 106 98.2 92.4 86.6 81.9 88.5 80.8 76.4 65.6 66.8 60.9 36.7 34.9 25.8 36.3 42.8 34.7 22.7 17.1 21.5 21.9 29 32.2 38.4 38.6 40.4 38.2 41.9 40.5 33.5 20.3 -2.2 -2.2 -2.2 -2.2 -2.2 -2.2 -2.2 -2.2 -2.2 -2.2 -2.2 -2.2 22.2 25.6 26.6 45.4 49.5 40.3 29.6 16.9 22.7 20.5 24.6 18.8 52.3 50.5 47 45.7 41.1 34 29.1 39 51.6 18.5 -2.2 -2.2 9.5 10.5 14.7 13.3 25.1 31.5 29.8 29.4 24.2 28.1 28.4 21.3 15.4 20.2 22.7 11.3 18.1 23.6 24.9 25.9 39.4 44.6 46.8 41.4 37.1 35.5 26.7 20 16.8 15.4 11.9 -2.2 -2.2 -2.2 -2.2 -2.2 -2.2 -2.2 -2.2 -2.2 -2.2 -2.2 -2.2 -2.2 -2.2 -2.2 -2.2 -2.2 -2.2 -2.2 -2.2 -2.2 -2.2 -2.2 -2.2 -2.2 -2.2
233.9 216 210 172.6 167 146.8 127.6 127.1 111.4 117 110.4 105.1 93.8 81.5 76.6 78.6 81 83.4 81.2 80.6 78.6 78.8 74 76.6 82.6 86.7 88.8 90.7 90.7 84.2 74.3 62.5 56 50.6 46.5 50.9 44.9 53 54.7 39.8 24.5 20.3 13.5 -2.2 -2.2 -2.2 -2.2 -2.2 -2.2 -2.2 -2.2 -2.2 -2.2 -2.2 -2.2 -2.2 -2.2 10 13.2 18.6 24.4 41.7 54.9 59.9 57.8 71.4 74.5 84.5 91.1 96.5 101.4 107.8 109.6 113.2 113 102.7 106.6 103.7 93.3 92.6 84.2 87.6 83.1 83.7 70.3 77.1 67.4 41.7 36.4 33.7 21.9 30.1 28.5 22.2 17.1 19.1 20.3 22.4 28.7 31.3 34.9 35.4 42.9 42.2 44.6 38.9 32.5 13.7 6.5 -2.2 -2.2 -2.2 -2.2 -2.2 -2.2 -2.2 -2.2 -2.2 -2.2 13.5 10.4 12.5 36.3 58.8 54.7 33.2 16.1 16.2 16.5 19.4 10.7 29.7 40.3 39 39.8 27.2 24.2 26.7 35.3 38.1 33.7 -2.2 -2.2 9.4 16.5 20.1 13.7 17.2 22.9 30.1 29 24.8 25.9 20.8 23.5 20.8 7.8 23.1 10.4 20.5 22.1 20 19.6 28.7 53.2 48 43.5 38.6 31.4 27.4 20.7 13.1 7.8 1.2 -2.2 -2.2 -2.2 -2.2 -2.2 -2.2 -2.2 -2.2 -2.2 -2.2 -2.2 -2.2 -2.2 -2.2 -2.2 -2.2 -2.2 -2.2 -2.2 -2.2 -2.2 -2.2 -2.2 -2.2 -2.2 -2.2
224 218.5 215.1 187.2 165.1 152.8 126.7 120 109.3 107.2 105.9 99.7 94.4 82.3 76.6 76.6 80.6 82.2 81.5 82.5 87.5 84.5 85 88.3 93.4 101.9 106.8 105.4 97.7 95.2 91.1 82.8 72.2 69.4 49.2 49.2 47.9 60 53.9 49.6 40.7 18.7 7 10.5 -2.2 -2.2 -2.2 -2.2 -2.2 -2.2 -2.2 -2.2 -2.2 -2.2 -2.2 -2.2 -2.2 4.3 9.1 13.8 23.4 36.6 47.6 54.9 56.2 65.4 69.2 75.5 84.7 90.1 101.1 103.3 112.8 115.9 112.5 109.5 105.9 107.5 102.4 95 86.6 88.2 84.8 82.4 76.5 72.5 61.3 42.9 35 32.6 28.6 24.1 25.9 27.8 19.2 17.5 15.2 21.2 20.1 26.4 30.1 39.7 49.8 49.4 50.7 44.9 34.6 18.9 6.4 -2.2 -2.2 -2.2 -2.2 -2.2 -2.2 -2.2 -2.2 -2.2 -2.2 -2.2 -2.2 -2.2 -2.2 45.1 39.2 35.7 12.8 12.8 19.2 21.4 9.5 14.5 29.4 36.2 40.1 24.9 24.9 22.1 29.7 29.3 25.2 -2.2 -2.2 5.6 28.4 28.1 18.1 19.2 21.6 16.7 26.9 17.5 28.8 32.3 25.4 17.7 -2.2 17 -2.2 16.4 19.5 21.2 20.7 28.1 49.4 49.8 45.6 43.5 41.8 31.7 23.5 17 7.7 3 1.1 -2.2 -2.2 -2.2 -2.2 -2.2 -2.2 -2.2 -2.2 -2.2 -2.2 -2.2 -2.2 -2.2 -2.2 -2.2 -2.2 -2.2 -2.2 -2.2 -2.2 -2.2 -2.2 -2.2 -2.2 -2.2
206.9 211.9 208.6 194.1 161.3 147.4 129.6 111.3 110.3 101 98.3 95.9 92.7 85.4 77.4 76.6 76.6 76.6 82.6 86.9 89 90 94.9 98.5 107.3 110.3 114 114.8 106 105.5 97.4 91.5 86.3 80.7 60.8 44.9 54.6 64.4 57.7 53.9 46.6 36.6 21.9 3.9 9.5 -2.2 -2.2 -2.2 -2.2 -2.2 -2.2 -2.2 -2.2 -2.2 -2.2 -2.2 -2.2 -2.2 6.8 12 15.7 31.7 40.9 53.6 57 62.1 64.7 69.5 84.6 91.2 94.9 98.5 111.1 115.3 115.4 111.4 106.1 101.4 107.3 101.5 86.8 84.2 81.5 79.3 72.8 66.7 54.1 43 32.6 33.2 33.8 23.5 15.4 14.6 16 16.7 16.4 17.4 19.6 25.1 31.6 41 48.4 50.5 46.5 41.3 40.1 32.7 23.7 -2.2 -2.2 -2.2 -2.2 -2.2 -2.2 -2.2 -2.2 -2.2 -2.2 -2.2 -2.2 -2.2 -2.2 -2.2 24.8 28.9 14.7 12.8 13.4 17.2 11.4 4.8 19.9 20.3 26.3 28 22 22 29.4 -2.2 -2.2 -2.2 -2.2 5.7 23.9 25 28.3 25.7 15.3 7.6 14.1 22.9 21.6 30.8 35.1 -2.2 -2.2 -2.2 -2.2 23.8 19.6 24.7 27.9 26.4 53.2 51.3 48 44.5 41.1 29.2 27.7 16.4 11.1 7.9 12.5 9.2 -2.2 -2.2 -2.2 -2.2 -2.2 -2.2 -2.2 -2.2 -2.2 -2.2 -2.2 -2.2 -2.2 -2.2 -2.2 -2.2 -2.2 -2.2 -2.2 -2.2 -2.2 -2.2 -2.2 -2.2
191 195.5 196.6 193.1 149.8 141.5 128.6 103.8 101.8 90.2 90 90.4 87.5 78.2 76.6 76.6 76.6 76.6 84.7 88.5 91.4 95.1 103.6 113.3 121.3 116.6 114.6 114.6 106.4 105.8 99.7 91.5 91.9 84.3 69.9 44.9 62.4 65.9 55.2 55.3 56.3 48.4 31.1 13.6 2.8 -2.2 -2.2 -2.2 -2.2 -2.2 -2.2 -2.2 -2.2 -2.2 -2.2 -2.2 -2.2 -2.2 6.3 9.5 12.7 22.5 38 48.7 55.2 57.2 62.5 65.4 76.5 86 89.4 98.5 107.7 108.1 109.7 109.9 113.4 96.8 94.6 95.2 94.1 88.5 75.9 79 74.1 61.2 48.3 46.7 33.8 33.2 36.3 30.2 14.6 14.6 14.6 14.6 14.6 18 21.6 24.7 29.8 43.9 54.2 52.5 46.8 44.3 42.7 42.1 30.5 24.5 13.4 -2.2 -2.2 -2.2 -2.2 -2.2 -2.2 -2.2 -2.2 -2.2 -2.2 -2.2 -2.2 -2.2 -2.2 19.4 18.1 14.3 16.8 11.1 9.5 14.8 4.8 4.8 12.4 20.5 26.3 25.1 19 -2.2 -2.2 -2.2 -2.2 6.5 16.3 24.7 29.6 20 17.3 5 1.8 -2.2 -2.2 -2.2 15 -2.2 -2.2 -2.2 -2.2 18.9 15 26.5 26.5 24.4 52 53.3 54.3 47.7 33.8 40.5 29.3 15.1 23.3 19.7 24.6 32.5 -2.2 -2.2 -2.2 -2.2 -2.2 -2.2 -2.2 -2.2 -2.2 -2.2 -2.2 -2.2 -2.2 -2.2 -2.2 -2.2 -2.2 -2.2 -2.2 -2.2 -2.2 -2.2 -2.2 -2.2
175.5 176.8 184.8 180.4 138 128.3 118.3 98.3 89.9 87.1 85.5 81.6 80.7 76.6 76.6 76.6 76.6 77.9 81.4 89.9 96.3 98.2 109.8 116.4 125.8 126.8 121.9 120.1 113.5 108.6 99.6 91.8 87.5 84.8 64.3 44.9 58.9 57 57.7 71.5 70.9 56.2 47.6 25 11.9 -2.2 -2.2 -2.2 -2.2 -2.2 -2.2 -2.2 -2.2 -2.2 -2.2 -2.2 -2.2 -2.2 3.2 8.9 11.4 20 33.8 46.4 57.2 56.8 62.4 62.8 70 74 79.1 93.6 101.6 103.5 112.4 115.7 109.9 97.7 99.4 94.4 95.3 87.5 80.3 76.4 70.1 61.3 52.5 45.3 36.4 34.3 36.3 32.6 20.3 14.6 14.6 14.6 14.6 14.6 18.5 24.3 28.3 42.7 48 49.7 50.4 51.6 53.8 47 36.3 32.2 21.6 4.8 -2.2 -2.2 -2.2 -2.2 -2.2 -2.2 -2.2 -2.2 -2.2 -2.2 -2.2 -2.2 -2.2 -2.2 -2.2 9.7 18 8.1 12.9 17.8 5.6 10.6 22.5 24.5 25.6 23.9 13.7 -2.2 -2.2 -2.2 -2.2 18.7 34.9 35.3 38 30.2 21.2 15.5 17.3 -2.2 -2.2 -2.2 -2.2 -2.2 -2.2 -2.2 -2.2 27.6 15 19.5 21.4 22.3 48.3 58.8 51 37.1 39.2 42.7 42 32.4 32.4 26.9 33.5 37 -2.2 -2.2 -2.2 -2.2 -2.2 -2.2 -2.2 -2.2 -2.2 -2.2 -2.2 -2.2 -2.2 -2.2 -2.2 -2.2 -2.2 -2.2 -2.2 -2.2 -2.2 -2.2 -2.2 -2.2
155.7 161.3 173.2 167.4 130.3 116.5 108.5 98.3 82.3 81.3 76.6 76.6 76.6 76.6 76.6 76.6 76.6 76.6 83.3 91.3 97.1 106.4 115.3 117.5 125.6 126 124.1 126 124 112.4 110 99.6 91.7 83.5 67 51.2 57.5 63 61 74.4 74.4 64.3 54.2 38.4 16.5 -2.2 -2.2 -2.2 -2.2 -2.2 -2.2 -2.2 -2.2 -2.2 -2.2 -2.2 -2.2 -2.2 2.8 8.7 15.1 24.6 34.6 46.7 51.1 56.7 55.9 61 60.7 67.8 74.2 84.6 96.6 100.6 106.1 121.2 112.7 102 97.5 94.7 95.5 89 81.5 76.5 63 60.5 55.4 47.4 41.9 39.4 24.8 25.7 21.2 14.6 14.6 14.6 14.6 14.6 16.7 26.9 27 44.1 49.3 54.5 61.3 60.2 61.3 57.1 42.8 42.6 36 16.8 -2.2 -2.2 -2.2 -2.2 -2.2 -2.2 -2.2 -2.2 -2.2 -2.2 -2.2 -2.2 -2.2 -2.2 -2.2 -2.2 -2.2 -2.2 16.1 20.1 2.4 2.1 25.7 30.3 29.9 23.5 20.4 -2.2 -2.2 -2.2 15.3 28.4 38.5 37.5 42.6 48.2 36.7 23.2 25.7 -2.2 -2.2 -2.2 -2.2 -2.2 -2.2 -2.2 -2.2 22.1 15.8 22.4 17 23.5 30.4 45.7 41.1 45.2 59.3 53.3 47.1 41.1 36.2 38.5 39.6 42.5 -2.2 -2.2 -2.2 -2.2 -2.2 -2.2 -2.2 -2.2 -2.2 -2.2 -2.2 -2.2 -2.2 -2.2 -2.2 -2.2 -2.2 -2.2 -2.2 -2.2 -2.2 -2.2 -2.2 -2.2
134.9 145.7 153.6 155.2 125.4 113.3 100.6 88.9 82.5 76.6 76.6 76.6 76.6 76.6 76.6 76.6 76.6 76.6 81.5 97.4 102.5 111.6 122.9 124.8 123.7 133.7 129.2 128 120.2 109.9 105.1 100.2 89.8 79.6 72.4 51.9 53.9 56.8 65.1 74.8 76.4 70.6 63.8 55.6 30.4 9 -2.2 -2.2 -2.2 -2.2 -2.2 -2.2 -2.2 -2.2 -2.2 -2.2 -2.2 -2.2 1.5 8.7 13.5 22.6 31.9 37.2 46.1 53.5 49.7 57.5 59.7 64.3 72.5 76 88.8 96.7 106.2 115.3 112.4 109.1 93.2 89.4 92.9 85.3 81.1 69.7 67.2 63.8 57.1 51.2 51 40.9 27.7 22.2 17.5 14.6 19.8 14.6 14.6 14.6 19.9 24.5 25.7 40.7 45.5 54.2 63.5 66.3 69.9 65 58.1 44.8 39.7 31.1 -2.2 -2.2 -2.2 -2.2 -2.2 -2.2 -2.2 -2.2 -2.2 -2.2 -2.2 -2.2 -2.2 -2.2 -2.2 -2.2 -2.2 -2.2 9.5 19.6 -2.2 -2.2 28.9 34.3 35.1 34.5 4.3 -2.2 -2.2 -2.2 20.6 26.2 43.4 56 49.8 51.6 40.5 29.3 27.4 -2.2 -2.2 -2.2 -2.2 -2.2 -2.2 -2.2 -2.2 -2.2 20.9 22.6 15.3 23 26.8 31.9 51.3 50.1 60.5 57 52.7 45.7 38.4 37.7 40.8 36.9 22.9 -2.2 -2.2 -2.2 -2.2 -2.2 -2.2 -2.2 -2.2 -2.2 -2.2 -2.2 -2.2 -2.2 -2.2 -2.2 -2.2 -2.2 -2.2 -2.2 -2.2 -2.2 -2.2 -2.2
123.5 133.8 129.5 122.5 112.8 114 97.5 87.3 85.5 76.6 76.6 76.6 76.6 76.6 76.6 76.6 76.6 76.6 76.6 94.8 106.4 116.8 127.4 129.4 122.8 131.4 128.6 131.6 123.1 113.5 98.4 89.8 85.1 75.9 67.2 53.2 52.9 58.7 68.5 74.4 78.1 75.6 69.1 66.9 57 14.4 -2.2 -2.2 -2.2 -2.2 -2.2 -2.2 -2.2 -2.2 -2.2 -2.2 -2.2 -2.2 -2.2 7 16.5 24.7 27.8 36.5 46.5 50.3 49.3 49.5 55.2 59.2 64.9 70.9 81.5 94.6 108.3 112.9 112.4 108.2 92.3 84.2 84.1 75.8 66.9 65.4 67.9 66.8 57.8 59 47.5 45.6 33.4 24.5 16.7 14.6 14.6 14.6 14.6 14.6 17 21.7 24.7 33.9 44.8 52.7 52.5 52 58.3 63.3 60.1 49.3 49 33.5 17.5 -2.2 -2.2 -2.2 -2.2 -2.2 -2.2 -2.2 -2.2 -2.2 -2.2 -2.2 -2.2 -2.2 -2.2 -2.2 -2.2 -2.2 -2.2 -2.2 13.1 -2.2 -2.2 38.2 37.8 38 -2.2 -2.2 -2.2 -2.2 33.9 34.8 40.5 48 49.5 51.4 45.6 51.2 28.7 23.2 -2.2 -2.2 -2.2 -2.2 -2.2 -2.2 -2.2 -2.2 14.4 18.8 14.9 30.6 36.3 37.5 34.9 49.9 52.3 55.1 54.1 44.9 38.7 41.6 38.3 37.1 17.1 19.7 -2.2 -2.2 -2.2 -2.2 -2.2 -2.2 -2.2 -2.2 -2.2 -2.2 -2.2 -2.2 -2.2 -2.2 -2.2 -2.2 -2.2 -2.2 -2.2 -2.2 -2.2 -2.2
108.8 119.3 107.3 109.1 109.3 108.9 100.7 94.5 89.8 81.5 77.1 76.6 76.6 76.6 76.6 76.6 76.6 79.7 89.2 90.8 108.4 118.7 125.4 128.3 122.9 132.4 125.1 128.5 120.1 108 92.2 86.4 81.6 69.4 62.5 55.3 54.1 63 76.3 79.3 80.9 77.9 75 67.5 60.9 44.6 11.6 -2.2 -2.2 -2.2 -2.2 -2.2 -2.2 -2.2 -2.2 -2.2 -2.2 -2.2 -2.2 6.4 12.8 21.4 30.4 38.5 41.2 47.4 48.4 46.5 51.8 68.2 66.6 70.6 80.8 95.8 105.2 111 109.3 104.6 96.8 82.8 80 66.4 62.6 60.5 63 64 63 52.1 49.3 45.1 38.5 28.3 21.7 19.4 14.6 14.6 14.6 14.6 14.6 16.5 21.2 31.2 44.1 43.7 46.4 54.7 64.7 63.1 59.4 46.5 52.6 50 37.9 -2.2 -2.2 -2.2 -2.2 -2.2 -2.2 -2.2 -2.2 -2.2 -2.2 -2.2 -2.2 -2.2 -2.2 -2.2 -2.2 -2.2 -2.2 -2.2 -2.2 -2.2 -2.2 34.5 40 -2.2 -2.2 -2.2 -2.2 26.5 25.6 42.3 46.7 43.2 48.9 52.4 38.5 41.6 26.1 -2.2 -2.2 -2.2 -2.2 -2.2 -2.2 -2.2 -2.2 -2.2 6 12.4 20.2 33.8 40.1 35.7 35.1 35.1 49 58.1 54.7 42.7 37 34.8 19.8 23.7 22.1 24.4 -2.2 -2.2 -2.2 -2.2 -2.2 -2.2 -2.2 -2.2 -2.2 -2.2 -2.2 -2.2 -2.2 -2.2 -2.2 -2.2 -2.2 -2.2 -2.2 -2.2 -2.2 -2.2
99 96.7 101.1 103 104 102.9 99 102 91.8 82.5 79 76.6 76.6 76.7 78.6 78.7 77.3 82.2 91.7 97.1 104.4 113.7 121.5 126.2 118.8 124.2 114.3 111.6 107.4 100.6 87.8 77.9 77.4 71.9 63.7 55.4 56.4 69.5 80.6 85 82.7 79.3 78.1 77.4 66.2 54.6 39.9 -2.2 -2.2 -2.2 -2.2 -2.2 -2.2 -2.2 -2.2 -2.2 -2.2 -2.2 -2.2 5.4 9.6 22.8 24.2 34.6 37.9 39.1 44.2 51.3 49.3 62.6 67.4 70.1 85 96 106 113.3 113.5 106.8 95.4 78.8 80.6 63.2 60.4 60.4 60.9 60.9 67.4 60.3 52.2 46.5 38.9 28.4 19.3 17.8 18.4 14.6 14.6 14.6 14.6 15.4 19.1 33.7 40 42.4 49.4 54.1 62.3 64 65.7 43.8 51.8 56.4 52.5 31.5 -2.2 -2.2 -2.2 -2.2 -2.2 -2.2 -2.2 -2.2 -2.2 -2.2 -2.2 -2.2 -2.2 -2.2 -2.2 -2.2 -2.2 -2.2 -2.2 -2.2 -2.2 -2.2 -2.2 -2.2 -2.2 -2.2 -2.2 24.2 22.3 38.8 47.7 35.2 50.3 42.3 32.2 37.1 34.6 -2.2 -2.2 -2.2 -2.2 -2.2 -2.2 -2.2 -2.2 -2.2 19.8 21.7 32.6 30.4 39.1 37.3 43.6 47 42.9 54.7 52.5 33.1 23.2 8.5 -2.2 -2.2 9.3 -2.2 -2.2 -2.2 -2.2 -2.2 -2.2 -2.2 -2.2 -2.2 -2.2 -2.2 -2.2 -2.2 -2.2 -2.2 -2.2 -2.2 -2.2 -2.2 -2.2 -2.2 -2.2 -2.2
91.1 99 104.3 104.8 99.5 98 98 100.8 97.6 91.5 88.5 83.7 76.6 80.1 83.8 84.4 82.6 85.7 93.8 99.1 96.8 109.4 113.8 119.8 112 105.5 98.7 97.2 97.3 94 87.6 73.2 70.9 64.7 65 61.4 58.7 72.4 78.5 86.2 85.7 80.5 81.2 77 70.5 55.3 45.9 33.3 -2.2 -2.2 -2.2 -2.2 -2.2 -2.2 -2.2 -2.2 -2.2 -2.2 -2.2 2.1 5 14 22.3 28.8 30.7 34.8 37 47.5 46.9 65 64.3 69.9 82.9 95.1 102.6 108.6 111.6 106.3 97.3 90.4 76.6 62.3 60.4 60.4 60.4 63 65.8 66.3 64.9 55.7 44.9 32.2 24.3 17.1 19.5 23.4 14.6 14.6 14.6 14.6 18.5 27.5 41.3 41.5 40.3 52.4 59.2 56.4 56.5 46.7 52.9 49 52.6 43.1 -2.2 -2.2 -2.2 -2.2 -2.2 -2.2 -2.2 -2.2 -2.2 -2.2 -2.2 -2.2 -2.2 -2.2 -2.2 -2.2 -2.2 -2.2 -2.2 -2.2 -2.2 -2.2 -2.2 -2.2 -2.2 -2.2 15.2 27.9 21.2 31.3 36.6 29.5 35.5 31.8 27.4 38.7 33.3 18.6 -2.2 -2.2 -2.2 -2.2 -2.2 -2.2 -2.2 -2.2 31.4 31.3 29.8 30.6 33.2 44 54.1 53.2 45.4 36.4 34.3 19.4 -2.2 -2.2 -2.2 -2.2 -2.2 -2.2 -2.2 -2.2 -2.2 -2.2 -2.2 -2.2 -2.2 -2.2 -2.2 -2.2 -2.2 -2.2 -2.2 -2.2 -2.2 -2.2 -2.2 -2.2 -2.2 -2.2 -2.2 -2.2
89.9 93 100.7 102.5 100.6 89.5 95.2 99 103.6 102.9 90.9 88.3 80.7 78.2 84.2 89.2 93.8 97.8 98.5 103.5 106.1 97.3 106.9 113.9 109.3 93 90.5 96.2 98.2 91.5 90.8 80.5 65.3 65.3 70.8 71.9 54.1 72.4 79.4 82.9 83.1 83.8 83.8 78.6 70 67.3 51.9 36.7 8.2 7.2 -2.2 -2.2 -2.2 -2.2 -2.2 -2.2 -2.2 -2.2 -2.2 -2.2 6.3 9.1 13.4 19.9 22.1 27.9 28.6 34.1 40.5 55 59.4 61.3 69.1 92.8 102.5 112.1 113.9 107.7 96.4 86.3 75.9 63.2 60.6 60.2 62 69.6 71.5 72.4 69.2 61.9 45.3 34.2 36.8 21.3 28 31.2 25.2 25.4 17.8 14.6 19.4 22.8 37.8 40 37 40 51.8 47.2 53.1 51.2 41.9 49.2 50.6 37.7 -2.2 -2.2 -2.2 -2.2 -2.2 -2.2 -2.2 -2.2 -2.2 -2.2 -2.2 -2.2 -2.2 -2.2 -2.2 -2.2 -2.2 -2.2 -2.2 -2.2 -2.2 -2.2 -2.2 -2.2 -2.2 -2.2 -2.2 29.4 20.5 22.4 27.8 24.5 13.4 30.8 26.2 36 36.8 -2.2 -2.2 -2.2 -2.2 -2.2 -2.2 -2.2 -2.2 -2.2 41.5 35.2 36.9 28.3 36.2 32 58.8 53.8 49.8 44.8 40.2 26.6 1.8 -2.2 -2.2 -2.2 -2.2 -2.2 -2.2 -2.2 -2.2 -2.2 -2.2 -2.2 -2.2 -2.2 -2.2 -2.2 -2.2 -2.2 -2.2 -2.2 -2.2 -2.2 -2.2 -2.2 -2.2 -2.2 -2.2 -2.2
85 94.7 97 103.6 100.9 84 86.6 98.5 99.5 100.7 91.6 92.1 81 80 79.8 87.6 95 99.3 106.9 105 111 100.1 102.1 108.9 105.2 95.6 91.1 96.7 97.3 91.8 89.9 71.1 65.4 65.3 71.4 74 54.3 72.8 74.2 82 84 88.6 85.3 80.1 74.8 67.3 63 48 25.8 -2.2 -2.2 -2.2 -2.2 -2.2 -2.2 -2.2 -2.2 -2.2 -2.2 -2.2 2.3 8.3 11.5 14.3 17.4 21.4 23.6 26.7 33.2 39.8 50.7 55.2 65.6 79.4 95.4 107.6 112.6 105.8 97.9 79.4 63.5 63.1 60.4 60.4 60.9 68.8 71.4 73.3 69.2 61.8 51.2 41.1 37.1 29.1 27.9 31.6 33.5 31.6 28.7 21 14.6 14.6 22.8 34.5 33.3 35.3 38.6 44.6 51.5 49 31.4 36.9 38.7 30 13.6 -2.2 -2.2 -2.2 -2.2 -2.2 -2.2 -2.2 -2.2 -2.2 -2.2 -2.2 -2.2 -2.2 -2.2 -2.2 -2.2 -2.2 -2.2 -2.2 -2.2 -2.2 -2.2 -2.2 -2.2 -2.2 11.7 9 13.8 9.6 12 10.5 8.3 23.5 27 36.1 33.5 -2.2 -2.2 -2.2 -2.2 -2.2 -2.2 -2.2 -2.2 -2.2 46.4 40.1 30.5 27.2 23.9 29.5 45.8 51.3 54.7 52.9 54.2 32.5 9.9 -2.2 -2.2 -2.2 -2.2 -2.2 -2.2 -2.2 -2.2 -2.2 -2.2 -2.2 -2.2 -2.2 -2.2 -2.2 -2.2 -2.2 -2.2 -2.2 -2.2 -2.2 -2.2 -2.2 -2.2 -2.2 -2.2 -2.2
76.1 90.5 97.5 101.2 92 83.9 91.4 96.9 97.4 97.2 99.6 86 88.2 83.6 77.4 78.9 87.5 95.5 99.7 98.5 105.6 103.6 94.9 103.1 103.7 100 90.8 88.1 89.5 85.1 88.3 73.3 70.7 71 69.8 65.1 56.1 67.9 77.2 80.8 82.2 87.4 83.7 84.2 78 71.6 62.6 55.9 39.9 14.1 -2.2 -2.2 -2.2 -2.2 -2.2 -2.2 -2.2 -2.2 -2.2 -2.2 5.8 8.4 7.5 12.1 15.2 16 23.8 27.9 27.7 29.9 40.6 53.5 70.2 79.4 95.4 102.6 107.3 103.1 93 86.4 53.8 59.7 60.9 61.2 68.7 75.2 73.2 72.2 65.2 61 52 54.2 52.2 34.1 21.8 28.4 33.5 40.3 45.5 30.9 21.5 13.8 17.6 29 31.6 33.3 40.3 48.8 46.4 33.5 23.2 28.1 26.4 21.5 5.6 -2.2 -2.2 -2.2 -2.2 -2.2 -2.2 -2.2 -2.2 -2.2 -2.2 -2.2 -2.2 -2.2 -2.2 -2.2 -2.2 -2.2 -2.2 -2.2 -2.2 -2.2 -2.2 -2.2 -2.2 -2.2 -2.2 -2.2 14.2 6.8 6.4 10.1 10.7 13.7 29.5 34 34 18.6 -2.2 -2.2 -2.2 -2.2 -2.2 -2.2 -2.2 40.3 49.2 49.7 35.8 26.1 24.3 17.5 30.6 45 47 44.9 45.5 28.4 12.5 -2.2 -2.2 -2.2 -2.2 -2.2 -2.2 -2.2 -2.2 -2.2 -2.2 -2.2 -2.2 -2.2 -2.2 -2.2 -2.2 -2.2 -2.2 -2.2 -2.2 -2.2 -2.2 -2.2 -2.2 -2.2 -2.2 -2.2
72 80.3 90.6 94.2 94 80.5 91.7 100 99.9 101.6 99.5 95.1 85.9 89.8 78.4 81.5 84.5 87.7 92.2 98.5 100.7 104.8 88.3 94.3 100.8 101.6 94.7 87.2 86.8 82 79 69.7 66.2 66.9 70.1 59.9 53.5 68.8 75.1 79.7 81.7 82.2 80.5 77.6 75.2 70.4 67.9 60.7 52.1 19.7 -2.2 -2.2 -2.2 -2.2 -2.2 -2.2 -2.2 -2.2 -2.2 -2.2 -2.2 4.4 6.3 8.9 10.3 13 24.9 33 33.6 29.8 37.5 47.6 58.7 68 83.2 86.9 95 93.3 86.1 72 45.7 54.8 58.7 61.3 69.1 72.5 71 66.9 62.8 53 52.5 57.7 52.1 37.3 21.8 24.7 30.8 39.3 41.8 43.8 26.8 15.6 13.8 16 23.3 32.7 40.3 41 41.1 30.3 20.2 25.6 22.4 15.9 -2.2 -2.2 -2.2 -2.2 -2.2 -2.2 -2.2 -2.2 -2.2 -2.2 -2.2 -2.2 -2.2 -2.2 -2.2 -2.2 -2.2 -2.2 -2.2 -2.2 -2.2 -2.2 -2.2 -2.2 -2.2 -2.2 -2.2 -2.2 5.1 10.3 7.7 14.8 16.7 12.2 21.2 33.4 31.6 19.3 -2.2 -2.2 -2.2 -2.2 -2.2 -2.2 -2.2 39.9 47.4 47.3 33.7 18.9 17.6 14.4 16.5 24 19.2 22.6 -2.2 -2.2 -2.2 -2.2 -2.2 -2.2 -2.2 -2.2 -2.2 -2.2 -2.2 -2.2 -2.2 -2.2 -2.2 -2.2 -2.2 -2.2 -2.2 -2.2 -2.2 -2.2 -2.2 -2.2 -2.2 -2.2 -2.2 -2.2 -2.2 -2.2
73.6 71.4 81.6 81.8 81.9 76.9 89.4 92.3 96.7 97.3 104.4 94.8 79.5 82.2 73.1 82.6 86.6 85.9 90.9 94.7 96.1 100.5 85.3 83.4 92.5 98.1 95 86.9 81.7 78.1 72.3 62.6 67.4 64.7 60.9 57 48.7 76.4 77.8 79.5 78.8 85.1 78.5 79.7 76.2 68.3 68.3 66.8 62.1 42.4 20.1 13.8 -2.2 -2.2 -2.2 -2.2 -2.2 -2.2 -2.2 -2.2 -2.2 -2.2 4.5 7.1 10.9 16 26.4 30 30.6 30.4 35.6 45.9 56.1 63.4 71.6 80.1 88.3 86.3 72.5 65.8 42 58.4 60.6 62.5 65.9 68.2 68 61.3 53.1 53.2 57.3 59.6 53.3 37.9 22.3 31.6 33.7 37 36.5 30.7 30.8 34.2 20.3 17.1 10 23.7 49.5 44.9 41 32.7 18.2 28.9 24.4 12 -2.2 -2.2 -2.2 -2.2 -2.2 -2.2 -2.2 -2.2 -2.2 -2.2 -2.2 -2.2 -2.2 -2.2 -2.2 -2.2 -2.2 -2.2 -2.2 -2.2 -2.2 -2.2 -2.2 -2.2 -2.2 -2.2 -2.2 -2.2 3.7 7.7 18.6 11 20.1 21.6 -2.2 24.5 29.5 19.4 -2.2 -2.2 -2.2 -2.2 -2.2 -2.2 -2.2 -2.2 48 46.4 31.8 19.4 12.7 -2.2 14.2 15.5 16.8 -2.2 -2.2 -2.2 -2.2 -2.2 -2.2 -2.2 -2.2 -2.2 -2.2 -2.2 -2.2 -2.2 -2.2 -2.2 -2.2 -2.2 -2.2 -2.2 -2.2 -2.2 -2.2 -2.2 -2.2 -2.2 -2.2 -2.2 -2.2 -2.2 -2.2 -2.2
71.4 72.2 71.4 75.3 72.2 72.3 84.5 88.7 87.2 92.6 101.9 89.5 84.5 77.1 69.6 82.8 91.1 92.9 85.1 90.2 86 87.2 82.4 70.5 78.1 88.3 87.2 85.4 78.1 75.4 66.9 59.5 62.9 62.5 56 53.4 38.4 65.5 75.7 75.3 77.2 78.5 75.6 75.4 76.4 68.3 71.9 67.4 62.3 51.3 29.7 18.3 13 -2.2 -2.2 -2.2 -2.2 -2.2 -2.2 -2.2 -2.2 -2.2 5.3 6.6 17.9 19.7 23.2 31.2 31.4 32.8 26.5 40.3 53.4 62.4 66.4 72.2 76.4 73 73.2 62.2 44.1 53.1 51.7 58.3 64.9 68.2 59.8 54.9 53.2 53.2 64.3 59.9 55.7 36.7 23.5 30.5 31.4 37.2 39.5 38.4 36.5 31.5 22.4 17.9 7.3 9.3 36.6 40.7 33.6 23.7 10.7 19 16.5 15.4 -2.2 -2.2 -2.2 -2.2 -2.2 -2.2 -2.2 -2.2 -2.2 -2.2 -2.2 -2.2 -2.2 -2.2 -2.2 -2.2 -2.2 -2.2 -2.2 -2.2 -2.2 -2.2 -2.2 -2.2 -2.2 -2.2 -2.2 -2.2 -2.2 -2.2 -2.2 13.1 16 10.1 -2.2 -2.2 19.6 -2.2 -2.2 -2.2 -2.2 -2.2 -2.2 -2.2 -2.2 -2.2 36.6 38.1 30.2 19.3 -2.2 -2.2 -2.2 16.5 -2.2 -2.2 -2.2 -2.2 -2.2 -2.2 -2.2 -2.2 -2.2 -2.2 -2.2 -2.2 -2.2 -2.2 -2.2 -2.2 -2.2 -2.2 -2.2 -2.2 -2.2 -2.2 -2.2 -2.2 -2.2 -2.2 -2.2 -2.2 -2.2 -2.2 -2.2 -2.2
71.4 71.4 71.4 71.4 71.4 71.5 76.1 86 89 87.4 88.1 90 79.1 79.9 66.5 70.7 81.7 81.6 77.9 87.3 82.6 77 76.6 59.5 68.4 73.9 72.6 71.7 66.8 65.8 49.9 50.7 59.9 58.5 55.1 31 27.2 66.1 77.6 81.8 73 73 77.6 76.7 78.6 71.3 70.6 68.3 62.9 55.6 33.1 30.4 22.8 -2.2 -2.2 -2.2 -2.2 -2.2 -2.2 -2.2 -2.2 1.9 10 3.9 15 19.5 24.4 26.1 33.2 29.9 26 31.1 42.6 50.6 53.2 62.8 67.4 68.1 63.5 51.9 40.1 44.6 49.3 56.2 63 60.6 54.3 53.2 54.5 56.6 59.6 56.5 58.3 57.3 24.4 25.3 32.4 38 47.9 47.4 51.3 40 24.7 24.8 17.8 6.7 -2.2 -2.2 12.4 -2.2 -2.2 -2.2 4.2 1.8 -2.2 -2.2 -2.2 -2.2 -2.2 -2.2 -2.2 -2.2 -2.2 -2.2 -2.2 -2.2 -2.2 -2.2 -2.2 -2.2 -2.2 -2.2 -2.2 -2.2 -2.2 -2.2 -2.2 -2.2 -2.2 -2.2 -2.2 -2.2 -2.2 -2.2 -2.2 9.1 21.9 11.6 -2.2 -2.2 -2.2 -2.2 -2.2 -2.2 -2.2 -2.2 -2.2 -2.2 -2.2 -2.2 42 33.6 -2.2 -2.2 -2.2 -2.2 -2.2 -2.2 -2.2 -2.2 -2.2 -2.2 -2.2 -2.2 -2.2 -2.2 -2.2 -2.2 -2.2 -2.2 -2.2 -2.2 -2.2 -2.2 -2.2 -2.2 -2.2 -2.2 -2.2 -2.2 -2.2 -2.2 -2.2 -2.2 -2.2 -2.2 -2.2 -2.2 -2.2 -2.2
71.4 71.4 71.4 71.4 71.4 71.4 75.5 80.4 89.1 89.7 84.2 84.8 82.6 78.4 68.7 63.4 70.4 69.5 69.8 81.4 78.5 68.5 65.5 49.1 60.6 66.2 56 50.7 42.5 48.3 30.5 37.1 50.6 42.2 36.7 30 18.6 50.6 69.8 83.1 80.3 74.7 74.7 75.2 77.6 70.6 72 69 58.9 50.2 39.5 34 39.5 21.7 -2.2 -2.2 -2.2 -2.2 -2.2 -2.2 -2.2 -2.2 12.9 5.5 8 10.9 14.8 19.7 24.7 23.2 26.3 28.7 30.5 41.4 52.2 58.9 65.1 63.2 57.6 52.5 44.4 38.6 41.3 50.7 52.8 56.2 52.8 51.1 51.8 50.8 55.8 66 61.5 61.6 33.5 28.6 37 37.1 39.1 44.1 43 31.5 25 21.3 16.3 10.4 -2.2 -2.2 6.3 -2.2 -2.2 -2.2 1.8 2.3 -2.2 -2.2 -2.2 -2.2 -2.2 -2.2 -2.2 -2.2 -2.2 -2.2 -2.2 -2.2 -2.2 -2.2 -2.2 -2.2 -2.2 -2.2 -2.2 -2.2 -2.2 -2.2 -2.2 -2.2 -2.2 -2.2 -2.2 -2.2 -2.2 -2.2 -2.2 -2.2 -2.2 -2.2 -2.2 -2.2 -2.2 -2.2 -2.2 -2.2 -2.2 -2.2 -2.2 -2.2 -2.2 -2.2 -2.2 25.9 -2.2 -2.2 -2.2 -2.2 -2.2 -2.2 -2.2 -2.2 -2.2 -2.2 -2.2 -2.2 -2.2 -2.2 -2.2 -2.2 -2.2 -2.2 -2.2 -2.2 -2.2 -2.2 -2.2 -2.2 -2.2 -2.2 -2.2 -2.2 -2.2 -2.2 -2.2 -2.2 -2.2 -2.2 -2.2 -2.2 -2.2 -2.2
71.4 71.4 71.4 71.4 71.4 71.4 72 78.1 85.4 86.2 86 85.2 73.5 75.4 68.5 61.8 60.6 64.8 61.5 63.9 67.5 64.7 54.9 48.2 43.3 45.2 41.9 30.7 26.7 27.9 25 31.1 37.6 38 34.2 22.1 22.3 42.5 63.1 69.6 73 74.8 74.5 74.3 75.3 71.8 71.8 68.9 60.9 51.5 40.1 36.8 48.3 31.5 -2.2 -2.2 -2.2 -2.2 -2.2 -2.2 -2.2 -2.2 -2.2 -2.2 9.3 15.4 19.1 21 25.7 20.2 19.8 20.4 28.6 42.8 54.6 61.5 66.9 68.2 64.1 49.5 39.9 33.4 35.5 45.4 46.4 51.3 47.6 46.1 42.2 39.5 57.2 60.6 58.3 58.1 40.4 35.4 41.8 40.7 37.8 38.3 36.7 38.1 33.1 27.6 18.6 19.6 15.3 -2.2 -2.2 -2.2 -2.2 -2.2 13.4 24.5 -2.2 -2.2 -2.2 -2.2 -2.2 -2.2 -2.2 -2.2 -2.2 -2.2 1.4 -2.2 -2.2 -2.2 -2.2 -2.2 -2.2 -2.2 -2.2 -2.2 -2.2 -2.2 -2.2 -2.2 -2.2 -2.2 -2.2 -2.2 -2.2 -2.2 -2.2 -2.2 -2.2 -2.2 -2.2 -2.2 -2.2 -2.2 -2.2 -2.2 -2.2 -2.2 -2.2 -2.2 -2.2 -2.2 -2.2 -2.2 -2.2 -2.2 -2.2 -2.2 -2.2 -2.2 -2.2 -2.2 -2.2 -2.2 -2.2 -2.2 -2.2 -2.2 -2.2 -2.2 -2.2 -2.2 -2.2 -2.2 -2.2 -2.2 -2.2 -2.2 -2.2 -2.2 -2.2 -2.2 -2.2 -2.2 -2.2 -2.2 -2.2 -2.2 -2.2 -2.2 -2.2 -2.2
71.4 71.4 71.4 71.4 71.4 71.4 71.4 78.9 84.4 88.8 86.9 85.6 70.4 70.2 67 69.6 55.7 61.1 57.3 61.5 64.8 60.8 54.9 46 33.1 32.2 31.3 17.6 19.6 15.1 12.9 16.6 21.6 28.1 26.6 29.3 14.6 41.7 51.3 60.7 67.7 75 77.1 76.1 80.5 76.7 73.3 66.1 61.7 48.3 42.3 31.2 34.4 31.3 11.9 5 -2.2 -2.2 -2.2 -2.2 -2.2 -2.2 -2.2 -2.2 -2.2 9 20.2 21.4 26.4 23.6 19.4 24.1 23.3 44.3 52.1 59.4 63.2 63.9 62.9 55.5 41.6 29.5 35.4 40.5 43.5 44.9 45.2 36.8 35.8 39.6 53 52.1 51.4 52.9 42.2 46 39.1 39.7 38.4 40.1 47.2 49.2 42.2 39.6 31.4 35.2 26.9 -2.2 -2.2 -2.2 -2.2 16.1 18.4 14.8 -2.2 -2.2 -2.2 -2.2 -2.2 -2.2 -2.2 -2.2 -2.2 -2.2 -2.2 -2.2 -2.2 -2.2 -2.2 -2.2 -2.2 -2.2 -2.2 -2.2 -2.2 -2.2 -2.2 -2.2 -2.2 -2.2 -2.2 -2.2 -2.2 -2.2 -2.2 -2.2 -2.2 -2.2 -2.2 -2.2 -2.2 -2.2 -2.2 -2.2 -2.2 -2.2 -2.2 -2.2 -2.2 -2.2 -2.2 -2.2 -2.2 -2.2 -2.2 -2.2 -2.2 -2.2 -2.2 -2.2 -2.2 -2.2 -2.2 -2.2 -2.2 -2.2 -2.2 -2.2 -2.2 -2.2 -2.2 -2.2 -2.2 -2.2 -2.2 -2.2 -2.2 -2.2 -2.2 -2.2 -2.2 -2.2 -2.2 -2.2 -2.2 -2.2 -2.2 -2.2 -2.2 -2.2
71.4 71.4 71.4 71.4 71.4 71.4 71.4 71.4 78.9 83.4 91.5 90.4 73 68.4 63.2 61.3 54.5 54.7 61 66.6 67.3 64.3 56.3 48.1 38.1 25.1 18.4 10.5 9 9 10.8 14.8 12.9 12.8 17.9 25.4 14.6 43.3 58.4 64.6 63.3 71.3 69.3 73.5 78.3 76.3 72.2 71.4 58.6 39.8 38.8 27.3 27.7 29.9 16.3 27.2 17.4 -2.2 -2.2 -2.2 -2.2 -2.2 -2.2 -2.2 -2.2 6.2 15.1 18.1 27.7 20.7 18.5 26.5 21.8 40.4 52.3 57.1 67.3 61.1 61.4 53.1 38.2 29.7 34.6 34.6 33.7 33.6 33.6 32.9 27.5 43.1 48.2 49.5 56.9 55.3 46.3 37.5 37.6 36.8 46.7 45.8 46.4 53.5 46.1 40.6 32.5 27.6 28 23.5 -2.2 -2.2 -2.2 -2.2 10.3 11.3 7.5 -2.2 -2.2 -2.2 -2.2 -2.2 -2.2 -2.2 -2.2 -2.2 -2.2 -2.2 -2.2 -2.2 -2.2 -2.2 -2.2 -2.2 -2.2 -2.2 -2.2 -2.2 -2.2 -2.2 -2.2 -2.2 -2.2 -2.2 -2.2 -2.2 -2.2 -2.2 -2.2 -2.2 -2.2 -2.2 -2.2 -2.2 -2.2 -2.2 -2.2 -2.2 -2.2 -2.2 -2.2 -2.2 -2.2 -2.2 -2.2 -2.2 -2.2 -2.2 -2.2 -2.2 -2.2 -2.2 -2.2 -2.2 -2.2 -2.2 -2.2 -2.2 -2.2 -2.2 -2.2 -2.2 -2.2 -2.2 -2.2 -2.2 -2.2 -2.2 -2.2 -2.2 -2.2 -2.2 -2.2 -2.2 -2.2 -2.2 -2.2 -2.2 -2.2 -2.2 -2.2 -2.2
71.4 71.4 71.4 71.4 71.4 71.4 71.4 71.4 71.4 76.3 87.1 95.6 75.2 70.6 73.1 63.6 59.5 53.7 61.2 74.7 71.6 66.6 58.5 37 34 17.8 11.4 7.5 13.4 8.5 9.5 14.2 13.5 12.8 13.8 17.4 15.2 37.9 52.1 52.7 67.9 70.1 68.1 68.5 70.2 68.2 67.2 66.2 55.4 43.6 33.4 28.8 17.2 21 15.5 28.8 24.1 -2.2 -2.2 -2.2 -2.2 -2.2 -2.2 -2.2 -2.2 -2.2 12.3 9.1 14.8 19.3 18.5 24.8 28.5 37.2 42.8 48.8 64.5 60.4 56 49.2 39.3 38.2 31.1 35.6 37.5 35.3 36 25.8 23.4 41.2 48 53.2 60.7 59.6 53.9 38.7 45.1 42.6 37.1 42.2 43.4 46.7 47.2 43.3 39.3 27.3 23.9 21.1 14.7 -2.2 -2.2 -2.2 -2.2 -2.2 -2.2 -2.2 -2.2 -2.2 -2.2 -2.2 -2.2 -2.2 -2.2 -2.2 -2.2 -1.9 -2.2 -2.2 -2.2 -2.2 -2.2 -2.2 -2.2 -2.2 -2.2 -2.2 -2.2 -2.2 -2.2 -2.2 -2.2 -2.2 -2.2 -2.2 -2.2 -2.2 -2.2 -2.2 -2.2 -2.2 -2.2 -2.2 -2.2 -2.2 -2.2 -2.2 -2.2 -2.2 -2.2 -2.2 -2.2 -2.2 -2.2 -2.2 -2.2 -2.2 -2.2 -2.2 -2.2 -2.2 -2.2 -2.2 -2.2 -2.2 -2.2 -2.2 -2.2 -2.2 -2.2 -2.2 -2.2 -2.2 -2.2 -2.2 -2.2 -2.2 -2.2 -2.2 -2.2 -2.2 -2.2 -2.2 -2.2 -2.2 -2.2 -2.2 -2.2 -2.2 -2.2 -2.2
72.8 72.1 71.4 71.4 71.4 71.4 71.4 71.4 71.4 73.8 85.9 95.7 75.9 73.7 84.5 80.4 64.3 53.3 60.3 73.7 69 58.4 42.8 28.6 25.1 17.7 11.3 6 6.7 8 9 15.2 13.3 15.4 18.8 17.2 8.5 25.3 51.3 49.7 64.4 69.1 70.3 70.6 66.2 60.7 58.4 54.5 49.5 42.9 29.1 28.6 15.3 15.3 9.3 25.4 25.2 12.8 -2.2 -2.2 -2.2 -2.2 -2.2 -2.2 -2.2 -2.2 5 8.2 11.3 12.9 14.3 17.2 19.9 24 34.8 36.1 46.6 58.1 55.2 37.2 35.8 41.2 29.9 43.6 45.2 42.2 37.5 26.7 23.3 43.8 47.4 51.1 60.7 57.4 50.9 30.8 47 53.5 42.8 37.6 42.2 47.6 50.7 46.2 40.2 37.5 17.2 12.9 9.7 -2.2 -2.2 -2.2 -2.2 -2.2 -2.2 -2.2 -2.2 -2.2 -2.2 -2.2 -2.2 -2.2 -2.2 -2.2 -2.2 7.1 -2.2 -2.2 -2.2 -2.2 -2.2 -2.2 -2.2 -2.2 -2.2 -2.2 -2.2 -2.2 -2.2 -2.2 -2.2 -2.2 -2.2 -2.2 -2.2 -2.2 -2.2 -2.2 -2.2 -2.2 -2.2 -2.2 -2.2 -2.2 -2.2 -2.2 -2.2 -2.2 -2.2 -2.2 -2.2 -2.2 -2.2 -2.2 -2.2 -2.2 -2.2 -2.2 -2.2 -2.2 -2.2 -2.2 -2.2 -2.2 -2.2 -2.2 -2.2 -2.2 -2.2 -2.2 -2.2 -2.2 -2.2 -2.2 -2.2 -2.2 -2.2 -2.2 -2.2 -2.2 -2.2 -2.2 -2.2 -2.2 -2.2 -2.2 -2.2 -2.2 -2.2 -2.2
76.7 76.1 71.4 71.4 71.4 71.4 72 72.7 78.6 71.4 75 85.4 75.8 78.9 83 83.1 72.4 52.8 57.3 69.5 68.8 54.7 40.8 27.1 22.5 19.1 14 6 7.2 9.4 9.5 10.1 11.9 13.3 16.4 14.2 7.8 29 43.6 41 52.5 57.7 61.4 61.6 59.8 56.2 51.7 42.3 43.8 33 36.2 41.9 21.8 1.8 10.3 24.5 23.4 15.1 5.5 -2.2 -2.2 -2.2 -2.2 -2.2 -2.2 -2.2 -2.2 -2.2 8.5 11.2 15.8 21.2 18.2 15.5 28.2 28.6 33.7 39.9 43.1 32.3 30.3 33 20.4 23.9 38.9 37.1 30.5 25.1 21.9 34.2 39 46.7 59 59.4 48 29.2 47.4 53.8 47.6 43.4 41 45.5 41.8 37.6 35.8 30.8 23 19.7 20.8 18.9 -2.2 -2.2 -2.2 -2.2 -2.2 -2.2 -2.2 -2.2 -2.2 -2.2 -2.2 -2.2 -2.2 -2.2 -2.2 11.3 15.8 1.5 -2.2 -2.2 -2.2 -2.2 -2.2 -2.2 -2.2 -2.2 -2.2 -2.2 -2.2 -2.2 -2.2 -2.2 -2.2 -2.2 -2.2 -2.2 -2.2 -2.2 -2.2 -2.2 -2.2 -2.2 -2.2 -2.2 -2.2 -2.2 -2.2 -2.2 -2.2 -2.2 -2.2 -2.2 -2.2 -2.2 -2.2 -2.2 -2.2 -2.2 -2.2 -2.2 -2.2 -2.2 -2.2 -2.2 -2.2 -2.2 -2.2 -2.2 -2.2 -2.2 -2.2 -2.2 -2.2 -2.2 -2.2 -2.2 -2.2 -2.2 -2.2 -2.2 -2.2 -2.2 -2.2 -2.2 -2.2 -2.2 -2.2 -2.2 -2.2 -2.2
76.3 75.5 76.3 77 71.6 74 76.7 76.8 75.1 79.8 71.4 74.4 80.2 75.3 77.4 79.9 73.3 53.2 58.1 58.4 58 53.3 45.4 34.4 22.1 16.7 15.2 7.3 6.1 7.7 8.6 12.2 11.4 10.6 12.2 14.4 6.9 31.5 38.9 30.4 45.3 45.8 47.4 49.6 51.3 53.9 43.1 41.9 38.7 38.4 46.1 38 24.3 3.9 1.8 13.4 20.1 17.9 -2.2 11 -2.2 -2.2 -2.2 -2.2 -2.2 -2.2 -2.2 -2.2 -2.2 8 15 19.5 19.9 15.5 26.6 25.3 27.9 37.1 30.7 26.3 21.8 19.2 18.6 18.6 20.4 23.5 21.8 21.5 18.2 34.8 39.5 40.9 56.5 53 45.1 26.4 38.3 48.5 46.9 48.4 38.4 39.8 46.8 39.9 41.5 39.8 25.5 24.9 24.3 27.2 22.4 14.6 -2.2 -2.2 -2.2 -2.2 -2.2 -2.2 -2.2 -2.2 -2.2 -2.2 -2.2 -2.2 -2.2 -2.2 23.2 16.6 -2.2 -2.2 -2.2 -2.2 -2.2 -2.2 -2.2 -2.2 -2.2 -2.2 -2.2 -2.2 -2.2 -2.2 -2.2 -2.2 -2.2 -2.2 -2.2 -2.2 -2.2 -2.2 -2.2 -2.2 -2.2 -2.2 -2.2 -2.2 -2.2 -2.2 -2.2 -2.2 -2.2 -2.2 -2.2 -2.2 -2.2 -2.2 -2.2 -2.2 -2.2 -2.2 -2.2 -2.2 -2.2 -2.2 -2.2 -2.2 -2.2 -2.2 -2.2 -2.2 -2.2 -2.2 -2.2 -2.2 -2.2 -2.2 -2.2 -2.2 -2.2 -2.2 -2.2 -2.2 -2.2 -2.2 -2.2 -2.2 -2.2 -2.2 -2.2 -2.2
74.7 74.5 69.8 85.8 87.1 85.5 80.1 78.9 79.8 77.8 78.3 72 77.5 73.7 75.4 77.7 71.5 67 56 59.1 56.5 51.2 45.5 33.3 17 20 16.5 11.9 5.5 8.3 9.2 11.8 10.6 11 10.6 12.6 7.6 28.3 35.8 19.9 24.7 28 25.9 32.3 42.5 46.7 43.1 45.5 45.8 38.6 41.7 32 20 8.5 -2.2 -2.2 8.2 9 -2.2 11.8 -2.2 -2.2 -2.2 -2.2 -2.2 -2.2 -2.2 -2.2 -2.2 -2.2 7.2 21.7 21.4 15.5 17.6 20.7 25.6 28.3 28.3 28.3 28.3 23.6 21.1 21.2 19.2 19 13.9 11.5 12.6 19.8 34.1 26.2 47.5 49 40.8 26.4 29.5 38.4 45.3 49.5 43.4 34.2 44 44.6 47.2 44.1 38.3 34.5 30.8 21.9 23.4 28.2 17.9 -2.2 -2.2 -2.2 -2.2 -2.2 -2.2 -2.2 -2.2 -2.2 -2.2 -2.2 -2.2 -2.2 7.7 1.8 -2.2 -2.2 -2.2 -2.2 -2.2 -2.2 -2.2 -2.2 -2.2 -2.2 -2.2 -2.2 -2.2 -2.2 -2.2 -2.2 -2.2 -2.2 -2.2 -2.2 -2.2 -2.2 -2.2 -2.2 -2.2 -2.2 -2.2 -2.2 -2.2 -2.2 -2.2 -2.2 -2.2 -2.2 -2.2 -2.2 -2.2 -2.2 -2.2 -2.2 -2.2 -2.2 -2.2 -2.2 -2.2 -2.2 -2.2 -2.2 -2.2 -2.2 -2.2 -2.2 -2.2 -2.2 -2.2 -2.2 -2.2 -2.2 -2.2 -2.2 -2.2 -2.2 -2.2 -2.2 -2.2 -2.2 -2.2 -2.2 -2.2 -2.2 -2.2 -2.2
71.3 70.4 75.5 87.2 93.1 95.1 86.5 80 81.6 80.7 75.5 70.6 69 66.1 70.7 77.1 72.4 63.8 44.9 50.1 50.6 51.1 46.1 34.9 14.1 15.8 15.1 17.4 -2.2 -2.2 8 10 17.7 19.3 15.3 8.3 2.6 17.2 18.4 14.6 12.3 16.4 21.3 37.3 51.5 50.9 45.1 43.9 40.9 40.2 30.5 24.4 -2.2 -2.2 6.4 -2.2 1.2 -2.2 -2.2 -2.2 -2.2 -2.2 -2.2 -2.2 -2.2 -2.2 -2.2 -2.2 -2.2 -2.2 5.1 14.9 22.5 15.3 22.6 21 29.4 32.9 28.3 38.9 40.6 32.8 34.2 35.5 20.7 16.9 11.7 10.8 10.6 7.4 14.2 13 25.2 33.3 33.1 26.7 31.5 41.3 50.6 51.6 43.9 37.6 34.5 39.3 45.1 39.5 33.8 35.2 34.9 20.8 18.1 26.6 15.1 18.2 -2.2 -2.2 -2.2 -2.2 -2.2 -2.2 -2.2 -2.2 -2.2 -2.2 -2.2 -2.2 -2.2 -2.2 -2.2 -2.2 -2.2 -2.2 -2.2 -2.2 -2.2 -2.2 -2.2 -2.2 -2.2 -2.2 -2.2 -2.2 -2.2 -2.2 -2.2 -2.2 -2.2 -2.2 -2.2 -2.2 -2.2 -2.2 -2.2 -2.2 -2.2 -2.2 -2.2 -2.2 -2.2 -2.2 -2.2 -2.2 -2.2 -2.2 -2.2 -2.2 -2.2 -2.2 -2.2 -2.2 -2.2 -2.2 -2.2 -2.2 -2.2 -2.2 -2.2 -2.2 -2.2 -2.2 -2.2 -2.2 -2.2 -2.2 -2.2 -2.2 -2.2 -2.2 -2.2 -2.2 -2.2 -2.2 -2.2 -2.2 -2.2 -2.2 -2.2 -2.2 -2.2 -2.2
64.2 69.7 84.2 88.9 91.2 92.7 90.8 82.2 80.8 77.3 73.1 71.9 65.7 60.9 66.7 74.1 73.2 60.4 36.6 46.2 48.7 44.5 44.2 35.8 17.8 11.9 8.7 13.3 -2.2 -2.2 5.4 7.1 13.4 13.8 7.7 6.5 -2.2 -2.2 10.4 12.8 12.5 18.1 24 36.6 56 44.5 44.5 46.6 35.6 34.8 28.8 15.8 -2.2 -2.2 8.9 -2.2 -2.2 -2.2 -2.2 -2.2 -2.2 -2.2 -2.2 -2.2 -2.2 -2.2 -2.2 -2.2 -2.2 -2.2 -2.2 19.4 26 21.4 20 26.8 29.7 33.5 33.2 44.8 46.9 41.6 39.7 41.2 34.8 18.8 14.6 20.3 11.6 -2.2 -2.2 12.8 4.3 16.7 16.7 26.1 30.3 42.2 43.7 50 42.9 41.8 31.1 31.5 36.6 32.5 38.9 36.9 32.4 20.8 17.4 17.4 14 8.3 -2.2 -2.2 -2.2 -2.2 -2.2 -2.2 -2.2 -2.2 -2.2 -2.2 -2.2 -2.2 -2.2 -2.2 -2.2 -2.2 -2.2 -2.2 -2.2 -2.2 -2.2 -2.2 -2.2 -2.2 -2.2 -2.2 -2.2 -2.2 -2.2 -2.2 -2.2 -2.2 -2.2 -2.2 -2.2 -2.2 -2.2 -2.2 -2.2 -2.2 -2.2 -2.2 -2.2 -2.2 -2.2 -2.2 -2.2 -2.2 -2.2 -2.2 -2.2 -2.2 -2.2 -2.2 -2.2 -2.2 -2.2 -2.2 -2.2 -2.2 -2.2 -2.2 -2.2 -2.2 -2.2 -2.2 -2.2 -2.2 -2.2 -2.2 -2.2 -2.2 -2.2 -2.2 -2.2 -2.2 -2.2 -2.2 -2.2 -2.2 -2.2 -2.2 -2.2 -2.2 -2.2 -2.2
62 75.2 84.8 87.8 94.5 95.8 93.5 83.8 75.9 75 74.8 74 65.9 61 69.7 76.3 73.9 62.4 38 32 39.3 35.3 32.1 30.4 25.9 5.1 4.3 8.3 -2.2 -2.2 3.8 5.8 8.4 5.9 4.7 -2.2 -2.2 -2.2 -2.2 15.4 15.1 19.3 27.3 30.9 47.4 44.5 44.5 43.1 33.4 31.1 29.6 12.4 -2.2 -2.2 -2.2 -2.2 -2.2 -2.2 -2.2 -2.2 -2.2 -2.2 -2.2 -2.2 -2.2 -2.2 -2.2 -2.2 -2.2 -2.2 -2.2 24.4 39.1 18.5 15 25 30.5 28.4 35.6 44.4 39 38.8 40.2 37.3 35.4 27.8 15.3 17.9 18.3 -2.2 -2.2 -2.2 -2.2 -2.2 18.7 19.7 20.5 37.3 42.3 46.5 46.8 42 32.6 31.4 34.4 31.8 43.8 41.7 27 18.7 21.8 18.8 17.6 10.1 -2.2 -2.2 -2.2 -2.2 -2.2 -2.2 -2.2 -2.2 -2.2 -2.2 -2.2 -2.2 -2.2 -2.2 -2.2 -2.2 -2.2 -2.2 -2.2 -2.2 -2.2 -2.2 -2.2 -2.2 -2.2 -2.2 -2.2 -2.2 -2.2 -2.2 -2.2 -2.2 -2.2 -2.2 -2.2 -2.2 -2.2 -2.2 -2.2 -2.2 -2.2 -2.2 -2.2 -2.2 -2.2 -2.2 -2.2 -2.2 -2.2 -2.2 -2.2 -2.2 -2.2 -2.2 -2.2 -2.2 -2.2 -2.2 -2.2 -2.2 -2.2 -2.2 -2.2 -2.2 -2.2 -2.2 -2.2 -2.2 -2.2 -2.2 -2.2 -2.2 -2.2 -2.2 -2.2 -2.2 -2.2 -2.2 -2.2 -2.2 -2.2 -2.2 -2.2 -2.2 -2.2 -2.2
55.4 70.3 82.6 87 89.3 88 91.3 89.4 69.6 72.3 75.4 72.2 71.8 62.1 73.8 83.8 81.2 63.8 43.2 22.8 27.2 23.8 25.7 25.5 21.8 -2.2 -2.2 1.8 8.2 -2.2 -2.2 -2.2 -2.2 -2.2 -2.2 -2.2 -2.2 -2.2 5.4 16 16.2 20 27.8 38.4 44.1 48.6 47.9 38.3 33.3 32.1 19.7 9 -2.2 -2.2 -2.2 -2.2 -2.2 -2.2 -2.2 -2.2 -2.2 -2.2 -2.2 -2.2 -2.2 -2.2 -2.2 -2.2 -2.2 -2.2 -2.2 24.3 28.2 20.4 8.5 16.4 23.6 17.5 19.3 27.4 33.4 41.9 36 34.8 32.5 26.3 18.1 12.8 11.5 2.6 -2.2 -2.2 -2.2 -2.2 -2.2 14.7 8.5 27.2 39.6 38.5 37.4 39.5 42 38.5 31.9 34.1 41.2 42.6 30.5 19.4 19.1 20.5 16 15.4 -2.2 -2.2 -2.2 -2.2 -2.2 -2.2 -2.2 -2.2 -2.2 -2.2 -2.2 -2.2 -2.2 -2.2 -2.2 -2.2 -2.2 -2.2 -2.2 -2.2 -2.2 -2.2 -2.2 -2.2 -2.2 -2.2 -2.2 -2.2 -2.2 -2.2 -2.2 -2.2 -2.2 -2.2 -2.2 -2.2 -2.2 -2.2 -2.2 -2.2 -2.2 -2.2 -2.2 -2.2 -2.2 -2.2 -2.2 -2.2 -2.2 -2.2 -2.2 -2.2 -2.2 -2.2 -2.2 -2.2 -2.2 -2.2 -2.2 -2.2 -2.2 -2.2 -2.2 -2.2 -2.2 -2.2 -2.2 -2.2 -2.2 -2.2 -2.2 -2.2 -2.2 -2.2 -2.2 -2.2 -2.2 -2.2 -2.2 -2.2 -2.2 -2.2 -2.2 -2.2 -2.2 -2.2
50.7 61.5 70.5 79.7 89 90.9 86.3 83.8 68 66.3 69 69.6 71 67.4 68 80.7 77.4 63 50.6 24.8 26.2 20.3 18.1 15.7 15 -2.2 -2.2 -2.2 6.5 4.5 -2.2 -2.2 -2.2 1.6 -2.2 -2.2 -2.2 -2.2 5.9 11.5 20.3 20.8 28.8 30.1 43.5 45.8 49.9 41.7 33 29.6 17.3 -2.2 -2.2 -2.2 -2.2 -2.2 -2.2 -2.2 -2.2 -2.2 -2.2 -2.2 -2.2 -2.2 -2.2 -2.2 -2.2 -2.2 -2.2 -2.2 -2.2 -2.2 24.4 28.2 8.1 7.3 11.2 13.3 18.9 22.4 19.8 30.3 26.2 33.3 28.3 25.6 18.9 11.5 -2.2 -2.2 11.3 -2.2 -2.2 -2.2 -2.2 2.3 -2.2 15.5 28.4 29.6 32.6 33.2 40.3 46.1 35.7 30 38.9 43.2 38.1 20.2 19.1 22.9 20.7 19.8 17.3 -2.2 -2.2 -2.2 -2.2 -2.2 -2.2 -2.2 -2.2 -2.2 -2.2 -2.2 -2.2 -2.2 -2.2 -2.2 -2.2 -2.2 -2.2 -2.2 -2.2 -2.2 -2.2 -2.2 -2.2 -2.2 -2.2 -2.2 -2.2 -2.2 -2.2 -2.2 -2.2 -2.2 -2.2 -2.2 -2.2 -2.2 -2.2 -2.2 -2.2 -2.2 -2.2 -2.2 -2.2 -2.2 -2.2 -2.2 -2.2 -2.2 -2.2 -2.2 -2.2 -2.2 -2.2 -2.2 -2.2 -2.2 -2.2 -2.2 -2.2 -2.2 -2.2 -2.2 -2.2 -2.2 -2.2 -2.2 -2.2 -2.2 -2.2 -2.2 -2.2 -2.2 -2.2 -2.2 -2.2 -2.2 -2.2 -2.2 -2.2 -2.2 -2.2 -2.2 -2.2 -2.2
46 53.6 61.1 69.3 73.9 83 91.2 84.4 70.5 65.5 65.5 75.9 78 65.4 63.3 76.5 77.5 65 54.3 46.2 19.7 16.2 14.6 13.2 12.9 -2.2 -2.2 -2.2 -2.2 4.3 10.8 -2.2 -2.2 -2.2 -2.2 -2.2 -2.2 -2.2 5.6 9.9 19 22 23.7 31.8 39 46.1 47.3 46.3 44 35.6 21.9 -2.2 -2.2 -2.2 -2.2 -2.2 -2.2 -2.2 -2.2 -2.2 -2.2 -2.2 -2.2 -2.2 -2.2 -2.2 -2.2 -2.2 -2.2 -2.2 -2.2 -2.2 -2.2 12.5 9 5.7 8.6 -2.2 3 17.4 17.8 21.7 25.3 28.3 26 30.5 19.9 11.8 -2.2 -2.2 0.8 -2.2 -2.2 -2.2 -2.2 -2.2 -2.2 -2.2 17.9 24.7 31 30.6 38.3 45.6 41.7 27 33.5 34.3 31 25.6 26.6 28.6 31.8 28.6 24.8 10.5 20.7 -2.2 -2.2 -2.2 -2.2 -2.2 -2.2 -2.2 -2.2 -2.2 -2.2 -2.2 -2.2 -2.2 -2.2 -2.2 -2.2 -2.2 -2.2 -2.2 -2.2 -2.2 -2.2 -2.2 -2.2 -2.2 -2.2 -2.2 -2.2 -2.2 -2.2 -2.2 -2.2 -2.2 -2.2 -2.2 -2.2 -2.2 -2.2 -2.2 -2.2 -2.2 -2.2 -2.2 -2.2 -2.2 -2.2 -2.2 -2.2 -2.2 -2.2 -2.2 -2.2 -2.2 -2.2 -2.2 -2.2 -2.2 -2.2 -2.2 -2.2 -2.2 -2.2 -2.2 -2.2 -2.2 -2.2 -2.2 -2.2 -2.2 -2.2 -2.2 -2.2 -2.2 -2.2 -2.2 -2.2 -2.2 -2.2 -2.2 -2.2 -2.2 -2.2 -2.2
45.2 46.4 53.2 61.8 64.8 73.5 81.2 82.4 78.1 65.5 65.5 71.4 78.4 71.2 59.9 70 69.7 61 59.1 63.7 37.9 15.6 16.6 9.1 6.9 -2.2 -2.2 -2.2 -2.2 -2.2 10.2 -2.2 -2.2 -2.2 -2.2 -2.2 -2.2 -2.2 3.7 5.5 9.6 19.1 17.4 25 36.6 46.6 49.6 54.5 47.4 46.5 24.4 -2.2 -2.2 -2.2 -2.2 -2.2 -2.2 -2.2 -2.2 -2.2 -2.2 -2.2 -2.2 -2.2 -2.2 -2.2 2.9 -2.2 -2.2 -2.2 -2.2 -2.2 -2.2 -2.2 -2.2 -2.2 15.5 -2.2 -2.2 -2.2 12.7 22.8 27 34 36.6 26.7 21 12.6 -2.2 -2.2 -2.2 -2.2 -2.2 -2.2 -2.2 -2.2 -2.2 -2.2 12.2 16.4 30.9 28.3 40.6 45.6 34.2 27 30.2 30 30.6 33.7 35.6 34.4 35 35.3 23.8 10.3 20.3 -2.2 -2.2 -2.2 -2.2 -2.2 -2.2 -2.2 -2.2 -2.2 -2.2 -2.2 -2.2 -2.2 -2.2 -2.2 -2.2 -2.2 -2.2 -2.2 -2.2 -2.2 -2.2 -2.2 -2.2 -2.2 -2.2 -2.2 -2.2 -2.2 -2.2 -2.2 -2.2 -2.2 -2.2 -2.2 -2.2 -2.2 -2.2 -2.2 -2.2 -2.2 -2.2 -2.2 -2.2 -2.2 -2.2 -2.2 -2.2 -2.2 -2.2 -2.2 -2.2 -2.2 -2.2 -2.2 -2.2 -2.2 -2.2 -2.2 -2.2 -2.2 -2.2 -2.2 -2.2 -2.2 -2.2 -2.2 -2.2 -2.2 -2.2 -2.2 -2.2 -2.2 -2.2 -2.2 -2.2 -2.2 -2.2 -2.2 -2.2 -2.2 -2.2 -2.2
41.8 43.6 49.2 58.5 63.7 68.8 71.8 73.3 80.4 65.5 70.6 65.5 71.1 70.3 56.1 57.8 65.3 56.6 58.6 67 56.4 17.8 13.7 9.4 -2.2 -2.2 -2.2 -2.2 -2.2 -2.2 8.4 12.3 -2.2 -2.2 -2.2 -2.2 -2.2 -2.2 -2.2 1.8 9.3 16.3 15.8 23.1 40.2 35.4 43.3 47 47.9 57.1 26.7 -2.2 -2.2 -2.2 -2.2 -2.2 -2.2 -2.2 -2.2 -2.2 -2.2 -2.2 -2.2 -2.2 -2.2 -2.2 10.3 14.1 13.2 9.1 21.9 25.4 -2.2 -2.2 -2.2 -2.2 -2.2 -2.2 -2.2 -2.2 12 11.8 26.7 39.3 32.7 30.9 30.2 18 -2.2 -2.2 -2.2 -2.2 -2.2 -2.2 -2.2 -2.2 -2.2 -2.2 14.9 17.3 23.3 24.6 28.4 37 27 28.4 27 27 36.3 30.9 28.9 35.3 38.8 36.9 29.3 7.2 13.3 -2.2 -2.2 -2.2 -2.2 -2.2 -2.2 -2.2 -2.2 -2.2 -2.2 -2.2 -2.2 -2.2 -2.2 -2.2 -2.2 -2.2 -2.2 -2.2 -2.2 -2.2 -2.2 -2.2 -2.2 -2.2 -2.2 -2.2 -2.2 -2.2 -2.2 -2.2 -2.2 -2.2 -2.2 -2.2 -2.2 -2.2 -2.2 -2.2 -2.2 -2.2 -2.2 -2.2 -2.2 -2.2 -2.2 -2.2 -2.2 -2.2 -2.2 -2.2 -2.2 -2.2 -2.2 -2.2 -2.2 -2.2 -2.2 -2.2 -2.2 -2.2 -2.2 -2.2 -2.2 -2.2 -2.2 -2.2 -2.2 -2.2 -2.2 -2.2 -2.2 -2.2 -2.2 -2.2 -2.2 -2.2 -2.2 -2.2 -2.2 -2.2 -2.2 -2.2
42.1 43.9 45.6 51.8 61.5 70.1 74.4 72.5 70.6 63.1 69.9 77.9 67.9 64.3 65.3 56.6 57.2 56.6 55.5 60.7 62.3 34.5 15 9.2 -2.2 -2.2 -2.2 -2.2 -2.2 -2.2 9.3 8 7.8 -2.2 -2.2 -2.2 -2.2 -2.2 -2.2 4.5 13.3 20.9 19.1 24.1 29.5 33.6 43.3 45.2 45.7 47.1 30.5 4.7 -2.2 -2.2 -2.2 -2.2 -2.2 -2.2 -2.2 -2.2 -2.2 -2.2 -2.2 -2.2 -2.2 7.1 10.7 21.8 19.4 21 17.4 19.2 20 -2.2 -2.2 -2.2 -2.2 -2.2 -2.2 -2.2 6.1 10.4 21.9 35.2 34.1 34.8 29.3 25.7 16.6 -2.2 -2.2 -2.2 -2.2 -2.2 -2.2 -2.2 16.8 5 20.8 23.2 26.4 28.8 27.8 27.8 28.8 30 30.4 33.5 38.8 27.3 26.8 33.7 41.6 33.9 28.6 9.6 8.1 -2.2 -2.2 -2.2 -2.2 -2.2 -2.2 -2.2 -2.2 -2.2 -2.2 -2.2 -2.2 -2.2 -2.2 -2.2 -2.2 -2.2 -2.2 -2.2 -2.2 -2.2 -2.2 -2.2 -2.2 -2.2 -2.2 -2.2 -2.2 -2.2 -2.2 -2.2 -2.2 -2.2 -2.2 -2.2 -2.2 -2.2 -2.2 -2.2 -2.2 -2.2 -2.2 -2.2 -2.2 -2.2 -2.2 -2.2 -2.2 -2.2 -2.2 -2.2 -2.2 -2.2 -2.2 -2.2 -2.2 -2.2 -2.2 -2.2 -2.2 -2.2 -2.2 -2.2 -2.2 -2.2 -2.2 -2.2 -2.2 -2.2 -2.2 -2.2 -2.2 -2.2 -2.2 -2.2 -2.2 -2.2 -2.2 -2.2 -2.2 -2.2 -2.2 -2.2
40.6 41.2 43.2 47.4 53.4 60.6 63 68 65.7 64.2 75.8 80.7 81 76.8 66.7 56.8 56.6 56.6 56.6 55.5 58.2 54.3 24.9 1.8 -2.2 -2.2 -2.2 -2.2 -2.2 -2.2 8.4 7.3 2.4 -2.2 -2.2 -2.2 -2.2 -2.2 -2.2 7 16.7 22.4 16.3 15.4 16.7 21.7 32.5 42 43.9 43.1 30.6 -2.2 -2.2 -2.2 -2.2 -2.2 -2.2 -2.2 -2.2 -2.2 -2.2 -2.2 -2.2 -2.2 -2.2 -2.2 19.1 27.9 23.5 19 22.3 19.5 33.2 21.3 -2.2 -2.2 -2.2 -2.2 -2.2 -2.2 -2.2 1.6 20.2 31.4 44.8 39.3 34.5 30.5 17.5 15.5 -2.2 -2.2 -2.2 -2.2 -2.2 -2.2 -2.2 -2.2 24.9 28.1 30.4 33.7 30.4 28.7 34.2 31.5 27.7 28.5 29.6 28.7 27.2 33.2 41.4 38.1 24.6 22.1 -2.2 -2.2 -2.2 9 -2.2 -2.2 -2.2 -2.2 -2.2 -2.2 -2.2 -2.2 -2.2 -2.2 -2.2 -2.2 -2.2 -2.2 -2.2 -2.2 -2.2 -2.2 -2.2 -2.2 -2.2 -2.2 -2.2 -2.2 -2.2 -2.2 -2.2 -2.2 -2.2 -2.2 -2.2 -2.2 -2.2 -2.2 -2.2 -2.2 -2.2 -2.2 -2.2 -2.2 -2.2 -2.2 -2.2 -2.2 -2.2 -2.2 -2.2 -2.2 -2.2 -2.2 -2.2 -2.2 -2.2 -2.2 -2.2 -2.2 -2.2 -2.2 -2.2 -2.2 -2.2 -2.2 -2.2 -2.2 -2.2 -2.2 -2.2 -2.2 -2.2 -2.2 -2.2 -2.2 -2.2 -2.2 -2.2 -2.2 -2.2 -2.2 -2.2 -2.2
38.1 41.2 43.1 44.3 46 50.3 54 54.5 59.2 63.2 70.5 76.9 80.4 83 63.6 58 58.3 56.6 56.6 55.7 55.5 58.2 47.8 9 -2.2 -2.2 -2.2 -2.2 -2.2 -2.2 -2.2 8.8 -2.2 -2.2 -2.2 -2.2 -2.2 -2.2 -2.2 7.2 8 16.5 14.4 12.6 18.2 22.1 30.3 36.8 40.5 38.4 34.1 7.5 -2.2 -2.2 -2.2 -2.2 -2.2 -2.2 -2.2 -2.2 -2.2 -2.2 -2.2 -2.2 -2.2 -2.2 13.9 18.1 18.6 19.9 17.9 32.8 31.3 36 23.9 -2.2 -2.2 -2.2 -2.2 -2.2 -2.2 -2.2 15.5 21.9 34.2 36.2 31.5 28.9 12.8 18 -2.2 -2.2 -2.2 -2.2 -2.2 -2.2 -2.2 -2.2 -2.2 23.1 27.6 30.4 29.2 29.8 30.6 32.9 27 27 32.1 33.5 26 28.2 26.4 30.6 30 21.2 -2.2 -2.2 13.6 22.9 12.9 -2.2 -2.2 -2.2 -2.2 -2.2 -2.2 -2.2 -2.2 -2.2 -2.2 -2.2 -2.2 -2.2 -2.2 -2.2 -2.2 -2.2 -2.2 -2.2 -2.2 -2.2 -2.2 -2.2 -2.2 -2.2 -2.2 -2.2 -2.2 -2.2 -2.2 -2.2 -2.2 -2.2 -2.2 -2.2 -2.2 -2.2 -2.2 -2.2 -2.2 -2.2 -2.2 -2.2 -2.2 -2.2 -2.2 -2.2 -2.2 -2.2 -2.2 -2.2 -2.2 -2.2 -2.2 -2.2 -2.2 -2.2 -2.2 -2.2 -2.2 -2.2 -2.2 -2.2 -2.2 -2.2 -2.2 -2.2 -2.2 -2.2 -2.2 -2.2 -2.2 -2.2 -2.2 -2.2 -2.2 -2.2 -2.2 -2.2
34.1 40.9 43.3 46.8 46.8 49.2 51.6 50.7 55 63.6 68.1 76.3 76.2 76.7 77.1 54.9 47.9 53 57.8 56.5 57.9 57.2 49.6 16.2 14 -2.2 -2.2 -2.2 -2.2 -2.2 -2.2 7.7 8.2 -2.2 -2.2 -2.2 -2.2 -2.2 -2.2 9.6 6.3 8.2 8.3 7.5 12.4 15.4 29.5 35.8 33.3 37.3 26.5 1.8 -2.2 -2.2 -2.2 -2.2 -2.2 -2.2 -2.2 -2.2 -2.2 -2.2 -2.2 -2.2 -2.2 -2.2 -2.2 5.2 18.3 17.3 17.2 24.6 22.8 39 36.1 -2.2 -2.2 -2.2 -2.2 -2.2 -2.2 -2.2 -2.2 13.1 20.6 25.8 27 20.6 9.3 4.4 -2.2 -2.2 -2.2 -2.2 -2.2 -2.2 -2.2 -2.2 -2.2 14.2 17.8 24.5 29.4 31.8 34.1 26.3 27 27 30.2 31.9 19.3 22.1 25.9 28 28.3 21.4 -2.2 -2.2 -2.2 15 3.4 -2.2 -2.2 -2.2 -2.2 -2.2 -2.2 -2.2 -2.2 -2.2 -2.2 -2.2 -2.2 -2.2 -2.2 -2.2 -2.2 -2.2 -2.2 -2.2 -2.2 -2.2 -2.2 -2.2 -2.2 -2.2 -2.2 -2.2 -2.2 -2.2 -2.2 -2.2 -2.2 -2.2 -2.2 -2.2 -2.2 -2.2 -2.2 -2.2 -2.2 -2.2 -2.2 -2.2 -2.2 -2.2 -2.2 -2.2 -2.2 -2.2 -2.2 -2.2 -2.2 -2.2 -2.2 -2.2 -2.2 -2.2 -2.2 -2.2 -2.2 -2.2 -2.2 -2.2 -2.2 -2.2 -2.2 -2.2 -2.2 -2.2 -2.2 -2.2 -2.2 -2.2 -2.2 -2.2 -2.2 -2.2 -2.2 -2.2
33.7 36.2 37.4 42.3 42 44 48.5 49.2 55.9 62.3 72.4 80.6 77.5 76.9 72.4 65.3 50.1 43.2 51.3 54.3 59.6 59.3 54.1 23.7 -2.2 -2.2 -2.2 -2.2 -2.2 -2.2 -2.2 6.8 10 -2.2 -2.2 -2.2 -2.2 -2.2 -2.2 -2.2 5.9 17 9.7 8.3 7.5 16.5 22.3 22.5 25.9 29.3 21.2 -2.2 -2.2 -2.2 -2.2 -2.2 -2.2 -2.2 -2.2 -2.2 -2.2 -2.2 -2.2 -2.2 -2.2 -2.2 -2.2 -2.2 19.8 17.7 22.9 29.3 24.7 20.2 30.1 11.7 -2.2 -2.2 -2.2 -2.2 -2.2 -2.2 -2.2 -2.2 12.6 10.3 11.6 -2.2 -2.2 -2.2 -2.2 -2.2 -2.2 -2.2 -2.2 -2.2 -2.2 -2.2 -2.2 -2.2 9.1 22.4 26.4 28.2 27.2 29.9 31 29.7 27 27.6 28.3 15.7 23.2 24.7 25.9 19.2 -2.2 -2.2 -2.2 5.2 -2.2 -2.2 -2.2 -2.2 -2.2 -2.2 -2.2 -2.2 -2.2 -2.2 -2.2 -2.2 -2.2 -2.2 -2.2 -2.2 -2.2 -2.2 -2.2 -2.2 -2.2 -2.2 -2.2 -2.2 -2.2 -2.2 -2.2 -2.2 -2.2 -2.2 -2.2 -2.2 -2.2 -2.2 -2.2 -2.2 -2.2 -2.2 -2.2 -2.2 -2.2 -2.2 -2.2 -2.2 -2.2 -2.2 -2.2 -2.2 -2.2 -2.2 -2.2 -2.2 -2.2 -2.2 -2.2 -2.2 -2.2 -2.2 -2.2 -2.2 -2.2 -2.2 -2.2 -2.2 -2.2 -2.2 -2.2 -2.2 -2.2 -2.2 -2.2 -2.2 -2.2 -2.2 -2.2 -2.2 -2.2 -2.2 -2.2 -2.2
31.8 33.7 37.2 40.3 39.6 39.6 43.6 46.9 54.3 61.5 72.2 78.8 78.4 76.5 78.2 68.1 47.6 42.7 42.7 48.9 47.6 54.3 53.8 29.9 9.7 -2.2 -2.2 -2.2 -2.2 -2.2 11.5 8.7 10.8 -2.2 -2.2 -2.2 -2.2 -2.2 -2.2 -2.2 -2.2 21.1 15.7 14.2 7.5 16.3 21.7 29.8 25.9 21.3 -2.2 -2.2 -2.2 -2.2 -2.2 -2.2 -2.2 -2.2 -2.2 -2.2 -2.2 -2.2 -2.2 -2.2 -2.2 -2.2 -2.2 -2.2 9.7 11.1 24.6 30.6 29.2 25.5 9.8 9.1 -2.2 12.7 -2.2 -2.2 -2.2 -2.2 -2.2 -2.2 11.6 9.3 -2.2 -2.2 -2.2 -2.2 -2.2 -2.2 -2.2 -2.2 -2.2 -2.2 -2.2 -2.2 -2.2 -2.2 -2.2 18.1 26.4 31 31.8 31.4 34.2 35.6 29.7 27.9 25.1 16.3 19.1 19.9 10.5 1.2 -2.2 -2.2 -2.2 -2.2 -2.2 -2.2 -2.2 -2.2 -2.2 -2.2 -2.2 -2.2 -2.2 -2.2 -2.2 -2.2 -2.2 -2.2 -2.2 -2.2 -2.2 -2.2 -2.2 -2.2 -2.2 -2.2 -2.2 -2.2 -2.2 -2.2 -2.2 -2.2 -2.2 -2.2 -2.2 -2.2 -2.2 -2.2 -2.2 -2.2 -2.2 -2.2 -2.2 -2.2 -2.2 -2.2 -2.2 -2.2 -2.2 -2.2 -2.2 -2.2 -2.2 -2.2 -2.2 -2.2 -2.2 -2.2 -2.2 -2.2 -2.2 -2.2 -2.2 -2.2 -2.2 -2.2 -2.2 -2.2 -2.2 -2.2 -2.2 -2.2 -2.2 -2.2 -2.2 -2.2 -2.2 -2.2 -2.2 -2.2 -2.2 -2.2 -2.2 -2.2
32.6 36.2 37.7 38.2 42.8 43.5 46.2 52.5 54.7 61.1 72.3 75.8 76 77.5 75 71.8 62.1 49.9 48.3 40.4 40.5 41.9 41.2 28 13 12.3 -2.2 -2.2 -2.2 -2.2 4.4 13.8 -2.2 -2.2 -2.2 -2.2 -2.2 -2.2 -2.2 -2.2 -2.2 10.9 14.6 12.9 8 15.9 18.7 22.9 24.2 17 -2.2 -2.2 -2.2 -2.2 -2.2 -2.2 -2.2 -2.2 -2.2 -2.2 -2.2 -2.2 -2.2 -2.2 -2.2 -2.2 -2.2 -2.2 -2.2 6 24.4 29.1 35.3 17.8 6.2 2.7 -2.2 10.3 14.5 -2.2 -2.2 -2.2 -2.2 -2.2 6.1 1 -2.2 -2.2 -2.2 -2.2 -2.2 -2.2 -2.2 -2.2 -2.2 -2.2 -2.2 -2.2 -2.2 -2.2 -2.2 17.9 25.5 29.9 31.5 32.4 35.2 35.9 34.2 30.2 14.5 7.7 13.1 17.2 8.5 -2.2 -2.2 -2.2 -2.2 -2.2 -2.2 -2.2 -2.2 -2.2 -2.2 -2.2 -2.2 -2.2 -2.2 -2.2 -2.2 -2.2 -2.2 -2.2 -2.2 -2.2 -2.2 -2.2 -2.2 -2.2 -2.2 -2.2 -2.2 -2.2 -2.2 -2.2 -2.2 -2.2 -2.2 -2.2 -2.2 -2.2 -2.2 -2.2 -2.2 -2.2 -2.2 -2.2 -2.2 -2.2 -2.2 -2.2 -2.2 -2.2 -2.2 -2.2 -2.2 -2.2 -2.2 -2.2 -2.2 -2.2 -2.2 -2.2 -2.2 -2.2 -2.2 -2.2 -2.2 -2.2 -2.2 -2.2 -2.2 -2.2 -2.2 -2.2 -2.2 -2.2 -2.2 -2.2 -2.2 -2.2 -2.2 -2.2 -2.2 -2.2 -2.2 -2.2 -2.2 -2.2
32.3 34.9 40.2 41.4 42.9 43.3 45.9 52.4 57.8 59 65.3 70 74.2 76.7 77 73.2 68.6 60.9 54.4 57.9 31.6 33.9 30.5 16.2 9.4 17.7 27.7 -2.2 -2.2 -2.2 -0.8 0.3 -2.2 -2.2 -2.2 -2.2 -2.2 -2.2 -2.2 -2.2 -2.2 14 20 17.3 8.8 12.9 20.1 20.5 22.7 -2.2 -2.2 -2.2 -2.2 -2.2 -2.2 -2.2 -2.2 -2.2 -2.2 -2.2 -2.2 -2.2 -2.2 -2.2 -2.2 -2.2 -2.2 -2.2 -2.2 6.1 20 26.6 29.6 25 19.8 1.6 1.6 6.9 10.6 12.9 -2.2 -2.2 -2.2 -2.2 -2.2 -2.2 -2.2 -2.2 -2.2 -2.2 -2.2 -2.2 -2.2 -2.2 -2.2 -2.2 -2.2 -2.2 -2.2 -2.2 2.6 2.8 14.5 20.3 28.3 34.9 37.7 39.7 30.2 25.5 17.7 3.5 1.8 -2.2 -2.2 -2.2 -2.2 -2.2 -2.2 -2.2 -2.2 -2.2 -2.2 -2.2 -2.2 -2.2 -2.2 -2.2 -2.2 -2.2 -2.2 -2.2 -2.2 -2.2 -2.2 -2.2 -2.2 -2.2 -2.2 -2.2 -2.2 -2.2 -2.2 -2.2 -2.2 -2.2 -2.2 -2.2 -2.2 -2.2 -2.2 -2.2 -2.2 -2.2 -2.2 -2.2 -2.2 -2.2 -2.2 -2.2 -2.2 -2.2 -2.2 -2.2 -2.2 -2.2 -2.2 -2.2 -2.2 -2.2 -2.2 -2.2 -2.2 -2.2 -2.2 -2.2 -2.2 -2.2 -2.2 -2.2 -2.2 -2.2 -2.2 -2.2 -2.2 -2.2 -2.2 -2.2 -2.2 -2.2 -2.2 -2.2 -2.2 -2.2 -2.2 -2.2 -2.2 -2.2 -2.2 -2.2
32 39.1 46.6 47.7 50.7 48.4 51.8 54.7 59.5 68 62 62.8 70.1 73.6 77.7 74.7 73.2 65.7 55.8 57.5 49.8 23.3 23 20.7 19.3 9.8 26.4 21.9 -2.2 -2.2 -2.2 -2.2 -2.2 -2.2 -2.2 -2.2 -2.2 -2.2 -2.2 -2.2 6.6 12.6 13.6 16.1 6.2 5.7 15 16.5 19.6 -2.2 -2.2 -2.2 -2.2 -2.2 -2.2 -2.2 -2.2 -2.2 -2.2 -2.2 -2.2 -2.2 -2.2 -2.2 -2.2 -2.2 -2.2 -2.2 -2.2 10.7 16 20.1 28.3 26.5 23.3 11.9 1.5 7.5 9.9 12.7 14.8 7.9 -2.2 -2.2 -2.2 -2.2 -2.2 -2.2 -2.2 -2.2 -2.2 -2.2 -2.2 -2.2 -2.2 -2.2 -2.2 -2.2 -2.2 -2.2 3.2 3.4 2.3 13.9 27.6 36.5 37.4 35.8 30.8 22.9 12.1 9.2 0.9 -2.2 -2.2 -2.2 -2.2 -2.2 -2.2 -2.2 -2.2 -2.2 -2.2 -2.2 -2.2 -2.2 -2.2 -2.2 -2.2 -2.2 -2.2 -2.2 -2.2 -2.2 -2.2 -2.2 -2.2 -2.2 -2.2 -2.2 -2.2 -2.2 -2.2 -2.2 -2.2 -2.2 -2.2 -2.2 -2.2 -2.2 -2.2 -2.2 -2.2 -2.2 -2.2 -2.2 -2.2 -2.2 -2.2 -2.2 -2.2 -2.2 -2.2 -2.2 -2.2 -2.2 -2.2 -2.2 -2.2 -2.2 -2.2 -2.2 -2.2 -2.2 -2.2 -2.2 -2.2 -2.2 -2.2 -2.2 -2.2 -2.2 -2.2 -2.2 -2.2 -2.2 -2.2 -2.2 -2.2 -2.2 -2.2 -2.2 -2.2 -2.2 -2.2 -2.2 -2.2 -2.2 -2.2 -2.2
26.5 34.5 40 43 47.5 52.1 52.7 56.2 57.5 61.1 61.7 61.7 70.9 75.4 75.5 76 74.7 69.5 60 52.6 54.5 35.1 17.9 21.9 16.7 10.7 24.1 21.4 -2.2 -2.2 -2.2 -2.2 -2.2 -2.2 -2.2 -2.2 -2.2 -2.2 -2.2 -2.2 8.9 15.6 21.3 12.7 7.6 -2.2 -2.2 -2.2 11.8 -2.2 -2.2 -2.2 -2.2 -2.2 -2.2 -2.2 -2.2 -2.2 -2.2 -2.2 -2.2 -2.2 -2.2 -2.2 -2.2 -2.2 -2.2 -2.2 -2.2 -2.2 12.5 19.6 20.9 20.3 23.4 13.8 1.6 6.2 11.2 12.9 13.9 18 8.8 -2.2 -2.2 -2.2 -2.2 -2.2 -2.2 -2.2 -2.2 -2.2 -2.2 -2.2 -2.2 -2.2 -2.2 -2.2 -2.2 -2.2 -2.2 -2.2 -2.2 10.9 28.5 37 39.3 38.1 31.9 23.7 20.3 13.6 1.4 -2.2 -2.2 -2.2 -2.2 -2.2 -2.2 -2.2 -2.2 -2.2 -2.2 -2.2 -2.2 -2.2 -2.2 -2.2 -2.2 -2.2 -2.2 -2.2 -2.2 -2.2 -2.2 -2.2 -2.2 -2.2 -2.2 -2.2 -2.2 -2.2 -2.2 -2.2 -2.2 -2.2 -2.2 -2.2 -2.2 -2.2 -2.2 -2.2 -2.2 -2.2 -2.2 -2.2 -2.2 -2.2 -2.2 -2.2 -2.2 -2.2 -2.2 -2.2 -2.2 -2.2 -2.2 -2.2 -2.2 -2.2 -2.2 -2.2 -2.2 -2.2 -2.2 -2.2 -2.2 -2.2 -2.2 -2.2 -2.2 -2.2 -2.2 -2.2 -2.2 -2.2 -2.2 -2.2 -2.2 -2.2 -2.2 -2.2 -2.2 -2.2 -2.2 -2.2 -2.2 -2.2 -2.2 -2.2
