ncols 200
nrows 200
xllcorner 230000
yllcorner 880000
cellsize 50
385.3 395.6 402.3 407.2 412.3 411.5 411.3 412 413.1 417.5 420.9 414 406.2 401.1 399 395.7 393.3 387.1 382.2 378.4 377.5 377 375.1 372.3 372.9 377.4 376.3 372.8 373.8 377.7 386.3 398.6 417.7 443.1 473.2 505.7 532.6 554 553.1 552.3 545 532.6 517.7 505.2 494.1 485.1 478.7 473.3 469 466.1 466.7 466.6 468 477.4 482.7 483.6 481.5 481.2 480 477.1 471.6 465.5 456.8 451.8 444.6 449.6 452.7 456.4 457.5 458.5 468.2 470.9 466.4 466.1 469.7 468.9 473.8 481.9 491.1 499.5 506.5 512.3 521.8 530.2 532 531 525.3 517.2 508.1 499.3 493.6 487.4 481.5 473.6 468.5 465.1 465 465.2 465.8 464.3 463.4 464 468.4 478.3 486.2 499 518.2 537.7 557.7 598.8 638 659.5 676.9 693.1 704.6 717.2 727.2 731.9 729.4 721.9 712.1 702.9 690.6 675.9 659.1 641.3 620.6 601.8 589 575.7 564.1 555.7 550.6 545.2 544 543.2 540.3 537.6 539 544.1 552.6 559.5 568.2 578.8 590.8 600.7 609.2 615.3 620.2 622.5 625.7 630.5 632.1 633.1 632 631 627.4 621.1 613.5 605.3 599 592.4 585.7 577.7 571.1 567 562.8 562.7 562.3 562.9 564.1 565.1 567.6 572.5 575.1 574.3 566.3 535.9 493.7 433.2 408 383.3 360.4 336.5 319.9 303.7 293 283.1 273.2 269.4 269.2 270.5 278.9 279.9 280.5 281.1 283.4 291.6 297.4 307.9
375 386 394.1 398.5 403 402.8 404.3 408.1 410.8 416.9 416.2 410.4 403.3 396.7 394 388.8 386.9 383.9 381.4 379.5 377.7 376.8 375.4 372.8 375.1 380.7 378.2 376.2 380.4 386.2 394.6 406.8 425.9 453.7 488.9 516.7 536 545.7 545.6 541.6 534.4 524.3 515.1 505 492.1 484.7 478.3 472.6 469.4 468.2 468.8 471.2 477.3 486.3 491.8 490 488.3 485.9 483.3 480 473.6 466.4 457.7 450.7 450.7 454.8 459.5 462.3 464.6 469.2 475.7 481.6 481 477.9 474.8 477.8 481.4 489.2 500.2 508.5 515.9 520.7 526.6 531.2 532.6 530.9 524.7 516.1 509 500.8 496.4 490.8 484.4 475.3 470.4 468.3 467.3 469.2 470.4 470.6 470.1 468.3 466.1 473.5 483.4 497.2 511.8 531.2 552.3 591.8 632.6 657.1 674.6 688.1 699.2 712.6 722.7 728.2 727.3 721 711.2 702.9 693.3 681.8 668.9 654.3 632.8 613 602.8 587.5 575.6 563.5 558.9 556.9 550.5 552.7 548.5 545.8 548 556.5 565.5 575.3 586.9 599.2 610.5 619.8 628.9 636 641.4 647.3 651.4 654 655.8 656.7 653.4 650.1 647.3 642.3 635.2 626.2 619.9 615.1 607.7 600.2 591.6 588 586.3 587.4 588.7 589.9 591.6 594.7 597.5 600.4 601.4 600.7 593.2 564.1 506.3 461.6 429.6 408.5 385.5 361.8 343.7 333.1 323.4 308.8 290.8 273.2 268.5 268.2 273.2 277.8 279 279 279.1 283.8 290.1 296.5
364.3 373.1 382.6 388.6 395.4 398 400.9 404.2 412.2 412.7 411.4 402.3 394 387.6 384.1 385.4 385.1 383.4 381.6 379.4 377.6 376.5 375.1 373.3 374.8 384.5 381.9 381.1 384.9 391.4 404 418.4 435.4 466.3 493.4 520.3 532.6 539.9 537.6 532.7 526.1 517.2 509.6 500.2 490.9 483.7 479.1 474.3 472.8 472 473.4 479.3 488 496 500.2 497.1 494.9 490.1 487.4 481.8 474.7 465.6 457.7 452.5 451.2 455.5 462.7 468.7 473.3 484.4 492.9 495.8 495 491.9 485.5 487.2 493.3 502 510.1 516.4 522 527.2 531 533.5 533.1 530.9 523.8 515 507.5 500.7 497.6 492 485 477.3 474 471.3 470 472.1 474.8 477.8 474.3 472.5 465.8 473 475.8 489.5 504.7 522.8 545.2 586.3 625.8 650.6 668 681 693.9 707.3 718.3 725.4 727.1 722.3 718.1 711.7 704.1 695.2 682.3 666.5 649.4 628.1 612.1 597.4 587.2 576.3 569.5 566 565.3 562.4 558.6 556.8 561.8 572.4 584.4 596.6 608.5 620.7 631.3 640.5 651.3 656.8 662.4 667.3 671.2 674.3 675.2 674.9 675.6 672.8 668.8 662.7 656.2 648.8 642.6 635.4 628.6 622 613.8 606.6 612.8 614.3 616.9 619.3 622 624.1 627 628.6 628.3 625.8 620.3 603.4 579.5 538.6 488 443 418.2 397.5 382.5 369.6 354.8 335.9 314.9 294.6 281.3 269.5 267.2 269.7 273.6 276.5 276.8 277.6 280.7 287.9
353.6 361.9 368.2 374.2 383.9 385.6 390.9 397.1 402.2 402.9 397.7 395 391.8 385.6 383.5 384.3 384.1 382.2 381 379.6 377.9 376.7 374.7 374.8 381.1 385.8 384.3 384.2 389.4 396.6 411.6 429.7 449.9 474.4 500 519.2 529.1 533 529.2 523.6 516.9 510.1 503.8 496.6 489.6 484.4 481.2 479.7 477.4 477.6 481.6 489.9 497.7 505.3 506.5 503.7 498.9 494.9 490.4 483.7 473 462.4 456.1 451.6 454.3 460 469.3 476.2 485.3 496.3 505.1 506.8 505.9 503.7 498.7 496.2 504.9 513.7 520.6 527 529.8 533 534.5 536.2 534.4 531 525.9 516.9 509.6 502.6 499.6 490.4 487 481.7 477.8 477.7 474.5 474.7 477.4 478.3 478.7 479.1 468.5 466 472.1 481.1 499.4 516.1 540.6 571.8 608 639.6 657.2 672.1 686.5 701.7 714.3 724.3 729.6 728.5 726.5 722.3 715.6 707.4 696.7 679.7 664.8 644 627.5 610.2 597.3 586.5 581 574.9 569.3 568.3 568.7 572.8 580.5 592.9 606.3 618.3 630.7 642.1 651.1 661 668.1 672.9 677.8 682.6 685.8 688.4 688.5 688.4 687.9 685.6 681.4 675.2 668.2 661.2 655.6 650 643.9 638.7 633.7 634.8 639.2 642.1 644.5 646.8 649.3 651.3 654.1 654.4 653.1 651.1 645 634.7 613.1 590 550.2 497.5 475.3 450.6 423.9 405.9 387 365.9 341 319.1 294.5 277.1 266 265.1 266.7 271.3 276 275.3 275.4 276
342.6 352.6 358.1 363.2 372.6 375.9 382.5 391.9 394.3 394.6 391.6 391.1 384.1 384.1 383 382.3 382.3 381.4 380.5 380.4 378.7 378.2 378.3 378.4 381.7 389.8 389.1 388.2 392.5 402.6 417.1 436.8 459.1 482.1 507.8 518.7 526.2 525.7 521 516.2 510.5 504.9 500 494.7 490.8 486.6 483.9 482.3 481.9 483 487.2 495.1 507.1 511.7 511.7 508.2 502.6 497.1 491.3 483.9 471.3 461.1 456.4 453.4 458.1 464.4 474.6 483 495.7 505.1 515.7 518.7 521.6 517.6 513.9 514.2 518.7 527.2 532.3 536.3 538.7 538.5 539.6 538.8 536.3 531.7 526.1 520.1 512.3 507.4 499.4 496.3 490.3 485.4 484.6 485.5 480.6 480.2 478.9 480.2 478.5 476.8 471 468.1 471.1 476 492.3 508.8 529.9 555.8 590.3 623.7 644.2 660.6 677.3 695 712.3 723.8 731.6 733.9 734 731.6 725.9 718.7 708.1 693.7 677.6 660.1 641.4 622.8 609 600.7 590.9 583.5 578.7 579.4 582.8 590.8 603.7 616.6 630.6 642.6 653.5 660.9 670.3 677.5 681.6 684.3 686.8 690.2 694 695.5 695.3 694.1 692.1 687.8 681.7 676.3 670.2 665.4 661.6 656.5 651.3 646.3 641.5 645.5 650.6 653.9 657.5 662 664.7 666 666.1 668 668.5 667.7 665.4 661.5 645 623.6 595 543.8 546.4 508.1 468.8 441.6 417.1 391.5 363.8 336.4 313.6 296 278.8 264.2 264.2 265.8 270.5 277.4 279.3 275
333 340.5 346.8 354.9 362.2 369.5 378.1 383.1 385.9 389.4 390.2 384.8 382.6 384.5 381.7 381.2 380.6 380.1 380.9 380.4 380.2 379.8 380.1 380.4 382.9 391.5 390.9 391.8 396.5 407.5 423.8 441.5 463.7 487.5 508.2 518.6 522.9 520 515.6 510.7 506.1 502.7 498.6 495.3 491.6 489.8 488.1 486.8 485.4 485.8 492.2 504.2 511 514.9 513.5 509.6 505.3 500 493.1 482.9 470.8 462.1 458.5 454.2 461 466.8 480.2 491.8 501.3 513.4 527.2 533.9 537.3 536.1 533.1 532.6 536.3 541.6 545.8 547 548.4 547.4 544.6 542.6 538 531.9 525.2 520.2 514.5 510.5 501.6 501.2 494.3 491 492.2 491.6 486.9 485.3 484.4 483.8 478 476.2 472.9 468.6 470 473.2 484.5 500.8 519.1 539.7 570.9 606 630.3 649.1 668.4 688 710.5 725.8 735.1 741.4 743.2 742.2 736.1 727.9 716.2 706.2 690.2 673.2 655 636.6 622.3 611.9 603.9 598 596.2 598 604.6 614.9 627 639.2 652.7 664 670.6 677 682.3 686.2 688.2 689.7 690.4 691.5 693.2 694.3 693.7 692.1 687.7 682.4 676.7 671.6 666.5 663.2 660.8 657.7 653.4 648.6 644.5 648.2 655.4 660.2 665 669.1 670.8 671.2 670.9 671.1 671.3 671.4 671.4 670.4 668.2 659.9 628.8 599.7 586.2 542.6 510.6 476 446.8 418.6 394.8 360 335.3 307.6 287.5 274.1 261.4 265.9 266.7 271.6 275.8 277.9
322.4 331.3 339.4 346.5 354.9 360.7 369.9 372.4 380.5 384.7 385.6 380.5 389.3 387.5 381 379.3 378.1 379.4 380.1 380.1 379.5 379.8 380.5 381.5 383 390.3 391.4 394.7 401.1 413.7 428 448.3 467.8 491.6 511.3 516.9 518.3 516.6 511.9 507.3 503.9 502.3 499.4 495.6 493.8 493 492.6 490.7 487.4 488.4 497.9 512.7 516.8 517.9 515.4 512.8 508.4 502.3 493.2 481.2 471 461.7 459.9 458.1 459.5 469.9 485.5 499.2 512.2 526.3 540.1 549.9 554 554.9 553.7 554.7 554.9 556.5 559.4 559.3 555.8 552.4 549.2 545.5 539.8 532.6 523.4 520.2 517.6 508.9 509.8 506.3 497.9 497.3 499.1 497.5 494.7 490.5 487.7 484.7 483.6 480.8 472.4 468.4 470 471.7 480.8 494.7 507.9 526.1 553.8 586.6 613.6 641.4 666.8 686.9 712.5 730.7 740 747.5 750.3 749.1 744.2 733.5 726.2 717.2 700.5 683 665.1 648.7 637 627.5 620.5 617.7 619.3 623.7 630.2 638.7 649.8 661.2 670.4 677 681.3 685 687.6 688.9 688.9 688 687.4 687.4 687.6 687.1 686.4 683.9 679.1 673.4 667.8 662.3 657.5 654.9 653.3 652.7 651.4 648.9 645.2 646.6 653.9 660.6 665.6 668.7 669.8 670.4 670.6 670.5 670.9 671 671.5 672.5 671.8 669.9 664.1 638.1 605.9 574.9 542.3 505 474.2 451 415 389.2 355.6 323.5 299.4 281.5 263.3 260.1 264.6 264.7 269.8 273.8
312.7 318.8 325.5 336.9 343.1 348 353.6 358.6 371.2 377.3 376.3 379.6 391.5 385.6 379.7 377.5 376.9 378.8 378.6 378 379.2 379.6 380.6 381 383.1 389.6 391.6 397 405.5 417.4 431.5 451.8 471.5 496.3 510 513.6 515.4 513.8 508.8 505.9 503.7 502.3 499.9 499 497.4 497.7 497.7 496.3 497.4 501.3 510.1 518.9 522.8 520.9 518.5 514.9 509.4 502.9 493.1 480.9 472.9 463.3 462.9 463 461.8 475.7 491.9 505.6 520 534.7 552.2 563.7 571.2 574.3 574.7 572.5 573.4 574.9 572.7 567.7 562.6 557.2 552.4 546.4 540 532.3 523.8 520.9 513.8 517.3 513.6 509.4 505.9 506.2 505.5 500.6 498.8 494 489.7 486.9 485.2 480.1 473.5 468.8 470.2 472.5 477.2 488.5 500.2 512.5 536.6 565.7 601.3 636.9 665.5 692 718.9 736.5 746.9 755 759.5 759.7 756.6 750.6 741.4 729.3 716.8 697.9 680 666.3 653 648 645.2 645.2 648 654 657.4 663.4 672.6 677.9 682.2 685.4 687.6 687.2 686.8 687 686.3 683.7 681.1 679.4 678.3 676.2 674.1 670.2 666.1 662.3 656.7 650.9 647.9 644.1 642 642.3 643.6 643.2 641.5 641.5 647.1 654 660.5 664.2 666 667.4 667.7 667 666.5 667.1 668.3 667.9 667.4 664.1 659.7 652.3 639.4 601.1 562.6 528.3 507.2 480.2 447.1 414.4 380.5 340.3 310.8 283 270.4 259.4 258.3 257 257.5 263.9
305.1 307.4 317.4 326.7 336.3 342.1 346.7 356.5 361.2 372 371.9 379 387.1 383.7 378.5 375.6 375.2 376 376.3 377.4 378.9 379.3 379.6 380.6 381.1 387.9 392.6 398.2 407 419.5 435.1 455.3 475.4 496.5 507.2 511.9 513.1 510.2 507.7 505.9 502.6 503.1 502.8 502.6 502.2 503.5 504.3 507.4 511 515.6 520.8 525 526.6 525.6 523.9 518.3 511.2 503.8 494.1 482.2 475 468 466.6 462.4 466.3 479 496.9 512.6 528.4 544.4 561.9 575.3 584.8 592.5 593.6 592.4 592 588.2 583.7 574.5 567.4 561.2 554.2 546.1 538.4 532.2 524.7 516.6 521.7 520.6 517.5 515.4 510.1 513.6 511 503.4 498.3 498.3 492.4 487.4 487.1 482.9 474.4 470.5 470.3 472.2 475.4 487.9 493.4 507.2 524 552.1 586.6 628.3 663.8 697.4 725.5 742.9 754.4 765.4 770.9 771.6 769.5 762.7 753.7 745.3 733.1 717 701.6 687.6 678.7 674.8 674.8 676.1 677.9 677.8 682.3 684.3 686.8 687.9 689.8 691.4 690 686.9 685 683.7 680.6 676.3 671.3 667.6 664.4 661.5 658.7 654.8 651.1 648.2 644.7 640.8 637.4 634.7 633.5 632.1 632.2 633.3 632.2 632.4 637.4 645.3 652.2 657 660.4 660.6 659.9 659 658.5 658 658 657.7 655.9 651.9 648 642.5 638.3 624.3 589.3 564.6 533.5 504 478.7 438.3 392.6 354.9 319.9 292.1 277.9 267.6 259.9 256.2 255.9 257.4
298.3 305 311 323.3 328.3 334.1 341.6 352.5 372.6 370.2 373.7 381.8 383.2 379.9 374.9 374.3 371.8 370.2 372 375.2 376.9 379.2 380 380.9 382.5 388.4 395.7 400.2 407.5 419.6 442.3 459.8 478.4 499.2 505.9 508.7 509.4 507 506.5 505.2 505 504.5 505.3 506.1 507.4 509.5 511.7 516.3 520.2 525.1 527.9 529.5 530.8 530 527.1 521.9 514.5 505.9 495.3 484.3 477 471 468.5 466.8 472.6 484 502.2 519.2 535.5 554.3 569.7 582.3 594.9 606.5 613 612 608 601.2 591.9 581 571.7 564.3 556.3 546.7 538.5 533 525 523.3 523.7 523.6 522 520.2 517.1 519.9 513.8 501.8 498.7 497.3 492.8 488.6 486.2 483.6 477.3 473.3 475.9 471.8 482.2 483.7 490.7 501.8 515.5 540.6 576.3 628 669.3 703 732.1 753.5 765.7 774.4 777.7 779.9 779 774.9 767.5 756.6 747.5 735.8 720.5 710.4 703 702.7 698.7 696.7 697.1 696.5 695.7 694.3 694 693.9 693.2 691.3 687.4 682.6 678.7 675.2 671.6 665.2 659.3 652.7 648.7 644.7 643 640.7 636.8 633 630 628.7 625.3 622.1 620.8 622.1 623.2 622.1 621.8 623.4 627 635.1 642.7 648.6 650.5 649.8 647.8 648.1 647.5 646.1 645.2 643.6 641.4 639.6 637.2 635.2 632.3 626.2 620.4 595.3 565.2 544.5 510.4 458.9 407.4 366.9 329.6 304.3 284.3 273.2 264.7 259.1 257.2 255.2
300.9 300.1 306.5 315.5 324.4 331.4 339 358.2 377.4 373.4 374.1 380.5 377.9 369.3 372.3 374.2 370.9 367.8 369.4 374.1 374.7 376.4 379.5 381.9 383.4 387.5 398.5 404.8 410.6 426.4 445.1 466.2 483.4 499.1 504.2 505.8 506 505.1 504.3 505.4 506.2 506.9 509 512.6 515.1 518.4 519.9 524.7 525.6 532.7 534.6 536.3 534.9 531.6 528.4 523.3 515.8 508.8 499.4 487.6 480.6 475.9 469.2 472.3 479 489 505.8 522.4 541.3 558.6 573.4 586.7 600.8 616.2 623.9 624.4 617.4 608.6 597.6 585.8 575.6 566.7 557.9 548.2 538.2 534.1 528.2 527.9 527.5 525.9 525.9 525 523.9 524.1 517.4 513.3 509.2 502.1 496.9 491.4 489.9 485.3 481.1 477.3 477.8 469.6 476.2 480.8 485.7 501.4 512.4 537.1 570.1 618.2 662.1 699 736.1 763 775.3 782.1 786.6 788 787 783.7 778.8 771 764 754.3 743.5 733.3 726.6 721.5 717.1 713.8 710 707 702.5 699.2 697.3 694.9 691 685.3 680.5 675.4 669.9 663.8 659.1 652.6 645.5 638.3 632.7 630.7 627.5 627.3 624.2 619.2 617.2 613.9 611.2 611 612.8 613.4 613.1 612 611.9 613.4 618.8 624.5 632.1 639.5 641.6 639.3 637.7 636.2 634.7 633.1 631.4 630.4 630.3 629.2 627.7 625.4 621.9 617.8 610.2 589.3 573.1 554.7 525.6 471.8 424.4 385.2 357.1 321.2 291.3 280.3 270.4 263.4 259.1 256.3
302.8 297.6 305.4 312.1 318.9 329.8 339.2 352.6 371.4 369.6 367.7 370.7 368.6 369.3 376.6 372.5 367.5 364.7 367.1 369.6 371.4 373.1 375 377.7 379.8 385.9 396.9 406.4 414.6 431.7 450.8 468 486.4 501 503.9 503.7 503.1 504.5 505.7 507.2 508.1 511 516 520.9 522.3 525.8 526.3 531.9 536.2 541.1 541.9 541.3 539.7 535.7 531.1 525.2 518.6 511.3 501.1 491.5 483.6 479.5 473.6 478.9 481.6 490 508.5 528.1 545.6 561.2 574.4 587.7 602.7 615.2 624.1 627.5 621.7 612.7 601.2 590.1 579.3 568.9 559.7 549.6 539.1 533.5 533.3 529.4 531.6 531.9 531.8 527.8 529.8 532.1 529.9 524.6 520.6 511 504.7 496.7 490.5 487.7 484.3 479.9 476.5 471.1 477.2 484.3 488.4 495.7 504.8 530.6 563.1 616.7 677.3 716.4 748.8 771.5 783.3 789.9 794.5 796.5 795.9 793 788 782.7 775.5 766.9 756.9 747.7 739.9 732.1 726.5 722.4 717.1 711 703.9 697.8 692.5 687.6 681.3 674.6 667.9 661.2 655 648.1 642.9 634.7 628.9 623.4 619.6 616.4 614.3 611.8 608.4 603.8 602.2 599.6 598.4 598.5 601 601.4 599.8 600.8 602.8 605 609.9 616.4 621.9 629.3 630.9 628.9 626.6 624.1 621.9 620.9 620 618.7 618.2 616.2 614.5 612.7 610.2 605.6 595.2 570.6 550.1 528.4 505.4 469 427.8 399.1 369.6 348.9 306.6 288.6 278.9 267.9 262.7 258.8
302.5 299 297.2 309.2 313.8 325.5 336.6 344.2 358.2 360.7 360.2 359.3 361.7 375.5 376.6 369.6 364.3 362.1 362.9 364.3 366.5 368 371.8 375.6 378.6 384.6 393.6 405.9 417.2 437.5 453.9 470.8 488.4 500.8 500.7 502.9 504.5 504.7 506.9 508.6 511.9 517 523.1 527.9 530.7 532.5 536.3 542.4 545.2 550.5 550.7 546.6 542.8 537.6 533.1 527.8 520.8 513.2 503.1 493.1 486.9 484.5 477 483.7 483.8 491.7 508.8 528.5 546.9 562 573.5 587.3 601.2 612.5 620.4 624.9 622 614 603 593.9 583.4 570.4 560.8 550.5 539.9 534.1 535.1 534.4 536.9 536.7 537 534 541.7 542.3 539.2 536.8 529.7 520.8 515.3 504.7 497.7 491.7 485.7 480.8 476.9 471.9 475.6 484 485.1 493.9 505.9 524.1 554.5 613.6 681.1 701.1 725.8 762 789.9 798 802.4 803.6 802.8 800.3 796.1 790.5 784 775.1 765.3 756.1 746 738.2 730.3 723.8 717.5 706.8 696.1 687.5 681.1 673.8 666.8 659.2 650.3 643.8 636.8 630.9 626.9 620.3 613.2 607.3 604.6 602.4 600.8 597.9 593.9 592.4 591 587 587.2 589.8 590.6 589.6 590.8 593.3 593.9 596.1 602.5 607.7 614.1 618.3 619.7 617.1 613.7 611.6 610.8 610.1 608.3 607.1 605.1 603.2 601.4 599.9 596.9 596.5 591.2 551.8 526 505.5 484.8 460.5 427.3 396.4 372.5 342 325.5 304.9 287.4 272.8 265.4 260.2
301.2 301.1 301.7 300.3 311.7 322.6 330.8 342.1 350.5 356.6 356.3 358.2 361.8 372.5 372.7 365.1 361.8 359.5 360 360.9 362 365.1 367.4 372.9 378.3 385.7 395.4 406.3 419.1 441.1 458.1 474.1 489.3 494.8 501 504.2 507.2 507.7 508.8 512.3 516.4 523.1 529.1 534.6 538.8 542.8 547.5 554.1 559.6 558.2 554.9 551.4 546 540.7 535.1 529.5 521.6 514.3 505.2 495.7 489.5 483.9 485.8 486.3 486.8 493 506 525.6 544.9 559.2 572.6 585.2 598.1 608.5 615.7 619.7 618.7 612.8 604.5 595.3 586.3 573.7 562.7 553.7 543.6 536.9 536.8 536.3 540.2 545 545.3 550.6 557.5 555.1 547.7 539.8 533 528.3 523 516.5 505.1 495.3 494.3 482.9 476.6 472 473 475.4 485.4 488.3 503.1 526.6 552.9 594.8 654 694 730.4 758.8 793.9 805.5 809 810.2 808.7 805.7 800.6 794.5 787.1 778.9 769.5 759.7 748.1 738.6 728.5 718.5 709.7 695.2 682.6 671.9 663.9 658 650.7 644 635.5 628.9 622.3 617.9 612 605.1 599.7 592.9 591.4 588.2 586.7 584.2 581.5 580.2 579.3 577.2 577.7 579.4 579.1 579.9 580.7 581.6 585.7 590.2 594.6 600.1 604.4 607.3 606.6 603.3 601 599.7 598 597.8 595.7 594.5 591.8 589.3 588.5 589.7 589.3 588.2 583.4 556.3 511.6 489.6 471.7 451.4 430.2 403.8 384.3 353.4 330.9 316.1 296 280.1 270.8 262.9
300.1 298.8 297.8 301.2 304 318.6 325.4 335.4 346.2 354.3 356.7 359.9 361.9 364.9 364.2 362.3 359.8 357.1 358 362 360.7 362.7 367.6 371.2 375.3 384.1 392 404.9 427.7 444.5 459.1 474.4 485.6 495.3 504.8 511.5 509.2 510.8 512.6 516.6 522.6 530.1 537.8 544.3 547.3 553.8 559.2 565.9 568.2 564.6 557.5 554.3 549.5 543 537 530.2 520.9 513.8 506.3 497.4 490.8 487.9 488.2 489.3 489.2 498 507.8 522.7 539.2 553.6 568.9 582.1 594.7 604.7 611.9 615.5 614.7 610.7 604.8 597.5 588.6 577.5 567.4 558.9 551 544 541 538.2 544 550.4 554.5 561.4 568.4 562 559.1 555.3 539 535.5 527.1 522.6 513.8 502.6 496 489.1 474 474 478.2 477.1 479.7 486.1 502.5 518.6 545.5 604.7 688.1 710.9 753.9 786.7 806.4 811.8 815.1 815.9 814.3 810 804.3 797.9 787 778.2 768.3 757.5 745 731.7 718.3 707.6 694.8 681.6 670.5 660.1 651.4 644 635.4 628.4 620.5 613.7 607.7 603.6 598.3 591.8 583.6 576.9 578 577.1 574.4 573.4 572.2 569.9 570.4 568.7 568.4 568.8 568.4 570.1 573.8 576.5 579.7 584.1 588.4 592.4 595.1 598 595.9 593.2 589.1 586.1 584.5 583.2 583.5 581 578.4 577.4 580.8 581.4 580.3 578.1 570.7 550.8 509.3 477.7 462.6 444.3 421.4 398.1 379.9 365.8 345.2 321.8 302.7 289.7 277.2 268.7
302 299.9 298 300.3 302.3 308.8 319.6 328.6 341.1 352.2 355.2 361.6 361.8 363.3 362.8 360.9 358.4 357.1 358.6 363 361.8 364.2 368.5 372.5 377.5 383.2 389.5 409.4 426.7 444.1 459.3 473.2 485.9 500.3 510.8 512 512.6 514.3 517.4 522.5 529.5 538.5 544.9 552 556.7 562.4 568.2 577 576.8 569.1 563.1 555.7 550.7 544 537.3 529.3 521 514.4 505.4 498.4 494 492.1 489.7 492.4 493.5 499.6 512 523.8 536.9 550.3 564.6 577.5 589.7 600.3 607.1 611.4 611.6 608.7 604.8 598.3 590.9 581 571.1 563.2 556.5 552 547.8 543.2 549 555.7 562.6 569 570 569.1 569.3 565.1 553.9 542.7 535.1 525.8 515 508.1 496.3 488.4 485 479.6 476.2 476.1 483 492.2 499 512 548.3 614 698.4 744.5 764.8 785.3 810.7 815.9 819.1 819.7 818.3 812.9 804.8 797 783.8 773.5 760.8 747.3 731.7 715.2 701.5 690.2 677.5 668.7 656.8 645.7 637.9 630 623 614.7 606.9 600.4 593.9 588.4 582.7 577.9 571.9 566.9 568.7 567.1 565.1 563.4 562.3 561.4 559.4 558.3 558.4 559.6 560.7 563.1 566.1 570.3 574.1 577.7 580.9 583.9 586.3 587.9 588.6 584.8 579.4 574.4 572.3 571.7 571.4 570 566.8 569.5 569.9 570.7 570.8 569 557.8 540.8 511.3 480 456.3 439.7 417.8 400.6 386.9 372.4 355.6 331.3 315.8 302.8 287.5 275.4
303.6 300.4 298 298 299.4 301.7 311.5 321.9 336.3 345.6 353.2 362.2 360.8 362.2 363.6 360.5 358.5 356.3 360.5 365.4 363 367.6 371.1 375.9 379.4 384.2 395.2 412.1 428.7 443.3 458.4 472.6 489.9 507 513.1 513 516.3 519.3 523.5 530.4 537.6 546.9 553.8 560.9 565.4 570.9 583.8 588 582.7 574.9 565.9 557.3 551.9 541.8 535.5 525.5 517.6 508.9 504.4 502.8 499.6 495.3 491.4 495 494.6 507 517.4 526.7 536.1 545.1 559.3 575.3 585.2 596 602.6 607.4 608.9 607.1 605.3 600.6 592.7 584.9 577.9 569 562.2 558.8 554.3 551.7 554 562.6 570.1 575.8 579.5 581.5 578.7 573.8 564.5 556.8 545.2 531.7 521.8 514.7 503.6 491.6 487.2 478.1 481.2 476.2 477.3 489.8 503.5 512.4 548 600.1 669 707.3 734.4 778.2 807.9 814.7 818.5 820.2 819.4 813.5 803.4 791.3 775.7 760 746.1 732.4 715.5 698.7 685.8 675.6 664.7 654.8 644.9 635.5 626.9 617.7 609.2 602.6 595.4 589.7 583.5 577.9 574.3 569.7 565.1 563.2 560.4 558.6 555.8 553.6 549.1 549.4 546.7 549.3 550.5 550.6 552.4 554.6 558.9 564.2 567.5 570.4 573.1 575.9 577.1 577.7 577.3 575 570.6 566.5 563.9 562 560.7 558 557.9 560.9 561.8 562.7 562.6 554.6 539.6 522.9 502.1 482.4 463.2 439.6 417.8 400 385.3 368.6 354.8 333.2 318.2 304.6 289.9 275.6
304 300.8 298 298 298 298.1 305.4 314.8 325.5 337 347.5 357.8 355.8 358.5 361.5 358.3 355.4 358 361.8 370.2 368.7 371.3 376.8 379.9 383.8 389.8 404.3 417.3 430.3 446.8 464.2 482.6 497.2 509.4 514 517.4 521.4 526.9 534.6 542.2 554.1 557.2 563.7 571.5 576.7 586.8 595.6 595 587.1 578.4 569 560.2 547.8 535.6 526.2 515.2 509.5 508.7 507.1 505.2 502.9 499.1 491.3 498 502.7 507.4 519.1 528.8 539.4 543.5 555.9 569.8 581.8 591.3 599.3 605.4 608.4 606.4 604.3 601.4 596.6 590.9 584.9 576.7 571.6 566.2 561.9 557.7 562.4 572.6 578.8 584.8 590.8 594.5 593.2 586.8 574.8 564.3 552.1 542.3 529.3 516.6 510.4 497.8 488.4 482.3 482.6 476.7 480.1 493.6 501.8 519.5 548.7 593.7 648.3 696 734.5 765.3 799.6 809.9 814.6 817 814.6 809.2 798.8 782.3 761.9 746.1 732.1 718.8 700.7 687.1 676.1 666.1 653.9 642 632.6 625.2 615.9 606.6 599.3 593.4 588.5 582.7 576.4 570.5 565.4 558.2 556.2 553.8 551.2 550.2 548.4 545.8 542.8 540.1 538.8 540.5 541.1 543 545.2 547.5 551.5 555.3 558.9 561.7 564.6 566.3 566.7 566.2 565.7 565.6 562.4 558.2 554.1 551.8 549 546.7 550.1 552.6 553 552.1 545.1 532 516.7 501.5 485.9 470 455.8 430.7 412.4 392.7 375 358.2 346.3 329.6 316.2 303.5 290.7 275.5
305.1 300.4 298 298 298 298 300 307.8 318.3 330.3 337.8 344.6 348.9 351.6 357.2 355.6 355 358.7 363.5 375.3 375.3 377.5 382.3 387.3 392.7 399.7 415.5 427.1 441.9 464.9 486.9 501.1 511.6 515.4 518.9 523.6 528.4 535.8 543.6 557.6 566 571.2 575.1 581.6 591 599.5 602.9 598.8 589.4 579.5 569.5 555.7 543.5 531 523.5 515 511.2 508.1 504.9 504.6 503.5 500.6 498.2 501.1 507.7 516.5 519.2 529.1 538.8 545.8 557 570 582.3 590 598.3 603.1 606.7 607 605.8 604.4 601 596.3 591.8 586.3 578.9 574.1 569.9 563 569.8 579.9 587 593.5 602.2 610.5 611.4 605.9 591.9 577 563.4 551.4 537.7 520.6 509.4 499.8 491.8 485.5 485.7 486.7 481.9 483.9 492.7 517.2 544 583.4 663.6 714.7 736.2 768.7 795.5 805.2 811 813.3 812.7 807.1 795.4 773.8 749.9 733 720.4 707 687.8 677.4 667.1 656.6 643.9 634.2 624.4 617.6 608.4 599.5 592.3 586.3 580.1 572.8 567.8 560.3 552.7 549.6 544.5 543 538.9 537.4 536.9 535 534.4 528.7 531 533.3 533.4 534.5 536.6 539 542.6 545.8 548.2 551.5 554 554.9 553.8 553.5 553.5 553.3 551 548.3 544.4 539.8 537.5 540.8 542.7 544.2 541.9 533.5 522.1 508.4 493.5 479.4 464.1 449.3 434.6 416.8 396.8 380.1 363 349 337.5 323.9 310.3 301.4 293.1 276.4
305.1 298.3 298 298 298 298 298 303.2 310.4 321.7 329 336.1 343.9 348 351.3 349.6 358.7 360.8 368.6 377.5 380.6 381.8 389.2 395.3 402.8 409.9 425.1 432.4 463.1 500.9 513.8 520.5 518.7 520.6 525.7 532.6 543.9 548.6 560.1 576.2 583.2 586.8 590.8 597.8 607 611.3 609 602.2 591.3 579.4 567.1 552.2 541.3 532.5 524.8 519.9 515.4 510.1 507.5 505.6 503.4 501.2 498.7 501.8 508.1 520.2 522 528.6 541 549.4 561.3 573.2 582.7 589.9 597.7 604.9 606.1 608.1 609.3 609.1 607.4 603.8 601 596.1 588.3 582.8 575.9 574.9 581.4 586.2 595.5 605.1 618.7 628.3 630.7 627.1 612 592.7 576.3 559.7 544.1 525.1 508.6 501.6 494.9 486.9 485.3 481.4 481.2 481.1 487.5 506.6 537.2 584.4 644.8 698.9 732.9 768.5 792 802.6 809.2 811.7 811.1 805.5 791.1 770.4 748.1 726.4 706.1 692.3 678.1 668.2 659.5 648.6 637 627.8 618.8 610.3 603.3 594.3 586 577.6 577.7 574.3 570 567.1 563.3 558.8 553.8 548.1 540.3 530.4 521.1 515.1 513.8 512.4 522 524.9 526.5 527.6 527.9 530 532.8 535.9 537.3 539.9 542.5 542.3 542.3 542.3 541 539.8 538.8 536.4 531.1 529.3 533 533.2 532.8 530.5 522.2 511.1 498.2 483.5 469.7 455.6 442.4 428.6 413.8 397.6 381.6 365.9 350.7 337.8 325.4 314 302.9 295.3 288.3 277.5
307.5 298.3 298 298 298 298 298 298 304.7 318.5 327.4 332.8 336.5 341.6 349.3 355.1 360.6 364.9 374.1 383 387.8 391.7 398.4 407.4 417.4 417.5 429.3 444.9 484.8 516.3 531.7 526.5 529 528.7 533.4 544.5 557.7 569.9 586.2 595.8 601.6 604.4 606.4 615.2 620.1 618.2 612.5 602.9 592.2 580.2 567.3 552.3 544.5 538.2 532.5 528.3 524.2 521.2 511.2 506.6 502.3 500 501.1 501.3 507.6 520.1 531.8 536.3 541.6 550.3 561.6 572.8 583.6 591.2 598.1 605 606.1 610.5 613 613.6 612.7 612.3 609.7 605.7 599.8 594 585.7 587 593.2 600.9 608.5 621.8 636.6 645.4 642.6 636.1 621.2 602.2 581 566.6 550.9 532.3 520.9 503.9 500.1 493 482.2 481.9 481.1 483.7 490.2 506.8 535.1 573 642.3 699.5 737.3 769.7 792.1 802.5 808.5 810.6 808.6 802.5 790 771 746.1 725.6 705.5 688.4 673.6 662.9 653.5 644 634.1 625 615.7 608 599.8 594.1 590.5 586.5 582.5 578.5 574.1 570.3 565 560.1 554.7 551.1 547 543.9 536.7 530.5 525 513.5 502.7 517 519.1 517.1 519.7 520.2 522.5 525.8 526.9 529 530.2 530.7 531.5 531.4 529 526.4 525.1 522.9 522.9 523.2 521.8 519.5 516 508.9 498.6 486.9 472.7 458.5 444.3 433.2 420.6 406.4 393.2 378.9 366.1 349 337 321.9 310.4 304.5 296.7 289.5 283.4 276.6
309.5 301.1 298 298 298 298 298 298 302 310.6 322.1 327.9 331.7 336.8 346.5 360.7 364.9 365.5 378.2 391 395 395.7 403.8 410.9 417.6 424.7 436.9 457 495.9 522 534.9 533.1 535.1 537.8 547.4 562.9 575.7 591.7 604.9 615.6 620.4 622.2 626.4 631.9 628.4 623.4 616.2 605.4 594.4 583.7 569.3 556.9 552 545.9 543.7 539.5 536.5 525.5 513.5 504.7 501.8 501.8 500.2 503.1 507.9 518.9 531.2 540.4 545.1 550.8 561.1 573.5 583 591.7 599.9 604.7 609.4 614.2 617.5 619.8 620.3 620.9 620.3 618.2 614 605.6 595.9 599.7 607.1 616.4 622.4 638.5 654.4 659.3 653.9 642.2 625.7 607 585.4 569.2 552.3 536.6 526.2 509.3 503.1 496.7 490 482.2 482 482.3 486.8 501.6 535.3 570.4 644.5 709.7 747.7 773.6 794.9 803.9 809.3 811.1 809.3 803.5 792.3 777.2 750.8 728.5 707.3 689.7 674.9 663.1 653.1 643.9 635.4 625.7 618.8 611.4 604.8 600.3 594.2 589.3 585.1 580.7 575.4 569 563.5 558.7 554.3 552.3 547.5 543 538.5 533.2 527.1 516.3 495.3 503.4 510.2 510 510.3 509.7 512.9 515.9 517.1 518 518.6 519.6 520 519.5 516.9 515.3 514.4 515.1 513.2 511.3 507.1 500.3 494.3 483.9 471.5 459.2 446.3 432.7 422.2 410.1 396.1 382.1 368.6 355.7 347.5 335.7 319.9 308.1 297 293.3 282.8 278.1 277.8 269.6
314.5 305.8 298 298 298 298 298 298 298.9 305.6 312.2 318 331.3 335 341.5 352.1 358.9 362.8 379.2 392.9 398 397.2 404.5 413 418.9 430.7 449.7 473 497.4 525.9 539.1 542.2 546.5 557.2 569 584 595.2 612 626 631.9 635.4 639.4 644.3 642.9 636.6 628.1 619.5 610.7 599.5 588.5 572.9 565.5 559.9 555.1 555.2 552.1 546.7 537.2 525.2 510 502.6 502.5 502.5 503.5 508.6 518.8 532 541.2 546.5 554.4 565.3 576.9 585.8 593.3 599.7 604.6 609.7 618.1 623.9 627.2 631.7 634.5 633.4 630.7 625.7 618.2 610.4 614.3 622.2 629.9 638.3 653.4 667 669.5 662.5 647.8 627.7 607.7 586.9 572.1 554.8 535.8 523.2 509.7 501.7 496.7 486.9 483.2 482.9 482 487.7 508.9 543.3 581 653.1 720.3 750.8 778.2 798.6 806.6 812.7 813.9 810.9 805.8 794.8 781.4 758.3 732.8 712.9 697.4 682.2 668.1 656.8 648.3 641.2 632.7 624 615.6 609.7 603.9 597.8 591.5 586 579.4 573.7 567.4 563 558.7 552.6 548.6 543.6 536.7 535.6 528.6 523.6 516.2 504.1 483.3 501.1 502.7 502.6 502.5 504.3 505.6 506.2 507 507 506.7 506.3 504.3 501.4 500.7 502.5 503.7 501.5 494.6 487 478.8 469.6 457.7 446.7 434.7 423.2 412.1 399 386.5 374.4 361.8 347.1 336.4 332 317.8 303.2 296.4 284.8 284.4 273.6 262 264.1 257.8
317.2 309 299.2 298 298 298 298 298 299.4 300.8 304.2 313.8 324.2 330.9 334.2 345.5 353.8 361.3 375.2 386.2 391.3 395.5 406.2 425.4 426.4 445.7 469.3 491.8 526.6 557.2 558.5 555.9 566.2 581.7 599.9 605.8 618.8 633.5 640.8 646.8 651.8 658.7 658.5 652.9 644.8 634 623.7 617.3 606.7 595.7 584.4 578.5 575.9 570.6 567.2 562.2 558.7 545.1 535 520.1 506 502.8 501.4 503.2 508.6 519.9 531.6 541 548.4 556.8 568.9 581.3 591.1 597.2 603.7 608.8 615.1 625.9 634.9 641.3 645.6 648.2 646.2 643.4 638.8 630.6 623.9 627.8 633.4 641.7 654.4 666.9 676.7 675.2 665.5 647.9 626.5 607.6 589.3 572.9 555.4 534.1 519.5 511.7 504 495.7 486.7 483.9 482.3 484.4 488.7 517 553.6 602.1 677.2 724.3 756.2 784.1 802.3 812 818.7 817.5 815.4 806.4 798 785.8 771 748.9 728.4 710.1 691.5 677.1 665.1 655.5 647.3 638.4 628 617.8 610.3 603.7 596.6 590.3 584.2 576.6 570.9 565.6 560.6 552.4 546.8 542.4 538.4 532.3 528.9 523.1 518.5 511.9 502.1 484.9 489.2 493.8 494.3 492.3 493.2 494.1 493.9 493.8 495.1 494.7 492.9 489.8 488.2 488.7 488.6 489.2 483.1 468.8 462.7 453 444 434.6 422.9 411 399.2 389.5 376.2 363.3 352.1 341.7 328.3 318.3 314.5 301.4 291 287 276.3 269.6 263 254.8 250.6 251
322.2 310.5 303.9 298 298 298 298 298 298 298.8 299.9 305.3 313.9 327.2 330.5 335.9 345.6 355.9 370.9 377.4 383.3 390.4 417.5 422.4 443.8 469.3 495.7 517.5 544.2 561.3 568.4 577.2 597.3 615.3 619.5 625.8 638.7 649 656.5 663.4 671.3 676.6 669.3 661.6 651.2 641.2 632.3 625 616.2 604.9 594.8 591.2 588 587.5 580.4 575.1 569.1 556.6 540.6 528.7 514.7 507.2 503.6 503 510.3 520.1 532.1 542.2 550.4 560.4 572.1 585.4 595 602.8 608.9 615 623.7 635.1 644 653.6 660.6 662.6 663.5 657.6 651 643.4 637 642.4 648.1 654.3 666.8 679.4 683.9 677.9 662.9 641.4 622.7 607.6 591.3 573.4 553.4 539.2 523.9 510.4 502.1 493.8 486.9 488.9 488.6 496.5 505.2 531 565.9 611.4 681.8 721.2 755.7 787.7 806.1 820.4 825.6 825.3 815.8 808.6 799.4 789.6 777.2 758.3 740.2 721.7 704.5 688.3 674.9 660.8 649.2 637.5 627 618.5 610.4 601.3 594.1 587.7 580.4 573.4 566.2 558.4 553.3 549 543.5 538.4 532.9 528.3 522.5 518 514 508 498.5 477 475.9 480.4 480.7 478.9 479.8 480.4 481 481.3 481.5 480.2 478.8 478 476.6 475.5 474.2 468.1 461.3 451.1 438.9 429.9 420.8 411.3 400.5 388.7 376.6 366.1 354.8 343 333.4 323.1 315.5 303.3 298.9 289.3 278.3 275.9 266.6 259.6 253.2 248 246.4 245.6
330.7 318.2 306.4 300.7 298 298 298 298 298 298 298 299.5 305.9 317.3 325.7 331.5 337.1 348.2 364.6 371.5 377 394.5 409.8 422.1 459 489 506.5 518.7 541.5 554.4 572.7 618.5 621.8 632.7 636.4 642.6 654.1 663.2 670.5 679.2 689.2 686.9 678.3 669.7 658.5 649.8 640.9 634.3 626.1 617.7 610.3 607.8 604.1 603 596 586.8 577.5 567.6 545.7 533.1 521 507.4 505.6 508.2 513.4 523.2 533.9 545.6 555.1 566.2 577.7 592.1 601.5 608.2 615.2 622.5 633.4 644.1 655.1 666.5 673.6 678.5 679.7 675.4 664.4 654.8 652.3 656.4 660.3 670.7 681.8 690.5 688.1 672.2 653.5 634.2 621.7 608.9 591.6 575.4 554.4 534.6 521.3 508.9 501.9 497.1 489.7 489.9 489.2 502.5 514.7 537.4 566.6 624.5 679.6 720.6 756.2 790.6 810.9 823.5 830.4 827.3 817.5 808.3 799.8 789.4 775.6 759.8 741.6 722.8 701.9 684.2 670.3 654.5 641.4 633.3 622.6 614.6 606.7 598.7 590.1 580.6 572.9 564.9 559.4 550.5 547.4 541.3 537.2 532.3 528.3 524.7 519.8 516 511.3 504.8 494.7 480.8 454.6 460.5 467.3 466.7 466.6 467.8 467.8 466.9 465.8 464 463.5 462.2 460.9 457.5 452.6 447.3 438.5 429.1 414 408.4 399 388.6 376.4 365.4 354.3 346.1 338 324 314.1 305.9 297.2 290.9 283.7 276.9 267.9 261.2 255.7 249.3 247.4 247 246.2 245.2
380.5 351.8 331 313.5 306 299.8 298 298 298 298 298 298 299 308.3 316.3 324.3 329.9 338.9 356.7 370.6 373 398.2 404.1 419.9 451.1 484.3 501.4 512.1 527.5 548.8 574 618.5 627.7 638 644.2 655.6 667.2 676.1 686.8 696.2 703.2 695.4 686.5 678.5 668.6 662.1 656.9 651.1 643.4 635.8 632.6 626.7 617.6 612.8 607.9 595.3 586.2 570.7 552.5 535.5 523.1 512.9 513 515.1 517.2 525.2 536.6 549.3 561.1 572.5 582.6 598.3 607.3 616.1 622.8 631.7 644.3 655.2 666.9 676.8 687.2 694 696.5 691.4 676.1 667.2 666.6 666.8 674.2 688 699.4 702.7 689.6 665.2 644.5 628.2 619.1 608 592.9 574.5 554 535.5 524.5 508.2 501.1 493.8 490.6 491.6 500.9 502.7 515.6 534.2 567.6 619.9 681.7 722.3 757.7 791.6 813.4 824.3 831.3 828.6 816.7 806.8 796.6 783.2 767.5 749.3 732.9 712.4 689.5 670.1 656.8 642.3 633.1 624.5 617 610.3 601.7 592.2 581.5 573.7 566.7 559.1 551.7 548.9 543.7 535.5 531.9 528.7 524.5 520.5 515.7 510.9 507.3 501.2 492.2 481.1 469.8 448.3 443.4 454.2 453.4 451.6 451.6 449.3 448.6 448.4 447.8 443.1 437.8 432.8 429.2 423.8 413.7 403.2 391.5 381 374.1 364.4 353.2 344.3 335.2 329.5 320 307.5 298.3 295 287.8 278.8 272.6 265.2 260.9 252.1 249.9 249.6 248.3 247.2 246.3 244.8
409.3 383.9 359.2 336 318.7 307.6 301.8 298 298 298 298 298 298 302.1 309 315.6 322.2 329.9 347.8 365.7 373.5 396.2 401.6 420.6 459.5 485.5 494.7 499.6 517.5 536.2 560.4 591.9 618.9 633.7 643.7 659.9 672.5 684.5 698.6 710.7 711.5 702.3 695.4 690.4 684.9 678.4 674.1 670.4 664.7 661.1 655.1 644 630.5 619.9 610.4 597.5 585.5 568.9 552.3 537.3 521.6 519.9 514.5 516.2 518.4 526.5 537.3 551.3 563.4 573.7 587.9 602.7 618.2 627.9 636.3 644.8 655 667 677.7 693.7 704.5 711.8 712.7 707.9 690.3 686.2 685.1 684.4 694.4 707.1 713.6 707.1 682.7 656.9 637.7 626.6 618 606.9 592.2 572.9 550.1 537.9 520.7 508.9 501.6 495.7 498.3 499.8 504.5 501.9 515.3 538.4 571.6 617.4 674.7 717.3 750.9 778.4 809.2 822.8 829.3 827.9 814.6 797.7 772.6 754.7 740.9 726.5 710.5 690.8 676.3 658.1 639.1 629.8 624.5 619.4 612.5 603.3 594.1 584.5 575.1 567.4 559.5 555 550.4 544.5 537.8 532 528.3 524.7 519.9 514.3 508.7 503.9 499.6 493.9 486 476.6 466 456.3 434.9 434.8 440.4 438.1 434.9 431.8 432.6 429.6 426 418.5 412.6 404.8 402.7 399 388.7 378.6 371.3 364.3 350.8 345.1 334.2 324.3 318.8 314.9 304.6 292.5 284 279.4 272.9 266.1 259.8 253.1 252.6 251.5 249.9 250.3 248.5 247.7 247.2 246.5
420.2 395.8 373.2 349.9 329.6 314.4 303.2 298 298 298 298 298 298 298.8 302.9 310.9 316.8 322.1 335.2 355 383.8 395.8 404 433.7 460.6 481.8 484.5 493.6 511.2 528 551.4 583.1 612.8 640.8 660.7 673.5 684.1 693.6 710.5 725.8 721.4 712.9 707.6 704.5 701 699.7 695.4 691.3 689.8 685 675.1 661.4 641.8 624 608.4 592.5 577.7 562.9 550.7 534.5 524.1 522.4 516.7 520 521.8 529.8 539.1 552.1 565.3 575.7 592.6 606.9 624.9 641.9 650.9 659.2 666.2 677.9 695.3 709.6 719.4 727.7 729.5 720.3 707.7 703.7 703.9 705.3 715 724.7 723.2 704.3 672.1 647.2 633.9 626.1 617.7 606.3 591.7 572.5 551.6 537.4 518.9 506 498 499.6 497.4 495.4 496.8 501.4 517.3 553.4 584.5 628 667.9 704.7 745.2 780.8 807.1 819.7 824.2 823.2 803.7 775.4 746.1 726.6 713.5 699.9 682.3 666.8 654.9 643.8 631.4 621.5 615.8 612.2 606.4 597.2 587.7 577.1 570.2 561.9 556.6 549.3 544.5 539.9 533.3 527.8 525.3 522.7 518.2 512.9 506.4 498.3 492.1 485.1 477.4 468.6 458.6 447.3 436 410.5 420.2 418.9 414.6 413.6 411.2 406.7 398.8 394.4 385 379.7 376.3 369.7 364.5 356.1 349.1 340.9 334.5 325.5 314.8 306.9 300.3 296.3 286.6 279.5 273.3 269.8 264.6 259.6 255.4 254.7 254 252.5 251.1 250.1 249.4 248.9 248.3 249.8
432.4 405.4 380.6 361.1 338.7 318 303.9 298 298 298 298 298 298.7 298.7 300.2 304.7 312.1 324 331.7 344.5 371.7 383.9 412 430.1 449.8 474.2 479.7 494.9 499.4 518.1 533.9 568.5 600.8 638.5 664 685.3 693.9 704.5 731.5 740.6 733.5 728.5 726.6 727.3 728.7 726.3 722.4 719.2 715.2 705.6 685.3 662.6 638.8 617.9 600.5 583.1 567.3 557.5 543 534.2 527.3 519.7 516.1 518.9 523.4 530.4 542.9 553.4 566.8 583.4 601.4 623.7 641.9 658.4 665.9 672 681.3 696.7 713.8 725.9 737.3 744.3 744.9 737.8 730.4 728.3 726.6 727.2 733.5 735.1 724.9 695.3 660.9 640.7 631.2 626 616.1 605.4 589.3 572 550.4 537.9 517.7 506.6 502.6 501.9 496.4 494.9 496.8 503.8 524.7 556.7 599.2 653.3 692.8 729.5 763.9 790.4 803.5 812.3 817.3 818.5 792.1 755.8 727.2 705 690.6 672.8 656.5 641.8 631 627 617.9 609.1 606.8 604.7 598 589.5 579.5 569.4 563.5 557.1 551.7 544.5 540.3 533.9 529.6 525 521.4 518.1 513.5 508.3 501.4 491.9 483.3 474.7 465.9 455 444.2 432.8 423 407.7 401.9 400.5 396.5 392.3 387.3 383.9 373.4 367.3 359.7 354.4 348 344.7 338.6 332.9 327 322.2 317.8 307.7 299.9 294.9 287.4 281.3 276.1 270.9 267.2 263.3 260.9 256.8 256.4 255.4 254.2 253.2 252.5 251.7 251.5 253.4 257.9 264.3
472.4 424.8 393.5 372 348.4 323.1 304.1 300 298 298 298.5 298 298 299.3 299.1 301.2 308.5 322.4 333.4 345.9 354.3 373.8 396.5 421.4 454.6 466.4 482 484.9 493.6 504.7 514.1 549.2 578.3 624.3 657 682.6 694 709.4 734.5 744.2 743.3 742.8 744.4 748.2 749.2 747.7 746 743.5 734.9 709.9 681.8 655.6 631.5 609.5 591.4 574.7 557.4 544.5 539.2 533.5 524.6 516.1 516.1 516.1 524.5 535.3 544.9 554.4 571.4 591.9 616 640.3 661 675.7 684.4 690.1 700.1 712.9 731.3 744.8 755.6 761.3 762.1 759.1 754.1 751.1 749.3 748.2 745.3 735.8 711.1 680.3 652.2 637 631.1 624.2 614.5 602.6 588.6 568.8 544.2 531.7 515.5 505.1 505.7 503.1 497 495.4 500.7 516.4 546.7 570.2 609 662.7 711.6 745.4 776 790.3 798.4 804.2 808.1 809.5 783.8 742.1 710.4 688.7 668.4 653.2 637.9 624.1 613.1 610.6 604.1 601 597.8 592.7 588 579.8 571.6 562.8 557.4 551.2 546.5 540.8 534.8 530.2 526.8 522 517.9 513.3 506.6 498.8 490.8 479.5 469.3 457.2 448.3 436.9 426.2 416.3 406.7 395.5 378.7 384.9 378.7 372 365.5 359.2 351.3 346.4 338.1 331 328.7 322.4 318.8 315 309.3 304.3 296.5 296.3 290.6 282.5 277.1 273.5 269.6 265.8 264.8 260.4 259 258 257 256.2 255.3 254.4 254 253.5 258.8 263.7 271.7 281.8
480.4 443.1 409.3 381.9 354.2 331.1 313.5 305.8 303.8 303.2 298.6 298 298.6 297.8 299.4 299.4 301 309.5 323.7 339.1 351 362.4 385.3 411 439.3 458.1 473.6 475.8 486.5 492.9 501.2 524.4 553.4 586.1 633.1 673 689 706 730.3 740.6 745.8 750 755.4 759.2 760.2 760.8 759.5 755.7 739 705.3 673.6 645.5 622.8 603.6 584.2 567.7 549.9 540.1 535.4 525.7 520.7 516.1 516.1 516.1 522.8 537.4 546.6 556.3 575.1 601 635.9 664.7 683.3 695.3 702.6 710.5 721.3 734.9 750.4 761.9 771.5 777.6 779.2 777 772.8 770 766.1 758.3 739.2 718 693 663.7 647.3 638.3 631 621.2 612.6 599.6 584.2 562.3 540.6 527.9 512.1 507.1 508.7 503.3 499.4 499.7 507.8 530.9 554.5 584.6 621.1 668.1 712 748.4 777.2 786.9 793.2 795.5 797.8 798.8 772.8 724.6 693.8 669.6 652.5 639.4 626.8 615.3 605.6 598 597.2 592.2 587.7 582.7 577.5 569.7 564.1 557 550.3 545.1 541.6 536 530.9 527.1 522.9 519.8 514.5 506.1 497.3 486.2 475.2 462.1 451.3 439.5 429.5 420.1 407.9 397.5 386.6 379.3 368 359.3 358.7 351.1 346.8 342.2 336.3 323.8 318.3 314 310.8 305.3 300.9 297.2 293.8 289.4 288.1 284.4 281.8 278.7 274.6 271.5 272 265.6 262.4 259.6 259.7 258.8 258.3 257.3 257 256.2 257 264.2 271.8 280.9 291.5 302
501.8 456.4 423.9 397.5 367.8 343.5 327.1 309.1 305.8 300.9 298.7 298.6 299.1 299.4 301.7 301.2 301.1 300.1 311.2 325.6 342.7 360.5 384.1 391 421.4 444.9 464.7 466.7 475.2 481.4 488.6 506.1 530.9 557 596.2 653.5 675.5 693.6 717.6 736 746.1 753.3 760.6 765.9 768.2 767.6 765.9 760.8 734.3 691.7 658.6 630.6 612.4 596.4 580.2 564.3 549 538.1 528.6 520.4 516.1 516.1 516.1 516.1 523 536.2 547.1 560.1 581.6 616.5 655.2 688.6 706.3 716.2 722.6 731.4 742.8 756.7 769.6 780 787.1 791.9 793.9 792 788.7 783.9 775.4 747.6 717.3 698.9 676.5 655.9 646 637.1 628.7 619.7 609.5 595.3 578.7 555.8 537.5 523.7 512.9 513.9 511.5 508.7 503.5 509.3 522.5 545.5 575.7 602 641.9 677 717 752.6 775.3 781.9 786.4 787 785.8 776.6 754.4 708.5 677.8 653.2 634.2 623.1 609.3 596.7 588.3 586.2 587.5 585.3 580.1 575.7 569.5 564.2 557.9 551.5 545.3 539.8 536.1 530.5 526.7 523.2 517.2 509.8 502.5 491.9 481 469 455.8 443.5 432.8 420.4 408.5 396.3 387.3 377.1 365.6 361.5 355.3 338 340.6 336 334.3 329.1 319.7 313 308.2 303.7 300.4 294.6 293 289.7 286.3 282.6 279.1 275.8 275.6 274.9 275 276.7 273.8 269.9 264.6 261.5 261 260.1 259.7 259.2 259 261.8 269.6 278.9 289.6 302 314.3 326
512.1 472.7 439.9 409.7 383.1 356.4 336.2 316.1 307.9 304.3 300 298.7 298.8 301.9 300.8 301 301.5 303.1 302.3 312.9 325.8 344.3 365.5 380.3 393 417.8 447 456.2 454.3 469.2 478.1 494.7 519.4 532.3 556.5 618.3 654.7 674.5 694.5 720 741.5 751.8 761.2 766 768.5 767.8 766.9 763.2 727.2 684.5 650.8 622.2 598.6 585.4 574.3 561.2 547.1 533.6 520.4 516.1 516.1 516.1 516.1 516.1 521.5 534.7 547.3 566.4 597.3 633.3 672.1 709.3 727.7 736.6 744.1 753.8 766.3 777.4 788.2 795 800.6 804.8 805 803.2 798.5 789.9 764.7 736.6 704.4 680.6 666.4 652.8 644 634.8 625.8 618 606.6 591.7 573.5 554.6 536.1 521.4 520.4 519.1 520.7 522.5 518.5 520.2 540.7 563.6 595.9 621.9 669.2 711 737 763.9 775.4 777.3 778.3 773.5 764.2 746.4 723.4 688.5 658.8 634.4 615.9 602.1 588.7 582.5 578.5 577.7 577.9 574.2 570.7 567.1 563 558.6 550.4 544.7 538.2 532.1 526.8 522.6 518.1 511.9 504.5 495.1 486.4 473.9 463 452.3 442.1 426.3 412.6 400.9 391.3 380.7 368.9 360.2 351.3 345.4 340.5 330.9 326.4 324.1 319.8 317.1 311.1 305.1 299.7 294.8 291.4 291.3 292.8 289.9 286.9 284.9 282.2 282.1 280.2 276.4 270.8 268.3 269.4 265.5 268.2 262.8 260.7 261.3 261.6 262.9 268.3 276.5 288.1 298.2 312.3 325.2 340.7 357.2
528.3 487.8 453.2 421.4 390.4 364.2 341.9 324.1 305.6 302 300.4 299.5 300.3 305.6 301.1 301 302 304.9 306.1 304 312.2 323.7 342.6 360 377.5 391.5 411.1 436.3 438.1 449.2 465.1 477.2 502.9 510.5 527.6 588 630 653.7 672.9 698.2 727.5 746.6 758.3 761.9 763.1 763.5 764.2 764.3 734.1 685.6 651 619.4 594.5 577.5 566.5 555.9 542.2 527.5 516.1 516.1 516.1 516.1 516.1 516.1 516.1 530.6 550.2 578 612.3 660.6 693.7 727.4 748.9 759.5 768.2 776 784.4 793.9 801.4 805.7 809.5 812.8 813.1 810.2 799.2 781.8 753.1 722.4 694.1 674 662.3 650.8 642.3 632.3 623.9 614.1 602.2 586.4 568.3 558.2 535.3 520.5 535.8 530.6 534.2 541.1 540.8 537.7 557.1 586.6 612.9 649.1 691.5 733.6 765.1 779.8 780.4 777.4 769.5 753.3 740.6 717.6 692.3 666.3 637.9 613.3 596.8 587.2 580.9 573.3 570.1 569.6 567.8 565.2 563 557.9 553.9 548.8 541.6 534.3 528.6 522.5 517 510.7 505.1 499.3 492.2 482.6 470.2 458.3 444.6 435.1 424 410.8 396.7 383.4 374.2 363.4 353.3 345.2 337.4 332.2 326 316.4 317.9 314.7 310.6 307.6 304.9 297.7 293.9 289.2 286.4 285.6 286.1 285.4 282.8 276.5 279.8 280.6 278.8 274.6 269.7 268.1 265.7 265.6 264.4 263.5 266.2 264.7 267.2 274.6 284.2 296.6 310.8 321.6 335.5 353.5 370.6 387.6
554.4 518.2 478.9 439.7 403.8 373 348.7 327.6 310.1 305.8 300.8 301.4 303.8 307.1 303.6 305.7 304.4 307.7 307 302.4 308.5 316.7 325.4 336.4 357.7 378.9 392.1 406.6 415.3 431.5 451.5 469.3 482 487.7 498 549.4 603.3 631.5 650.4 675.4 702.8 732 749.9 755.3 756.8 757.8 760.6 763.1 748.1 693.3 664.9 629.8 598.7 578.9 562.5 550.1 535.4 517.3 516.1 516.1 516.1 516.1 516.1 516.1 516.1 531 556.5 588.5 626.7 667.1 704.1 741.2 770.3 781.8 788 792.5 798.3 805.9 812.3 815 816.7 820.3 819.5 814 787.7 763 737.9 714.4 690.7 674.2 660 650.4 641 630.9 620.8 610.5 596.2 581.9 571.1 558.4 535.7 522.5 533 534.7 540.9 547.2 552.2 555.4 575.4 603.2 634.4 674.4 710.9 748.5 779.9 785.6 784.8 777.4 754.3 730.7 719.3 690 666 644.2 621 595.1 578.7 570.2 568 564.9 563 561.5 560 555.9 552.5 548.7 544.5 538.1 531.5 524.2 517.3 510.4 505 499.3 492.1 485.7 476.8 467.4 455.5 442.1 429.7 418.3 405.3 391 379.6 367.3 358.3 347.8 336.4 333.8 328.2 324 319.6 310.7 309.6 307.4 303.5 300.5 300.3 296.9 290.1 286.9 285 282.7 280 279.2 278 276.7 275.2 273.1 273 271.5 269.8 270.4 272.3 269.2 269.1 267.9 267.3 272.7 282.1 292.7 304.8 318.1 332.7 347.4 363.2 381.6 399.5 419.7
575.7 538.9 495.7 455.5 419 386.5 358.2 336.7 322.5 313.1 306.9 306.2 312.9 313.4 311.7 310.5 308.4 309.1 307.6 303.8 309 313.6 319.5 330.3 359.4 398.1 399.2 391 399.4 422.5 438.4 459.9 465.6 465.5 474.1 522.7 574.7 607.4 627.3 647.2 674.8 704.8 732.7 745.5 748.8 751.1 755.8 761.9 768 715.7 683.2 649.4 616.1 587.6 567.2 548.6 530.1 516.1 516.1 516.1 516.1 516.1 516.1 516.1 521 561.6 593.3 622.7 663.6 696.2 728.6 764.4 786.4 797.2 800.2 802.8 807.3 814.1 820 823.3 825.5 826 815.7 790.8 766.3 739.1 719.3 704.1 689.2 673.7 661.6 650.2 638.2 626.8 617.7 603.4 590.6 584 568.4 554.7 535.9 532.7 526.3 536.2 538.5 547.2 556.2 567.5 589.5 619 663.2 707.4 736.2 770.8 789.6 783.7 772.6 754.6 727.9 709.4 688.8 662 636.3 618.6 603.3 586.2 569.4 560.6 558.7 555.9 557.2 554.7 550.8 544.9 542.5 538.8 534.5 529.3 522.6 515.7 507.4 500.1 492.9 484.8 476.1 467.2 458.5 446.9 434.9 423 410.9 398.9 386.3 373.2 363.5 355.1 350.2 337.6 329.3 325.5 320 316.2 313.1 308.8 301.5 303 300 297.1 293.6 289.8 288.1 286.3 283.3 282.2 280.9 279.6 278.9 277.8 276.2 275.2 278.3 275.6 275.4 274.8 274.5 273.2 271.9 273 279.2 290.9 304.8 316 328.5 343.7 360.5 379.3 396 415.2 432.9 452.2
604.6 564.3 523.9 484.9 438.4 410.2 382.7 360.2 342.6 325.8 318.2 315.4 319.4 322.1 320.2 314.6 310.8 309.4 307.7 308.6 310.9 312.6 316.8 326.3 357.6 391 398.5 400.7 393.5 401.9 423.6 444.2 450.8 451 453.7 491 545.3 580.3 603.8 619.3 639.3 670.5 702.9 730.3 736.9 742.7 749.8 758 767.4 769.8 725.7 678.7 649.2 620.8 592 564.8 539.6 522.6 516.1 516.1 516.1 516.1 516.1 539.4 562.2 594.7 620.7 658.6 696.4 735.4 757.6 783.8 791.3 797.3 801.6 806.1 811.1 818.6 824.7 829.2 830.6 824.8 790.7 762.3 738.2 716.6 701.5 693.9 683.1 671.1 660.5 648.3 635.1 623.5 609.9 598.9 590.9 585.8 565.2 550.5 537.3 530.6 526.5 532.3 539.1 549.4 560.9 585.8 614 649.9 697.9 733.9 762.6 789.9 794.8 773.4 750.5 734.8 711.7 686.2 662.5 634.7 612 596.2 583.9 576.5 569.4 564.6 560.1 556.8 556 551.6 545.3 538.8 535.4 529.3 523.6 514.1 505.9 498 490.1 482.6 474.9 466.5 458.2 447.7 438 428 415.9 402 390.2 378.6 369.3 358.9 351.7 346.6 337.3 330.5 324.7 321.9 318.8 312.3 308.7 307.2 306.5 296.2 296.3 294.3 291.2 288.4 287.1 286.1 285.1 283.8 283.7 282.6 280.9 280.1 282 284.4 282.5 281.7 281 280.5 278.8 277.3 282.4 293.2 302 313.8 327.6 340.8 355.5 370.9 390.8 406.3 425.4 444.6 463.5 483.2
622.8 596.9 561.4 525.2 482.1 443.5 409.4 379.3 356.5 342.2 336.7 329.1 327.8 330.7 324.6 318.6 311.8 309.4 305.8 309 309.6 310 313.1 321.2 358.8 382.2 389.8 394.1 398.8 395 402.1 419.9 433.2 437.4 440.4 466 512.9 552.3 580.4 592.8 609.3 642.9 671.9 708.4 722.7 732.6 743.3 754.1 763.9 772.3 763.9 739.2 705.2 683.3 643.3 611.4 579.8 559.5 534.5 530.1 524.8 541.4 570.5 581.9 605.1 639 666.3 699.3 732.6 768.4 785.1 787.3 791.5 796.3 801.3 806.3 813.3 821.9 827.9 832.2 832.6 804.2 773.2 743.8 717.7 702.9 691.7 682.5 673 660.8 651.4 641.3 628.9 616.1 604.2 592.9 585.9 581.6 565.1 548.1 540.8 533 530.2 530.2 538.6 550.5 573.2 596.5 633 681.1 726.3 757.2 792.5 802.7 795.5 775.9 747.9 719.6 699 669.6 640.8 616.4 597.9 587.6 579.8 574.1 569.6 567.3 564.1 558.5 554.4 542.9 539 529.9 521.5 511.3 504.3 495.7 488.9 481.1 473.9 466.1 457.2 450.2 439.9 431 417.7 407.6 394.8 384.2 373.2 364.7 356.7 349.9 345.1 338.9 331.4 327.1 324.8 321.8 315.6 309.2 304.9 302.4 298.6 296.2 295.2 292.6 290.5 291.3 291.3 289.1 287.4 287.6 291.1 288.9 288.8 291 290.3 288.4 285.6 285.5 287.9 288.4 288.8 293.3 302.2 313.8 324.5 339.3 351.7 366.2 381.6 399.6 419.6 436.5 453.2 473.4 493.6 511.1
664 611.5 577.7 544.1 506.1 472.4 432.8 405.7 377.3 368.1 361.5 351.3 340.3 338.8 330 321 313.2 311.8 307.4 305.4 307.3 308.8 312.4 321.6 353 372.1 379.3 384.4 391.2 395.7 400.5 401.5 415.1 425.2 425.6 443.2 482.4 525.8 555 568 579.7 602.2 644.2 678.9 700.4 719.7 736.9 750.3 761.1 770.4 776.4 776.2 759.1 727.3 693.1 654.1 621.4 606.1 579 574.6 582.8 601.9 617.7 624.7 649.5 678.7 705.5 735.5 769 780.7 783.3 786.2 790.6 795.5 800.5 807 814.6 823.7 829.6 832.9 832.1 801 763.7 734.5 706.1 688.6 676 666 658.1 646.4 636.8 626.6 613.8 606.1 596.6 585.4 576.7 570.3 557.8 546.7 540.3 528.8 541.4 543.4 548.4 564.5 591.3 616.7 656.9 700.3 738 776.2 808 806.5 793.7 758.5 731.1 698.7 674.6 652.9 623.1 604.3 587.1 583.7 578.7 573.5 568.7 565 559 549.8 544.7 535.6 516.9 512 505.9 496.5 488.6 480.8 472.2 465.7 458.3 451 442.5 434.2 422.6 411.2 402 390.5 381.5 373.2 362 354.9 349.4 343.6 338.1 334.3 329.8 325.7 322.4 319.9 312.4 310.4 305.9 302.2 301.5 301.8 299.3 298.7 298.2 296.7 295.4 294.9 294.8 297.1 301.4 302.3 300.1 298.4 296.7 298.1 293 295.6 297.5 299.3 303.7 314.8 325.4 337.1 349.8 362.8 377.1 392.4 409.7 428.1 447.1 466.1 483 502.1 519.2 535.2
667.8 638.8 603.1 559.1 525.5 504.2 475.7 457 424.2 401.3 390.3 373.9 351.6 342.1 333.5 321.3 312.8 311.2 309.3 306.6 309.6 309.6 313.4 323.3 349.2 363.3 370.5 376 382.4 386.7 400.3 401.1 400.6 409.6 416.1 426.6 453.5 494.7 524.4 542.2 552.1 572.8 611.4 647.4 667.3 705.5 728.6 746.5 758.6 767.5 772 772.7 769.1 759.1 736.4 695.1 655.5 631 635 629.6 643.3 667.8 671.3 668.9 684.9 711.2 741.8 763.8 772.2 776.1 780.3 784.8 789.8 794.7 800.8 807.9 817.2 825 830.1 832.8 830.8 800.7 765.7 737.4 708.9 684.1 667.5 656.4 645.2 634.3 622.3 614.9 597.7 591.6 587.1 576.4 565.7 558.7 551.4 543.4 537.8 533.8 544.5 552.9 566.6 586.9 607.4 648.8 695.2 710.8 758.7 788 814.5 808.1 783.1 744.7 717.7 690.8 652.6 627.6 610 595.2 583.2 581.1 574.7 567.9 561.5 553.3 544.8 534.6 525.2 515.1 504.2 496.5 488.3 480.2 472.9 466 456.9 450.1 444.3 436.4 427.9 417.9 408.1 397.5 387.9 378.4 370.4 361.5 354.6 349.3 344.7 339.4 334 331.8 328.6 325.7 323 315.3 315.3 308.9 308.6 307.6 306.6 306.7 304.7 303.8 303.6 303.6 306.9 307.9 311.3 312.3 312 310.6 308.6 307.3 307.2 304.8 305.4 307.8 311.7 316.3 328.4 337.9 347.9 362.2 375.4 389.4 403.9 419.8 436.6 453.2 473.4 491.8 509 525.5 542.1 557.1
659.3 625.8 592 556.8 530.3 501.6 479.3 457.2 445.5 423.8 403.5 383.8 362.6 345.2 334.8 322.3 314.5 314.1 312.1 307.7 310.7 311.4 315 325.2 341.1 354.2 361.4 366.8 370.3 376.1 385.4 391.8 395.5 396.5 401.1 414.8 435.8 468.9 492.8 514.1 526.5 547.6 576.4 613.3 649.2 686.6 714.5 737.9 751.9 760.3 766 767.4 766.5 763.7 756.3 719.3 707.9 695.2 689.7 678.4 705.8 728.1 728.6 726.8 730.2 730.7 751.9 765.7 771.4 776.2 780.5 785.1 790 795.3 803 810.7 819.7 826.5 830.8 832.5 831.5 809.6 774 748 720.5 689.8 661.2 651.4 638.8 622.4 610.1 599.9 587.1 581.5 575.7 566.2 556.3 546.8 543.3 541.6 533.3 542.8 557.9 571.3 598 623 656.6 700.9 734.6 749.9 770.5 809.9 821.1 810 778.3 743.6 711.4 679.6 648.9 609.8 594 583.7 576.8 571.8 562.9 553.4 546.8 539 528.1 518.2 506.3 497 489.5 480.6 473.3 465.8 459 451.2 442.9 435.5 430.6 422.5 414.4 404.3 393.8 385.5 378.5 369 361.9 356.4 350 343.6 340.5 335.4 333.1 329.2 327.6 325 320 311.3 311.5 311.9 310.3 311.8 313.2 312.9 314.2 313.2 314.6 316.9 320.8 324.2 324.4 323.6 322.2 323.8 319.1 319.1 319 320.2 321.7 325.1 332.7 342.7 351.9 362 375.3 388.2 402.4 416.5 430 444.6 461 477.6 495.2 513.3 530.9 547.9 562.5 577.4
646.3 611 575.5 543.3 517 488.5 468.3 450.3 434.7 424.2 406.5 388.7 371.5 351 335.3 323.7 315.6 314.1 308.5 308.8 311.9 315.9 321.4 326.1 335.2 344.2 351.5 352.6 357.7 364.9 372.8 379.7 386 391 392.1 402.3 417.2 439.7 463.5 482.2 505 520 549.1 577.7 624.4 663.8 695 723.8 743.3 752.7 758.5 761.7 760.9 760.5 759.3 756.4 749.8 747.1 744.9 734.4 746.2 745.7 746 751 755.2 755 758.7 766.5 772.6 778 781.9 786.3 791.1 796.9 805.4 813.3 821.9 828.5 832.5 833.4 831.5 824.2 798.3 773 751 707.2 677.3 659 649.1 618.4 602.7 586.1 576.2 567.3 567 557.7 548.5 544 538 534.2 536.1 553.6 576 595.2 625.1 661.8 698.3 763.9 769.8 794.2 799.9 823.1 824.5 810.2 782.2 751.1 713 674.3 639.8 599.9 576.7 568.8 562.2 553.3 542.3 535.3 529.3 524.9 514.6 503.7 493.1 483 476.8 465.2 457.4 444 439.6 436.9 428.1 421.1 416.7 409.4 401.6 394.4 386.3 376.5 370.7 364.7 358.1 351.4 345.7 341.4 338.2 333.1 331.2 326.2 322.1 318.7 316.7 316.4 321.1 316.6 318 320.6 321.2 324.2 324.2 326.7 329.4 334.1 334.5 336.3 336.7 336.4 333.9 328.6 333.2 337.6 334.8 335.9 340.4 345.1 357.1 367.4 377.7 390.7 404 416.6 426.3 438.8 451.4 465.3 481.9 497.4 514.2 532.5 551.5 567.4 581.2 599.4
631.5 595.6 560.9 527 498.7 476.5 456 439.9 427.2 418.7 405.6 392 376.6 356.9 335.1 324.1 321.6 314.1 310 310.7 313.5 320.5 323.5 329.8 334.2 337.8 341.3 343.1 344.6 353.6 360.8 367.1 372.8 379.7 384 391.2 403.6 415.9 439.3 464.1 482.3 495.2 516.8 549.7 593 636.7 668.7 697.3 719.9 740.7 749.9 755.3 756.9 756.7 757.8 758.9 758.9 758.3 755.7 752.5 749.5 747.4 749.1 753.5 757.5 760.5 764 768.6 773.8 778.7 783.4 787.9 793.3 800.3 808.5 818.7 825.6 830.8 834.6 834.7 831.9 827.6 819.9 802.9 766.8 731.8 701.9 674.9 655.4 619.4 593.5 586.1 569.7 560.8 555.4 549.7 540 535.4 534.4 533.7 543.2 562.7 588.1 615.3 654.7 705 731.9 796.8 802.1 828.4 830.3 831.8 824.8 811.6 775.9 748.8 711.3 671.9 634.1 601.4 575.7 557.6 545.9 539 528.3 521.3 516.3 512.9 503.7 492.3 484.3 474.4 465.3 452.3 438.1 429.1 423.9 418.9 412.3 408.1 402.6 397.2 390.8 384.5 379 372.2 365.7 359.1 353.5 347.6 341.1 334.7 331.2 328.5 326.2 326.8 323.2 323.3 324.4 323.7 327.4 328.6 329.1 332.1 335.3 341.4 342.9 345.8 346.8 347.9 349.7 350.2 350.6 350.1 352.1 346.5 353.5 356.7 359.4 363.3 366.9 373.2 385.2 395.8 407.3 419.2 427.5 436.6 448.7 460.7 472 485.2 499.4 514.9 531.6 550.8 568.3 584.1 601.3 616.4
612.1 580.9 544.8 510.1 482.8 462.5 443.3 427.9 419.7 411.7 402.3 392.6 378.1 360.8 334.7 327.1 326.4 317 311.2 312.3 311 317.8 323.1 328 333.9 335.6 338 338.9 340.1 342.4 346.6 354.9 362.5 367.9 372.8 379.6 387.8 398.9 416.6 439 456.5 472.8 488.3 529.5 565.1 604.2 635.9 661.1 691.7 719.5 727.8 747.9 752.3 755 757.4 758.5 758.8 758 755.8 752.8 747.8 745.3 748.4 753.3 758.6 762.6 765.3 770.2 776.3 781.2 786.5 791.4 798 805 816.2 824.1 830.4 835 836.8 835.7 832.7 826.4 819 809.8 776.8 747.3 719.5 693.5 655.7 621.5 592.7 576.3 564.8 557 545 540.4 541.8 535.5 534.9 546.4 563 580.2 610 637.5 674.7 706.8 745.1 790.5 827.9 835.7 834.4 829.7 823.6 814.6 786.2 747.5 711.3 673.1 638.5 607.2 578.5 554.5 536.8 524.5 514.5 510.4 503.6 497 490.8 488.5 474.6 461.7 451.7 437.2 424.4 418.1 405.7 404.5 400 394.9 390 386.5 380.8 375.6 371 366 359.7 354.5 349.7 341.4 337 333.8 333.9 334.7 333.8 331 332 331.4 333.4 336.2 342.7 346.5 351.9 353.4 356.4 359 360.3 361.2 361.2 363.7 366.8 371.8 372.5 373.9 375.3 366.9 377.9 373.6 384.1 388 393.5 400.9 409.6 421.3 430.5 439.4 447.9 458.4 468.6 478.5 489.5 502.5 515.5 530.2 547.7 566.1 582.8 601.8 615.9 625.1
600.3 564.8 527.1 492.5 466.2 449.3 429.8 418.3 409.2 403.3 396.6 389.3 373.5 356.3 338.9 331.2 328.9 321.2 316.3 314.3 318.1 322.2 324.2 330.1 335.8 337.9 339.5 338.6 337.3 335.4 337.6 342.4 354.1 359.5 366.3 371 377.6 386.4 397.8 415.2 432.5 448.8 465.4 494.4 537.3 571.8 605.6 630.2 655.9 679.6 703.6 734.2 747.2 753.3 756.4 757.5 757.3 756.1 754.6 750.3 745.8 742.7 745.9 753.5 759.2 762.9 765.9 770.3 779 785.6 791 796.9 802.7 814 823.2 829.5 834 837.7 838.5 835.9 832.1 824.6 817.8 809 789.7 759.1 732.9 716.4 677.1 649.4 607.5 584 573.5 551.3 544.2 550.8 543.2 550.6 567.1 580.8 595.1 620.5 657.3 680.4 710.3 750.2 794.2 815.8 832.1 834 832.3 828.6 823 813.2 790.2 747.6 707.3 673.1 641.6 610.4 593 568.7 539.3 517.6 510.8 502.3 496.6 496.8 489.3 474.8 463.4 450.3 434.6 423.5 413.2 405.1 400.3 391.2 388.2 385.1 381.5 378 373.9 369.7 364.2 357.8 352.9 350.6 349.4 347.4 344.9 342.9 340.8 338.3 339.6 341.1 344.3 344.1 349.9 357.1 362.4 367.4 368.3 373.8 378.1 379.3 380.3 381.8 385.3 387.8 392.8 392.1 392.5 399.9 398.9 390.3 402.4 397.1 408.6 411.8 419.9 425.9 432.3 439.7 448.6 457 466.4 475.5 485.1 495.3 504.4 513.7 526.7 545.1 561 578.8 598.9 613.5 622.6 626.4
582.6 544.9 507.2 477.6 452.8 437.8 422 411.6 405.5 399 398.1 389.8 381.5 366.9 346.7 338.4 336.6 334.7 332.9 329.9 329.5 334.4 337.6 333.8 335 336.9 338.9 340 339.3 337.6 336.8 337.7 339.2 348.5 358.2 364.2 368 374.5 382.7 397.6 413.8 429.7 443.3 473.6 509.5 544.2 572 598.4 622.5 639.4 685.7 712.4 735.7 748.6 753.4 754.9 754.7 753.6 750.8 748.1 744 739.4 745.4 752.5 758.2 762.9 766.8 773.5 782 789.6 796.8 802.8 810.8 821.5 828 833.4 837.5 839.9 839.2 836.5 831 823.5 814.5 805.9 797 777.5 749.8 730 708.3 685.4 645.9 612.6 584.3 558.6 556.3 556.8 573.3 585.8 613.3 634.3 648.5 693.7 718.7 736.6 776.9 803.1 816.4 824.1 828.4 830.1 828.8 827.1 821.1 811.4 786.1 752.5 697.6 662.3 634.5 616.5 599.7 577.3 553.6 523.8 506.1 499 496 488.9 478.4 464.4 447.9 439.5 425.7 413 403.5 396.1 390.7 384.6 381.7 378.6 375.8 372.3 369.7 367.5 365.5 364.7 361.6 357.8 354.4 353.2 351.4 350.6 347.7 345.3 350.1 352.4 359.5 363.5 370 379.2 384.4 392.5 399.2 404 405 404.7 405 406.5 410.8 410.5 409.9 410.7 414 418.9 416.2 413.1 425.4 419 427.8 435.1 441.8 443.8 447.4 452.1 461.5 469.9 478.6 489.2 499.5 508.6 515.8 525.1 540.1 557 575.4 593.7 608.8 621.4 627.1 629.7
569.2 534.2 498.8 468.3 444.2 428.3 415.9 406.2 400.9 395 395.5 392.3 383.8 371.1 361.3 351.6 352.1 354.1 352.1 350 344.1 345.9 343.8 342.1 341.9 341.7 340.2 343.3 345.5 343.1 339.5 337.8 337.3 337.7 341.5 351 361 364.4 370.5 382.4 396.9 411 425 447 481.4 509.6 542 565.9 589.5 616.7 652.6 677.7 711 738.1 748.2 750.5 751.3 750.2 748.2 745 742 735.9 743 750.6 756.2 761.8 767.9 775.5 783.7 792.5 800.9 809.5 818.9 826.4 831.9 837 840.8 841.9 840 835.8 828.9 819.6 811.4 802.7 793 780.2 762 744.2 729.4 702.2 667.1 638.2 598.6 580.2 575.7 586.7 615.9 639.5 670.3 705.7 718.7 738.5 765.5 780.6 793.3 805.2 815.4 822.4 825.9 827.1 825.5 824.6 819.1 808.6 779.2 742 700.8 661.4 633.5 613.3 603.1 583 567.9 536.9 506.6 498.9 489.9 478.8 464.4 453.5 439.7 427.9 414.6 405 398 394.2 390.6 387.9 387.5 387.4 385.3 382.2 380.1 377 373.3 370.1 366 362 361.2 360 360.1 356.9 355.9 363.5 365.8 368.6 376.1 384.4 394.8 402.1 412.6 423.9 427.9 430.4 433.8 434.8 432.4 432.4 432.8 432.5 431.4 433.2 438.2 439.5 438 431.4 435.1 434.3 436.4 446.7 451.2 454.7 459.2 464.6 472.4 481.2 491.9 502.8 513.2 521.5 529.8 539.1 554.1 571.5 589.9 605.8 620.7 627 631.7 631.8
563.5 527.7 494.9 466.2 444.5 425.8 413.2 405.4 399.6 398.3 399 390.4 382.6 381.6 371.7 369.5 373.2 376.7 375.3 374.9 363.9 357.4 355.2 353.5 350.5 350.2 355.5 365.5 365.8 361.2 355.8 344.3 341.1 337.8 337.1 340.7 346.1 353.5 361.4 369.7 381.8 393.1 406.4 425.3 456 477.6 512.2 535.1 555.1 585.5 613.5 649.3 677.9 715.3 737.9 743.9 746.2 745.9 744.8 743.4 739.8 731.2 739 747.8 755.4 761.9 768.9 777.5 785.2 795.7 805.5 814.8 822.2 828.5 834.2 839.7 843 842.6 839.4 833.4 824.2 816.7 808 797.6 788.4 777.9 761.8 747.7 736.3 728.7 704.5 665.9 622.9 606.1 619.6 617.3 657.5 685.5 707.5 716.9 720.7 742.2 763.5 776.8 788.8 802.5 812.4 819 823 823.5 822.1 820.5 816.4 805.5 775.5 745.5 705.4 668.3 635.5 614.4 602.4 582.7 559.7 538.7 510 499.1 488.4 476.9 462.5 447.6 432.8 420.7 413 408.1 403.3 398.6 398.1 400.9 410.6 415.6 410.5 404.5 394.6 389.5 383.8 379.1 374.3 371 371 373.7 365.9 371.5 377.7 379.4 379.3 388.8 400.1 405.6 415.7 427.7 439.8 447.4 451.8 454.3 454.3 453.8 452 451.3 450.7 449.9 449.1 454.6 454.5 451.6 448.2 446.8 447.1 444.9 442.9 450.7 460.8 464.7 469.9 474.6 482.8 493 503.7 514.4 525.1 535.2 546.9 560.1 572.2 586.7 602.8 617.3 628.4 636.9 638.7 638
565.9 527.3 495 465.8 442.5 427.9 412.7 405.2 403.1 400.3 397 394.4 392.2 391.4 393.4 395.2 403.2 406 405.8 398.6 388.1 375.3 369.5 362.8 364.5 370.8 393.8 402.3 406.2 393.7 380.6 363.3 352.3 342.8 338.2 339.8 342.2 344.8 353.2 356.3 366.7 378.7 390.6 406.4 429.7 455 478.7 505.6 528.6 557.4 584 615.2 648.3 691 718.2 733.7 739.9 741.4 741.5 740.4 737 725.6 738 746.8 755 762 769.8 779.4 789.7 800.7 810 817.9 823.8 829.4 835 839.9 842.5 841.2 836.9 828.8 821.2 814 805.9 799.2 790.9 780.5 764.2 749.1 735.4 728.9 716.3 702.7 657.7 649.3 653.7 665.7 677.5 703.1 707.4 713.1 723 742.4 757.9 771.1 784.3 799.3 808.7 815.6 818 817.9 816.9 815.1 812.2 806.4 776.6 745.9 709.6 673.9 640.4 615.3 598 584.2 562.3 539.2 512.8 502.9 492.2 479.5 464 450.8 436.8 428.3 423.9 421.9 421.7 422.6 430.1 451.1 470.5 474.5 454.3 435.1 421.7 414.7 404.3 395.1 389.8 384.8 381.9 376.7 385 392.1 397.5 401.4 397 416.5 424.4 419.8 438.3 452.6 464.7 471.7 470.5 469.1 469.6 466.4 465.3 462.1 460.8 458.1 461.6 467.5 463.3 459.9 456.4 453.8 452.1 452 449.3 453.5 465.2 472.1 474.8 482.5 492.3 503.8 516.2 529.3 541.5 553.3 566.7 578 589.7 601.7 617.7 631.2 641.8 644.6 644.9 646.4
580.7 537.3 501.4 468.1 454.4 441 426.8 419.3 412.4 410.2 408.6 406 406.7 413.6 422.1 435.4 439.7 438.3 428.4 424.1 414.9 399.5 384.8 375 387.5 420.4 457.4 468.7 442.7 415.1 400.9 381.8 364.1 349.3 338.9 337.3 339.5 340.4 345.2 349 354 363.4 375.1 388.4 409.9 432.4 455.8 480.2 498.5 526.8 558.9 585 615.1 664.5 693.3 717.5 731.3 735.6 737.1 735.7 728.4 721.5 737 746.7 754.3 762.1 770.5 781 794.3 804 812.1 818 823.2 828 832.8 836.7 838.4 837.1 832.4 824.4 818.2 810.7 805.9 800.4 794.4 785.4 772.7 754.4 738.5 727 717.3 710.5 692.5 692.6 689.8 696 702.3 703.6 707.3 715.6 725.5 739.3 752.3 767.3 782 796.2 805.4 811.7 812.9 811.4 810.5 809.4 808.4 804.6 794 760.4 721.9 683.3 648.2 617.2 598.2 582.2 561.6 540 521.3 510.3 497.5 486.5 473.8 462.9 454.8 451.8 455.9 462.2 478.3 489.5 496.5 513.8 557 568.3 549.1 514.2 480.2 458 440.2 423.9 408.5 396.5 394.5 397.9 406.8 410.2 418.8 423.3 427.1 431.4 440.1 435 454.9 468.1 479.3 489.2 486.5 480.9 479.2 481 476.7 474.3 471.9 468.5 469.4 468.4 464 460.4 457.1 454.6 453.8 454.4 454.1 456.9 460.1 471.2 479.1 491.8 505.4 519.3 533.6 548.7 562.4 575.1 587.4 597.5 608.6 621.2 633.7 644.5 648.9 651.8 652.6 647.3
619.8 569.5 525.3 485.7 464.7 454.7 446.9 445.5 442.8 435.4 437.4 435.6 440 442.2 467 496 482.1 478.8 477.3 463.9 445.9 426 413.3 437.8 474.3 490.4 496.6 481 456.7 436.8 417.5 397.8 381.2 364.4 346.2 342 338.6 339.9 340.3 345 349.8 355.9 364.6 375 393 410.2 430.5 454.2 481 506.5 531.9 559.2 585.1 632.7 667.1 688.7 716.5 728.5 730.6 727.5 716.7 720.3 736.2 746 753.9 761.7 771.3 783.7 795.4 804.2 810.7 816.3 821.6 825.8 829.1 831.7 832.5 830.4 825 819.2 813 808.6 804.6 800.9 795.7 787.8 773.8 758.6 741.6 726.6 720.3 710.9 701.2 699.7 694.4 700.2 704.2 704.5 709.7 717.6 727.2 735.9 747.1 764.9 779.3 793 801.4 805.4 806.2 804.3 802.7 803.1 802.8 800.3 794.2 771 742.5 701.4 660.5 627.4 609.2 592.5 572 550.4 534.4 518.9 507.7 498.7 494.5 489.8 490.1 508 518.5 529.8 534 542.7 578 598.4 607.6 625.6 618.5 590.1 563.3 529.5 488.4 464.9 446.2 433.6 425.3 421.1 428.1 431 439.3 447.1 448.9 447.9 455.5 453.4 470.7 479.5 488.1 494.7 499 503.8 508 504.6 494.4 486.8 481.9 477.6 476 472.9 463.4 459.1 452.1 450.9 451.4 450.8 451.6 450.8 454.9 472.4 487.7 504.3 522.1 537.9 555.8 574.3 589.1 602.2 611.3 620.8 628.8 637.1 645.5 652.9 657.4 652.4 647.3 640
639.3 588 529.4 511.4 494.6 479 477 481.2 482.8 483.7 504.2 505.6 499.3 502.7 538.2 560.1 548.6 555.6 539.7 523.7 498.9 478.4 512.2 530.2 513.9 497.9 487.1 478.9 466.7 450.5 433.3 414 397.2 378.9 356.2 346.8 341.7 339.9 339.1 341.6 345.8 351.4 357.4 362.9 376.3 391.2 411.5 429.4 453.3 481.2 508.9 531.6 555.3 598.6 632.3 662.1 691.1 719 720.2 713.2 705.2 719.9 736.4 745.2 752.9 762.1 771.8 784 794.7 802.5 808.5 813.4 818.3 822.1 824.8 826.4 825.3 822.8 819.9 814.8 809.6 805.9 803.7 800.3 794.5 786.1 774.7 761 740.5 727.9 721.7 710.9 706.7 701.3 701.2 701.6 703.9 707.4 712.2 717.7 726.5 732.9 744.3 761.9 776.4 789.5 795.9 796.1 796.3 793.9 794.2 795.7 796 794.3 788.5 773.3 754.8 720.9 677.1 645.1 624 609.4 594.6 574.1 556.8 541.5 530.7 521.7 521.4 531.1 521 521 538.8 557.7 565.6 585.2 617.4 628.2 629.1 640.1 653.3 648 609.4 572.4 546.7 527.5 510.3 488.4 467.9 454.5 453.9 457.3 461.5 469.2 462.1 464.7 470.9 474.2 479 484.5 490.4 502.4 513.2 524.9 525.3 524.5 520.2 510.5 499.9 490.4 483.5 475.1 462.6 455.6 450 450 450 450 450 450 460.5 480.9 499.9 519.2 538.7 558.6 580.2 603.3 618.1 626.8 634.1 639.6 643.1 650.6 657.5 655.3 652.1 646.6 639.7 631.5
650.2 591.4 585 557.8 535.1 513.2 525.9 539.3 536.4 568 579.6 573.6 539.8 566 615.6 612.3 626.6 620.4 606.3 596.5 571.9 566.9 550.9 529.1 510.1 493.4 482.4 478.2 472.7 458.8 442.3 426.3 405.4 383.6 373.6 352.3 343.8 342.3 340.3 341.5 341.9 345.2 350.7 357.2 364.9 376.2 392.6 410.8 431.3 454.2 481.8 500.6 537.2 569.2 602.9 634.2 666.7 702.3 703.4 694.1 706 724.4 735.7 744.2 752 762 771.9 782.9 792.8 800 805.2 810.1 814.5 818 820 820.9 819 817.6 815.3 809.9 805.7 803.7 801.5 798.1 793.2 785.9 777.8 768 749.8 734.3 724.7 714.2 712 707.3 706.2 703.6 704.4 708.1 710.9 714.7 723.5 731.1 742.3 758 771.9 784.6 789.8 787.6 786.2 786.4 787.2 788.2 789.9 789.9 784.5 770 753.2 739 702.6 661.7 634.3 613 594.3 579.1 568.3 557.2 557.4 551.2 540.7 532 531.9 535.2 545.4 558.9 582 608.2 621 627.1 633.3 643.7 658.3 672 675.5 657.5 632.3 592.5 562.8 540.2 523.1 505.8 491.6 486.5 485.7 485.2 473.7 476.4 477.7 480.9 481.3 483.1 488.9 509.1 531.6 541.3 545.7 542 534.5 517.8 510.6 500.8 489.1 478.4 463.6 454.3 450 450 450 450 450 452.5 469.3 493.5 517.2 537.8 560.5 581.5 603.9 625.4 634.1 639.8 645.3 649.3 651.6 652.6 652.9 649.4 646.5 639.8 632.6 626
670.8 658.8 643.1 607.1 579.6 544.3 597.8 604.9 628.4 658.8 638.3 604.4 589.5 619.2 671.9 679.7 685.6 684.1 654.7 625.1 594.2 568.1 544.8 522.9 502.6 488.7 480.4 473.3 473.7 463.3 445.2 431.2 415.9 399.8 380.9 365.8 352.1 346.9 344.2 342 342.1 343.1 344.3 349.2 356.1 365.5 377.1 393.6 413.4 432.2 454.1 477.6 518.5 543.7 576 603.5 641.3 676.4 675.1 683.8 709.6 722.9 733.9 743.2 751.2 760.7 769.3 780.9 790 796.5 801.4 806.5 810.6 813.8 816.1 816.5 814.3 812.3 809.8 805.3 802 799.8 797.9 795.2 791.4 785.9 778.8 771.6 754.5 737.1 725.1 724.5 718.2 715.1 710.4 707.2 702.9 703.9 708.3 713.8 721.8 729.1 740.1 753.6 766.8 777.7 781.8 778.7 776.3 776.7 778.6 781.7 784.7 787.2 783.7 768.3 752.1 742 711.1 672.8 642.3 616.1 600.2 586.1 581.6 585.9 589.7 584.4 560.1 539.1 546.3 566.9 570.4 580.3 588.1 607.5 619.6 628.7 637 647.2 657.9 671.4 683.6 695.9 696.7 667.6 614.3 586 562.4 548.9 532.4 524.9 514.3 503 482.6 479.4 481.1 481.9 482.7 483.6 488.9 513.2 538.7 554.7 558.3 554.2 545.1 540.2 530.8 519.8 508.3 498.4 480.6 454.8 450 450 450 452.7 454.9 468.2 489 510.4 535.1 559.1 587.8 616.2 635 639.5 640.3 643.6 648.5 650 649.9 647.9 646.8 644.3 638.4 632.6 630.2 621.6
703.1 693.4 671.8 640.8 610.2 604.5 661.2 690.9 719.2 701.1 658.5 632.6 634.8 673.2 723.7 741.4 737.4 710.1 666.4 627 591.8 562.4 536.5 516.2 500.9 488.2 480.5 472.2 471.1 468 453 435.7 421.4 408.7 392.7 384.3 373.5 358.4 350.1 345.4 343.1 343.3 343.4 345.2 349.5 355.4 364.8 377.3 395.8 414.4 432.3 456.2 485.1 517.5 543.5 573.1 605.9 642.6 670.2 695.5 708.9 721.5 729.4 740.2 749.7 758.9 767.1 776.9 786.4 792.5 797.5 801.7 806.1 810.4 813.5 812.4 808.3 806.4 802.8 799.3 795.7 793.3 792.9 791 788.7 784.7 778.1 772 760.6 743.7 732.8 727.8 722.2 717.5 712.1 707.3 701.5 700.4 704.3 710.5 717.2 726.1 736.1 748.3 760.7 770.2 773.2 769.4 767.8 769.4 772.5 777.4 781.3 783.1 776.6 764.6 754 743.9 726.3 693.2 664.9 642 626.2 606 611.6 609.9 598.7 577.5 551.7 552 565.1 578.2 589.2 591.3 594.5 603.9 618 630.4 639 648.3 658.7 670.5 685.2 696.7 702.4 698.9 660.4 643.7 633.4 610.9 591.7 576.9 555.4 525.8 499.2 487.1 482.6 483.9 483.1 486.3 497.8 515.4 539.4 559.1 562.5 565.2 565 562.8 560.2 554.6 536.6 525.7 508.8 489 466.1 459.1 460 465.8 477.5 498.4 509.1 531.5 558.4 588.7 620.8 643.5 645.9 644.1 642.3 642.8 645.4 645.4 642 639 635 631.1 631 627.2 620.2 613
706.3 701.3 681.8 666.4 641.7 668.1 735.2 760.5 764.7 728.9 695.7 675.1 702.2 741.5 767.2 760.2 757.2 722.6 675.2 632.6 597.4 565.6 537.1 515.5 502.3 486.9 478.4 477.8 475.6 471.2 457.9 442.4 431.7 422.2 417.3 411.7 397.4 376 361.8 352.9 343.4 344.3 345.3 345.7 347.3 351.5 357.6 368.1 381.9 400.8 418.5 440.1 462.5 495 513.9 543.1 575.5 615 669.8 696.4 714.5 727.3 736.6 744.6 752.4 759.3 763.9 774.1 782.7 790.8 796.4 802.4 807.5 811.5 813.8 813.4 809 804.4 795.6 790.9 788.3 786.3 785.7 785.5 784.6 781.6 776.8 772.1 763 753.2 740.8 733.5 727.2 720.5 712.9 707.3 701.4 696.7 700.1 705.4 712.7 721.5 731.9 743.1 754.3 761.5 764 762 762.2 763.3 768.4 773.4 777.5 778.3 774.6 766.5 756.2 746.2 729.6 711.5 693.1 681.4 669.3 648.9 623 611.9 600.2 582.9 572.7 572.6 570.5 580.2 594.5 596.5 605.1 607.7 618.2 630.2 640.5 649.4 659 669.8 682.8 694.3 701.3 707.5 708.7 702.5 677.8 663.5 659.3 644.5 613.3 574.5 533.3 509.2 489.1 486.6 486.2 490.8 498 510.8 538 559.6 574.7 587.6 593.3 595.2 595.6 596.1 586.9 567.5 553.6 530.4 500.7 483.9 483.6 496.8 506.1 521.3 535.9 558.7 586.5 619 649.6 652.6 649.2 645.2 642.7 641 639.4 636.1 632.3 628.2 624.1 622.3 620.1 617.4 613.3 607.1
711.5 710.1 696 676.1 676.6 707.3 757.7 765.7 770.5 772.8 734.9 755.4 789.1 777.5 773.5 764 760 754.2 710.5 648.1 610.8 579.5 554.2 536.7 520.1 500.4 489.4 485.7 483.5 480.3 471.5 457.4 451.4 448.1 445 435.7 424.2 400.8 376.2 359.3 348.7 345.5 346.2 346.8 348.2 350.2 354.4 363.1 372.3 384.6 400.8 423.4 445.2 472.2 494.2 518.3 550.3 611.9 654.1 688.9 712.2 727.2 737.6 745.9 754.4 762.2 769.4 776.6 784.2 792.4 798.8 803.4 808.5 813.1 815.4 815.7 811.4 805.6 797.4 789.1 783.1 779.5 777.8 778.1 778.7 777.7 775.4 771.8 764.6 757.1 747.7 738.3 729.6 720.5 714 706.4 700.2 695.1 694.1 699.8 706.9 716.6 727.4 737.7 747.9 753.5 756.5 756.5 756.5 757.9 764.2 769.5 772.6 773.4 770.1 763 756.6 748.1 738 725.7 708.7 694.1 676.4 642.3 619 615.4 598.5 590.6 603.9 602.8 589.6 584.8 594.4 599.4 610 609.1 617.3 629.3 641.2 650.1 658.3 667.6 680.3 691.3 700.2 705.6 708.6 709.8 717.4 721.3 724 705.1 659.1 617.7 579.8 547.1 518.7 495.8 492.8 495.5 499.9 515.5 543 567.8 592.7 606.9 618.1 625.8 631.1 634.8 634.9 624.9 605.8 565.5 544.2 526.4 514.1 519.8 538.1 550.6 567.5 593.3 626.2 655.2 658.6 655.2 650.1 645.7 642.3 638.9 634 628.3 623 618.8 616.4 614.9 613.3 609.7 604.2 596.9
710.2 713.3 708.6 703.9 714.9 749.6 756 768 772.5 779.8 789.7 790.8 784.1 776.1 772.3 765.7 757.3 756.6 735.5 683.6 641.6 611.7 587.7 567.4 542.7 530 517 505.8 504.4 503.2 498.9 489 483.4 482.9 476.2 462.5 451.7 424.3 393.5 377.9 359.8 352.1 350.5 350.1 348.9 350.7 352.3 357.7 365.8 375.2 388.8 408.9 427.2 452.7 473.4 499 529.1 591 637.1 669.8 699.7 721.3 733.8 742.5 751 761.3 770.6 777.7 785.8 793.2 799.9 805 809.9 815.2 818.3 819.3 816 809.1 800.1 791.6 783.9 776.5 770.3 770.9 771.7 772.1 772 769 763.7 756.8 749.5 739.6 729.2 720.1 711.7 704.8 699.2 694.3 691.1 696.6 702.5 710.2 721.2 731.2 741.1 747.1 750.2 751 750.4 756 761.4 766.1 768.4 767.3 763 757.4 753.9 748.1 741.5 730.2 715.2 700.8 674.2 652.1 651.4 629.2 614.1 617.6 624 609.8 598.2 588.7 591.4 597.3 603.9 611.3 615.4 628.8 640.4 648.7 656.1 665.4 676.7 688.6 697.8 703 707.6 712.6 720.5 727.1 729.8 733.5 725.7 675.2 621.7 592.6 547.2 517 502.2 503.1 506.6 522.2 553.6 573.2 602.1 625.2 639 650.7 659.8 666.7 671.4 673 638.9 615.9 597.9 572.8 560 557 572.9 589.4 606.2 636 665.4 664.7 660.4 656.7 652.4 647.8 642.4 637.4 632.1 625 617.6 613 610.9 607.5 603.1 598.8 593.9 586.3
715.2 715.1 718.7 733.4 744.8 749.4 754.3 764.2 773.9 782.2 784.5 787.9 783.9 772.1 766.4 762.5 756.4 754.9 746 713.2 667.8 648.5 625.7 609.7 583.3 568.4 556.8 548.2 548.9 549.1 548.7 543.6 542.9 528.1 518.7 509.5 480 448.3 418.9 401.6 379.3 368.1 364.4 357.8 353.6 351.2 353 355.3 356.8 366.4 379.8 395 412.2 433.4 456.7 489.7 515.5 566.3 609.1 645.5 689.4 712.3 726.6 736.6 745.1 757.4 768 776.8 784.8 792.7 799.6 805.5 812.4 817.9 821.6 823.2 821.2 814.9 805.7 796.6 785.3 777.6 771.6 763.5 764.8 764.7 764.6 763.9 760.2 755.7 748.6 738.4 728.8 718 706.9 698.8 694.2 690.9 688 690.6 696.6 703.3 714.3 725 733.6 740.4 743.2 744.6 746.3 753.3 759.1 762.2 761.5 758.2 754.6 751.3 747.9 744.9 741.9 734.6 721.3 702.3 683.9 672.6 653 635.9 633 633 618.3 614.3 596 592.4 595.7 599.3 605.2 610.4 614.9 627.9 638.1 645.9 653.9 664 674.9 685.1 693.8 699.8 705.1 711 718.2 724.4 731.6 739 739.5 698.8 657.8 616.4 585.8 567 543.7 526 523.2 531.4 555.8 586.4 612.3 636.9 655.5 670.7 682.8 693.1 697.8 699.5 696.6 684.7 656.3 628.3 612.4 599.9 608.3 626.7 652 667.2 666.6 663.1 660.5 658 652.8 646.4 640 633.8 626.7 619 612.5 607.6 603.5 598.3 594.1 589.2 583.5 576.1
721.1 732.2 735.1 742.1 748.7 749.6 760.2 762.2 772.3 779.7 782.6 783.8 778.2 767 761 759.5 754.6 753.7 746 724.4 701.5 686.5 665 649.5 631.6 615.6 599.7 612.1 614 604.1 619.8 606.4 606.9 589.4 590.2 570.5 527 489 451.6 426.1 402.2 386.9 380.5 368.3 361.6 360.9 358.8 360 360.2 362.4 372.7 384.6 399 420.2 445.5 487.4 506 542.1 588.8 629.6 662.2 693.6 713.7 727.8 739.7 753.1 765 773.5 782 790.5 799.7 807.1 814.3 819.6 823.9 826.4 825 821.8 811.7 801.2 790.7 782.1 774.3 762.8 755.8 755.9 754.9 755.7 753.4 751.6 747.7 737.5 727.8 715.1 703.2 694.9 689.9 684.5 682.7 684.8 689 695.9 705.6 716.5 726.7 732 735 736.8 744.2 750.3 755.2 758 757.1 753.6 748.4 744 742.5 741.1 738.9 734.4 719 707 692.6 672.9 653.1 646.4 640.3 635.8 620.5 603.2 597.4 594 596.9 599 603.3 607.8 616.3 625.8 635.4 642.8 652.3 663 672.8 681.8 689.8 695.8 701.1 708.6 715.5 723 731.7 739.3 740.1 713.8 685 663.3 626.2 594.1 573.5 547.9 549.1 559.2 575.4 597.6 625.3 650.5 671.6 686.7 698.9 707.3 709.6 707.5 701.4 694.6 684.6 674.3 665.6 647 648.5 661.1 665.5 665.8 663.8 661.4 659.4 654.8 647.5 640.4 633.8 626.7 619.2 611.9 605.3 600.8 595.8 590.7 584.9 579.1 573.1 563.7
739.8 752.3 748.1 747.9 749.8 755.6 758.4 762.8 771 775.9 779.8 778.5 773.8 769.1 761.3 758 757.2 752.9 747.2 732.6 720 722.7 716.5 713.9 689 668.2 670.5 673.6 669.7 692.2 696.3 681 657.8 646.4 631.9 598.3 560.9 523 481.7 460.3 432.9 413.5 398.6 387.4 382 375 370.5 370.4 372.7 370.1 366.4 377.6 391.7 411.4 436.7 463.8 493.8 520.7 560.1 605.6 636.2 662.5 683.1 717 734.3 750.1 762.3 771.7 780 787.1 798 806.7 814.5 821.1 825.8 829.2 829.3 825.9 819.5 808.3 795.8 787.8 778.2 763.8 752.3 745.8 745.2 746.8 745 745.7 744.8 738.8 730.9 720.6 707 697 686.5 679.5 677.6 678.1 682.6 691.1 699.4 709.8 720.3 725.6 728 733.8 741.1 747.8 751.7 753.2 751.8 747.9 741.9 737 735.9 734.7 733.8 728 718.7 710.5 694 673.1 656.3 649.2 642 631.6 611.1 599.4 593 597.9 598.7 599.1 604 607.4 614.6 624 634 640.8 651.3 660.6 670 678.3 685.2 690.9 696.4 704.9 712.6 722 729.7 735.1 737.3 734.8 724.2 720.6 688.2 637.4 630.2 618.3 590.1 598.7 610.5 626.2 647.4 670.1 684.7 701.1 711.1 715.5 714.9 710.6 704 695.3 684 672.1 665.9 662.9 660.8 660.6 661.2 661.2 659.9 658.4 653.4 646.5 638.9 631.9 624.3 615.4 607.8 600.9 596.2 592.3 587 581 575 566.4 558.3 551.8
757.3 759.4 751.2 749.2 745.5 754.1 757 763.3 769.3 774.1 777.6 776.4 772.1 769.7 759.8 755.7 752.5 749.7 743.1 732.8 736.4 739.6 742.3 741.7 723.8 724.8 727.3 726.8 727.6 745.9 727.2 711 694.7 675.3 646.1 620.6 576.6 547.6 525.2 491.6 474.2 460.4 438.1 433.4 411.7 393.7 386.9 389.4 388 380.3 374.8 372.5 385.7 401.9 424.1 452.4 479.4 503.5 535.6 568.2 602.3 626.5 658.2 701.1 732.6 747.7 760 770 778.2 786 794.1 804.9 813.8 821.2 828.6 832.8 832.9 829.2 823.3 812.1 800.5 791.9 778.7 762.2 751.5 742.8 735 736 737.6 738.4 737.9 737.5 733.2 723.8 712.9 699.1 686.9 678.9 676 674.7 677.2 686.6 696 706.3 714.9 719.7 723 731.8 739.2 744.4 746.8 747.2 744.3 740.3 734.8 729.6 728.8 728.3 727.9 724.9 717.5 707.2 697.5 688.2 656 643.4 632.1 618.8 605.4 596.5 593 593 598.4 598.6 602.3 606 611.4 623.2 631.7 639.3 648.5 657.6 666.7 674.4 681.5 685.8 693.1 700.5 709.9 718.8 725.5 730.6 734.6 738 741.7 741.5 704.5 700.8 710.2 703.5 699.7 678.6 660.6 666.2 686.4 700.6 703.7 711.3 718.6 721.7 719.6 712.3 702.7 691.3 680.6 671.3 665.1 661.2 658.8 656 653.9 653.4 652.6 649.1 643.6 635.2 627.9 619.8 610.3 601.9 596.1 591.3 587.2 581.3 576.4 571.7 565.1 556.3 549.2 543.5
759.2 753.6 748 744.5 747.3 751.3 756.4 760.7 767.3 771.6 772.4 772.3 770.5 760.4 757.9 753.8 748.7 747.4 741.9 737.7 736.1 736.5 746.4 742 741.9 740.4 742 746.3 758.7 748 731.8 721.1 699.3 682.5 663.8 645.8 623.6 599.8 582.2 570.6 553.3 530.3 501.5 481.7 442.1 420.5 404.6 416.3 410 395.5 385.9 383.8 379.6 396.6 413.2 437.7 465.6 488.9 514.1 539.4 566.2 603.3 651.9 703.8 731.1 745.1 756.6 766 775 783.6 793.3 802.6 812.6 822.2 830.8 835.6 836 832.5 825.1 815.6 802.9 792.6 777.2 761.1 749.9 739.2 731.9 726 728.3 730.1 730.4 731.4 732.3 725.3 716.1 703.9 691.2 681.5 677.3 674 674 684.5 695 703 709.2 711.8 721.3 730.7 737.2 741 741.4 739.3 735.5 731.9 726.2 721.7 721.3 721.3 720.2 720.4 714.4 701.8 687.8 673 647.9 637.3 625.4 613.9 602.4 593 593 593 593.6 598.5 600.7 605.1 609.1 618.7 629 638.5 646.8 655.3 664.2 671.5 677.5 682.9 689.3 697.3 706.1 714.1 720.8 726.1 731.4 735.6 740.6 742.1 742.2 738.4 733.3 728.8 725.1 720 715.1 711.9 716.4 717.9 719.1 721.2 725.3 725.4 718.1 708.5 696.1 687.4 678.5 672 666.5 661.1 656.1 651.7 648.1 644.5 641.4 636.9 630.7 623.6 614.9 606.2 598.7 592.6 587.1 581.1 577 571.7 566.2 560.2 554.2 548.6 542.2 532.6
755 748.8 742.5 739.5 744.2 749.5 753.4 757.7 761.6 765.8 765.9 768.5 765.5 756.4 754 749.8 748.4 747.3 747.2 744.9 741.1 737.5 738.1 738.2 739.4 739.3 742.4 744.2 741.4 735.2 724.1 715.4 696 690.1 675.9 664.1 654.8 642.6 616.7 592.3 569.7 546.4 522.1 496.2 460.2 434.4 437 441.9 427.3 413.2 405.9 395.5 390.7 390.2 404.7 428.2 451.3 474.4 489.9 520.8 553.9 598.3 648.9 706.3 726.6 741.2 751 760.8 769.7 780.3 792 802.3 812.1 823 832.1 837.1 837.8 834.4 828.1 818.1 804.6 791.5 773.6 758.8 747.7 737.5 731.3 726.5 717.6 721.8 721.7 724.6 727 722.3 713 702.7 692.5 684.6 679.7 674.2 673.5 682.8 692.6 698.1 702.7 709.8 721.8 729.1 735.2 737.9 737.7 734.3 728 723.9 718.9 716.5 715.5 714.7 713.4 713.4 706.5 694.9 675.1 659 637.9 630 620.7 612.4 602.1 593 593 593 593 593 593 599.3 606.8 615.3 626.8 638.3 645.9 654.5 662.2 669.3 674.8 681 686.8 695.7 704.3 711.5 717 721.9 728.2 732.7 737.9 741.9 740.9 737.3 731.7 729.3 727.9 728.3 727.7 728.5 729.5 730.3 729.9 729.8 728.4 723.5 712.9 700.9 688.5 682.6 676.9 670.7 665 660.4 652.8 646.9 641.4 636 629.9 625.1 619.3 611.5 602.7 595.2 589.8 583.5 577.4 572 567.2 561.7 556.2 550.6 544.4 540 533.9 517.1
749.3 740.5 739.7 737.4 741.6 744.6 750.4 753.7 756.6 760.4 760.3 759.8 757.9 753.3 752.2 748.2 746.3 749.1 749.6 748.4 746.1 739.1 735.7 736.1 736.5 735.5 740.3 734.8 730.1 725.8 718 706 695 690.3 681.4 673 662 651.2 626.5 595.7 577.2 558.4 539.2 510.2 471.6 450.1 482.2 506.5 473.2 444.3 429.8 411.9 401.3 397.4 404.2 423.5 442.4 459.9 483.3 511.8 547 586.7 641.2 699.1 722.8 737.4 747.7 758.3 767.3 778.3 789.1 801.7 812.6 824.8 834 837.9 838.3 835.6 829.8 818.1 805.3 792.2 774.9 759.8 748.9 739.9 730.7 724.3 716.8 714 713.7 714.8 718.1 714.2 706.3 697 689.7 683.2 679.2 675.2 671.6 681 688 691.6 698.5 708.2 721.2 728.9 732.8 734.1 732.5 730.4 721.8 716.5 711.8 708.9 708.3 708 707.4 707 698.9 688 667.3 646.6 630.6 623.8 618.9 610.2 601.7 593 593 593 593 593 595.5 599.8 607.6 614.7 625.5 636.9 645.6 653.3 660.3 666.6 672.7 678.8 685.6 694.4 704.3 711.1 717 722.5 727.9 730.9 734.5 735.7 735.2 730.8 726.6 727.7 730.7 733 734.3 736 737.6 737.6 736.3 732.9 728.9 718.6 703.9 689.1 682.2 677.5 673.3 668 662.5 655.3 647.3 640.2 633.7 626.7 620.7 614.6 607 598.4 591.2 585.5 580 574.9 569.4 562.2 557.5 553.2 547.4 542 535.1 526 509.4 490.9
746.4 738.3 735.3 735.7 740.3 743.1 745.7 748.6 753.8 755.2 757.8 753 749.9 749.8 747.8 746.5 746.7 750.7 751.2 750.2 746.6 736.9 730.2 730 733.6 730.9 733.6 728.7 720.4 713.9 704.4 700.2 689 687.2 678 666.4 662.8 653.6 633.4 604.4 589.4 568.6 544.8 508.7 473.8 485.3 529 527.5 497.8 467 445.3 424.5 412.8 407.5 403.2 417.4 437.7 455.6 479.6 508.8 540.5 583.9 635.7 689.1 724.7 737.7 747.7 757.5 766.4 776.6 788.5 800.6 813.1 825.1 834.2 837.9 837.9 835.1 829.2 819.2 807.2 794.3 778.7 763 751.1 740.8 730.3 722 714.8 706.1 703.4 705.4 706.7 706.2 698.8 690.7 684.9 679.9 675.6 672.2 668.1 676.4 680.4 689 697.1 708.3 720.5 727.1 729.5 728.2 725.9 723.2 716.9 711.8 707.1 701.1 701.2 702.7 701.3 699.9 690.2 680.9 660.1 641.4 628.3 620.9 618.2 608.1 602.3 598.8 600.2 596.6 593 596 597.1 602.2 608.9 616.5 626.7 636.9 644.4 652.3 657.9 662.7 668.6 676 683.4 693 703 711.3 718.1 724.5 729.8 731.4 730.7 728.7 725.4 720.5 719.3 724.5 730.2 734.8 737.4 739.5 740.1 738 734.4 729.8 721.2 708.2 693.7 680.8 677.5 675.2 669.5 662.5 655 646.5 637.5 630.9 625 618.6 611.5 603 594.7 587.7 582 576.8 572 567.1 561.8 556 552.2 546.1 539.7 533.3 526.1 512.9 489.8 463.7
741.1 739.2 738.1 734.4 736.2 740.4 742.2 745.5 750.2 752.9 753.6 746.8 747.1 744.9 743.6 745 745.1 749.3 755 751 740.6 734.4 730 728.3 725.1 724.5 726.7 717.3 711.1 702 694.4 686.4 681.1 679.6 671 666.2 667.8 658.6 650.9 625.3 602.7 581.2 550.1 510 515 543.1 574.8 575.8 545.5 510.3 463.4 441.6 427.9 421 416.1 419.3 437.5 459.7 485.3 510.9 541.9 583.6 642.8 691.1 724.1 736.4 746.6 756.3 765.8 775.6 788.2 800.5 813 824.3 832.4 837 835.6 832.6 827.6 817.9 807.5 792.2 780.3 765.2 750.3 739.5 729.5 720.3 712.6 705.9 697.2 696.9 697 696.8 692.4 687.1 681 675.1 671.8 667.6 665.2 671.9 681.4 687.5 697.6 709.1 719.6 724.3 724.6 722.1 719.6 719.4 711 705.5 700.7 695.1 694.8 695.8 695.3 692.8 683.1 672.2 656.4 639.8 626.4 619.7 613.5 608.6 605.6 604 605 601 594.6 598 599.3 604.7 610.7 617.6 626.3 635.6 643.4 651 655.8 660.9 667.3 673.8 681.5 691.3 701.9 710.7 720 727.6 730.8 730 728 724.2 719.5 715.6 716.4 720.5 727.4 732.6 736.2 738.2 737.1 732.7 727.4 722.3 712.7 700.3 687.1 677.4 669.7 663.7 658.1 651.4 643.4 635 627.5 621.9 614.5 606.8 598.5 590.5 583.8 578.3 574 568.6 565 562.1 557.7 553.6 547.7 542.1 532.2 521.7 508.4 488.5 463.6 434.5
736.9 737.1 737.4 731.6 735.2 737 739.4 743.5 746.7 748.7 747.6 742.2 742.3 740.5 739.9 741.9 746.8 753.2 754.9 749.5 741 733 727.8 724.3 721.4 719.4 718.3 711.7 706.8 699.8 694.3 686.8 681.5 678 672 674.6 674.8 668.7 656.8 639.6 610.5 585.3 552.2 546.1 574.5 601.8 604.4 579.6 550.8 522 496.5 468.5 443.3 438.1 434.3 432.3 445.2 465.7 494.8 525.1 562.9 611.6 663.8 704.3 721.6 733.7 744.1 755.4 764.7 776.1 787.2 799 812.3 822.9 830.3 833.9 832.6 830.2 826 815.9 802.3 788.6 776.2 763.2 749.7 738.8 726.3 717.3 710.3 702.6 696.2 687.9 690.4 689.9 687.4 682.7 676.4 671.3 667.7 663.5 662 669.9 678.1 686.8 697.2 709.9 717.9 719.9 717.4 715.7 716.1 715.1 705.6 699.8 696 691.1 689.8 689 686.2 683.7 673.3 664.5 646 634.2 623.9 616.7 612.1 609.9 611 608.4 607.3 602.7 597.1 599.7 602.4 607.4 611.7 617.7 625.8 633.9 642.3 649.8 656.1 660.9 667 674 681.1 690.9 701.5 710.8 719.8 726.8 728.6 727.9 725.3 721.9 718.3 715.1 714.5 717.9 723.6 726.7 729.6 730.3 728.1 723.2 719.7 713.8 704.3 691.5 675.9 663 656.2 652.1 646.8 641.3 634.3 626.2 619.1 610 599.7 591.6 586.2 581.1 576.2 570.2 565.2 562 559.8 555.8 551.7 548 540.8 528.3 512.5 496.4 475.7 456 431.9 413.1
734.4 733.9 732.5 730.1 732.9 732.3 735.6 739.9 743.4 744.7 741.5 737.6 737.6 737.7 738.9 741.4 748.1 754.6 748.8 746.7 739 734.1 727.3 723.3 712.9 716.6 713.4 708.7 705.4 698 696.8 691.8 687.7 684.8 676.8 681.2 682.5 674.3 663.1 638.4 612.7 583.9 571.5 597.5 619 619.8 612.5 593.9 562.4 536.2 511.5 506.9 507.4 498.7 469.1 454.8 464.4 479.7 494.5 536.5 584.2 633.6 682.9 711 719.8 730.4 742.8 754.5 764.6 776.7 786.6 797.7 810 820.4 826.6 829.9 830.1 827.8 821.2 813.1 796 783.6 769.7 759.4 749.2 739.3 728.5 716.9 706.9 698.4 693.2 689 682.8 684.7 682.2 677 671.8 667.7 663.3 658.6 659 666.7 674.7 685.8 696.6 708.5 714.6 716.9 714.8 713.8 710.1 709.2 700.8 693.6 687.8 684.1 683.1 681.6 677.9 674.2 663.8 652.4 640.4 631.5 622 617.8 614.3 611.3 612.9 611.6 609.3 604 604 603.4 605.5 609.3 613.3 618.4 626.5 636.1 643.3 649.7 655.6 661.1 667.6 673.6 681.5 693.4 702.7 709.7 716.7 722.9 724.8 724.7 722.6 719.3 716.4 714.6 714.6 719 721.9 722.7 722.7 721.9 718 715.4 714 706.3 693.3 680.5 667.9 657.6 650.8 645.8 642.9 636.4 627.7 616.6 605.4 594.8 587.3 581.6 578.5 573.1 566.7 563.9 560.7 558.9 556.1 551.7 547.2 540.3 527.4 505.4 484.9 463.8 443.9 427.5 408.2 389.5
732.3 731.6 728.4 727 729.9 728.9 733.5 737.2 738.6 740.1 738.1 736.7 735.4 733.5 736.1 742 747.7 750.5 746.1 742 734.3 731.5 728 722.5 709.8 709.5 708.1 707.4 705.1 699.8 697.4 694.7 693.1 689.9 684.4 682.3 683.8 676.7 667.3 647.4 613.6 593.3 632.1 638.8 636.3 630.9 622.3 596.8 567.4 548.3 552.9 558.4 540.1 516.2 497.1 490 495.2 515 529.6 533.9 582.3 638.2 690 719.7 725.4 730.7 741.5 752.5 764.4 776.4 785.9 794.7 806.1 816.5 822.5 825.8 827.3 824.5 818 805.1 791.6 779.1 766.6 756.7 744.7 739.2 728.7 717.9 706.8 697.8 693.7 689.8 684.9 675 670.9 667 664.3 662.8 659.8 656.3 656.4 662.4 672 683.6 695.5 706.3 712.8 717.5 715.9 712.1 705.2 699.6 694.7 685.8 680.9 676.6 675.4 674.2 669.3 663.1 655.6 646.7 636.6 629.4 620.8 618.1 615.4 613.9 613.6 611.3 608.5 607.8 607.4 606.5 608 611 614.7 619.9 627 636.7 644.3 649.8 656.2 662.1 668.2 674.4 682.3 692.7 700.3 705.4 711.8 716.5 719.2 719.7 718 715.2 713.2 713.8 716.3 720.1 721.9 720.1 719 717.3 714.4 712.1 705.7 697.4 687.4 673.8 662.1 653 647.3 643.6 639.2 630.3 617.7 605.3 592.9 583.6 578.4 575 570.7 567.1 564 559.3 558.1 555.4 551.4 547 540.5 525.8 503.5 479.8 455.3 436.9 416.1 397 382.7 361.5
729.2 728.7 724.1 724.9 726.5 728.1 731.5 732.4 735.7 735.2 736.4 732 731.5 730.4 733.7 737.6 743.3 747.3 744.8 740.5 732.3 729.1 723.9 719.1 710.1 709.2 704.2 706.7 704.1 700.6 699.4 695.9 699.8 697.6 691.9 684.2 686.4 678.4 664.5 649.3 628.6 637.9 645.6 644.6 641.4 636.9 622.1 599.2 572.1 574.1 575 561.2 543.8 534.4 532.4 542.1 555.8 569.4 581.5 600 586.6 645 687.8 722.2 731.7 736.4 739.7 748.3 764.3 775.3 784.1 791.8 801.9 812.1 818.3 821.8 824.1 821.4 814.7 803.2 788.8 776.4 766.3 756.7 748.3 740.2 730.3 718.1 709.1 703 698.2 692.9 685.8 676.1 668.9 659.9 656.4 655.8 654.8 653.1 652.1 659.8 669.2 680.7 693.1 704.4 712.7 719.2 718 710.4 703.3 695 686.3 677.6 672.1 668.1 667.3 664.2 659.4 653.2 646.6 639.2 631.4 625 619.1 614.3 614.4 613.6 611.3 609.8 608.7 607.6 606.5 606.8 609 612.1 616.4 622.4 629.1 636.8 644.1 650.2 657.2 664 669.3 675.7 683.3 688.5 692.7 698 702.9 708 711.8 713.4 712.2 709.7 709.7 711.4 713.6 716 716.8 716.3 715.9 715.9 713.1 711.3 705.1 694 680.1 665.9 655 651.4 647.5 640 631.2 620.3 608.3 596.6 586.3 578.1 572.1 570.6 567.6 564.4 559.2 555 552.2 549 543.4 532.5 513.2 495 475.7 451.8 429.1 409.2 389.6 370.2 355 335.9
724.8 723.1 721.4 721.4 722.7 726.5 727.9 729 731 730.9 729.3 726.5 725.8 727.5 730 734 739.6 743.7 741.7 736.5 731.4 728 724 716 713.1 708 704.1 703.3 703 702.2 699.4 699.1 695.8 699.3 692.3 685.6 686.6 680.1 663.9 642.2 633.4 646.4 648.9 650.9 642.1 634.5 618.5 604.3 597.5 586.2 580.4 559.8 551.7 551.2 562.8 587.4 587.5 611 639.6 636.5 640.4 632.9 686.3 726.9 740.1 745.9 747.8 753.9 763.7 775.2 783.1 789.9 798.3 807.5 813.3 816.9 818.3 815.7 810.2 802.1 787.6 775.9 766.2 756.8 749.1 741.9 732.8 721 710.4 705.2 699.9 693.1 683.3 671.4 662.8 655 648.8 646.7 648.2 648.4 646.2 654.8 664.1 675.6 688.9 702.7 711.5 718.4 716.5 708.2 700.4 693.4 680.6 671.2 667.2 662.2 658.7 653.1 647.4 640.8 635.7 632.1 623.4 619.9 615.4 612.8 610.1 609.6 607.3 606 605.8 605.9 605.4 605.9 608.9 613.7 618 624.5 630.2 637 645.3 652.2 659.5 664.7 669.8 676.3 680.3 683.2 684.6 687.3 692.4 697.6 701.7 702.9 702.4 702.4 704.1 706.9 710.8 713.8 714.5 714.7 713.8 712.4 713.2 711.7 700.6 687.3 673.7 661.3 654.5 648.6 639.8 631.6 621.9 611.9 600.8 590 581.6 575 571.2 566.8 563.9 558.8 554.9 550.9 547.1 537.9 521.9 503.4 484.4 468.6 451.3 432.6 407.6 382 363.3 344 326.9 310.1
718.7 718.2 716.8 718.3 722.5 724.1 724.7 725.8 726.7 725.8 722.7 720.3 721.4 723.2 726.4 729 734.8 736.8 735.5 732.2 730.2 729.4 721.3 715 712.1 707.6 703.1 702.5 705.1 703.3 700.5 695.9 696.9 696.3 691.4 686.1 688.7 678.3 658.8 642.4 641.1 639.6 643.1 645 638.9 631.5 628.2 621.3 604.4 607.4 597.4 579.2 563.8 569.4 594.9 584.7 601.1 633.2 661.1 675.1 677.5 683.9 688 727.8 745.5 751.7 753.9 761.5 768.6 775.4 783.4 789.2 796.6 804.3 808.8 811.6 811.9 807.8 803.5 797.1 783.8 774.4 766.8 757.6 749.9 741.9 733.9 722.1 712.3 702.6 695.6 687.4 678.3 666.3 657.9 649.7 643.5 638.9 640 640.9 641.3 650.2 659.6 671.1 684.8 699.7 707.9 713.7 710.8 703.6 694.3 685.9 675.3 668.8 662.5 651.9 644.5 639 634.3 628.5 624.6 622.8 614.7 610 608.9 607.7 605.7 604.8 601.2 602.5 601.9 601.9 603.2 605.9 609.8 614.4 620.4 626.4 631.9 638 644.6 652.3 658.6 663.2 668.1 672.2 672.8 672.3 672.1 674.5 679.9 684.7 687.1 688 690 692.3 697.4 703.3 707.8 709.7 710.6 708.8 706.3 706.6 711.4 706.8 694.3 677.7 665.8 657.1 650.9 641.2 632.5 623.6 613.6 604.7 595.5 587.9 582.5 576.1 570.6 564.6 560.4 555.2 550.2 542.2 528.3 512 493.5 477.8 461.1 446.6 430.3 403.9 384 360.7 337.9 322.6 305.7 289.8
715.8 714.1 713.5 715 719.9 721.9 721.9 722.5 721.7 719 716.2 714.1 716.3 718.6 721.8 723.6 728.7 730 730.5 730.3 728.2 727.1 719.4 720.6 714.7 707.6 703.3 700.8 701.9 701.6 696.2 696.1 694.7 692.5 689.7 680.9 679.4 665.1 649.9 644.3 639.8 639.8 639.2 639.1 642.4 652.7 647.7 631.3 616.5 611.4 601.1 584.5 574.5 585.9 589.6 588.8 606.3 637.3 660.4 677.1 696.2 707.7 714 724.7 745.2 752.4 759.8 768.5 775.9 778.6 782.7 788.6 795.9 802.7 805.1 806.4 805.5 802 797.1 790.7 781.2 772.6 766 757.4 750.4 742 735 724 712.3 701.9 692.1 681.9 669.8 663.2 655 645.3 638 633.1 632.1 633 636.7 645.2 655.8 668.6 680.8 692.6 699.4 704.8 704 698 688.5 677.4 669.5 664.4 654.1 642 629.2 624 620.5 618.6 612.3 610.1 604.3 601.3 601.6 600 599.3 597.9 595.8 596.1 596.3 599.1 601.8 605.3 611 616.3 621.7 627 632.7 638.2 644.5 650.4 654.8 657.8 660.7 660.9 660.5 659.8 658.6 661.2 665.4 668.4 669.6 671.8 676.1 680.5 688.2 695 698.7 699.2 699.6 699.6 699.9 702.9 705 694.1 678.1 665.7 656.9 650.6 640.8 631.5 623.9 615.7 607.5 600.4 594 587.6 580.4 573.6 568 561.6 555.3 549.4 539.7 519.2 498.5 482.9 468.3 452.7 435.3 415.1 395 376.3 356.3 338.2 319.7 303.7 289.7 275.6
712.9 708.9 708.9 712.4 716.2 717.6 718.4 719 717.9 715.7 712.3 708.7 712 715.9 717.7 719.7 725 726.5 727.3 727.6 726.5 723.5 720.5 719.3 713.9 708 700 696.9 692.9 691.8 691.3 693.6 693.4 686 683.3 675.6 668.5 653.7 641.7 639.9 640.2 639.1 644.4 652.8 658.7 658.6 644 624.8 620.3 614.2 602.3 583.2 582.4 588.4 586.9 588 613.9 641.7 658.2 682.5 703.1 713.4 716.4 727.7 740.4 752.8 765.8 775.9 779.7 784.6 784.3 786.7 794.9 800.9 802.4 801.9 799.9 796.3 790.6 786.1 778.9 770.5 764.4 757.1 749.4 741.8 734.7 723.7 711.3 700 688.4 675.2 666.4 657.5 649.4 641.5 633.8 627.6 624.1 625.6 630.8 640.2 650.8 662.7 673.8 684.6 689.3 693.6 692.8 686.5 678.9 670.6 661.1 654.3 645 631.9 618.2 610.9 606.6 604.1 597.3 593.1 592.3 589.7 592.5 592.5 593.8 590 590.6 592 593.5 597.6 602.4 607 612.1 617.5 623.2 629 635.2 641.6 646.1 649.3 649.5 649.8 650.9 651.5 648.6 644.1 640.8 644.6 647.7 651 652.4 656.9 662 668.8 677.4 684.5 688.4 690.7 693.3 695.2 695.6 696.2 690.3 679.8 667.2 655.9 648.3 638.9 629.6 622.7 615.5 609.5 604 597.5 590.7 582 576.3 571.3 563.7 554.2 546.2 535.6 513 490.2 474.8 458.4 445.3 425.9 403.8 384.8 367.9 348.4 332.6 316.4 301.7 289 277.4 265
706.9 705.3 705.3 709.7 713.7 714.3 715.1 714.5 714.1 713.1 709 707.7 709.1 710 713.6 716.3 719.5 723.1 723.5 724.3 723.7 720.6 720.7 719 714.4 704.7 695.7 691.5 686.6 687.8 689.1 689 687.4 679.2 677.1 671.5 665.6 648.4 642.5 639.3 648.2 655.3 664.1 657.1 654.1 651.1 634.4 618.1 618.6 611 590.2 601.5 620 610.8 598.4 592.4 618.4 641.1 663.8 684.1 701.9 712.7 720.1 731.8 742.8 751.9 765.5 775.2 781.2 787.2 789.7 790.3 794.8 800.1 800.5 799 793.2 788.7 785.3 781.5 776.5 768.2 762.4 755.2 748.2 741.5 732.9 721.9 708.9 697.6 683.8 671.6 661.2 654.3 643.2 634.7 629 622.2 618.7 617 624.7 637.1 644.8 654.1 665.6 674.2 680.3 685 685.9 683.2 675.4 663.8 651.4 642 634.9 622 608.7 598.9 591.7 589.4 585.9 582.1 581.1 576.1 580.2 583.6 584.2 583.5 587 590 592.8 597.4 603.3 609.2 614.8 620.7 627.3 633.5 641 644.6 644.9 643.2 641.9 640.5 640 638.8 635.8 631 630.1 631.7 634 636.6 640.2 644.4 649.3 657 665.9 672.2 677.4 682.4 686.2 688.9 688.7 686.2 679.5 669 656.7 646.5 638.8 630.7 621.8 614.1 607 601.1 595.4 589.1 583.6 579.1 573.3 565.6 555.8 543.1 527 508 487 467.8 448.3 431.1 413.2 394.9 378.2 362 342.8 325.3 310.6 296.7 284.7 273.1 264.5 255.7
702.6 701.5 702 705.6 709.6 712.2 712.9 711.6 712.4 711.2 707.5 705.9 705 705.8 708.6 713.2 716.8 720 720.9 722 720.2 719.3 719.5 719 718.1 710.8 702.7 692.4 688.5 686.6 682.8 681.5 677.8 676 675.2 673.7 665.1 659.3 661.2 658.9 657.4 658.6 662.2 654 640.9 636.3 622.4 615.2 613.1 616 625.3 633.5 629 619.6 605.1 611.9 627.9 652.7 670.1 693.5 706.2 715 727.6 737.4 744.4 751 763.6 774.2 782.3 788.2 791.9 796.2 798.2 798.8 798.5 795.7 788.8 784 779 776.6 772.5 764 758 751.9 745.1 738.2 732 721 707 693.9 682.2 669.8 657.7 649.9 641.2 630.9 623.3 615.5 613.3 613.7 618.6 629 637.5 647.5 659.2 668.3 674.7 678.3 678.1 674 664.9 651.5 641.8 632.6 623.7 613.1 600.5 589.2 581.8 577.3 578.9 575.7 573.9 570.5 570.9 574.8 580 580.4 585.4 590.3 593.9 599.7 605.7 612.4 618.7 626 633.5 641.7 645.4 645.6 641.2 635.4 632.2 629.9 629 628 625.9 623 622.3 623.1 624.8 626.6 629.6 633.6 638.1 645.9 653.8 660.1 667.3 673.6 678.4 680.1 679.3 675.4 668.7 658.5 648.3 640.7 633.9 626.3 615.7 606.3 597.9 591.7 587.4 585.1 581 575.4 568.3 558.8 544.8 525.6 503.5 481.2 461.7 441.2 417.3 398.8 381.3 363.5 349.5 333.4 320.6 304.8 293.4 279 265.8 258.2 249.4 245.2
699.2 698.4 699.1 702.3 706.4 709.3 710.7 709.9 710.1 708.7 705.8 704.3 703.7 702.1 705.1 709.6 714.1 715.7 717.3 718.9 719.9 721.8 721.2 722.2 720.9 714.9 703.9 697.4 692.1 689.7 685.3 679.5 681.6 682.1 680.4 680.9 674.8 673.5 671.7 664.4 657.6 656.1 660.9 651.7 634.5 639.2 633.8 630 634.1 632.9 639.8 640.6 629.7 634.9 622.7 632.4 644.1 670.8 683.9 699.9 710.9 720.8 735.6 744.5 747.8 748.4 763.2 775.1 783.3 790.5 795.6 800.5 801 798.8 796.4 792.8 785.8 781.1 774.6 771.9 765.7 758.6 753.3 747.5 741.4 735.4 728.4 717.3 707 693.8 682.6 665.8 654.1 643.5 634 628 620.2 611.8 609.8 610.2 611.9 621.5 629.7 639.6 650.6 660 667 669.4 668.6 661.6 654.1 642.5 634.6 624.6 612.7 603.3 590.7 578.9 572.5 571.6 572 570.9 569.8 566.6 566.9 568.9 577.3 581.1 584.9 589.8 595.6 601 608.2 616.4 625.2 633.6 642.2 647.2 647.2 643.3 635.5 628.3 623.1 618.5 618 617.4 616.4 615.3 615.1 616.2 616.1 618.5 621.3 625.7 629.4 637.8 644.8 649.9 656.3 663.6 669.3 672.6 671.1 666.4 658 650.1 642.9 635.7 626.4 616.7 607.5 599 590.8 584.5 581.2 579.2 574.8 568.5 558.7 543.9 522.8 501 474.8 452.5 430.5 411.9 388.4 366.4 356.8 341.2 325 307.8 294.1 282.6 270.3 260.3 249.5 241.5 236.2 231.1
697.4 694.6 695.5 698.4 703.9 707.3 708.3 708.3 707.7 706.8 705.4 704.9 703.4 702.2 704.7 707.8 711.4 713 715.2 717.6 718.4 718.7 719 720.4 718.2 710.5 701.1 696.1 691.1 686 685.5 683.5 682.2 682.9 681.9 680.1 675.5 672.1 675.4 663.4 654.1 651.7 649.2 652.3 656.4 659.6 651.4 631.2 632.4 637.3 645.2 637.1 632.6 639.5 635.9 641.9 658.1 679.7 691.7 702.9 714 722.9 739 745.7 748.3 752.3 765.1 776.5 785.8 795.2 799.3 803.1 804.1 799 796.3 789.7 782.4 778.1 774.2 769.6 760.6 754 749.1 744 738.7 732.3 725.6 715.3 706.5 698.4 685.1 669.3 656.8 643.3 629.5 621.8 615.8 612.7 609.9 603.1 606.4 613.2 621.6 630.2 640.1 650 656.5 658.6 657.2 648.3 640.7 634.1 626.2 613.9 601.4 591.3 581.1 573.5 568.2 568.6 567.9 566 567.9 564.5 564.5 569.5 573 581.1 585.8 590.6 597.6 603.9 611.7 621.3 633.1 643.2 650.2 652.2 650.4 642.6 632 622 614.9 610.9 610.5 611.9 611.4 609.5 610.3 611 611.3 612.4 616.3 620.1 624.2 630.8 638 641 646.7 653.8 660.7 664.4 664 659.2 651.4 642.7 636.5 628.4 618.7 607.6 594.8 586.8 579.8 574.7 572.2 570.8 565.1 554.6 538 516.5 493.8 472 447.9 421.8 403.1 381.5 364 351.3 329.6 314.7 304.8 287.7 277 264.5 254.2 245.3 236.1 229.3 222.8 220.4
696.2 692.3 691.7 695.7 701.3 705.7 707.1 707.1 707.2 706.8 706.5 704.8 703 701.6 702.8 706.9 708.3 710.9 713.1 715.1 717 717.4 717.5 719.5 714.4 708.5 702.2 695.4 691.3 691.8 688.1 685.1 684.8 687.1 688.4 676.6 673.2 669 664.3 658.1 662.9 664.6 658.8 657 661.9 662.1 646.4 631.2 631.2 641.7 637.2 634.6 642.8 646.5 639.2 644.5 668.9 685 702.3 711.4 716.5 728.5 742.1 745.1 748.6 756 768.1 779.3 791.1 798.4 803.1 806.8 805.3 801 797.7 792.4 785.2 779.5 774.2 767.7 757.3 749.5 745.4 740.8 735.4 729.5 721.9 718.5 713.3 705.7 693.1 675.9 662.9 648.7 632.6 618.8 615.2 612.6 605.6 602 600.2 604.4 610.3 619.2 630 639.5 645.7 645.9 642 636.2 629.3 623.1 615.1 604.6 592.4 583.6 575.2 569 564.5 564.5 564.5 564.5 564.5 564.5 564.5 573.6 574.7 580.3 586.5 593.1 600.8 609.5 619.1 632.6 644.8 653 655 653.2 649.1 639.3 628.7 616.1 608.8 608.6 608.5 609 608.6 607.8 606.9 606.5 605.3 607.4 610.3 615 619 623.5 629 632.7 636.1 641.5 648.7 651.9 649.4 645.8 641 635.6 629.1 614.9 596.8 581.1 575.5 571.9 566.1 561.2 558 553.1 542.3 526.9 506.2 484.1 461.4 440.5 415.7 393.7 374.9 355.3 339.4 323.6 308.1 291.5 283.8 271.9 262.5 251.9 242.3 233.9 227.6 221.6 219.4 218.1
693.5 690.1 689 693.2 700.1 703.5 705.1 706.6 706.2 707.5 707.3 704.9 702.2 700.4 700.9 704.6 705.9 708.3 710.4 712.8 714 714.2 714.6 714.4 711.5 703.5 697.7 698.8 696.8 693.9 688.9 685.7 683.8 684.7 677.3 672.9 669.4 666.1 672.6 678.4 666.4 665.1 657.4 660.8 669.5 661.2 639.2 631.2 631.2 644.5 639 635.8 652 644.2 641.8 658.6 669.9 694.5 702 713.1 723.1 730.5 739.4 744.9 748.6 758.9 770.8 780.4 794.8 802.8 808.7 809.9 807.3 803.4 798.5 792.3 786.4 781.9 775.6 767.3 761.2 754.8 748.8 743.3 737.5 731.7 727 724 719 712.8 701.6 683.9 668.5 655.8 641.7 619.2 614.3 613.1 606.4 606.8 602.2 590.8 600.3 605.9 617.9 628.7 634.4 634.4 629.9 626.8 620 611.6 603.9 596 586.4 576.9 571.4 564.5 564.5 564.5 564.5 564.5 564.5 564.5 567.7 574.1 578 584.3 590.1 598.5 607.9 618.6 633.1 647.2 654.6 656 654.2 651.8 645.5 634.9 623.9 612.4 608 608 607.4 607.6 607.4 606.9 605.1 604 600.7 602.8 604.9 608.2 612.4 615.6 618.6 623.1 626.5 629.6 633.9 636.9 635.5 631.2 625.5 615.7 599.7 581.9 566.7 560.8 560.3 553.4 544.8 538.7 532.9 525.1 510.2 489.6 469.4 447.3 425.7 404.4 384.1 364.4 346.9 328.5 317 302.2 289.1 277 263.9 258 249.2 238.5 230.8 225.5 221.2 219.7 219.3 218.8
692.3 687.6 687.7 691.7 697.5 701.8 703.1 706.1 707.4 710 708.2 704.7 701 699.4 699.5 701.3 702.2 704.5 706.7 708.3 709.2 712 711.7 712 708.5 701.9 697.1 697.8 693.5 690 687.7 682.5 681.8 679.6 677.7 672.7 676.1 679.4 684.8 681.1 667.8 664.3 671.1 672.1 668.9 657.5 640 637.8 635.8 649 641.1 647.5 651.8 637.6 654.4 666.4 678.5 695.4 705.9 714.4 724 731.1 738.3 741.8 749.3 761.5 772.6 785.7 797.5 807.9 810.9 813.5 809.9 804.4 798.7 792.9 787.3 782.4 776.6 769.7 763.7 755.8 749.7 745 738.9 733.3 729.8 726.6 722.5 717.9 710.1 692.8 674 658.4 639.2 625.2 614.5 609.3 605.8 605.2 603.6 598.3 588 596.4 604.3 614.9 623.6 625.3 620.6 613.9 609 601 597.3 592 582.6 575.3 568.5 564.5 564.5 564.5 564.5 565.7 567.5 567.6 571.2 578.5 585 591.5 598 607.4 619.7 634.8 648.3 655.9 656.6 653.7 650.2 647.3 640.1 629.5 619 610.8 607.7 608.7 608 609.1 608.3 607.4 604.7 602.6 594.7 595.5 595.2 597.3 600.9 599.9 598.2 603.8 608.9 612.6 612.2 607.9 597.5 589.1 590.7 578.7 562.1 549.5 543.5 539.9 533.2 522.7 512.9 504.3 497 485.7 469 449.6 430.1 412.1 391.9 373.2 355.4 337.4 320.2 303.5 291.5 279.5 266.7 260.1 253.8 241.8 237.8 230 223.7 218.2 218.2 218.2 219.5 218.1
690.1 685.5 685.8 689.3 694.3 698.8 701.6 705.4 709.6 712.8 711.8 706.6 700.8 698.2 699 699.2 699 701.1 703.5 703.8 706.4 707.9 707.8 706.7 703 700.6 697.4 694.6 691.5 689.3 684.2 675 675 675 677 673.6 680.2 685.1 688.1 682 666.9 669.3 668.6 669.1 667.6 659.8 645.7 640.4 636 641.7 642.9 646.6 640.8 640.4 661.8 671 680.2 695.2 708.9 716.7 724.9 731.4 738.4 741.2 753.6 766.7 780.2 792.2 802.4 809.3 811.5 813.1 808.9 802.9 798.9 793.5 787.2 780.8 775.7 770.3 762.9 756.8 751.9 746.6 742.1 736 732.6 729.1 725.6 722.5 716.6 705.7 683.3 664.7 651.6 635.7 618.1 609.6 606.2 603.3 601.4 597.6 591.7 583.4 591.5 600.4 608.3 612.7 609.5 602 598.4 595.1 591 587 579.2 571.6 565.8 564.5 564.5 564.5 567.5 569.3 569.2 573.5 579.1 587.3 594.5 599.9 610.1 623.1 637.6 649.5 654.5 656.2 654.6 650.3 646.5 643.8 633.8 624.1 615.6 610.2 610 610 610.7 610.6 610 607.8 602.9 592 571.5 570.4 569.3 565.5 563.5 559.4 559.5 569 575.6 577.9 576.7 570.4 558.6 548.4 549.2 533.6 522.2 515.6 509.8 503.8 494.3 484.9 476.8 466.9 458.1 444.5 429.7 414.5 395.8 378.3 360.4 342.7 326.6 310.1 295.2 282.1 273.3 263.5 254.1 245.1 240.8 232.6 230 225.3 218.2 219.2 218.7 219.2 219.2 219.8
687.3 683 684.1 687.5 691.9 696.7 702.3 707.5 711.4 713.1 712.5 708.7 700 697.6 697.2 696.5 696.2 697.9 699 700.5 702.7 703.3 703.6 701.8 700.6 697.1 694.1 689.9 688.2 683.3 679.3 675 675 675 675 676.5 687.3 692.3 680.9 680.7 672.9 678.3 674.1 677.8 668.5 658 644.7 635.2 631.5 636.1 642.1 639.4 632.3 650.1 664.3 674.5 686.7 698.1 709.4 717.6 724.3 734.2 740.7 748 761.3 772.5 787.9 798.9 805.6 808.3 808.3 807.9 804.4 800.4 797 791.8 784.6 777.9 772.9 768.8 761.4 755.4 752.5 749 742.8 737.9 734.4 732 729.7 725.8 722.3 714.2 697.4 681 663.6 644.2 624.7 612 606.2 602.9 600.4 594 588.2 585.3 579.2 584.6 591.7 597.4 595 589.5 589.7 587.9 584.4 580.8 575 569.1 565.2 564.5 564.5 567.1 570.8 573.5 575.9 582.4 588.9 597.6 604.4 613.1 626.6 640.5 648.9 651.8 651.4 650.8 649.3 646.7 642.4 638.1 627.8 619.7 613.9 611.8 611.7 613.6 614 612.6 610 605.4 591.5 562.2 538.6 530.8 521.9 517.3 516.2 516.1 521.6 526.7 531 534 534.4 526.8 517.3 506.3 505.6 492 483.4 477.5 469.9 462.2 453.4 444.5 436.9 427.8 417.7 405.9 394.2 379.7 362.5 346.6 331.1 315.6 299.7 287.2 274.1 263.3 256.6 248.2 240.1 233.1 228.5 226.9 225.4 221.6 218.8 219.4 219.3 219.4 219.3 219.8
683.6 680.9 682.6 685.9 689.9 695.4 701.9 707 711.5 716.7 714 709.4 700.1 696.9 695.9 692.9 692.9 693.2 693.8 696.6 698.6 698.5 697.8 696.1 694.9 691.1 689 686.1 684.3 683.3 678.1 675 675 675 675 679.2 685.8 685.6 683.9 679.9 685.3 683.1 669.2 673.8 667.9 661 640.9 634.9 626.9 629.4 635.5 630.6 641.4 657 665.9 675.4 688.4 702 710.9 719.1 726.4 737.7 745.8 754.4 766.3 779.6 795 806.4 810.2 809.4 806 802.5 797.9 795.7 792.9 788 780.2 774.3 769.2 764.6 758.3 751.8 748.6 744.9 739.6 736 733.9 733.2 731.9 729.5 728.1 721.8 708 688.4 668.2 643.2 623 616.5 605.2 601.5 598.7 586.4 583.3 581.3 571.3 575.7 578.6 581.5 579.9 578.3 579.2 578.8 576.4 574 571.8 567.7 566.8 567.4 567.5 571.8 576 580.4 585 591.7 600.3 608.9 618.2 631 642.9 648.1 648.8 648.3 645.9 645.7 645.6 641.9 638.1 630.9 622.5 616.4 615.9 615.2 615.4 616.6 616.3 615.9 613.2 604.4 569.4 538.8 515.1 487.9 487.3 485.9 481.5 481.4 485.2 489.5 492.3 492.2 490.5 484.3 476.1 468 462.7 456.6 447.4 440.1 433.1 425.9 416.6 408.2 400 390.2 380.1 370 359.7 346 331.4 316.9 303.9 291.5 279.4 269.4 258.6 249.6 243.2 236.6 229.9 224.8 221.3 222.3 221.7 220 219.6 220 219.6 219.8 226.4 230.8
681.1 677.8 681.4 684.1 687.4 692.8 699.9 705.7 711.4 715.7 713.2 705.7 697.5 694.2 692.9 691.1 688.6 690.1 690.7 692.8 694.4 693.9 693.4 690.6 687.9 685.7 684.4 682 680.4 678.1 676.6 675 675 676.6 675.9 678.8 686 691.7 693.8 683.7 682.7 680.3 666.1 666.4 664 654.7 635.8 630.5 619.5 628.4 628 631.8 639.6 654.7 664.4 676 688.7 703.7 712.6 721.5 730.4 742.9 749.6 759.6 770.8 786.9 799.2 810.7 814.7 810.7 800.5 795.8 791 789.3 786.9 779.4 772.9 767.5 761.9 755.6 751.6 746.9 743 739.7 735.5 732.4 731.1 731.3 730.8 730.9 729.4 724.4 714.1 697 673 652.6 632.3 620.2 611.9 596.3 591 579.1 576.6 575.7 569.8 567.3 569.4 570.7 570.3 568.6 567.9 571.1 569.7 570.3 568.3 564.1 567.7 570.5 573.8 577.5 582.5 588.1 595.1 604.1 613.1 622.9 633.8 643.7 647.9 646.3 644.8 644.3 644.1 642.7 641.2 636.9 634.1 627.1 618.6 617.4 616.4 616.8 618.1 620.9 622.7 621.9 618.7 597.1 550.7 521.6 497.6 469 460 458 454 453.6 452.6 454.4 456.9 455.2 452.9 446.8 439.9 435.6 428.7 422.5 415.1 408 400 390.5 382.4 375.4 367.6 355.4 346.8 337.3 326.8 314 303.5 292.4 281.3 272 263.2 255.2 246.9 238.4 232.1 228.4 222.7 220.9 220.7 220.4 220.6 220.1 220 222.6 225.3 231.4 235.8 239.6
678.2 675 679.8 681.4 685.2 690.3 697.3 704.1 708.9 712 710.4 702.6 695.4 691.1 689.9 688.6 684.3 686.4 686.5 688.1 689.4 689.3 688.8 686.1 685.4 682.3 681.7 679.7 679.5 677.4 676.1 675.6 677.8 682.2 687.6 687.5 689.8 692 697 686.9 678.5 673.9 661.5 655.6 657.5 649.6 630.9 621.9 616.2 626.3 619.8 630.1 638.2 651.9 665.5 676.6 689 704.4 716.1 723.6 736.5 746.9 753.6 763.3 774.4 790 801.4 813.6 821 811.5 795.7 789.9 780 775.8 774.9 770 764.8 758.6 754.3 748.3 745.9 741.8 737.2 732.1 729.5 728.6 727.6 728.4 728.4 728.6 727.4 725.6 717.2 700.2 683.8 663.2 640.3 625.8 613.4 595.1 586.4 576.3 571.3 572.5 569.1 563.8 565.6 564.4 563.2 563 560.4 566.4 562.8 566.1 565.3 565.9 569.7 572.4 577.4 582.9 588.8 596.5 606.7 616.1 626.3 636.3 643.3 645.1 644.4 642.2 642.4 641.8 640.1 639.8 637.4 635.1 631.8 627.1 619.8 617.5 617.6 617.8 623.4 628.6 631.2 629.9 623.1 589 537.3 508 484.4 463.6 447.1 434.9 430.9 430 428.3 423.9 425.5 424.1 420.4 415.2 409.5 405 397.5 390.9 383.8 375.8 367.2 359.1 350.9 343.3 334.9 324.4 314 305.9 298.1 289.1 279.9 271.7 263.7 255.8 250.8 242.5 235.2 230.3 225.4 222.5 221.5 221.2 221 220.8 220.4 220.5 223.5 227.9 231.1 237.8 244.7 250.5
675.1 672.9 676.1 679.9 682.1 687 694.2 702.2 707.6 708.6 706.6 700.1 692.7 688 686 685.2 682.3 682.1 683.1 683.8 683.9 683.4 682.8 682.4 681.2 680.3 678.2 679.4 679.8 679.8 679.6 680.7 681.5 686.5 691 694 693.8 695.2 694.1 691.2 680.9 671.6 664 646.8 645.9 641.6 625.7 613.4 612.7 615.2 613.9 625.1 637.5 653 662.2 679.4 692.6 706.6 720.5 729 742.9 749.5 756.9 766.1 776.1 792.2 802.4 815.3 823.3 813.3 794.2 779 768.9 762.2 762.2 759.8 756.2 750.4 743.9 739.8 737.7 736 731.4 725.6 724.6 723.8 723 723.3 724.6 724.9 725 725 717.8 702.3 686.5 663.9 646.1 630.2 615.3 595.9 585.6 578 571 570 565.5 563.4 558.5 557.6 557.5 556.5 557.3 560.2 559.9 562.7 563.4 565.5 570.1 573.9 580.5 587.6 595.2 606.1 616.7 625.9 633.7 639.1 641.2 641 638.1 637.6 637.9 637.6 638.8 638.9 635.8 633.8 633.5 624.8 619 617.9 618.9 623.6 628.2 632.7 635.4 634.5 625.5 584.3 534.3 504.2 477.9 459.8 443.2 422 413 409.3 404.2 399.6 397.4 395.4 391.5 385.8 379.9 375.1 367.5 358.5 350.7 341.6 333.9 324.8 317.8 312.4 305.8 295.3 286.7 278.9 274.5 268.3 261.8 255.1 249.7 244.1 239.2 234.2 229.8 224.6 222.1 221.7 221.7 221.5 221.3 221 219.5 224.3 228.8 234 238.9 246.4 255.2 262.8
673.3 669.7 672.6 675.6 678.1 683.7 691.4 698.9 704.2 705.6 703.1 699.4 690.7 685.5 682.1 680.5 678.5 676.6 678.9 679.4 679.4 680.2 680.1 680 675.7 676 677 678.9 681.2 682.3 682.9 690.2 695.1 697.7 699.7 702.2 698.7 697.2 695.3 690.1 682.8 669.4 659.9 642.2 638.1 634.5 622.3 610.1 604 608.1 613.6 624.6 639.5 648.8 666 682.3 695 710.3 723 734.5 745.4 750.8 759.1 767.8 776.5 791.6 802.3 813.5 820.7 813.2 795.2 773.6 760.7 750.6 749 746.4 743.9 739.9 735 731.1 731.6 730.2 727.2 721.9 720.2 719 716.6 718.4 719 718.7 721.6 724.1 716.5 702.2 685.3 670.7 655 633.3 613.4 594.4 581.5 577.7 570.5 567.4 563.8 562.2 559.1 556.3 553.8 547.4 555.8 557.6 558 558.6 554.2 562.3 567.6 574.7 582.3 589.5 599.8 611.3 620.9 627.9 632.5 634.2 635.3 633.7 634.9 636.8 637 636.4 637 635.3 634.2 632.4 629 622.2 618.2 618.7 623.5 626.3 631.1 635 637.6 636.8 620.6 578.8 533 499.4 475.1 457.3 437.7 424 409.9 390.2 378.5 376.4 371.1 368.2 364.1 357.8 352.4 345.6 337.6 328.4 321.1 312.1 305.5 296.3 290.5 283.3 281.4 273.9 266.9 260.7 256.5 252.5 249.3 244.3 239.9 235.3 230.6 226.7 223.3 222.4 222.1 221.1 221.8 220.1 221.3 223.2 227.3 229.6 237.4 241.6 246.6 255.1 267.1 279.5
670.5 667.9 669.2 671.2 674.6 680.2 687.9 694.2 700.6 702.8 700.7 695.3 689 683.4 679 674.5 675.6 673 675.8 675.2 676.3 677.8 677.4 675.7 674.5 674.3 676.3 679.1 682.9 685.3 689.6 701.6 706 703.2 711 713.6 710.9 701.1 695.7 690.8 678.8 668.6 656.3 640.8 632 627.7 617 604 604 608.7 616.1 624 641.4 650 667.4 685.3 700.4 715.9 724.8 737.5 748.4 753.4 759.2 766.8 776.5 790.2 800 809.6 816.2 809.2 793.7 773.1 748.9 740.2 735.1 734.1 733.3 731.9 729.1 725 726.1 724.9 722.6 719.1 713.8 713.5 712.8 711.6 712.2 713.4 717.7 720 714.4 699.5 686.8 671.6 650.8 632 611.9 589.4 579.1 574 568.3 565.8 565 559.8 558.9 560.2 558.3 553.2 548.8 553.8 556.8 555.4 548.4 558.3 564.5 573.1 580.7 590.6 600.9 611.4 619.1 622.7 623.9 626.2 629.2 630.7 631 632.3 631.9 632.9 635.2 634.3 632.7 632.1 627 623 620.4 622.8 627.4 632.2 634.3 636.7 638.1 634.5 613.4 577.2 534.1 500 475.1 452.7 438.6 424.4 412.9 395.8 378.6 357.2 352 346.2 339.8 333.8 326.7 318.8 310 300.3 292.9 284 277.9 270.8 265.4 259.9 256.1 253.2 250.1 246.4 243.3 241.1 239.2 236.1 231.9 228.2 225.7 223.1 222.7 222.5 221.3 222 221.7 221.5 226.4 230 235.7 240.4 248.6 252.8 257.4 268.8 275.1 292.7
667 664.7 665.2 667.5 670.4 675.9 683.1 689.7 694.1 696.7 696 691.6 684.4 679.7 676.5 671.8 671 666.9 670.5 672.1 673.3 675 674.3 673.5 673.2 672.4 674.6 679.4 683.3 688.8 701.9 711.3 715.3 716 718.5 720.4 717.7 709 701.5 696.4 681 669.8 653.5 637.4 626.4 621.4 614.1 604 604 606.6 615.6 629.7 643.4 650.1 674.4 689.6 705.1 718.6 727.3 738.4 748.1 754.8 758.4 766.3 775.8 786.8 795.7 804.1 809.5 804.8 790.5 769.9 751.4 732.7 723.9 720.3 723.8 724.6 723.3 722.4 722.4 721.8 719.5 714.5 710.2 707.1 706.8 706 704.4 707 713.2 714.6 707.6 693.1 681.3 666 642.7 625.5 607.6 584.7 579.8 573.7 567.5 565.6 562.5 559.5 559 560.9 557.2 554.9 550.7 543.6 555.7 552.7 548.1 552.5 560.7 569.6 577.9 588.5 599.5 608.9 617.1 621.2 623.4 625.3 628.6 627.7 628.2 628 626.2 629.3 631.9 630.2 629.9 630 623.6 621.4 621.6 628.5 634.4 635.8 637.5 639.3 639.1 631.5 609.1 586.7 550.8 512.2 483.5 457 437.7 422.7 410.7 397.1 380.7 362.1 345.6 332.1 326.8 316.3 305.9 297.2 288.5 278.4 269.1 262.9 256.4 251.6 247.4 242.2 239 236.8 235.9 237 234 232.3 230.5 228.3 227.1 225.2 223.4 223.4 221.6 222.7 222.7 222.3 223.7 228.9 233.6 239.6 245.6 254.1 263.2 268.3 273.7 290.2 303.3 316.7
665.3 661.3 662.1 663.7 665.6 670.3 676.2 683.4 687.3 689.5 689.8 685.8 678.9 674.6 672.2 668 666.4 662.9 664.1 667.8 670.9 671.5 672.2 671.3 671.9 672.8 675.2 680.2 684.3 697.2 711.2 719.5 722.6 723.2 722.5 724 721.5 714.6 707.9 700 683.6 669.9 654.8 641.8 622.3 617.8 613.2 604 604 611 615.4 629.2 643.9 658.4 677 694.6 706.5 718.4 727.1 738.6 747.9 753.2 758.3 764.8 773.6 782.5 789.7 797.1 798.7 794.1 782.8 764.4 749.5 730.2 718.4 713.8 714.7 717 717.5 719.4 720.6 720.9 716.8 711.5 702.1 699.5 699.4 698.9 699.3 701.5 706.7 706.9 701.5 683.4 669 656.1 633.4 617.1 598.9 582.6 576.3 574.5 566 565.2 562.4 561.6 560.9 560.4 558.3 555.9 556.1 538.4 550.2 548.2 547.1 544.1 552 564.2 576 587.5 599.7 610.2 618.2 621.5 622.9 624.1 623.4 622.9 622.8 620.9 621.1 625.6 627.7 627.8 626.6 624.7 621 623.7 625.4 629.7 633.5 636 637.9 636.6 635.1 631.3 627.9 616.2 581.4 533.1 502.3 473.8 446.6 425.6 413.8 395.2 377.4 363.1 347 330.2 308.2 302.8 292.6 280.6 272.5 263.6 254.7 246.5 241.4 237 233.9 230.6 228.4 229.4 230.2 229.4 229 230.5 228.5 225.7 222.3 225.5 224.4 224.5 223.6 223.4 224.3 227.1 231.8 235.4 241.9 250.5 260.6 268.1 276.2 285.6 298.9 312.7 332.7 345.9
665.5 659.7 658.6 659.8 661.1 664.2 669.5 676.4 680.7 682.2 682.1 678.2 673.5 668.6 667 663.9 659.4 659.7 658.9 664.2 667.4 669.2 670 669.5 671.9 674.1 676.2 682.1 691.5 706.4 717 723.6 727.6 727.2 725.5 726.4 724.6 718.1 713.4 701.6 686.4 667.9 650.3 639.1 617.6 614.4 609.8 611.5 607.1 612.7 621.1 631.8 641.9 659.3 678.2 695.6 706.9 717.5 727.6 737.1 744.8 751.3 757.4 763.7 770.9 777.5 782.5 786.8 787.1 782.7 771.2 758.7 744.9 733.1 717.7 708.1 708.3 711 712.6 716.5 719.6 719.8 715.9 706.1 698.1 691.5 689.9 688.8 690.5 695 698.4 697.6 688.5 671.5 659.5 641.2 626.4 609.4 590.9 580.4 574.4 574.3 566.3 565.5 565.4 563.6 563.3 561.5 561.3 559.2 557.5 536.5 523.8 528.3 540.5 533.6 549.9 562.5 574.7 587.2 600.9 610.9 616.2 617.4 619.3 619.3 618.7 617.9 620.8 618 617.2 620.7 622.8 622.8 624 622.1 625.2 627.6 626.7 627.4 631.9 635.7 636.8 637.2 636.2 633.6 630.9 619 575.1 531.4 500.4 470.1 440.8 421.9 402.1 385.6 366.6 350.5 333.1 318.7 304 290.4 279.7 270.8 262 253.6 247.3 240.3 234.1 229.8 229 227.4 227.7 227.6 226.2 226.6 226.6 226.6 222.6 229.1 229.4 228.8 228.6 228.4 227 227.9 230 233.6 238.8 243.3 252.6 262.8 275.3 289 294.9 308.8 332.9 344.2 355.9 364.1
663.3 657.8 650.8 655 655.5 657.8 662.7 668.6 673.4 674.2 673.9 670.9 667.1 664.1 659.8 658.7 655.7 656.2 655.3 658.8 662.8 665 667.3 671.1 674.5 676.9 680.2 687.2 700.9 711 721.6 725 727.3 728.1 727.1 728.2 726.6 722.2 716.1 703.4 687 667.5 645.8 635.1 615.8 612.7 608.5 605.4 611.5 614.5 624.2 635.7 645.3 662.2 679.9 694.3 705.4 715.6 726 734.6 742 748 754.8 760.9 765.9 770.6 774.1 776.3 776.6 770.9 759.6 751.2 737.5 726.3 715.6 704.7 701.8 705.5 711.3 716.6 720 718.6 710 700.3 693.3 686.8 679.1 679.5 684.4 684.2 685.8 684.6 675.1 665 649.7 631.2 618.5 603.3 585.9 580 579.9 576.1 571.9 570.2 568.4 567.5 566.6 564.6 562.6 560.9 558.2 552.5 534.2 519.9 521.8 529 544.6 559 571.7 584.8 597.1 605.1 609.9 611.5 615.8 614.9 612.7 613.4 615.1 611.5 611.4 615.6 617.3 618.3 621.1 623.2 623.8 624.9 625.8 627.1 630.8 634.7 637.7 637.1 634.3 632.2 629.3 607.5 561.3 520.3 488 460.1 438.2 415 395.3 372.3 351.3 335.9 321.9 310.4 296 283.4 271.3 262.1 254.4 247.1 240.1 234.8 230.4 228.5 230.1 229.6 228.8 228.1 227.8 227.2 224.9 224.8 230 233.4 233.3 233.4 233.6 233.2 232.6 233.6 235.8 242.5 251.5 259.5 268.3 279 292.8 309.9 323.9 340.8 352.8 369.8 373.6 381.6
661.4 656.7 653.6 650.3 650.7 652.3 656.3 661.2 665.3 666.3 666.4 663.9 660.5 657.7 654.9 652.3 651.6 650.3 651.7 655.1 656.7 663.7 668 672.8 678.4 680.6 685.5 696.6 707.4 716.3 723.3 727.2 728.9 727.4 727.4 727.9 727.6 724.7 717.3 701.9 682.1 665.9 648.7 627.6 617.3 609.2 608.7 605.6 610.3 613.7 624.2 635.1 648.4 662.4 678.5 691.9 701.9 711.5 722.3 731 739.1 745.2 750.8 756.3 760.7 763.6 765.3 766 766.2 761.1 750.7 740.8 730.2 717.6 709.5 700.9 697.5 703 709.9 714.9 716.9 716.8 704.4 697.3 689 680.9 674.8 668.5 675.1 675.4 673.5 668.9 663.1 655.2 643.1 617.4 610.3 596.2 588 584.9 582.5 578.4 575.9 574.9 573 570.6 568.1 566.1 563.4 561.5 558 552 546.2 534 509.6 525.8 540.2 554 567.8 578.5 589.4 597.8 602.5 604.9 608.3 608.7 609.6 612.9 612.1 608.9 607.7 611 615.5 620.8 623.9 624.5 623.1 623.5 625.6 626.9 629.9 633.2 631.5 631.5 631.5 631.7 623.2 588.9 548.8 512.3 483.3 457.5 434.8 406.1 380.1 362.5 343.3 325.8 313.8 300 285.9 273.4 264.1 254 248.2 240.5 236.2 229.2 231.7 231 230.1 230 231.8 235 233.9 235.9 236.6 235.4 234.5 236.3 238 238.2 238.9 240.5 240.1 241.7 248.8 255.4 263 275.6 289.3 299.3 314.8 334.6 353.2 362.9 374.7 386.4 393.6 397.5
661 656.2 652 646.8 643.7 645.2 649.3 654.6 657.1 658.7 659.4 657.4 655.2 652.5 649.6 647.4 648.1 646.3 648.5 653.6 657.7 663.4 669.3 675.3 681.2 685.4 691.8 702.3 710.8 718.8 722.6 727.2 729 727.8 727.7 729.8 727.9 723.8 717 698.7 680.3 664.2 647.6 632.5 618.3 608.5 611.6 601.5 608.5 615.1 624.3 634.3 647.4 662 677.5 688.6 698 707.7 719.4 728.2 735.2 742.3 747.1 750.9 754.3 756.9 757.3 756.9 755.8 750.8 742.2 733.5 721.5 711.4 703.3 697.2 692.2 700.9 708.6 712.6 712.3 713.5 701.7 693 684.1 674.3 667.7 660 664.9 668.6 664.5 660.1 652.4 641.1 626.6 608.5 599.2 591 589 585.9 582.8 582.2 580.1 578.3 574.8 569.9 568.2 565 562.4 559.7 556.3 550.5 542.8 528.7 500.7 520.9 534.8 549.3 563.3 571.1 580.4 590.5 597.1 598.5 602.2 604.7 608.9 610.7 607.8 606.9 608.1 613.2 620.2 622.9 621.9 622.3 622.7 625 625.7 628.8 631.1 630.4 628.4 625.5 623.8 621.8 604.7 568.2 535.2 506 479.1 442.6 416.6 392.4 372.6 353.2 336.3 316.9 301.2 289.2 275 265.9 256 248.7 242.8 237.4 229.9 234.5 233.8 234.8 236.2 237.5 241.4 245.6 249.6 252.5 253.5 249.7 250.8 248.4 249.5 247.3 246 249.4 251.2 252.7 265.1 275.5 285.5 294.7 310.4 320.5 343.6 361.7 376.4 386.2 396.3 406.3 409.6 414.9
661.1 655.4 650.2 646.2 639.2 637.4 641.8 647.3 650.4 651.6 652.2 651.1 648.7 646.2 644.3 641.5 642.4 641.4 647.7 652.9 659.4 664.9 671.7 678.7 684.6 690.7 697.8 707 713.4 720.5 724.1 728 729.4 728.2 729.4 730.8 728.7 724.7 718.2 699.1 681 665.8 648.3 638.9 619.9 608.1 605.7 601.7 606.4 614.2 621.6 631.1 642.7 658.1 671.9 684.2 693.9 705.3 716 724.9 731.2 737.4 742.5 746.1 748.2 749.6 749.2 748.3 745.8 741.3 731.7 725.5 712.1 703.8 695.2 691.4 689.9 696 704.2 710.7 710.3 702.9 698.1 689.3 675.8 665.7 655.2 653.3 656.2 654.6 656 655.2 649.3 637.1 618.3 605 594.2 588.9 588.4 588.1 585.6 583.1 580.6 578 573.9 569.7 566.7 563.9 560.1 557.6 552.7 547.1 538.2 517.7 494.1 513.5 530.8 544.1 556.7 563.1 572.5 582.1 590.7 593.1 598.4 602.5 605.6 605.6 603.4 608 613.8 617.3 620 620 620.5 621.5 622.2 627.9 631.1 629.4 629.4 628 624.6 620.9 619.7 610.8 588.6 545.6 526.6 494.2 458.8 429 402.8 376.7 355.2 337.4 316.7 303.8 288.7 276.1 265.3 257.1 249.7 243.3 235.6 233.2 241.2 243.6 246.4 245.4 248 255.8 268.6 271.5 274.7 280.6 290.5 280.1 272.7 272.9 265.9 260.2 257.5 260.8 265.1 271.4 284.8 297.7 307.9 317.5 331.1 350.3 368.2 383.1 398.9 411.2 420.4 426.7 432 436.7
660.8 654.7 648.6 644.3 639.2 628.2 632.8 638.9 642.3 644.5 645.7 644.4 642.1 639.9 638.6 637.6 636.5 642.6 647.7 654 660.8 668.6 675.7 683.3 688.4 695.8 702.6 710.1 715.5 721.6 726.6 728 729.7 729.2 731.7 732.2 729.7 725.7 718.6 703.3 686.3 669.5 653.7 642.1 632.1 619.7 601.9 600.3 604.5 611.3 617.2 626.4 636.1 650 663.3 677.2 688.6 701.7 711.8 718.8 725.5 731.4 736.8 740.3 742.5 742.6 740.8 739.8 737.9 732.1 723.3 715.4 704.3 695.2 686.8 684.1 684.1 690.7 698.7 705.6 705.1 697.7 695.4 683.6 669.1 662.4 653.7 649.7 646.9 648.4 648.6 645.4 641.2 629 615.4 601.4 594.1 592.6 591.6 590.5 585 583 578.9 576.5 572.7 568.8 564.9 560.7 557.5 553.1 548.9 541.8 529.8 505.7 491.9 507.3 522.6 538.6 547.5 554.8 566.6 575.9 583.1 588.2 594.3 597.2 602.3 605.7 607.1 610.6 614.1 616.3 618.1 618.8 621.8 623 626.4 628 628.4 626.7 625.7 625.6 623.4 617.5 609.3 597.7 573.6 535.3 508.4 481.5 443.5 417.3 386 361.3 337.6 321.8 301.6 287.6 274 264.3 256.3 249.6 239.5 244.4 243 246.4 247.4 249.3 260.3 271.3 283.1 287.5 304.8 309.8 315.6 328.5 333.1 315.8 299.9 295.7 292.9 283.3 276.3 275.2 283.1 297.6 307.4 317.6 332.5 345.2 360.9 376.5 393.9 410.1 420.8 429.9 439.8 445.8 450.6 455.6
659 651.9 646.2 642 636.8 627.3 622.8 628.5 633.1 638.2 640.2 639.1 637.8 635.8 633.5 632.1 638.9 642.5 649.5 657.2 663.9 670.7 678.9 686.6 692.8 699.3 706.6 711.7 716 721.7 726.7 728.7 730.3 731.8 733.2 732.6 731 727.2 721.3 710.8 692 676.8 658.5 644.9 643.5 625.3 599.9 598.6 601.9 606.4 610.5 620.4 628.7 638 651.7 666.3 679.6 695.3 705.3 713.6 719.1 725.1 730.3 734.1 736.3 735.5 734.2 732.6 730.6 724.7 715.3 706.2 698.5 687.3 679.3 677.5 678.4 683.7 693.4 700.8 698.5 691.4 689.5 681.2 668.2 665 651.7 642.1 641.2 639.4 638.7 635.1 629.8 619.2 612 595.1 590.1 589.1 585.3 583.4 582.7 580 576.4 573.3 569.4 563.6 560.6 556.5 553.1 548.4 543.9 533.2 521.2 497.9 486.3 499.6 516.7 531.9 539.9 548.2 559.9 570 577.1 587 594.6 600.6 604.9 611.4 610 609.3 612.6 616.4 620.7 624.4 625.5 629.8 631.7 631.5 629.9 627 626.2 622.3 614.1 606.1 596.3 579.2 550.7 517.8 501.9 464.8 428.8 395.2 366.8 343.5 321.8 302.8 284.6 272.3 263.5 255.7 249.9 248.8 249.8 248.2 249.1 256.4 260.5 271.9 291 308 332.1 340.3 347.8 361.7 378.4 381.6 377.1 354.6 331 322.4 310.1 301.3 292.9 295 308.5 323.6 332.1 340.8 355 371.5 388.1 402.7 419.1 434.5 445 450.9 455.3 465.3 473.6 478.1
654.7 647.1 642.3 638 633.6 627 611.1 617.6 624 630.1 633.9 634.2 633.8 632.8 629.8 631.3 636.8 644.3 652.7 659.4 665.8 673.4 682.4 689.6 694.3 699.2 706.1 710.5 714.6 719.4 723.7 727.3 729.7 731 732.5 732.6 731.5 728.9 724.9 716.5 700.2 683.6 664.4 646.9 641.7 620.2 603.6 599.2 596.7 600 605.4 609.9 617.2 624.6 636.8 654.5 664.6 682 693.4 701.9 709.3 717.6 723.1 726.9 728.8 728.8 727.9 725.8 723 715.1 707.9 699.9 691.1 677.9 671.3 669.1 672 676.8 686 692.4 692.6 689 681.1 677.8 666.2 662.3 649.4 638.3 637.3 632.2 633.3 627.4 621.3 610.3 605.6 591.2 582.4 582.9 582.2 581 578.3 575.4 571.7 568.5 564.6 560.5 556.7 552.9 548.6 543.8 538 526.8 509.4 483 477.3 495.1 510.1 524.6 530.4 541.2 553.8 564.2 578.1 586 595.5 604.3 616.9 616.5 611.8 611 615.3 620.7 622.5 624.9 629.6 633.8 636.7 632.8 628.1 624.7 621.2 615.1 599.5 583 567.1 554.8 523.6 501.1 477.5 438.3 409.3 374.7 346.5 320 300.1 281.1 268.4 260.3 255.9 249.2 252.5 253.5 253.3 254.9 268.1 284.1 290.3 311.7 329.1 356.5 377.9 390.9 410.7 425.5 429.3 425.4 410.9 389.1 358.8 343.4 333.3 326.7 314.9 325.4 337.2 343.2 356.6 368.9 385.7 398.9 415.2 424.4 436.7 451.6 462 470.1 474.8 488.5 500 503
645.5 641.5 637.9 635.3 630.2 622.9 615.1 604.4 614.1 620.3 626.2 627.9 628.9 628.3 627.7 629.2 636.4 645.8 654.2 660.6 667.4 677.4 685 691.4 695.1 699 703.8 707.7 711.1 715.5 719.8 724.6 727 729.1 730.8 731.4 731.7 730.8 727.3 722.8 710.3 688.8 667.9 645.9 631.7 616.9 606.2 599.5 590.8 592.1 598.2 599.8 604.4 611 621.7 641.3 644.3 663.9 675.5 685.5 691.3 702.9 712.5 717.6 719.9 720.7 720.7 720.2 714.8 708.4 701.2 692 684.6 670.6 664.6 661.2 664.6 669.8 677.1 681.9 685.1 683.1 672.7 667.7 663 654.7 647.4 636.6 634.4 632.1 628.2 624.3 616.4 605.6 592.8 586.3 580.2 576.3 575.9 573.9 573.1 569.3 565.7 562.1 559.2 555.8 553.1 549.4 544.6 538.6 532.2 520.7 503.6 474.6 470.6 486.4 503.6 518.9 530.7 543.8 557.4 568.9 579.8 587 595.8 604.6 609.9 611 611.9 615.4 616 618 620.6 624.1 627.5 630 629.2 626.7 624.1 621.3 612 598.1 582.7 562.7 548.9 533.3 497.8 472.5 448.6 408 382.4 347.6 325.9 302.6 282.3 264.9 252.3 252.2 251.6 254.6 256.3 259.5 267 278.6 297.5 320 331.3 355.4 379.5 400.7 423.9 438.6 455.9 471 472.6 448.8 424.7 398.9 375.2 357.3 351.2 342.5 346.2 355.1 364.8 373.7 382.3 398.1 407.5 426.2 442.1 445.3 456.9 473.5 482.4 487.1 495.5 509.8 519.6 527.8
633.7 633.2 632 627.9 623.3 617.2 611.7 591.5 602.8 610 616.1 619 620.3 621.3 618.6 626.4 636.2 646.9 655.7 662.2 671.5 679.7 686.7 691.9 694.9 697.3 701.4 704.3 707.1 710.9 715.5 719.7 723.4 726 728.6 731.2 732.2 730.5 729.6 725.9 716.8 695.6 678.9 650.6 630.9 616.6 607.8 595.9 587.1 587.9 591 591.9 591.7 598.9 608.1 620.1 625.5 642.1 659.8 668.2 672.5 684.3 696.4 703.6 708.8 712 713.4 712.3 708.4 703.1 691.6 681 676.8 665.6 657.9 654.5 658 661.9 668.1 670.9 675.6 675.8 667.3 657.7 654.9 653.2 644.2 637.4 633.2 633 628.8 623 611.7 600.1 591.1 582 576.9 573.8 569.3 566.4 564.3 562.4 559.6 556.4 553.6 550.8 548.6 544.9 539.9 534.5 526.4 513.9 498.9 470.5 462.4 480.3 502.8 518.9 533.4 545.7 557.7 567.4 578.9 587.5 594.6 603 608.1 611 617.9 618.6 616.3 617 619 622.1 623.2 623.1 623.1 620.7 617.4 610.9 602.1 585.1 562.9 542.6 529.9 508.4 473.5 454.5 421 385.9 357.6 325.9 303.4 286.1 267.6 253.9 253.3 255.6 260.2 263.4 271.2 285.1 296.9 309.8 327.2 351.7 378.4 404 425.4 449.3 468.4 477.5 498 504.8 483.8 462.8 435.3 413.4 393.2 377.9 365.8 363.8 372.1 379.7 388.4 399.4 410.8 427.2 438.9 448.1 459.2 464.6 477.9 493.3 501.9 508.7 517.1 531.7 541.7 552
618.9 619.9 620.6 616.3 611.3 607.2 601.7 585.6 586.9 597.2 603 608.6 609 607.4 616.5 625.1 636.6 647.2 655.8 664.3 673.9 681.3 686.8 691.1 693.4 695.6 697.8 700 702.3 705.6 710.2 715.1 718.7 722.9 726.6 729.9 732.5 732 731.2 731.2 724.7 708.2 684.7 658.1 630.9 620.4 609.4 598.1 585.7 585.9 584 580.8 580.8 585.3 588.9 599.1 611 621.4 643 648.6 650.4 664.5 681.4 690.1 696.6 701.4 704.4 702.6 696.8 692.2 680.6 671.1 667.8 657.4 649.9 648.2 649.8 654.9 661.4 662 665.9 667.5 664.9 655.4 648.1 646.2 640.5 637.9 635.6 636 634.3 629.8 614 604.7 595 586.6 580.8 571.4 555.5 557.7 554.1 553.2 550.9 547.8 546.9 545.1 542.7 538.9 533.2 527.9 518.6 503.2 490.4 465.8 462.4 487.5 508.9 519.8 532.4 542.9 554.9 565.2 577.4 585.9 592.7 599.4 605.2 608.8 614.4 614.7 614.1 617.8 618.5 619.1 620.4 620.7 617.2 613.2 609.7 602.6 585.4 562.4 540.5 522.6 505.7 470.2 447.5 422.3 394.7 364.5 337.1 306.3 286.2 271.3 255 253.7 253.7 262 283.1 292 312.4 321.8 340.9 361.8 373.1 403.6 421.3 449.4 469.9 487.8 501.7 519.1 525.3 518.5 505 480.9 453.2 424.9 404.1 384.6 384.5 386.1 397.4 405.7 416.9 426.4 434 444 457.2 468.9 476.7 486.5 493.1 507.5 517.5 527.1 538.6 550.5 560.9 572.2
597.7 598 596.8 597.1 593.1 589.5 584.4 566 541.5 581.6 586.4 588.1 592.6 603.6 613.3 623.1 634.1 645.1 655.4 665.1 674.3 680.8 685.4 688.8 691.1 692.9 693.6 694.6 696.8 700.4 704.5 709 712.8 720 724.5 729 731.5 731.7 734.2 734.4 729.8 716.4 690.8 662.6 642.2 627.9 613.2 597.9 586.4 586.5 580.8 580.8 580.8 580.8 580.8 587.1 597.5 600.2 622.3 628.3 634.1 645.8 663.4 677.3 682.3 688.5 693.3 692.1 687.5 679.8 673.2 662.2 658.7 649.5 640.7 641.8 639 647.8 654.6 656.7 656.6 657 658.4 652.8 643.1 639.6 639.9 639 641.3 640.7 637.8 633 623 612.3 601.5 587.7 577 567.2 556.8 543 538.7 539.4 539 537.1 536.5 536.3 534.1 530.6 524.9 517 504.7 487.1 472 442.7 468.4 498.9 511.9 518.7 532.4 545.3 554.3 562.6 572.4 583.3 588.3 593.5 599.5 602 607.5 608.8 612.4 615.4 614.8 614.9 614 610.8 606.6 600.8 593.6 578.2 557.4 537.6 515.2 498.2 471.5 440 413.3 390.6 368.2 342.4 313.6 290.4 271.7 259.7 254.3 255.2 260.7 280.4 311.9 334.4 344.6 365 385.6 398.4 414.8 447.1 476.3 498 508.8 524.6 533.8 543.6 540 524.8 506.8 480.4 453.5 429.8 413.6 412.4 410.9 414.2 421.4 434.4 447.2 454.4 462.7 471.7 480.3 489.5 492.5 501.6 509 525 538.5 549.4 559.7 569.2 578 588.9
561.4 563.9 568.7 559.5 561.3 556.1 551 547.9 521.4 543.8 557.9 549.5 555 595.7 607.5 618.3 630.2 643.4 653.9 663.6 671.8 677.3 682.3 685.7 687.3 689.2 689.6 690.8 692.2 694.8 698.6 703 708.9 716.6 722.9 727.7 729.5 730.6 735.5 734.6 731.3 723.7 698.7 672.5 652.3 637.6 618.6 605.4 588.2 585.7 582.6 580.8 580.8 580.8 580.8 580.8 587.7 586 605.2 614.9 618 627 649.6 661.4 669 675.7 680.7 679.9 674.2 667.7 661.9 653.2 648.8 641.6 633.1 632.7 628.9 638.1 647.5 650.6 648.4 649 649.7 648.2 643.9 639.9 640.9 645 646.7 647.4 644.7 642.1 636.1 623.7 605.1 587.5 574.1 562.9 551.3 534.3 523.2 524.6 525.7 524.9 524 524.7 523.7 520.5 513.2 500.3 490.5 469.6 444.2 456.4 475.8 500.5 509.5 518 532.8 545.9 553.4 560.6 569.5 577.9 583.1 588.3 594 595.2 599 601.9 606.5 607.2 608.3 604.8 602.5 598.4 589.7 575.5 560.1 544.6 528.4 506.4 483.8 463.3 435.3 407.1 380 362.6 341.3 318 292.5 271.5 261.5 254.2 255.9 260.9 274.9 299.2 322.5 352.5 376.6 404 421.1 440.4 465.8 482.1 503.4 518.8 527.1 533.8 540.7 540.8 533.5 518.1 495.1 472.7 456.2 439.5 435.9 437.6 442.6 446.7 451.5 462.7 469.8 481.3 493.7 506.9 515.6 525.9 522.1 518.6 526.7 538.9 558 568.7 577.2 588.4 600.5 609.4
520.7 523.4 529.7 528.3 523.9 523.8 518.8 513.6 504.5 499.9 505.4 513.6 544.2 574.8 596.4 611.8 625.7 641.1 651.3 660.6 668.1 672.7 678.3 681.3 683.5 684.9 685.1 685.9 686.4 689 692.9 699.3 706.4 713.4 720.2 725.2 726.5 728.4 732.9 732.9 731.4 726.4 713.2 691.3 669.5 645.1 627.5 612.9 599.5 587.6 586.4 580.8 580.8 580.8 580.8 580.8 580.8 580.8 595 604.3 606.9 616.2 634.4 648.6 656.8 661.5 666.3 666.6 662.9 656.3 649.4 643.1 637.9 632.3 626.4 624.8 621.7 627.8 637.2 643.4 644.1 645.6 645.2 645.6 646.3 642.1 645.6 649.7 652.7 653.9 652.9 651.1 644.3 625.8 605.6 586.5 571.4 556 537.6 520.5 504.8 508.1 510.7 509.7 509 509.3 507.5 504.8 495.6 479.6 468.8 448.7 434.5 462 477.2 495.5 506.6 517.1 529.7 541.1 552.5 558.1 567.8 575.9 579.1 582.6 585.9 589.6 591.4 594.8 598 598 597.2 592.6 586.2 575.3 555.9 538.2 529.9 515.2 492.5 467.3 445.4 421.7 396.7 373.8 351.3 334.8 315.5 295.1 275.2 263.4 257.7 259.3 260.6 268.1 289.2 313.9 338 370 396.1 426 455.6 474.5 485.2 503.5 521.7 527.4 529 534.6 536.5 534 524.2 508.6 490.5 475.5 461.3 459.5 461.3 467.3 480.6 492.8 489.6 491.2 496.5 512.5 528.6 546.7 561.8 562.8 558.4 548.9 550.7 560.4 573.2 583.6 598 612.4 620.9 624.9
488 489.5 492 495.5 492.1 487.2 489.2 487.3 480.6 478.8 473.2 475.7 510.2 529.1 566.5 589.2 616.7 634.9 645.8 655.3 662 667.5 671.7 675.5 677.7 679.1 680 680.4 682.5 685.4 691 697.6 704.8 710.9 716.8 720.7 722.6 725.6 729.1 729.8 729.3 727.2 720.4 707.1 680.6 659.1 638.9 617.8 602.1 590.5 590.7 580.8 580.8 580.8 580.8 580.8 580.8 580.8 587.6 593.5 600.3 613.5 626.5 634.5 643.6 647.6 651.9 652.4 648 642.3 637.2 631.5 627.4 624.3 621.5 617.3 617.3 621 627.7 636.3 638.2 639.5 640.9 643.5 645.2 646.5 650.9 654.4 656.4 657.8 658 656.5 644.2 622.9 593.2 573 560.1 537.5 517.1 503.5 485.3 483.8 482 484.5 484.4 484.3 479.1 480 473.7 461.5 443.2 422 437.8 462.1 476.3 490.9 501.2 514.1 527.9 537.3 544.8 553.4 565.2 573.5 576.4 578.8 582.2 586 589.8 591.6 594.9 594.8 592.2 581.3 570.3 553 531.4 509 490.4 471.7 448.4 426.4 402.4 381.7 362.6 341.7 326 307 294.2 277.9 266.3 260.3 256.5 263.4 267.6 279.4 303.4 330.2 356 388.6 427.2 451.3 475.5 493.6 504.4 511.6 517.4 520.8 524.8 530.6 530.5 525.6 516.1 502.7 493.5 487.1 484.1 481.2 488.8 508.3 523.4 537.2 541.6 525.9 528.2 550.9 568.1 587.8 588.5 590.2 587.4 583.1 578.2 581.1 588.7 602 618.7 631 635.5 643.2
458.2 457.9 461.4 467.1 463 459.7 466.2 461.6 462.2 455.1 454.6 455.6 476.1 496 520.4 551.7 600.8 620.5 635.6 644.4 653.9 659.3 663.6 668.5 669.8 673.7 675.3 676.3 678.3 684.1 690 696.5 703.1 708.4 713.2 716.6 718.5 722 725.6 727.1 727.4 726.9 722.6 713.3 697.1 673.4 652.4 634.4 612 591.6 591 583.1 580.8 580.8 580.8 580.8 580.8 580.8 580.8 593.1 596.7 611.4 617.7 621.9 632.5 635.2 638.1 637.8 634.2 629.2 625.2 616.8 617.9 614.3 617.4 613.3 615.2 618.1 625.4 630 632.5 637 639.1 639.5 642.9 647.7 653.3 655 655.8 655.8 655.9 649.1 613.9 594.4 572.4 552 530.1 511.3 496.3 483.9 464.9 460.2 450.4 448.2 451.7 453.8 454.7 449.1 448.7 440.9 416.5 384.7 424.9 456.7 473.3 487 494.1 509.2 523.5 533.2 539.9 547.2 558.8 569.2 573 575.2 576.9 582.7 586.8 586.3 588 586.7 580.9 564.9 548.3 521.9 499.6 477.9 451.8 435.9 409.4 384.8 361 344.2 329.1 314.4 299.4 285.8 276.9 267.3 260.1 262.4 264 267.8 280.3 295.4 319.3 345.7 374.2 413.2 443.7 467.8 485.4 493.7 504.8 512.7 513.9 518.3 522.9 526.4 524.8 520.3 512.8 505.2 501.3 491.4 496.1 501.9 522.3 540.6 560.3 572.7 583.2 576.2 578.2 585.7 591.7 600.4 603.9 601.6 599.4 599.1 601.2 602.9 611.6 621.4 631.3 641.1 648.7 654.8
430.1 428.1 431.7 441 431.4 434.3 439.4 437.7 439.9 426.8 432.9 433.7 451.5 467.4 487.7 516.6 566.6 596.7 612.4 626.9 639.7 647.9 653.4 658.8 662 666 668.8 671.2 674.9 680.5 688.5 693.7 700 704.6 708.3 710.9 712.6 717 721 722.6 723.4 723.7 720.9 716.4 708.8 690.2 667.1 642.8 623 600.3 585.8 584.4 580.8 580.8 580.8 580.8 580.8 580.8 580.8 593.7 598.9 607.3 613.2 615 621.2 625.7 627.5 627.9 620.5 614.8 611.8 607.5 610.7 608.4 611 610.8 612.2 617.2 623.5 628 630.8 635.5 637.9 636.1 623.9 645.4 651.2 650 639.3 645.9 638.8 619.2 591.7 559.8 537.2 524.3 497.5 483.4 467.3 454.3 443.9 432.5 424.4 419.8 422.9 424.7 424.3 419.2 423.7 422.9 398.4 369.2 403.5 445.6 466.4 478.9 489.6 501.4 514.1 528.6 536 545 553.5 564.3 568.4 571.1 571 577.9 582.3 581.6 580.6 575.3 561.5 540.8 515.1 487.9 467.2 447.5 407.5 394.6 367.3 343.1 324.3 312.5 301.6 290.4 280.5 273.4 267.1 266.5 268.3 268.5 271.8 279 294.1 314.9 337.7 369.1 397.4 426.5 461.5 480.8 493.4 499.4 506.1 510.3 516.4 520.5 526.3 529.8 532.9 526.9 518.7 507.1 502.9 503.1 508.6 523.1 542.8 566.4 584.3 605.4 611.7 611.2 607.1 602.6 600.9 598.7 599.9 599.4 600.7 603.1 605.4 616.8 627.8 631 639.5 653.4 659.6 662.7
406 404.2 405.6 415.9 410.8 415.6 414.2 409 414.7 403.9 412.3 418.1 430.8 442.6 461.5 484.2 515.4 561.3 585.1 600.6 620.5 630.8 638.6 646.5 651.5 656.5 660.7 665.4 671.1 677.7 684.1 689.7 694.9 697.4 702.3 704.3 704.8 710.2 714.5 716.2 718.1 719.4 718.7 717.4 712.3 700.6 683.3 658.7 628.9 607.2 598.5 591.6 580.8 580.8 580.8 580.8 580.8 580.8 584.8 590.3 593.6 601.3 606.5 606.6 610.5 614.6 617.8 617 611.4 606.3 603.1 599.9 605 605.7 607.6 609.1 613.1 617.7 622.5 626.2 629 633.6 636 625.6 608.2 612.2 644.6 632.9 599.3 616.8 615.1 587.1 561.4 530 506.6 490.5 469 455 442.7 433.4 423.8 407.1 404.8 399.7 396.2 396.2 394.5 395.8 398.1 401.8 392.6 365.4 397.8 429.3 450.8 465.4 482.6 496.2 506.3 517.1 531.2 541.4 547.8 556.5 563.8 566 565.8 571.9 574.7 572.3 566.2 554.3 534.6 508 481.5 456.9 433.8 406.7 376.8 351 327.8 309.5 294.3 286.1 281.9 274.4 271.4 273.1 275.1 277.1 277.1 277.9 282.3 291.7 309.4 335.6 363.9 390.8 417.8 438.2 465.6 483.5 496.1 502.5 507.9 516.1 519.7 524.8 531.4 539.2 540 532.3 524.5 520 529.4 531.1 531.5 541.9 564.2 582.7 603.6 620.1 625.7 619.4 612.2 606.5 601.8 591.5 591.5 591.5 591.5 599.6 609.2 617.8 626.7 635.4 640.9 652.7 661.4 666.4
384.4 387.1 388 398.2 394.7 398.1 398.8 395.3 394.6 393 396.1 404.2 411.4 425.1 436.7 455.9 473.3 501.2 551.8 578.9 594.7 611 620.9 630.6 637.9 644.7 650.7 658.6 667 673.6 679.4 684.5 689.3 693.4 695.2 697.5 698.9 702.8 706.9 709.2 712.7 714.7 715.1 714.2 712.7 708.6 693.2 671.9 653.3 630.5 613.3 596.8 590.5 588.9 589.1 588.3 587.2 585.2 584.8 584 588.9 593 596.2 598.5 599.9 602.5 606.6 606.8 602.4 599.8 599.2 599 601.3 606.6 608.1 608.9 613.5 617 620.8 624.2 627.1 630.6 631.2 605.6 590.4 576.4 615.6 608.4 575.9 549.5 552.7 525.4 516 493.7 475.1 460 440.5 430.6 418.8 408.1 401.5 387.1 381.9 378 372.4 372 373 373.2 376.2 379.6 378.6 356.5 383.2 404.8 426.1 446.2 467.9 486.3 496.3 504.2 520.6 535.5 541.4 546.9 555.4 558.3 557.8 559.2 559.7 552.8 540.5 521.4 499 472.8 446.8 416.8 389.2 359.6 335.8 321.8 301.1 284.9 277 274.1 271.4 276.2 279.8 286.9 294.5 298.1 296.3 298.2 302.4 316.1 333.9 361.5 384.5 415.5 443.6 463.4 483.2 498.5 502.8 504.3 513.2 516.9 522.3 527.5 534.3 542.6 540.7 535.7 539.2 549.6 563.6 571.2 571.9 568 586.6 600.6 618.7 628.3 628.1 625 616.4 611 602.3 591.5 591.5 591.5 591.5 603.6 609.5 618.9 630.2 636.6 641.1 652.5 662.1 664.4
380.3 378.7 377 375.2 381.5 384.2 385.2 388.8 381.5 385.7 386.6 393.8 400 407 418.8 432.1 447.3 469.2 495.5 534.3 556 581.9 599.1 612.3 622.7 631.1 641.1 649.6 659.2 666.3 671.8 676.1 680.2 685.2 688.1 690.9 694.1 695.2 698.6 703 706.3 708.6 709.1 710.4 710.7 708.7 701.3 688.6 670 651.9 619.7 610.4 607.8 602.6 599.2 597.4 595.4 591.2 588.8 584.9 579.9 585.6 584.8 585.9 587.7 591.7 594.9 597 594.9 592.7 590.1 597.1 601.5 604.1 606.1 608.5 612.2 614.7 618.2 619.5 620.3 620.4 604.9 576.4 552.9 546.4 556.9 550.5 537.8 510.7 496.9 486.7 466.3 448.8 441.9 430.2 418.1 405.3 393.8 384.6 375 363.3 354.6 356.3 350 349.3 351.2 353.4 353.9 357.4 363.7 346.2 373.9 384.5 397.9 419 437.8 459.7 475.9 485.6 497.3 513.4 525.1 533.1 539.2 542.1 540.7 538.9 533.2 522.2 505.1 484 460.9 429.4 404.1 374.1 348.2 325.6 308.7 296.2 280 273 272.5 275.5 292.2 304 314.5 331.7 324.1 326.5 326.9 329 333.3 343.2 365 386.2 414.5 438.6 459.6 477.1 497.4 501.1 501 507.4 512.4 518.3 525.4 532 540 547 565 571.4 570.8 578.5 588.3 587.8 588.3 590.5 605.6 624.6 627.6 629.6 628.5 616.3 608.5 594.4 591.5 591.5 591.5 593.4 603 603.9 607 617.2 627.3 638.3 645 657.1 661 661.7
389.8 384.7 378.1 375.1 373.3 373 372.7 376.6 376 377.4 380 382.1 387.8 391.1 399.8 409.4 427.3 445.3 465.2 490.7 512.3 547.7 569.6 590.8 606.5 617.7 628.8 639.3 648.2 656.3 662.7 667.3 673.2 678.3 682.2 685.7 688.8 691.4 692.1 695.9 699.5 702.4 703.1 706 705.7 704.9 702.6 694.9 679.5 663 651.2 630.3 619.4 614.6 610.4 606.4 599.1 594.8 588.7 584 573.9 574.3 573 571.7 574.3 578.2 582.3 584.5 585.7 585.8 589.4 594 596.4 598.6 599.6 604.1 607.8 609.5 610.5 596.2 589.5 570 552.4 535 516.8 514.8 500 498.2 481.8 472 462.9 450.2 438.9 420.3 409.9 401.5 390.3 378.5 367.4 363.2 352.3 340.5 332.9 331.6 329.9 328.2 330.1 329.9 331.2 334.9 341.4 343.4 352 365.9 373.4 390.3 405.8 422.1 441.2 456.5 470.5 484.6 496.9 508 513.7 515.5 511.8 506.8 497.7 484.1 464.1 441.7 418.2 392.7 361.5 338.4 320.9 302.4 283.6 274.6 273.2 271.4 272.9 289.5 310.8 327.9 351.3 372.7 377.9 374.3 379.3 382.1 374.8 382.4 395.9 423.1 440.2 462 484.7 488.4 492.9 495.5 501 507.1 511.2 522.4 532.9 541.6 550.6 568.1 584.1 587.8 588.3 594.9 597.5 598 597.5 603.1 614.6 616.8 619.4 623.4 618.6 610.6 591.5 591.5 591.5 591.5 591.5 591.5 593.2 591.5 605.3 616.9 627.2 637.5 646.2 653.2 657.7 661.8
402.1 398 395.2 386.6 384.4 380.1 370 369.3 370.7 372.9 374 376.2 379.8 381.9 385.7 391.9 405 422.5 438.6 454.5 476.4 499.1 531.2 555.7 582.6 600.3 616 627.9 639.1 649.5 657.1 662.6 668 672.9 675.6 678.7 682.6 685.3 685.9 688.6 693.3 696.1 697.6 700.4 701.3 700.6 699.9 696.9 689.7 680.2 663.4 643.4 633.6 628.8 622.9 613.5 601.3 590.6 582.1 575.7 570.6 562.5 559.4 555.2 557.4 562 567.4 573.3 576.4 578.9 582.8 587.7 589.6 590.2 589.9 595.6 597.3 595.8 582.9 558.8 541.4 523.5 507.9 492.5 476.4 477.4 467.5 460.4 455.8 438.6 431.3 420.7 412.7 398.1 381.8 375.2 364.3 353.9 348.9 340 332.7 324.2 316.4 315.9 316.4 315.3 313.7 315.2 313.1 317.9 322.8 328.5 333.4 342.6 351.3 363 375.2 388.8 404.2 418.4 432.3 444.9 456.3 471 476.9 477.9 475 467.9 457.1 442.3 421.4 401.4 374.8 353.7 332.4 312.4 297.1 284.7 273.1 271.4 273.2 273.5 277.7 303.4 330.7 353.1 371.2 393.3 403.4 410.3 419.8 432.8 435.2 432 437 458.2 465.1 472.5 479.6 483 488.7 493.2 499.6 505.7 516.9 533.2 539.7 549.5 565 579.9 588.8 589.3 590.6 593.9 597 597.3 599.8 604.5 608.6 610.3 618.1 619.6 615.1 591.5 591.5 591.5 591.5 591.5 591.5 591.5 591.5 591.5 602.5 615 629.4 636.9 643.5 650.9 658.5 663
429.6 419.5 410.2 399.3 396.4 390.8 380.9 373.5 368.2 368.1 369.1 371.9 371.2 374.5 378.4 379.4 386.8 401.6 419.6 434.2 450.8 469.5 496.9 526.5 557.2 578.4 599.7 615.2 628.1 640.1 648.8 655.7 661.1 666.8 668.3 672.2 675.6 677.8 680.1 682.4 685.6 689 690.8 695.3 696.6 698.2 699.2 698.2 692.3 683.5 670.4 656.2 647.6 639.7 633.5 618.3 592.5 578.7 563.3 562.6 561.8 555.4 545.4 537.6 537.7 541.9 551 556.7 564.4 567.7 572.5 577 578.7 577.5 577.5 571.4 567.2 564.2 551.2 521.9 486.8 481.2 469.7 457 444.5 439.7 436.1 424.9 425.1 410.2 401.3 394.2 387 376.5 363.2 345.9 343.4 338.3 326.6 320.7 316.8 313.3 307.5 305.7 304.9 305.3 304.2 305.3 304.5 304.4 308.5 314.5 313.6 327.8 331.7 341.4 347.3 360.2 372.4 385.4 396.9 407.9 417.4 426.8 430.9 431.7 428.3 420.2 410.5 395.3 380.2 364.2 344.4 326.9 310.4 291 278.4 273.6 272.5 271.4 274 275.1 286.9 316.3 340.4 360.1 383.2 397 413 426.1 439.5 447.9 449.7 459.2 460.4 474.3 477.5 477.2 477.7 480.4 487.1 492.1 499.1 509.4 526.3 533.5 541.4 555.5 569.2 574.7 577.1 580.9 583.8 586.3 588 589.6 591.4 594.3 599.3 606.7 613.1 610 591.5 591.5 591.5 591.5 591.5 591.5 591.5 591.5 591.5 591.5 604.1 617.1 628.2 633.8 640.6 648.5 657.9 661.4
453 444.7 433.3 419.8 412.5 400.6 390.8 386.3 371.7 366.2 366.2 366.5 366.8 367 372.4 372.2 376.1 383.8 403 415.9 431.2 439.1 463 486.6 526.3 557.1 583 600.4 614.8 628.8 638.3 646.6 654.4 658.6 661.9 667.7 670.6 672.1 672.7 675.7 678.9 682.3 685.6 690.9 692.9 694.1 696.4 694.8 692.9 685.3 677.6 664.7 654.7 646.1 638.1 613.3 580.1 562.2 536.3 530.7 544.5 542.7 531.4 510.7 513.4 521.1 532.7 535.7 544.7 553.9 559.1 562.6 563 562.5 548.8 539.2 522.3 489.6 481 459 447.2 445.3 436.1 425.5 415.1 408.7 399.5 392.8 390.9 385.3 373 366.1 360 347.7 337.4 325.3 322.1 317.4 310.9 308.6 304.4 303.1 302.5 301 299.7 298.3 299.7 299.7 298.9 299.9 303 304.7 308.2 312.2 320.1 324.7 324.2 333.7 345.6 354.6 363 373.7 379 386.5 390 388.9 383.4 381.5 373.4 360.1 349.3 336.4 320.4 303.2 287.8 274.7 273.2 272.8 272.7 271.4 274.2 286.5 299.1 318.9 342 360.2 384.5 400.8 417 427.7 439.5 448.7 456.6 463.6 470.4 475 471.4 470.1 470.5 476.1 481.4 489.1 498.5 512.1 520.9 530.4 541.6 558 561.5 561.2 562.4 565 565.9 566.3 569.4 571.4 572.6 578.1 586.4 590.9 593.8 599.4 599.7 591.5 591.5 605.5 599.3 591.5 591.5 591.5 591.5 591.5 606.4 614.5 624.3 633.6 642.1 646 653.5 659
485.3 471.5 459.6 443.8 429.3 418.7 408 395.6 382.4 372.5 367.4 361.7 363.5 362.1 363.8 365 367.9 371.8 383.8 400.3 407.5 425.8 436.8 454.1 481 520.3 551.5 581.7 597.5 612.8 624.5 637 645.8 651.2 655 661 666.2 665.1 664.3 667.8 672.2 674.8 678.9 683.3 687.1 690.3 691.5 691.3 691 685.1 676.6 656.9 646 636.8 635 606.2 569.3 544.2 514.1 497.6 501.3 505.7 504.8 488.2 486.1 490.5 502.3 505.5 512.5 525.4 532.6 543.3 538.8 531.6 514.7 493.8 478.3 446.7 436.4 420.9 415.1 412.6 408.2 396.8 389.6 380.2 370.5 367.6 360.6 356 350.5 344.6 336.9 328.4 319.8 314.6 309.7 307.1 303.5 301.2 299.3 296 296.5 296.6 297.2 296.6 296 295.7 295.9 297.2 297.9 291.9 298.6 302.2 304.5 303.3 306.3 314.9 321.2 331 337.2 342.7 347.3 353.3 356.7 358.9 353.1 348.3 340.7 330.9 320.8 310.5 298.5 286.8 275.2 273.5 273.2 273.2 271.4 271.4 274.9 282.5 298.3 316.1 336.2 358.8 377.4 395 413.3 425.4 437.8 447 458.1 465.3 467.4 464.1 461.9 461.8 463.5 470.6 476.3 488.2 497.3 509.5 517.3 529.7 543.2 552.1 556.4 558.5 562.4 560.7 565.3 567.1 561.3 561.3 561.3 565.8 573.9 587.9 596.6 602.3 601.4 604.3 609.5 603.1 591.5 591.5 591.5 591.5 591.5 591.5 600.5 609.5 621 632.7 640.3 644.4 649.5 656.8
519.1 505.2 489.7 461.1 457.3 441.7 428.1 409 394.1 382.4 376.9 370.9 362.6 360.7 360.6 361 359.9 361.8 367.5 379.1 394 405.8 413.2 428 449.2 469.4 502.8 541.1 565.2 589.9 603.3 622.5 635.4 642.5 646.9 651.4 657.1 657.7 656.6 657.5 663 666.5 671.3 675.4 680.5 686.1 688.7 686.4 688.4 668.3 661 630.7 617.2 601.5 603.4 587.2 550.7 520.5 500.8 474.6 466.3 467.7 470.5 460.6 449.6 454.1 461.9 459.7 462.9 469.3 481.9 482.7 482.1 471.3 459.3 438.5 433.6 413 406.9 393.9 388.3 385.3 379.5 370.2 359.7 357.8 348.6 346.1 339.4 334 330.9 328.9 327.3 321.3 312 305.7 303.7 302.5 301.6 303.2 302.7 302 300.6 302.1 302.4 300.1 298.5 295.8 291 295.7 293.5 292.6 294.5 295.2 294.3 291.2 292.9 294.8 301.5 306.6 312.8 317.9 320.6 324.5 327.5 326.9 326.2 322 317.1 309.5 299.1 290.6 282.8 272.5 272.6 272.2 273.3 272.2 272.3 272.6 275 286.2 301.8 316.4 333.5 353.6 377.3 397.8 410.5 421.6 429.6 438.8 445.8 452.1 452.7 451.7 452.3 451.3 455 463.1 473.4 480.9 495.1 501 516.6 524.7 535.8 549.8 553.4 564.4 567.7 570.2 568.3 576.1 581.5 571.2 564 563.8 567.4 577.1 585.9 592.5 598.6 602.4 602.1 601.3 597.5 598.8 600.6 591.5 591.5 591.5 602.6 611.9 621.2 631.9 638.6 644.3 649.1 655.8
548.1 534.1 500.8 515 500.4 471.1 450 430.9 415.3 400.3 390.1 378.7 369 364.2 358.6 357.7 357 357.4 359.3 364.1 377.2 388.1 395.6 406.8 423.2 438.2 460.5 484.5 523.2 551.5 568.2 601.7 617.3 630.7 638.3 643.7 645.3 648.2 650.6 646.9 651.1 657.5 661.4 667.5 671.2 678.6 682.6 680.9 680 657.6 617.9 582 555.1 547.4 554.6 532.5 503.6 493.8 478.1 465.9 447.7 442.2 437.5 431.6 424.4 428.4 430.5 428.6 429.1 433.7 432.8 432.4 428.5 429.5 422.1 408.2 399.7 386.8 376.6 369.6 367.1 362.6 356 347.7 339.6 337.5 333.1 328.4 324.7 319.3 316.9 316.7 314.8 311 306.1 303.3 304.6 307.4 309.1 311 310.2 306.4 304.5 306.6 306.6 304.7 302 297.4 295.5 287.1 287.4 289.3 290.3 291.7 289 286.3 287.3 285.8 287.3 290 293.6 295.4 296.3 301.1 303 302.9 303.6 302.5 298.5 290.7 283.8 278.3 273.2 273.4 273.3 273.4 273 272.7 273.4 277.3 282.3 290.4 305.7 317.2 333.3 351.9 372.4 389.1 404.8 417.3 419.8 430.6 437.5 440.2 440.8 439.2 435.3 451.3 463.9 472.7 483.1 491.7 497.6 505.7 514.3 525.7 538.1 546.6 553 560.5 568.1 574.8 572.5 589.6 596.1 586.7 581.9 579.1 581.6 582.2 586.7 597.7 607.7 613.4 611.1 603.6 606.4 605.4 591.5 591.5 591.5 601.7 616.4 621.1 624.1 630.6 636.7 642.2 646.8 654.2
574.6 560.9 542.6 548.6 536 506.3 473.5 455.5 435 420.9 404.9 388.9 377 367.9 361.5 358.9 357.5 356.4 356 355.7 359.7 373.2 382.4 390 401.2 415.6 432.4 449.9 471.5 496.5 517.6 571.2 594.9 614.6 628.7 636.6 631.6 635.3 637.5 632.1 638.8 642.3 644.4 654.7 654.6 663.4 669.7 670 666.2 644.3 582.8 551.3 522.7 510.8 500.6 485.6 468.9 465.6 458.1 451.3 438.6 427 418.6 414.5 407.5 411.1 410.6 404.8 403.6 403.9 399.4 398.9 399.1 394.2 388.4 382.9 373.7 365.8 359.6 353.2 348.1 341.7 342 333.7 326.9 324.6 322.4 321.6 318.3 315.2 315.5 315.2 314 310 308.2 311.3 315.3 316.6 318.3 320.3 317.7 312.8 313 311.9 309.4 309.2 307.8 303.3 301 297.8 291 283.9 287.7 288.2 289.3 287 284.4 284 283.3 283 281 280.6 282.5 284.3 283.6 286.2 285.5 284.9 280.8 276.1 274.2 273.8 273.3 273.9 274.1 274.3 274.2 275.4 277.8 282.6 289.4 294.5 305.3 316.9 333.9 350.1 369.6 385 397.1 409.5 416 422.7 429.5 428.4 424.5 432.6 449.5 465.9 478.6 485.5 488 491 503 516.3 524.4 535 540.9 546.9 551.2 562.3 572.9 580.9 588.4 591.6 598.9 604.7 602.9 593.5 591.3 596.5 598.7 607.2 616.2 615.7 607.1 603.6 608 604.5 602.8 604.6 599.3 606.9 615.3 621.2 625.3 631.1 635.9 639 644.4 650.1
591.8 582.6 577.6 573 565.3 543 500.6 478.9 456.4 436.8 419.2 405.1 394.3 380.1 367.4 361.4 357.5 355.7 354.9 354.1 355.4 359.1 366.9 376.1 384.9 393.5 407.7 424.5 445.3 467.4 485.9 526.9 566.7 590.3 601 615.9 601.4 599.4 616 604.7 615.7 613.8 604.8 623 612 602 609.6 598.7 594 570.6 517 499.8 488.1 482.6 477.6 460.4 450.9 445.5 441.2 431.3 425.1 419.4 410.2 403 392.6 393.2 390.4 385.1 384.8 382.8 376.6 373.5 370.3 368.8 362.2 360.2 356.9 351.9 347.8 345.7 337.7 331.1 332 330.2 326 321.4 317.3 318 318.8 325.5 325.7 324.9 323.2 318.8 317.4 320.2 322.7 324.8 325.4 326.3 325.6 321.7 319.9 317.4 315.9 314.9 312.2 306.2 305.9 302.4 296 287.4 282.2 284.2 283.9 285.1 287.4 284.1 282 280.6 280.6 278.9 279.3 276.6 276.4 275.8 275.7 276 274.9 274.7 273.5 274.3 272.8 274.6 274.6 274.8 275.8 277 280.6 289.8 292.8 298.8 307.5 317.8 331.2 347.7 362.4 378.6 388.5 396.4 406.3 410.5 413.3 401.6 417.5 438.1 458.9 474.7 484 487.6 489.5 497.4 511.9 522.3 535.2 543.9 549 554.4 558.5 569 576.7 581.3 598.2 599.2 605.2 604.6 600.6 606.7 605 601.7 607.1 615.5 617.8 613.5 607.6 606.9 611.5 615.9 615 618.3 612.1 611.3 616.8 621.8 626.2 631.1 634.7 638.1 641.8 645.1
596.6 597.3 593.3 590 585.6 561.4 535.2 500.1 475.2 454.9 437.3 420.1 408.8 391.9 378.4 371.6 364.8 357.7 353.8 353.3 352.7 353.8 355.9 365.9 371.5 375.4 386.3 403.4 421.6 436.8 457.9 483.1 513.8 545.1 553.9 560.4 550.6 538.5 578.6 571.2 576.4 586.9 566.2 563.6 565.8 559.5 551.1 542.4 523.8 497.7 486.3 475.6 459.8 455.7 449.1 439.5 431.9 423.3 422.4 417.5 412.2 405.5 401.8 393.6 381.6 379.3 375.4 369.5 370.5 366.6 359.7 357.6 354.6 349.2 344.6 342.4 341.9 340.8 337.2 334 330.3 326.1 322.3 321.2 320.7 320.6 325.1 326.9 331.6 336.4 332.7 330 327.9 329.5 328.8 329.6 330.2 331.5 332.2 334.4 334.1 328 325.2 322.8 321.2 320.3 318 309.6 307.6 302.6 295 292.9 289 282.6 278.2 281.1 281.4 285.2 283.9 280.3 278.1 278.3 277.5 276.9 276.6 275.9 275.4 275.4 273.9 274.4 274.1 273.7 274.2 275 275.6 275.8 276.4 278 283.6 289.2 294.8 302.9 308.4 318.8 337.4 349.5 359.4 367.3 372.7 381.3 390.7 395.7 411.2 420.8 430.3 443.2 464.1 476.5 483.4 486.7 491.9 502 519.4 536.9 550.2 553.6 560.4 568.1 569.7 583.1 589.3 587.3 586.9 594.7 600.4 607.9 615.8 621 618.3 618 620.8 623.8 624.1 619.8 610.5 615.3 621 623 626.7 628 619.6 619.8 623.5 623.6 625.6 630.7 634.4 637.4 639.2 641.3
618 610.4 606.2 603.2 601.6 584.4 549.2 518.6 495.8 473.6 452.2 434.7 420 403.5 390.3 381.7 370.2 359.9 355.2 353.4 352.2 351.3 351.2 351.7 359.6 363.1 369.9 384.9 401.6 412.2 432.8 446.4 467.3 504.9 522 506.5 504.5 499.6 519.7 520.3 524.1 533.3 538.9 516.2 518.1 504.9 496.4 484.1 492.2 464.6 454.4 443.3 442.1 434.5 427.1 420.6 412 405 398.7 401.7 396.6 396.3 391.1 379.5 366 362.6 359.6 357.9 358 353.3 352.5 349.4 345.5 342.5 338.8 337.2 335 332.3 330 326.7 326.8 327.8 331.1 326.3 327.7 330.6 332.6 339.8 344.1 345 344.7 344.9 339.4 336.2 337.5 338.1 339.5 341.4 341.8 343 339.8 334 329.5 327.8 326.2 326.1 321.6 315.8 314.7 304.3 300 297.2 295.1 292.1 286.8 280.5 277.1 279.2 280 278.6 278.1 277.5 277.3 276.9 276.7 276 275.3 274.2 274.8 274.4 274.1 274.1 274.4 275.3 276.6 277 277 280.2 287.4 294.4 299.5 304.7 312.6 321.3 330.9 343.5 351.4 365 376.3 388.1 399.7 410.3 424.5 443.7 449 461.1 471.4 476.7 481.1 489.6 502.3 517.1 534.5 550.5 562.1 561.6 569.7 576 581.6 592.8 594.1 599.2 601.1 602.5 603.5 616.9 625.2 628.5 625.8 626.4 630 626.9 628.9 624.5 613.5 622.1 623.8 626.5 629.8 625.9 620.5 622.1 623 623.5 624.6 629.3 633.4 638.2 639.5 639.7
630 623.7 618.3 615.3 613.6 610.4 576 538.7 514.4 489.5 466.9 449.9 433.5 418.9 405 389.4 378.7 369 357.4 353.9 352.9 352 349.8 350.4 350.5 353.8 356 367 380.5 390.2 406.9 415.8 432.6 454.4 463.1 461.4 460 462.2 463.5 468.8 466.8 484.4 494.1 480.1 461.9 461.2 453.4 441.9 430.4 424.4 420.9 412 409.8 409 406.7 402.6 394.6 387.1 384.8 381.5 376.9 378.8 377.1 366.3 354.4 352.2 349.2 347.4 347.7 346 345.2 344.4 341.9 340.4 337.4 335.2 336.1 333.4 327.7 332.6 332.9 335 335.1 335.8 334.8 336.5 339.5 348.7 350.1 353.4 353 351.9 351.1 347.7 346.4 346.4 349.5 351.8 351 350.6 346.9 341.9 337.9 335.8 334.9 332.3 326.1 321 315.6 310.9 306.8 301.9 298.1 294.2 289.5 288.1 281.9 279.8 279.6 277.6 275.8 275.4 276.7 276.2 275.2 275.7 275.5 275.4 274.9 274.4 274.2 274 274.6 275.7 276.7 278.4 279.3 283.8 289 297.2 303.4 306.5 314.1 324 334.8 345.3 356.1 368.4 380.5 393.7 410.1 420.1 436.1 459.3 463.9 468.7 473.7 476.3 485.6 496.8 510 526.9 544.3 559 563.8 564.8 569.5 580 593.4 597.6 602.4 608.5 607.7 607.6 612.9 613.6 615.7 621.9 626.8 624.8 628.8 627.5 628.4 621.2 621.5 627.3 632.9 629 627 621.3 619.8 622.3 623.5 623.1 623.9 626 631.4 635.7 637.7 637.5
640.2 635.2 631.1 628.3 625.1 621.2 605.1 585.6 554.8 509.1 485.1 465.8 446.2 431.6 417.5 403.8 391.7 381.2 369.4 363.2 355.4 351.7 350.3 349.9 349.8 349.2 349.1 353 362.5 368.4 381.2 391.1 402.4 411.5 421.5 422 427.2 431 428.4 432.7 429.3 447.5 443.4 439.4 431.7 421.8 417.1 409.5 405.2 398.9 395.7 390 388.7 386.8 381.6 383.3 375.2 369.2 364.9 362.7 362.1 367.9 366.4 353.6 346.4 346 344.7 343.6 343.5 342.6 342 341.3 338.9 337.6 333.9 335.3 330.1 330.6 334.6 335.7 339.1 342.3 340.3 342.3 343.1 344.6 349.8 355.4 357.7 360.9 364.2 360.1 357.3 355.9 355.9 355.8 358.8 361.2 361.5 359.5 355.3 350.6 349.2 347.2 345 342.8 336 330 323 320.1 316.5 309.2 306.5 302.7 298.6 297.3 292.2 288.7 284.9 282.6 279.8 279.9 277.9 275.2 276.1 275.7 275.6 275.1 274.7 274.6 274.8 275.4 276.2 280.1 282.2 281.7 282.7 286.7 293.6 299.7 303.9 307.7 315.5 325.9 334.4 344.6 357.7 371.3 387.6 404.3 418.8 432.6 448.9 460.3 466.3 470.6 474.3 482.9 494.5 512 523 536.6 548.5 561.6 562.8 564.3 571.7 586.8 594.7 596.9 598.5 602.9 607 605.8 608.3 609.9 609.8 609.7 615.3 619 620.1 619.8 620.3 621.5 624.3 627.7 627.9 625.7 621.8 619.7 619.7 622.5 626.5 625.9 624.2 623.1 626.2 629.4 632.2 632.8
651.3 646.3 642.6 639 634.8 629.6 627 609 570.2 525.9 501.7 478.1 457.7 445.3 431.9 417.5 403.6 389.7 379.5 372.2 359.6 352.5 351.1 349.8 349.4 348.5 348.2 350.5 353.2 355.2 363.8 368.7 373 385.4 394.9 397.2 399.2 404.8 397 403.4 406.1 412.1 410.7 406.3 402.7 394.9 390 380.7 382 384.4 372.6 373.7 377.1 370.1 361.9 362.5 363.7 359.3 345.4 345.2 345 349.2 347.7 342.8 342.3 342.1 345.1 341.4 339 339.2 340.4 338.6 334.9 334.3 339.7 342.4 340.4 339.5 341 343.2 344.9 350 348.9 350.7 350.9 352.5 358.3 361.6 366 370.1 372.1 373.1 371.8 369.5 371.1 371.8 372.1 374.6 375.7 372.7 370.2 367.8 365 363 358.4 353 349.4 344 336.7 330.7 327 323.7 318.4 314.1 309.1 306.4 303.6 300.4 295.5 290.2 286.5 286.6 285.1 283.4 282.6 278 277.3 276.8 276.9 276.1 276.3 280.8 283.6 288 286.9 285 285.7 291.5 299.5 302.4 305.1 310.5 317.4 327.6 336.3 349 360.9 376 394.7 410.6 425 444.8 456.3 462.2 466.7 470.9 477.7 490.4 505.9 523.1 540.4 550.7 558.7 567 566.3 566.4 571.5 583 588.2 591.2 593.8 597.5 601.6 609.5 610.1 610.3 610.5 608.4 605.2 609.3 611.5 610.9 616.8 622 625.7 628 628.2 626 622.5 622.3 623.8 628.6 629.9 628.6 626.4 620.6 621 623.9 626.4 627.4
659.1 655.7 652.7 648.6 643.9 639.3 635.4 601.9 569.5 539.8 512.3 488.9 470.6 456.3 442.8 429.6 418 404.3 389.5 381.6 365.7 357.6 351.6 350.4 350 348.9 348.4 348.1 347.4 347 345.4 351 353.4 362.1 370.3 375.1 378.8 383.3 376.2 381.6 382.6 381.3 382.1 381.3 378.6 374.9 366.3 364.5 369.9 369 360 356.7 356.6 356.2 353.6 349 352.9 347.7 342.7 340.3 339.8 339.7 339.6 339.1 340.3 339.9 341.3 341.2 337.2 339.5 338.7 337.7 336.5 341.4 344 346.8 349.1 351.2 352 351.3 353.8 355.4 357.7 360.2 359.6 363.8 366.8 372.5 379 384.8 389.2 394.9 397.4 394.3 389.4 398.4 396.5 392.1 395.8 398.9 397.4 392.3 384.2 380.3 374.8 370.8 365.8 363.5 353.5 349.1 343.6 339.4 335.4 332.5 326.3 321.9 318.5 315.8 310.4 304 301 299.6 296.8 294.2 290.8 287.1 286.3 286.2 284 283.5 286.4 290.5 289.8 291.4 289.6 286.3 290.4 297.7 301.7 303.9 307.8 312.4 319.6 328.7 339.1 349.7 363.3 380.5 396.6 413.1 431 445 457 464.3 468.9 473.6 487.5 504.9 520.2 536.1 550.5 559.3 561.8 564.7 564.3 571.2 576.8 580.4 589.9 591 589.1 593.1 603.2 604.8 604 605.4 607.7 607.7 604.4 602.5 602.7 604.7 611.7 619.6 625.8 627.1 626.3 625.6 628 627.4 631.1 636.5 635.9 632.4 627.6 619.4 617.2 619.8 621.3 621.8
665.1 663.1 660 656.2 651.7 648.6 645 623.9 581.6 549.1 526.1 500.5 482.6 468.6 456.7 442.9 429.7 413.9 400.5 391.2 380.1 368.1 362.5 352.6 350.6 349 349.1 349.2 348.6 347.6 346.4 346 345.5 345.7 349.9 355.5 364 367.8 361.2 362.2 363.4 358.5 361.6 354.9 353.3 359.8 357.2 350.1 360.4 360.4 349.7 346.1 344.3 344.8 343.2 340.8 344.3 344.1 340.8 340.1 339.2 339 338.4 341 338.4 338.3 337.5 342.4 345.2 346.4 345.9 343.1 349.4 352.6 357 355.7 358.9 361.6 362.8 362.8 363.7 363.6 367.8 369 373.2 376.9 380.5 387.4 393.2 400.4 409.9 414.8 414.1 410.9 410.2 419.2 418.6 413.6 419.1 422.8 424.4 425.4 413.8 400.7 394.4 392 386.9 382.9 380.2 374.6 367.7 363.1 359.9 356.5 353.9 343.9 339 335.1 330.1 324.7 318.4 311.9 307.5 303.2 301.6 297.7 297.3 297.7 295.8 293.3 293.6 294.9 295.1 295.1 290.9 288.7 296 301.7 303.8 305.6 308.2 314.6 320.3 330.3 340 352.4 366.8 384.2 400 414.2 430.4 444.7 454 463 471.8 483.4 504.1 522.3 534.1 546 548.3 545.4 548.7 551.4 560.6 564.8 568.1 573.1 578.4 578.6 580.5 589.8 592.5 592.3 592.9 594.6 596.6 597.4 596.3 595.3 597.5 601.9 607.6 614.2 619.9 622.4 625.8 630 634 633.3 637.4 646.5 642.7 635.8 626.9 616.9 614.6 616.2 617.2 616.7
673.5 672 669.5 666.4 662.8 659.2 655.6 646.9 603.2 568.1 539.7 517 496.8 480.7 465.6 452.7 440.5 426.9 416.9 407.2 396 384.3 368.3 358.4 354.4 351.3 350.9 350.3 349.5 347.7 347.5 346.2 346.2 345.3 345 345.5 346.6 352.1 352.4 348.4 349.7 346.9 349.1 343.7 345.1 344.6 349.4 341.4 343.8 349.4 342.8 341.7 341.2 340.7 340.5 340.2 339.4 340.5 338.9 342.9 345 345.5 349 348.7 345.2 345.9 347 349.6 353.8 352.9 354.1 359.7 362.1 364.5 366.3 365.5 368 370.6 372.2 374.9 372.6 375.8 378.9 380.9 388.1 391.9 397 403 409.8 416.3 424.7 427.7 428.3 423.7 425 434.4 442.7 438.8 441.7 449.4 451.8 446.6 438.7 425.6 419.9 418.9 414.4 410.3 407.3 403.4 406.9 398.6 394 390.7 385.1 378.7 368.1 363.6 357.8 353.1 341.5 334.5 326.9 318.5 314.6 310.4 305.8 305.6 303.4 301.2 300 300.5 299.7 296.2 290 293.3 298.2 303.6 306.8 308.2 309.7 317.1 324.3 332.5 343.5 357 370.5 384.1 399.5 412.6 425.5 441.8 458 466.7 479.2 496.2 517.6 528.9 538.1 540 538.3 535.2 535.3 539.8 547.2 552.7 556.8 559.9 564 567.9 571.8 575.7 578.7 580.4 584 584 584.3 585.6 586 586.4 591.5 596.2 602.3 607.3 613 617.3 621.6 627.2 633.5 635.7 639.1 639.2 637.7 631.2 622 614.2 611.4 611.9 613.9 614.8
683.6 681.4 679.5 676.4 673 668.7 663.1 656 628.7 584.3 556.4 533.5 510.7 490.9 478.6 463.1 451.6 439.7 429.7 419.1 409.9 391.7 377 369.8 363.3 355.5 352.7 352.5 351 349.2 347.7 346.6 346.6 345.7 345.4 344.5 344.3 344.6 344.6 343.9 343.5 342 343.2 341.9 341.8 342.4 342.2 341.5 340.6 344 342.9 341.3 339.9 341.1 344.9 348 349.8 349.5 358.1 355.7 356.4 355.9 358.6 358.5 357.7 360.2 361.1 360.7 362.7 366.1 368.9 372.2 374 376.9 375.5 377.1 377.2 381.9 386.6 383.6 386.4 390.8 389.6 394.6 402.5 405.8 412.1 417.8 419.5 426.7 434.4 442.9 439.5 435.2 438.5 446.6 455.5 454 458.6 466.1 469.8 470.3 462.2 454.3 451.1 449.4 443.8 442.3 445.1 447.1 449.2 455.7 457.4 451.2 437.2 437.1 425.4 409.2 391.6 388.2 377.9 366.3 350.2 341.5 327.5 318.7 314.3 311.1 310.6 308.6 305.8 302.8 300.7 298.1 295 294.2 299.8 306.5 307.8 309.4 313.2 320.7 326 334.5 347.6 359.5 370.9 384.5 396.2 409.8 426.2 445.7 459.3 472.1 487.9 506.2 522.9 522.3 522.3 524.7 524.5 520.7 521.3 526.5 532.2 539.3 544.1 548.3 552 556 556.7 563.2 568.5 571.5 573 573.6 574.6 575.7 577.2 578.9 581.6 587.6 592.7 597.4 601.8 608.2 613.7 617.4 621 626.2 628.7 629.1 626.6 622 615.6 610.3 608.6 608.6 609.6 609.7
690.8 688 686.1 682.7 678.2 672.4 666.2 658.6 630.2 597 569.7 549.1 527.5 505.5 488.2 476.4 464.7 451.4 440.1 426.3 414.7 397.7 389.2 383.2 377.2 365 357.2 354.1 353.5 353.2 351 347.4 347 346.1 345.6 344.6 344.4 344.2 344.1 343.7 342.5 343.5 343.4 343.3 343.6 343.4 342.5 343.3 344.2 340.4 342.1 345.5 349.8 353 355.5 362.7 363.9 373.4 371.8 372.1 370.2 368.8 369.7 371.9 375.8 379.6 379.2 374.4 375.2 378.2 379.6 382.6 385.8 385.8 387.3 390.7 390.4 392.9 396 396.3 400.3 402.6 405 407 415.5 419.4 424.8 427.2 432 437.8 443.5 449.4 446.2 446.4 450.5 456.1 462.7 465.2 471.2 477.6 482.3 485.7 487.4 484.7 478.4 482.2 487.5 487.2 490 492.3 494.5 498 501.8 499.8 488.7 476.9 470.5 456.5 443.8 432.1 419.1 402.6 382.5 365.2 352.2 334.6 322.9 318.3 316.2 313.6 312 307.6 302.8 300.5 299.4 295.6 301.7 306.4 310.3 311.8 316.7 323.8 328 339 352.2 362.9 374 385.3 399.5 412 425.5 442 459.8 479.8 492.6 506.8 508.9 510.8 509.9 507.3 507.2 506.2 510.2 514.4 519.9 524.4 532.3 534.9 537 539.7 544.5 551.2 553.1 554 555.9 559.7 561.7 564.2 566.8 567.9 571.3 576.4 580.8 585.5 591.5 596.5 600.8 604.1 607.8 610.9 614 615 615 611.8 609.6 606.1 604.1 603.7 604.7 603.7
695.2 689.6 688.2 685.3 680.7 673.5 664.3 655 633.5 603.4 580.8 560.6 542.2 522.1 503.8 488.2 473.6 462.3 448 432.9 423.1 410 400.2 393.6 388.9 375.6 365.3 362.5 364.1 363.4 360.6 356.8 351.7 348.9 347.7 346.3 344.1 344 343.8 343.4 344.6 345.5 346.7 346.4 347.5 349.7 351.4 352.5 354.7 357.9 359 363.2 368.1 374.1 379.8 381.7 386.6 392.7 396.8 392 388.3 385 388.3 389.6 390.5 392.6 392.3 388 388.9 390.3 393.2 396.2 397.7 399.9 402.9 402.7 403.1 405.4 406.8 410.8 415 415.7 419.2 420.6 425.3 432.9 437.2 443.4 447.1 451.9 454.4 458.5 458.6 458.9 462.3 466 467.3 473.3 478.7 487.1 496.9 504.6 508.5 511.9 517 521.2 522.8 524.8 526.6 526.6 526.1 524.8 526.4 528.2 523.2 512.8 506.5 498.1 480.9 471.2 455.2 433 406.7 386.9 369.3 357.6 343.5 331.9 328.4 321.1 316.3 311.6 307.1 304.9 304.3 306 301.6 307.4 310.2 313.6 319.8 325.2 330.5 342.7 354.5 364.7 375.5 386.3 397.7 411.6 425.5 440.2 455.7 472.2 485.8 492.6 493.8 496.3 497.2 491.2 490.6 492.5 498.2 502.7 507.2 511.2 516.2 521.9 523.8 527.8 532.2 534.9 536.8 538.5 541.3 544.6 548.3 551.9 554.8 557.8 562.1 566.9 570.7 574 578.6 584.2 587.7 592.1 595.5 598.8 600.6 601.7 602.2 602.4 601.1 599.5 598.6 598.6 598.7 597.3
697.1 691.7 685.7 683.7 678.2 669.7 659.4 649.2 634.9 613.6 594.2 573.3 555.9 538.9 520.4 501.6 488.4 476 460.2 446.2 430.9 419.2 409.6 405.1 395.3 384.9 371.3 374.7 374.5 373 370.2 364.4 358.7 355.8 353.3 350.8 348.1 350.4 352 353 352.5 352.2 353.8 356.1 359.5 364.5 370.7 371.7 374.9 377.9 379 386.7 389.9 397 401.2 405.2 408 413.4 418.5 410.2 407.9 408.4 410.8 411.1 406.7 412.8 407.6 406.6 405.1 410.5 411.6 412.2 415.3 417.1 419.5 421.4 421.5 419.7 421.3 424.8 427.7 431.3 430.5 434.1 440 442.6 448.6 453.8 459 463 467.3 472.8 471.2 470.1 472.7 473 474.1 477.4 483.6 495.2 504.4 512 517.9 524.2 529.5 535.1 539.8 544 548.7 549.3 548.8 550.5 549.6 550.4 548.3 545.6 541.1 535.2 524.5 503.9 485.1 451.4 434.7 415 389.2 373 363.8 349.2 335.8 327.1 320.5 315.3 313.6 308.5 309.4 304.3 308.6 311.2 312.4 318.1 321.6 328.2 335.5 346.2 355.8 365.5 374.7 385.6 398 410.5 423.4 436.9 450.5 463.4 473.3 477.8 478.8 479.5 479 477.6 477.1 481.7 486.5 491.4 495.6 499.9 503 507.5 511.6 515.3 518.1 520.9 522 525.9 528.8 532.2 536.2 539.8 543.8 547.8 552.2 557.1 560 564.1 568.6 573.5 577 580.1 583.7 587.4 590.2 591.9 592.6 592.7 591.6 592.3 592.5 592.8 591.6 589.9
696.8 690.8 683.4 678.6 672.5 662.4 650.7 641.4 628.8 615.5 601.8 582.8 565.2 548.4 531.3 515.2 501.1 485.2 472.3 453.6 437.5 428.5 420.1 411.8 401.3 390.8 389.5 388 389.4 385.5 379.6 371.7 366.4 364.9 364.1 362.8 359.8 363.9 364.8 365.9 367.4 369 370.9 369.6 380.8 381.1 390.1 392.7 394.7 399.4 400.8 406 415 421.7 431.5 441.6 449.8 449.6 442.4 439.6 444.1 438.1 438.1 440.1 439.6 438.7 437.9 437.9 437.7 442 449.2 452.7 441.5 447.5 452.2 451.5 445.5 446.2 448.4 444.6 445.1 448.3 444.9 449.4 454.8 456.8 460.8 468.1 473.9 476.8 478.2 482 482 477.1 479.3 477.5 474.6 478.3 482.8 490.2 501.8 510.9 515.9 523.2 532.7 540.1 546.4 554.1 559.2 563 565.4 568 570.5 571.9 570.8 570.1 569.1 566 557.1 536.1 504.1 487.4 467 443.3 421.2 396.3 377 359.3 345.6 334.8 327.4 320.3 318 312.2 311 311.7 306.9 311.9 315 321.3 325.1 330.9 339.2 348.6 358 367.1 376.6 385.5 398 408.4 419.4 431.1 442.5 451.7 459.1 462.8 464.1 465.4 465.8 464.7 467.7 470.7 478.6 483.2 487.3 489.6 492.5 497.1 502 504.8 506.6 507.4 510.3 513.4 518.1 522.1 525.7 529.4 533.7 538.2 542.5 547 550.9 554.6 558.8 561.4 564.4 567.9 571.7 575.6 578.6 581.1 582.2 582.6 584 585.2 585.5 584.4 582.3 579.3
693.8 686.4 677.7 669.9 663.4 651.4 641 630.5 620.7 608.8 598.5 586.2 569.3 554 539 524.9 511.7 498.8 481.4 464.2 451.2 438.1 428.8 416 402.7 405.4 404.4 403.9 403.1 394.9 387.1 384.7 380.7 380.1 381.5 379.9 381.1 380.6 383.5 384.9 385.8 390.1 388.4 392 401.2 396.2 407.3 411.5 413.3 420.7 423.6 433.3 444.7 457.7 460.3 465.5 468.1 470.7 463.8 472.9 477.3 468 465.2 466.2 475.1 471.3 467.6 470.8 473.6 479.4 475.9 468.3 463.2 462.2 467.1 474.6 472.5 467 457.7 459.7 461 458.8 457 463.4 465.1 465.1 469.3 477.8 482.5 487.7 487.1 490.7 491 488.8 482.9 473.6 468.6 470.5 480.3 472.6 480.6 499.8 512.2 522 531.3 540.9 548.3 555.3 561.6 566.8 572.5 576.2 580.4 582.7 583.5 584.1 583.7 580.6 578.1 562.5 543.9 524.4 498.1 467.1 436.8 410.5 389.6 367.7 355 341.8 332.1 323.3 318.7 314.3 314.5 317 310.9 312 312.6 317.7 326.8 331.8 340.3 352.4 359.9 367.9 376.4 386.2 394 402.9 413.5 422.2 430.1 438 444.2 447.5 450.8 453.1 452.5 451.9 456.6 464.1 473.7 478.6 477.9 479.7 484.3 485.7 494.7 499 503.9 505.6 510 512.9 515.4 517.4 519.6 523.8 526.7 531.3 535.6 539.6 543.8 547.7 550.8 552.3 554.8 558.1 562.1 565.3 568.1 569.8 570.5 571.5 572.9 573.8 572.9 571.8 568.4 566
690.3 679.9 669.9 660.3 652.3 641.8 629.9 619.9 612.5 603 593.6 583 569.1 555.8 543.6 530.7 517.4 504.3 487.9 473.3 458.6 442.3 430.3 422.8 417.5 419.1 420.3 420.4 413.2 408.5 404.7 402.4 403 402.9 401.3 398.1 403.4 397.5 407.2 402.7 409.5 412.5 412 416.6 424.5 421.7 425.5 435.2 439.2 444.9 454.8 462.2 482.3 483.6 477.7 477.6 477.8 477.2 483 485.7 488.1 486.5 489.3 484.8 485.3 484.8 484.5 488.6 497.4 498.4 486.1 482.9 490.3 493.6 495.7 495.7 489.5 477.8 474.2 470.8 473.3 471.2 471.7 475.7 476.7 479.7 480 486.6 492.2 494.9 498.1 501.8 500.7 489.9 475.9 466.6 460.7 453 466.3 461.3 460.3 471.6 493.1 512.1 525.5 537.4 545.6 553.6 561.5 567.3 572.8 577.7 582.5 586.1 590.3 592.4 592 591.7 590.9 588.6 581.3 551.8 513.7 479.3 446.5 418.1 393.8 374 360.4 346.3 334.5 327.3 322.6 318.8 316.8 318.1 314.4 317.1 324.7 325.4 330.7 333.4 331.1 342.2 356.6 364.1 376.6 384.5 389 397.8 406 411.1 415.8 421.6 427.4 432 436 439.8 438 439.8 442.7 453.9 461.6 462.3 471.4 479.4 487.1 495.1 499.5 506.3 510 511.5 511.2 512.4 510.6 512.3 513.5 516.6 521.3 524.5 528.4 532.8 537.7 541.7 544.4 546.9 549 551.4 554 555.9 557.3 557.8 558.2 558.6 560.2 559.9 559.4 556.8 554 551.9
684.4 672.3 661.2 651 641.4 632.5 618.2 609 601.7 596.5 591 581.4 568.6 556.7 546.4 534.8 522.8 511.8 499.6 484.3 466.2 438 439.1 438.6 437.4 435.8 437.4 431.6 426.4 425.5 426.3 423.6 425.4 423.4 421 422.7 426 422.2 426.9 426.8 431.6 434.9 435 439.7 444.8 448.9 450.3 459.1 464.5 468.2 472.5 484.9 499.3 498.6 496.8 487.2 486.2 488.1 494.1 494.1 496.1 496.9 503.1 504.5 497.3 491.7 496.7 498.6 502.1 505 509.3 512.3 512.6 513.2 513.9 507.4 500.6 489.6 481.8 476.4 479.2 478.6 479.9 485.6 483.6 486.9 488.9 496.4 503.5 505.1 509.1 510.7 504.1 484.9 468.5 458.3 448 441.6 442.3 445.3 443.3 450.9 464.1 486.5 512.5 526.6 540.2 550.7 558.9 566.6 572 578.3 583.1 588.7 592.1 595 596.9 598.1 599 600.6 596 572.4 531.8 491 456.6 427 400.7 379.6 363.8 349.6 339.8 331.1 325.8 322.3 321.8 323.5 318.8 320.3 324.6 329 332.4 338.2 343.4 348.9 347.3 363 371.6 375.4 382.9 390.2 392.9 396.9 399.5 404 410.2 421.5 423.4 434.3 446.4 452.4 457.6 463 467.6 473 481.8 487.7 492.9 498.1 503.2 511 514.1 519.5 516.9 518.1 515.8 514.8 515.9 518.1 517.8 519.8 521.9 526.9 531.5 535.3 538.6 540.9 544.3 546.3 546.8 547.3 547.7 548.1 547.8 546.9 547.5 547.1 545.8 544.5 543 542.1
677.7 664.6 651.1 642.1 629.2 621.5 608 603.6 594.3 592.3 588.1 580.9 569.3 559.1 548.7 539.4 528.7 519.9 508.5 495.7 479.1 471.7 464.4 458.5 456.2 454.2 454.6 450.2 449 448 448.9 447.9 446.5 445.1 443.2 447.6 448.1 449.2 448.2 451.9 453.9 461.5 466.1 468.3 467.9 471.4 474.6 480.3 482.5 480.1 488.7 494.3 502.3 508.5 510.4 499.6 494.2 497.5 499.9 500.2 500 503.3 510.1 510.2 499.9 497.5 502.7 508.9 517.3 522.9 524.2 524.5 528.6 527 521.8 512.2 508.6 503.4 492.2 486.5 492.1 489.9 489.8 492.7 491.9 496.3 499 505.6 512 516.9 519.7 513.3 497 480 461.5 449.7 440.4 432.5 431.7 430.5 429.6 430.8 440.4 460.8 483.3 508.5 529.1 544.8 554.7 563.9 570.9 578.8 584.5 588.8 594.1 600 603 605.8 607.7 609.5 606.6 579.3 539.9 499.5 464.9 434 406.2 386.7 367.4 356.7 342.2 334.2 326.5 324.9 327.2 328.1 325.2 323.7 327.5 333 339.9 342.6 343.9 353.2 360 364.3 371 378.7 385.5 390.8 396.3 402.6 413.2 420.5 426.5 435 441 450.5 459.3 463.7 467.9 474.1 478.9 483.9 492.3 496.4 501.5 508.7 515.5 521.3 524.3 524.9 528.3 529.2 525 525.4 525.7 522.1 519.8 522.8 522.6 524 525.3 528.1 531.2 534.8 538 539.4 540.3 540.5 540.8 541 541.1 539.5 539.9 539.2 538.9 538.1 537.1 536.8
671.9 659.4 643 629.6 620.7 609.5 599.4 593.4 589.6 588.6 585.4 580.5 571.5 560.6 551.8 542.6 533.9 526.2 517.2 496 502.4 496 491.1 484.8 479.9 477.1 475.7 476.4 472.6 471.4 475 472.8 472 472.1 472 469.7 472.9 476.4 481.1 481.6 483.9 489.4 490.1 488.2 495.8 489.1 491.4 496.2 490.4 498 500.6 506 504.6 514.1 515.5 508.2 509.2 503.3 503.8 503.6 504.6 506.4 508 507.7 511.2 510.4 512.6 516.3 524.3 531.4 532.2 536.3 535.5 535.7 530 519 510.9 509.3 504.3 502.6 496.1 496.5 498.2 504.1 508.2 510.8 512.3 516.2 522.1 526.2 522 508.3 491.6 473.5 452.1 443.1 430.8 424.5 421.9 420.6 415.8 417.6 426.9 440.7 458.8 479.6 507.9 534.8 551.4 560.8 568 578.2 585.8 591.9 599 603.4 605.6 610.8 613.7 617.8 612 583 549.1 512.7 474.2 441.1 412.1 390.4 375.3 360.4 350 337.6 330.3 332.2 329.1 332.2 331.8 332.5 331.4 337.2 343.3 349.2 351.6 354 360.8 368.8 376.1 382.8 389.4 396.9 404.5 411.9 420.2 428.7 436.1 444.3 453.9 464.2 470.7 477.8 481.5 487.3 493 498.3 504.1 507.9 515.3 528.3 534.9 538.4 542.1 541.2 541.4 540.5 538 536.7 537 531.7 528.5 529 529.8 528.5 528.4 528.2 527.1 530.6 531.7 532.7 534.2 534.9 534.5 534.1 535.1 534.5 535.1 535 534.6 535.4 534.2 533.4
666.9 654.7 636.8 620.1 610.6 606.9 593.6 587.4 584.5 584.7 582.4 579.2 572.1 563.3 555.7 546.4 539.8 532.8 513 521.3 517.7 512.1 508.3 504.6 503.8 502 504.5 504.8 505.2 507.9 502.5 509.4 507.3 506.1 502.8 497.3 498 498.5 502.2 503.6 506.1 506.9 506.9 506.3 503.8 503.6 501.6 501.4 503.6 508.2 511.2 513.8 508.2 509.3 517.7 516.9 520.7 512.8 506.3 508.9 508.8 509.6 513.8 516.5 516.5 519.1 520.7 523.7 525.7 534.1 541.2 541.8 543.5 540.9 536.4 527.3 520.1 512 513.8 509.7 510.8 513.8 511.4 512.4 515.6 517.9 523.3 526.8 530.7 530.8 520.7 502.3 483.3 468.6 447.6 434.2 425.2 419.8 415.5 413.4 407.8 411 419.5 427.3 441.2 458.5 480.5 510.6 543.8 557.7 567.3 575.3 585 594.4 599 603.2 606.3 612 617.8 621.8 617.5 592.2 556.6 522 482.4 447.5 418.5 396.3 379.6 365.6 352.5 343.2 334.9 334.6 332.5 335.2 335 335.8 337.6 339.4 347.1 353.2 356.8 361.4 366.5 369.2 376.1 383.1 391.9 400 409.7 417.8 426.9 437.2 446.8 459.3 468.6 481.5 489 495.1 498.1 500.7 503.7 510.8 515.2 522.1 530.8 545.2 548.1 553.6 555 556.5 555.7 556.3 557 552.4 551.4 546.5 544.1 539.1 536.5 536.3 534.1 531.4 528.4 528.7 528.1 526.6 526.6 526.6 526.6 526.6 527 530.5 529.7 530.2 528.6 531.1 529.4 531.7
660.5 645.9 630.9 615.3 603.6 599.8 587.5 582.2 579.4 579.3 579.4 577.7 572 564.4 558.1 550.3 544.7 539.4 530.5 532.6 528.8 525.5 525.8 522 524.7 525.3 529.5 533.3 533.2 532.2 532.7 530.1 528.6 527 528.1 528.9 527.5 521.1 516.7 523.2 523.2 522.3 519.6 518.8 511.2 512.1 510.6 510 511 514.1 520.4 518.5 509.9 509.7 517.1 522.2 532.3 519.8 511.9 511.6 514.6 519.1 517.9 520.9 519.5 521.7 525.3 531.7 529.2 536.3 541.6 545.1 550.3 543.7 543.8 539.3 523.9 525 525.1 523.4 521 522.5 525.2 528.2 528.6 531.3 534.1 537 537.2 529.6 514.4 497.8 477.8 459 441.6 429.3 418 413.7 407.9 401.6 400.2 404.7 411.1 414.6 428.8 442.5 464 489.3 524.6 552.3 565.5 574.8 587.4 597 602.6 606 610 614.9 623.1 625.2 621.1 601.9 564.7 531 492 456.5 428.4 403.9 387.6 372.3 361 350.3 343.3 340.1 338.3 337.5 339.3 339.2 340.7 344.5 349.9 354.6 358.9 364.2 369.9 375.6 379.2 383.6 394 404.3 415.3 425.3 436.6 449.4 461.3 473.1 489 501.4 513.8 512.4 512 511.5 515.2 520.2 527 535 544.4 552.5 559.3 565.1 566.6 570 570.5 574 575.7 570.9 564.7 561.3 562.7 554.4 548.5 544.6 540.2 536.4 531.9 529.7 529.5 526.6 526.6 526.6 526.6 526.6 526.6 526.6 526.6 526.6 526.6 526.6 526.6 526.6
649.3 635.4 624.6 607.9 595.8 590.3 582.4 576.9 574.5 574.1 576.1 575 571.2 565.8 560.1 554.4 549.7 542.6 541.9 539.2 537.4 537.9 537.6 537.7 540 544.1 551 552.1 549.9 551.7 548.4 548.6 545.6 538.3 539.2 544.9 543.7 541.3 533.4 533.3 531.7 526.5 532.4 529.3 518 515.4 513.9 518.6 517.4 518 525.9 522.6 517 514.6 512.9 520.9 529.5 520 521.5 521.4 520.1 519.6 518.4 520.9 520.8 524 528.2 530.5 534 541.4 545 545 551.3 548.7 545.1 541.4 528.5 530.3 531.4 530.3 531.8 530.9 533.8 537.4 539.9 540.2 544.3 546.1 539.1 525.5 506.3 485.8 469.1 447.6 428.5 416.1 407.9 400.5 393 389.7 394.8 398.8 396.8 402.9 415.4 429.3 449.9 470.4 503.6 538 566.1 578.1 589.2 599.2 606.2 612.1 617 624 627.9 628.6 624.1 605.8 574 540.9 503.1 468.1 437.8 412.8 394.3 379.5 367.8 356 348.9 344.1 340.7 340.2 341.9 340.9 342.5 345.4 352 354.8 358.6 363.9 370.5 379 386.4 389.4 397.8 408.4 420.3 433.4 447.8 460.5 473.8 492.7 510.7 522.5 525.4 524 520.3 523.6 528.5 533.8 541.2 548.6 553.4 562.7 571.6 580.1 585.2 588.7 590.4 593 595.5 589.4 578.5 575.7 572.4 569.6 564.5 555.7 550.1 542 534 530.7 529.7 526.6 526.6 526.6 526.6 526.6 526.6 526.6 526.6 526.6 526.6 526.6 526.6 526.6
631.1 623.2 612.8 598.2 588 582.8 576.2 570.8 569.7 570 572.5 573.1 570.3 565.3 561.5 556.2 543.7 542.8 548 547.8 546.7 547.9 550.5 551.1 553.6 558.8 561.6 563.4 562.5 562.3 562.4 564.2 560.6 554.2 555.6 558.6 554.8 550.7 549.8 546.3 538 533.4 536.3 529.3 521.3 517.6 523.4 528.7 525.2 519.3 527.1 526 525.4 521.6 516.6 517.9 525.5 532.3 528.8 533 528.3 521.3 518.9 520.1 520.9 524.8 532.6 534.6 538.1 538.5 544.1 544.3 548.7 547.4 546.9 542.7 543.4 547.6 546.8 543.5 545.8 542.6 544.5 547.6 550.6 555.5 559 553.3 541.9 526 504.5 481.9 459 439.7 423.1 411.3 402.3 393.9 384.9 381.4 381.7 384.1 387.2 393.4 402.9 418.3 436.2 457.5 486.5 519.3 551.3 572.4 587.1 594.2 602.2 610.4 616.4 622.8 627.1 626.1 623.7 613.1 582.4 548.1 511.6 475.3 443.5 418 399.5 385 371.8 363.4 351.8 348.4 344.2 342.3 343.2 343.2 343.5 347.7 352.3 355.6 359.5 365.7 373.3 381.2 389.3 397.8 407.6 417.3 426.4 442.3 455.4 472.9 489.3 508.4 521.7 528.8 530.5 530.6 527.9 537.6 542.1 548 553.9 561.3 566.5 574.3 582.9 591.9 601.4 605 608.5 611.2 612.2 608.9 595.7 587.4 587.8 580.2 572.8 563.5 558.6 549.1 541.3 537 535.6 532 526.6 526.6 526.6 526.6 526.6 526.6 526.6 526.6 526.6 526.6 526.6 526.6
612.4 607.9 600.6 588.6 584 577.5 572.4 567.5 566.8 565.8 567.9 569.6 568.9 566 562.4 551.7 556.5 545.8 555.1 555.7 555.5 556.4 560.5 563.9 565.7 566.8 570.2 572.6 571.8 574 576.9 577.1 572.6 569.4 570.6 564.5 561.4 558.9 555.6 554.4 545 539.7 540.3 531 519.6 520.6 527.6 529.9 528.7 525.6 530.1 530.6 530.7 528.3 524.4 524.6 522.3 529.8 534 540.4 529.9 526.7 521.4 519.7 520.5 527.8 531.5 535.4 540.3 540 542.9 548.2 553.5 557.3 559.9 558 557.8 557.6 552.4 550.9 552.8 554.2 557.2 560.9 562.4 565.2 568.2 559.9 544.3 526.6 503.4 478.6 456.9 436.4 423.2 411.3 400.7 387.5 379.3 374.1 376.2 377.6 378 384.9 396.6 408.8 422 442.4 467.5 493.2 524.7 560.7 588.7 596.3 602.6 608.7 617.3 626.1 629.3 628.7 627.9 618.9 581.8 555.7 521.9 481.5 446.2 421.1 403.4 387.5 374.2 365 356.5 349.4 343.7 342.4 343.9 345.1 346 350.5 353 357.6 362.9 370.1 378 386.7 395.8 406.5 416.5 428.1 438.8 441.8 462.1 478.8 500 518.2 528.5 534.1 535.9 536.9 543.4 545.5 551.9 557.3 566.2 572.7 580.5 588.8 596.2 603.8 611.4 617.5 622.1 626 626.7 623.8 614.8 602.8 602.7 595.2 582.8 573.6 567.1 560.7 549.1 541.9 538.5 536.6 535.5 530.6 526.6 526.6 526.6 526.6 526.6 526.6 526.6 526.6 526.6 526.6
596.1 593.6 590.4 582 579.3 574.3 569 567.2 564.9 564.7 564.2 564.9 565 557.3 561.3 561.6 548.8 558.1 562.2 562.1 563.6 566.3 568.8 572.2 573.7 575.7 576.4 579.7 583.4 587.8 594.3 589.5 585 586.1 580.7 570.5 570.3 569.3 565.7 559.8 552.5 548.4 541.3 532.4 523.3 527.5 533.4 535.8 530 533.4 535.1 534.9 534.8 533.7 532 530.9 526.9 528 533.2 538.4 532 530.7 522.2 521.7 524.8 526.2 526.7 533.8 540.8 548.7 548.6 553 556.6 562 562.9 562 561.9 561.6 554.3 556.3 560.1 564.1 568.3 571.5 573.5 575.8 573.8 563.1 543.8 525.4 504.6 478.7 456.2 438.5 421.9 408.9 396.5 385.4 377.3 367.3 368.1 367.8 370.3 374.8 386 400.3 412.7 429.5 449.5 473.7 502 536.7 577.4 599.4 608 614.1 620.6 626.3 628.8 629.8 628.6 608.7 582.5 562.9 524.4 485.6 448.9 423.6 405.5 390.9 376.6 365.8 357.1 350.6 344.8 345.1 345.1 347.1 348.8 350.8 356.2 360.1 367.7 374.1 382.9 393 403.4 414.9 426.7 438.6 451.4 462.8 474 491.7 486 521.1 534 540.7 544.1 549.6 553.3 555 559.2 565.9 571.7 579.4 589.3 598.3 607 615.1 621.6 627.7 632.8 635.3 635.6 632.7 625.2 616.6 612 604.2 594.3 585.1 577.5 568.3 561.1 549.2 541.8 542.2 541.5 534.2 526.6 526.6 526.6 526.6 526.6 526.6 526.6 526.6 526.6 526.6
587.1 584.7 580.2 576.1 574.7 570.2 567.6 565.3 564.3 563.8 562.9 563.5 568.8 570 567.9 565.2 552.3 566 570.4 571.4 572.4 574.4 577.4 577.9 580.2 581.8 582.6 587.6 594 599.6 604.2 597.7 591.3 592.2 591 578.9 582 579.2 573.1 563.8 554.9 548 552.9 538.1 539.4 538.5 532.2 537.6 534.3 536.1 537 539.2 541.1 537.3 540.9 544.9 531.5 529.1 532.4 534.6 529.1 526.8 523.9 521.2 522.9 530.5 532 542 549.7 551.2 553.6 558.2 559.4 565.1 567 565.7 567.2 566.6 560.7 564.4 568.1 573.6 577.2 579.5 581.3 582.5 580 565.5 544 522.7 501.6 479.3 456.6 439.3 421.8 405.2 392.9 382.8 373.6 367.6 361.2 362.4 365.1 369 382.3 390.7 407.4 422 436.4 456.2 483.1 513.3 547.7 583.5 607.3 613.7 618.1 621.9 626.4 627.6 624.5 612 583 553.8 517.5 480.7 448.3 423.8 406.4 390.8 376.5 365.2 356.2 351.3 349.2 348.1 346.5 347.8 350 351.5 357.8 365.7 373.1 381.5 388.8 399.4 412.6 425.5 437.5 451.5 466.7 481.2 492.8 505.2 519.8 523.6 537.8 549.6 555.2 558.7 562.8 565.9 567 570.8 576.2 585.1 595.2 604.4 611.8 620 627.6 634 638.4 639.9 638.3 635.9 632.3 628.5 624 618.4 608.2 596 586.7 579.9 567.5 558.2 547.5 545.1 543.7 538.7 530.8 526.6 526.6 526.6 526.6 526.6 526.6 526.6 526.6 526.6
583.6 577.6 574.6 571.5 569.9 567.5 565.8 563.4 562.8 562.5 562.7 567.9 574.1 575.1 574.1 570.4 557.4 573 576.8 579.2 581.4 583 583.9 582.9 581 586.2 588 593.6 599.9 605.3 607.3 601.8 600.5 599.9 594.7 585.1 581.8 583.8 574.8 564.7 554 554.3 555.1 551.8 549.9 549.9 544.3 538.6 537.9 542.2 542 540.9 544.4 548.3 545.7 543.4 537.4 534.9 533.1 526.1 521.1 520.8 520.2 521 520.3 525 531.8 538.4 545.9 549.7 553.7 558.8 562 566.3 571.4 570 569 565.9 565.9 570.3 574.9 580.9 585 587.3 589 589.1 586.3 566.3 542.6 518.9 499.9 479.3 457.6 440 421.5 405.9 393.8 383.2 373.3 365.2 361.1 358.4 359.5 363.8 372.3 382.3 397.6 412.6 424.2 439.9 462.8 488.3 516.7 559.6 595.3 611 615.8 619.4 622.1 622.6 618.9 601.4 573.3 541.7 507.7 473.3 442.9 419.6 404.4 389.8 374.5 364.4 356.7 354 351.8 350.3 348.8 347.3 350.3 355.4 363.7 371.7 379.7 387.7 398 409.5 423.6 436.1 451.5 468.5 484.1 498.7 511.9 520.5 529.7 537.6 545.2 554 559.9 568 573.1 573.7 573.7 576.8 582 591.3 600.1 607.4 613.8 621.2 628.8 635.6 639.9 641.7 642.8 641.3 639.3 636.8 633.8 628.7 620.7 607.9 594.2 582.9 573.1 561.4 552.4 548.4 544.6 538.9 532.1 526.6 526.6 526.6 526.6 526.6 526.6 526.6 526.6 526.6
577.6 574.4 572.3 571.5 569.9 568.8 566.9 566.6 565.5 566.7 571.4 576.8 579.7 580.1 577.9 574.5 559.7 577.7 583.5 586.6 589.3 589.5 589.6 589.5 587.7 587.2 592.1 597.7 603.1 607.2 608.2 608 608.8 605.7 598.3 588.8 582.6 582.9 574.2 567.2 566.3 563.6 558.8 561 561.1 560.6 557.8 548.8 545.2 547 547.3 548.4 553 555.5 550 547.7 542.4 541.2 528.1 521.5 519.2 519.8 519 521.2 516.5 516.5 523.6 531.3 539.5 544 550.2 553.5 560.9 564.3 569.5 572.9 572.1 569.2 571 577.1 580.4 586.1 588.9 590.7 592.1 595.1 593 567.2 541.8 518.2 500.1 480.2 457.5 436.5 420.7 406 391.9 379.6 370.1 362.7 355.8 355 354.8 358.5 366.2 374.4 385.1 400 414.6 424.5 444.1 468.5 494.2 529.9 566.2 597.2 611.9 614.9 614.5 613 606.2 586.8 560 530.2 498.3 463.9 434.9 415.4 398.9 384.1 372.6 365.7 358.6 358.5 355.4 352.7 351.1 350.3 353.7 361.7 368.8 377.9 385 397.2 407.1 420.9 434.6 448.7 468 485.2 502.6 518 529.3 538 546 553.4 560 565.1 568.5 568.6 576.4 577.1 578.8 582.7 589.3 597.8 605.1 612.7 618.5 624.8 630.6 635.4 639.4 643.1 644.9 646 644.2 641.7 641 636.3 625.4 613.5 599.3 585.6 574.6 563.8 556 550.2 546.3 541.9 533.5 526.6 526.6 526.6 526.6 526.6 526.6 526.6 526.6 526.6
579.9 576.4 572.7 573.1 571.4 570.7 567.8 568.3 569.2 573.6 579.1 582.8 584.4 583.6 581.4 576 565.8 583.1 588.7 593.7 596.5 596.8 596.5 596.3 592.5 594 596 601 603.4 609.4 613.8 612.5 613.4 613.2 601 591.3 584.5 585.3 580.2 575.8 575.8 571.3 569.6 570.1 574 569.8 562.5 558.3 553.2 549.9 547.2 547.7 549.6 551.1 551 548.5 544.3 542.3 534.2 521.3 517 517 518.6 523.1 516.5 516.5 523 531.4 540.7 546.2 553.6 560 566.5 571.6 573 577.6 577.4 577.6 581.3 585.7 588.2 590.3 593.1 594.2 593.6 597.1 597 577.4 549.9 522.6 502.3 482.7 464 439.7 419.4 405.1 391.9 380.3 370.8 362.7 356.9 349.2 349 354.2 362.1 366.8 375.1 384.5 401.2 412.6 425.1 447.5 472.9 502.3 534.8 566 591 602.9 603.8 599 585.9 565.7 540.8 513.3 482.6 452.1 427.1 408.7 392.4 380.3 371.8 365.5 362.6 361.5 357.7 355.1 353.5 353 359.5 367.9 376.2 382.8 393.8 403.7 418.3 432.8 448.6 466.7 485.5 503.7 521.3 535.4 546 554 561 567.7 572.6 576.3 578.2 578.3 576.8 579.4 584.8 589.8 595.7 601.9 608.6 616.3 622.7 627.9 632.5 636.8 640.1 641.9 644.3 642.7 638.7 636.4 637 633 623.1 610.4 597.7 584.6 573.9 562.9 556.5 552.3 547.5 541.6 534 526.6 526.6 526.6 526.6 526.6 526.6 526.6 526.6 526.6
580.5 578.9 574.5 574.8 573.9 574.7 573.2 573.8 576.4 582.7 586.3 588 588.8 587.3 584.6 582 565 587.7 594.8 600.9 602.7 603.8 603.1 602.8 598.1 599.8 600.7 602.9 604.7 609.9 614.5 616.2 620 616 603.8 598 600.6 602.1 593 586.6 583.7 575.6 580.5 579 576.7 571.9 567.8 563.6 558.5 551.6 545.7 545.8 543.6 544.9 541.4 541.9 539.8 540.3 532.5 518.1 517 521.3 522.4 518.1 520.1 519.8 520.8 528.5 538.1 542.7 553.8 559.5 567.9 573 576.5 579.4 581.4 584.6 587.6 590.7 594.4 596.7 596.2 596.9 599.5 602.3 601.2 592.9 567.2 534.9 510.6 490.8 473.1 448.9 426.8 408.5 392.7 380.2 369 361.6 356.6 349.4 347.4 352.5 357.6 362.8 369.8 375.8 389.5 401.8 410.8 430.3 453.4 479.3 508.6 536 556.9 571.4 575.5 570.6 555.7 537.7 515 490.8 464.5 439.2 417.1 399.8 385.5 374.9 366.4 364.7 362.4 358.5 355.3 353.6 353.4 354.9 363.3 372.9 381.3 389 399.6 414.1 428.5 445.7 464.4 484.2 503.3 522.6 539.3 550.9 560.1 567.2 573.6 579.1 583.8 586.6 586.7 585 584 582.3 588.7 593.9 599.6 605.1 611 618.2 623.9 628.7 632.8 636.1 636.8 638 636.5 632.2 629.3 628.8 630.3 625.7 615.4 604.4 591.3 580 568.9 560.3 554.1 548.3 545.8 539.9 534.5 528.5 526.6 526.6 526.6 526.6 526.6 526.6 526.6 526.6
584.7 584.4 578.2 577.9 579.1 578.7 579.4 582.4 586.3 591.3 593.6 592.9 592.9 591.7 590.3 571 575.5 592.7 599.9 606.6 609.2 610.4 609.9 608.7 605.1 603.7 604.4 604.6 607 609.7 611.7 615.5 618.3 614.7 614.8 611.6 609.3 608.8 604 599 596.9 585.1 588.4 587.5 582.4 576.5 574.8 569.8 560.1 554.3 545.5 543.6 541.2 538.7 532.9 532.9 531.6 530.7 528.7 523.4 518.3 518.8 520.2 518.1 518.6 524.8 527.3 525 532.5 542.4 550.3 556.6 564.1 570.8 576.9 579.5 585.3 590.4 592.6 595.3 598.6 601.3 602.5 603 604.4 606.5 604 599.5 584.1 550.1 522.4 501 482 461 433.4 412.5 397.1 382.4 369.7 358.2 349.5 345.3 341.1 349.8 352.5 355.1 362.5 367.1 379.9 391.5 404.4 416.6 434.9 455.4 478.9 504.8 523 534.6 540.7 534.8 524.1 506.4 487.3 466.9 446.6 423.2 403.5 389.4 376.5 369.2 362.7 358.2 352 350.7 351.2 350 352.5 358.9 366.7 377.7 384.9 397 410 424.6 442.1 460.4 481.1 502.1 522.6 542 556.1 564.1 572 579 584 588.9 591.5 591.7 591.3 590.1 589.9 589.5 587 596.3 602 606 610.8 616.2 621.4 625.6 629.6 631.3 631.6 630.5 625.9 622.2 619.4 621.7 622.2 616.8 607.7 598.4 587.4 575.6 567.5 558.6 552 544.6 541.4 537.5 533.6 530.6 529 526.6 531.5 530.9 526.6 526.6 526.6 526.6
589.1 589 585.1 583.3 585.1 587.1 588.3 590.7 594.7 596.9 598.3 596.7 596.1 596.5 594.1 580 582.5 597.6 606.1 612.7 615.7 615.7 615.1 613.6 611.2 612 612.2 609.3 611.8 612.1 612.3 614.7 621.3 624.9 628.2 623.5 617.3 616.2 613.2 607 604.5 598.3 596.9 597.5 592.1 581.7 579.2 574.6 565 552.6 543.5 541.4 539.5 534.1 531.6 531.4 525.7 529.1 527.6 527.5 518.9 516 516.6 521.8 521.3 526.2 528 529.8 529.6 540.1 547.6 558.1 564.3 569.2 575.6 581.2 588.9 590.3 594.7 596.3 599.4 602.4 606.2 608.5 610.6 611.2 607.1 605.3 598.7 570.2 533.8 510 490.6 474.8 443.4 418.7 401.8 384.7 370.1 359.3 349.5 342.9 340.7 342.3 343.6 349.8 351.1 358.2 369.3 384.7 398.6 407.4 417.3 429.6 448.3 467.1 486.8 499.1 501.3 497.7 487.9 474.8 458.4 442.7 424.6 405 390.7 374.4 363.7 356.2 351.4 348.5 346.2 344.7 347.2 345.9 353.9 362.5 374 382.7 391.3 404.6 419.1 435.3 454 475.3 497.2 520 541.4 556.9 568.7 575.9 581.8 587.6 592.1 594.3 597.4 598.2 598 596.5 594.2 593 591.3 597.9 601.4 606.5 609.9 612.6 616.9 621.5 625 626.4 625.5 622 618.1 614.9 614.3 615.7 614.1 608.2 602.5 595.5 585.4 579 571 562 552.7 542.7 537.6 533.5 532 532.5 531.1 530.6 533.1 533.8 530.5 526.6 526.6 526.6
593.6 595.1 593.6 591.4 596.3 597.2 598.1 600 600.7 601.8 602.1 600.2 601.5 600.9 596.7 591.8 586.9 602.4 611.7 618.3 620 619.9 620.6 620.5 619.5 622.1 618.6 615.1 612.3 611.7 617.9 622.3 623.4 630.8 631.5 628.3 623.8 621.9 622.3 615.4 613.1 609.9 608.5 605.4 596.9 587 576.4 574.6 561.2 550.1 539.3 538.8 535.6 531.4 528.7 526.9 522.9 522.6 523.2 523.9 519.8 515.7 514.7 521 527.6 526 529 534.8 532.2 539.6 548.4 560.5 566.9 573.1 580.6 583.9 588 593 596.3 600.6 603.1 603.8 608.3 611.9 616 616.5 611.4 611.7 611 586.1 550.3 521.8 499.6 482.5 455.1 426.3 407.1 387.3 372.9 360.6 346.2 340.7 335.9 338.1 336 342 346.9 353.1 362.5 376 388.8 395.8 399.3 407.7 421.8 440.1 455 468.3 465.8 462.2 453.5 443.4 430.5 417.8 401.8 388.8 374.7 359.2 350.6 345.5 343.9 341.2 343.5 348.3 347.6 351 359.4 370 381 387.4 398.9 412.3 431.7 449.9 468 490.1 515.4 540.7 558 571.6 580.1 585.8 590.8 595.4 600.5 602.8 603.2 603.5 602.9 601.1 599.3 596.5 594.2 597 600.4 604 607.7 609.4 612.9 616.1 619 620 617.8 614.7 611.7 609.2 609.8 609.9 608.5 605.3 599.6 594.6 588.3 581.6 572.7 562.6 550.7 542.3 538.2 536.2 534.3 533.4 533.6 531.9 532.1 532.1 532.6 532.2 532.4 530.8
599.7 601.9 604.1 602.7 605.2 606 606.3 608.3 607.7 608.5 608 608.3 609.2 604.6 601.6 597.3 591.5 608.8 618.2 624.3 625.4 626.9 627.7 627.8 626 624.8 622.2 619.4 618.1 619.1 623.4 624.5 624 626.9 629.4 629.5 628.5 628.3 627.5 623.3 622.6 622.7 617.1 611.1 595.5 578.5 566.7 565.3 557.4 544.7 534 533.6 528.1 527 521.6 518.1 519.8 520.1 516.5 516.6 516 515.8 514.1 517.8 527.1 531.1 533.4 534.3 535.4 541.2 546.3 552.8 564.8 573.2 577.2 585.1 588.9 594.4 598.6 602.2 606.4 609.5 610.7 613.7 617.4 617.6 614.4 617 619.5 606 565.9 537 512.5 491.9 466.9 437.3 412.5 391.9 375.4 360.9 347.5 339.3 337 332.3 332.9 338.2 345.2 351 355.6 367.2 371.8 372.5 382.4 392.3 397.5 411.9 423.2 427 431.5 430.6 424 414.3 406.7 395.4 383.1 370.9 355.1 346.6 342.5 339.3 343.1 346.3 347 347.1 349 356.6 365.2 376.1 386 396.9 408.6 424.8 444.9 464.4 483.5 506 534.2 557.2 572 583.4 589.6 594.5 599.1 602.9 606.2 608.2 607.9 606.8 605 603.5 599.9 598.1 595.6 597.5 599.3 602.5 604.5 607.3 608.6 611.4 612.8 612.7 611 609.2 607.6 607 606.3 605.6 604.7 600.6 597.9 592.6 587.4 581.8 572.6 559.8 548 543 541.3 541.3 540.4 539.7 536.1 534 534 534.2 533.9 533.8 533.2 531.4
607.1 608.9 609.9 613.2 615.9 615.3 615.6 617.7 615.5 617.4 616.3 617.7 616.8 609.6 603.6 584.9 599.6 615 624.1 630 632.5 633.7 634.9 635.6 631 628.3 631.5 627.5 626.5 622.5 622.2 627.2 626.2 625.7 630.6 631.6 632.4 632.4 634.3 632 630.1 630 623.6 618 597.7 571.9 560.5 555.7 549.1 539.4 525.6 523 518.4 514 514.4 505 501.7 502.3 503.7 502.4 503.6 507.8 509.8 514.7 525.8 533.5 536.8 536.3 536.9 542.5 548.5 554.1 554 565.4 570.7 575.3 584.3 591.7 599 605.4 609.6 613.8 614.1 617 619.1 618.7 617.9 621.1 622.2 615 587.7 556.1 529 503.9 475.6 445 420.7 397.9 379.6 360.3 349 339.7 335 330.2 334.5 336.8 341.5 344.9 353.5 359.9 358.5 368.8 370.5 378.5 387 393.5 397.1 404.2 405.1 401.6 400 391.5 383 374.4 363.8 351.8 343.6 338.4 338.3 342.4 345.7 348.4 350.6 351.3 356.4 365.4 373.9 384 392.6 404.5 418.9 440.1 460.7 481.8 502.8 527.6 553.3 570.5 582.8 591.3 597.8 603.1 607.6 610 612.1 612.9 612.2 610.2 608.1 604.3 601.4 599.8 598 598.1 599.6 602.1 604.8 606.8 608.3 609.5 609.6 609.7 606.7 605.2 604.5 604.4 603.7 602.8 600.9 597.3 594 589.6 585 578.8 569.3 559.8 550.5 547.7 545.5 544.8 543.1 542.5 541.3 538.4 537 537.8 536.5 535.4 534.2 532.8
616.8 618.6 619 623.5 625.5 625.4 626.9 627.5 625.9 626.3 625.6 625.2 624.3 614.9 608 588.9 607.9 619.3 629.5 634.8 638.9 640.2 642.5 641.5 636.8 638.3 639.3 637.9 633.1 625.3 627.7 627.7 627.2 629 631.3 632.5 638.1 639.8 639.5 639.1 637.6 635.3 628.8 621 606.2 578.3 559.2 553.9 546.7 537.6 522.9 516.9 513.3 505 485.1 487.5 480.3 474.9 464 459.3 463.9 475.9 489.8 504.2 517.6 526.4 532.7 535.8 534.9 537.4 544.1 557 558 551.5 556.6 565.7 573.5 583.9 593.3 600.5 607.8 612.5 616.5 620.7 622.6 621.1 623.4 624 623.2 618.1 605.4 582.2 552.1 518.1 484.1 453.7 427.9 401.1 381.3 365.4 352 339.9 332.5 327.4 331.7 335.5 331.1 337 348.1 348.6 349.8 358.3 363.4 367.8 375.3 381.7 379.4 381.3 382.8 381.5 375.3 370.2 363.7 353.9 345.2 338.2 335.7 336.6 339.6 344 348.4 351.5 354.9 357.5 364.1 375.8 381.3 390.2 400.1 414.7 433.1 453.3 476.5 500.8 526.6 551.1 569.5 581.2 589.7 597.9 606.3 611.8 615.1 617.1 618.2 617.8 616.8 613.6 609.9 607.6 604.1 601.5 599.8 600.1 600.6 602.1 605.1 607.1 609.2 609.5 608.7 606.6 605.6 601.9 601.1 601 599.5 599.4 597.5 594.9 591.5 587.7 582.2 574.4 566.1 558.3 556.6 553.6 553.5 552.2 549.7 547.6 545.9 545.8 546 544.6 544.5 543.3 540.4 540.3
627.8 628.5 629.8 632.7 634.1 635.4 636.6 637.1 636.9 635.9 634.3 632.7 628.1 622.8 613.2 591.1 611.8 623.8 631.8 640.6 644.2 645.5 647.1 646.7 648.2 646.4 646.6 643.6 633.1 629.3 629.6 632.8 632.1 639.9 640.7 639.1 643.4 647 646.9 644.2 640.9 635.7 627.7 617.9 601.9 577.7 558.6 552.2 544.1 536.9 523.4 512.2 507.7 494.5 462.9 448.5 454.8 442.7 439.4 431.2 431.7 451 453.2 476.1 499.1 514.5 520.9 530.4 531.2 529.3 531.1 537.1 550.6 547.8 543.2 549.7 562 570.3 586 594.4 603.7 608.3 613.8 621.4 624.4 627.3 627.6 626 625 622.5 618.4 604 572.6 536.1 496.8 461.6 434.4 407.2 385.3 367 352.2 340.1 330.7 326.8 327.9 328.9 327.9 331.5 336.8 338.1 343.5 354.9 359.4 363.8 365.7 364.6 362.8 369.1 368.4 363.9 358 350.4 344 337 334.3 332.5 331.9 336.3 340.7 344.7 349.7 354 359.5 364.8 372.5 381.3 390.6 398.6 410 429.5 451.3 472.6 494.3 520.5 546.5 566.5 582 590.9 599.3 608.2 615.6 619.3 621.4 623.1 622.4 622.2 621.8 619.8 615.8 611 607.1 604.7 602.5 602.4 602.9 604.6 606.1 608.5 610.8 610.6 609.1 606.9 605.6 601.6 598.9 597.1 595.2 593.4 592 590.4 588.1 584.6 578.1 570.5 566.2 566.6 565.6 563.4 561.6 559.4 557.6 553.9 552.4 553.6 553.8 554.1 554.1 552.4 550.5 548.3
638.8 639 641.3 643.4 644.3 644.1 646.4 647.7 648 646.3 642.9 641.6 635.4 628.5 617.7 608.2 609.6 625.8 636.5 644.5 648.6 651.6 655.5 658.1 658.1 655.3 654.5 648.6 638.2 632.6 632.5 637 640.3 644.8 646 648.8 650.5 648.9 648.3 645.2 637.1 632.1 618.6 599.5 588.2 576.7 558.8 547.9 537.9 527.8 516.6 503.2 476.1 454.5 431.8 415.4 405.5 400.7 400.1 396.2 400.7 412.4 423 437.4 468.1 479.9 494.9 498.6 505.2 513.7 511.6 512.2 518.8 527.9 529.8 530.8 540.7 552.7 567.4 582.6 595.7 603.4 608.6 615.3 618.8 625.6 628.1 626.6 625.7 622.5 619.8 613.6 581.4 542.4 502.9 465.6 438.3 410.7 387.9 369.4 352.3 341.7 331.3 323.5 324.9 324.8 326 324.8 325.1 331.4 339.5 347.3 358 356.5 356 351.4 351.1 352.1 351.6 350 344.4 335.1 333.1 330.1 330.9 331.4 333.6 336.1 342.4 344.6 349.7 356.1 363.4 370.5 379.8 389.5 397.6 408.1 424.5 447.1 469.4 491.2 514.8 539.1 560 577.8 588.8 597.9 606.9 614.7 620.3 624.2 626.8 628 627.7 626.7 626.1 625 621.5 616.7 611.7 607.5 605.4 604.9 605.5 606.9 608.7 610.6 611.5 610.7 609.5 608.9 606.4 604.4 600.7 598.8 595.9 592.8 590.8 588.1 585.1 581.7 577.3 573.9 572.5 573.6 573.2 571.6 569.6 567.9 566 564.5 563.3 562.5 564.2 564.7 563.6 562 560.1 559.5
650.7 652.9 654 655.1 655.6 656.6 658 657.7 657.1 655.1 651.4 646 641.2 634.5 623.5 618.8 608.3 626.3 637.2 647.2 654.1 660.2 665 664.9 665.9 661.6 657.4 650.5 645.9 643.7 643 638.6 641 646.5 652 654.4 655 653 649.4 647.3 628.9 623.1 607.2 592.4 584.8 574.1 561.5 543.7 525.1 513.4 496 472.9 442.4 419.9 404 388.2 378 371.2 370.5 369.3 371.4 381.1 390 407.3 425 448.4 460.9 468.4 470.9 475.1 486 483.3 486.5 492.4 502 506.1 515.8 533.9 551.2 569.3 584.5 594 599.9 604.3 611.2 618.2 622 623.8 624.8 623.3 620.5 613.3 581.1 541.8 502.4 468.5 435.5 410.5 386 368.2 352.3 341.6 333.2 324.1 322.4 322.7 320.9 320.1 327.8 331.6 333.2 338.5 342 345.8 344.6 344.1 339.7 340.3 336.1 334 331.7 329.6 329.8 330.2 334.7 333.6 336.9 339.8 344 348.7 354.3 363 371.7 377.7 386.7 394.5 406.1 421.4 443.5 466.1 487.3 511.4 533.7 555.7 571.8 586.5 596.1 607 616.7 622.1 626.6 628.7 630.4 631.4 632 630.7 628.8 626.9 623.3 617.9 614 611.8 610.1 610.1 611 611.7 612.7 613.9 614.5 614.5 615.7 614.9 613.9 612 609.6 605.1 603.5 600.2 594.7 592.5 589.2 585 582.8 578.7 579 580.4 579.3 578 577.2 575.6 574.3 573.2 571.7 572.5 574.4 576 576.3 577.4 574.2 571.7
664.9 666.8 667.4 666.5 665.6 668.7 669.1 666.4 664.1 661.4 657.8 651.3 644.5 637.3 627 619.5 607 626.4 638.4 649.5 658.3 667.4 671.5 669.8 670.3 668.3 667.7 665.4 658.5 660.9 652.7 648.9 644.5 646.3 655.9 658.5 658.9 657.9 651.4 648.6 616.3 605.8 597.9 590 588.1 580.4 566.1 544.7 520 494 475.2 449.6 422.2 398.7 383.4 369.8 360.5 352.3 349.5 347.9 350.9 357.2 369 377.3 388.4 403.4 428.2 436 442.6 440.1 441 452.4 455.9 461.8 468.4 478.6 485.1 495.3 516.6 534.7 553.5 569 579.2 590.8 595.8 601.6 607.6 614.2 620.7 620.7 615.3 596.7 568.5 530.6 495 460.7 431.5 407.5 385.7 368.1 351.6 339.3 332.1 324.8 319.4 319.2 318.6 321.9 327.8 326.3 329.2 330.2 328.9 331.7 335.6 335.2 333.6 332.5 329.1 328.7 327.1 328.9 329 334.4 336.8 337.8 342.3 345.7 350.3 355.3 363 373.5 382 388.2 394.7 405.2 414.8 436.8 460.7 483.2 507.4 529.4 550.4 567.3 581.6 593.4 605.4 615.8 623 627.8 631.2 632.5 634.2 635.7 634.9 632.8 630.8 628.6 625.4 621.3 619 618.3 617.4 617.3 617.4 618.4 619.1 619.6 620.3 621.6 622 622.4 621 619 615.1 610.2 608 605.5 600.9 595.1 591.8 588.8 588.7 589.8 589.6 589.6 588.4 585.8 583 581.7 580.2 580.1 580.6 581.8 583.7 586.7 589.9 591.1 590.3 589.5
678 679.8 680.1 679.7 678 678.7 677.4 675.1 671.6 665.4 660.9 655 646.7 637.8 628.9 623 608.7 626.4 641.2 653.4 664 673.1 679.6 679.8 679.7 680.6 678.7 676.3 669.2 666.5 657 654.7 649.4 645.3 653.9 661.7 664.2 661.9 648.9 642.8 615.2 599.6 594.4 588 587.3 580.3 569.4 547.5 515.8 484.5 453.7 435.1 406.8 385.3 368.3 358 349.5 343.3 338.2 334.2 335.6 339.1 343.5 350.3 359 371.9 383.9 396.7 405.8 406.7 409 416.1 426.8 426.9 433.7 447.7 455.2 460 472.2 493.9 508.7 524.5 539.5 559.2 566.9 571.2 570.4 574.1 585.5 592 590.3 572.4 547.2 516.1 483.2 452.9 426.6 402.4 383.5 365.7 351.5 337.9 331.2 326.8 319.3 317.5 318 316.8 317.6 318.5 320.3 319.4 325 328 326.7 330.7 331 330.5 329 328.4 330.5 330.8 335.4 338.7 339.1 341.4 345.2 350.1 356.3 363.8 373.2 383.5 391.5 399.5 409.4 420.5 412.3 444.9 469.9 496.4 518.2 539 557.9 574.6 588.6 601.3 613 622 628.6 633 635.9 638 639.3 639 637.7 636.1 634.5 632.3 629.6 628.7 627.6 626.8 626 624.9 625.3 625.8 625.3 625.6 626.8 628.6 629.8 629.2 627.5 625 619.7 615.2 612.1 609 602.9 598.3 595.9 595.9 595.7 596.4 595.9 594.5 593.3 592 590 588.9 586.9 586.2 587 589.4 593.8 598.5 601.8 604.8 606.2 603.3
691.3 692.3 692 691.1 689.1 686.5 683.9 679.7 675.2 668.8 661.6 654.9 646.8 638.9 632 624.1 611 620.1 642.9 658.2 669.3 680.3 687.1 690 691.3 690.2 690.1 686.6 681.7 672.9 668.5 659.9 656.2 652.2 652.2 657.9 664.6 660.6 646 642.2 619.1 594.9 592.7 587.7 588.4 581.5 571.4 548.2 510.8 480 444.8 418.7 399.6 376.5 359.6 349.6 343.3 337.1 333.7 328.3 325.5 325.6 325.6 330.3 336 344.8 354.1 364 371.3 378 380.3 383.2 391.6 397.3 405.2 412.6 422.9 428.9 440.2 452.5 470.3 481.2 494.1 512.7 527.6 531.3 530.9 530.7 540.1 547.6 553.3 544.9 521.9 496.8 469.7 444.4 420.3 398.3 377.5 361.5 348.2 337.1 329.7 325.3 317.7 316.2 317.5 317.8 316.8 319.7 321.8 321.7 322.4 323.6 325.5 327.6 328.7 327.9 330.2 332.5 333.8 334.4 337.2 340.8 344.5 347.3 352 357.2 364.4 373.1 383.9 393.9 402.8 414.7 427.2 439.6 447.4 437.4 470 494.5 516.3 540 560.3 578.2 595.5 608.9 618.6 627.3 633.8 638.2 641 642.6 644.3 644.2 642.5 640.9 640.4 639.5 638 637.4 636.3 635.4 634.5 635.7 635.5 633.8 632.5 633.2 634.7 636.3 637.1 637.6 634.4 630 623 618.2 614.2 610.5 603.9 599.9 601.7 600.8 599.1 598 596.8 595.5 595 594.9 592.7 592.4 591.4 590.1 591 594.5 599.6 604.2 608.9 613.4 613.8 608.9
700.6 700.8 700.4 698.5 695.5 690.5 686.5 681 674.2 667.2 660.3 653.3 646 639.2 633.5 625.2 612.8 630.6 651.2 665.9 676.8 687.7 694.5 699.1 702.1 701.5 702 697.8 691 681.5 674.5 664.5 660.7 653.7 656.8 650.3 653.8 656 647.9 641.3 624.3 599.5 594.1 591.7 590.2 583.7 572.2 551.3 510 474.8 440.1 410.1 385.9 364.7 352.8 345.8 339.4 336.7 334 329.5 325.1 319.3 316.7 314 320.6 323.1 330.7 337.6 345.3 353.4 359.1 361.7 362.6 370.4 375.2 385.4 392.8 401.4 411.4 420.4 430 440.7 452.3 469 472.2 478.4 488.2 491.7 496.3 509.8 516.8 511 499.1 482.1 457.4 434.7 410.3 388.2 370.5 354.3 344.2 336.3 329.2 324.1 316 316.4 321 320.7 315.5 318.2 320.7 320.3 322 320.6 322.1 323.4 326.6 329.7 333.6 335.8 337.4 339.2 340.9 345.9 350 354.8 360.8 367.3 374.6 383.7 393.2 403.8 418 435.6 451.1 466.3 476.6 474.1 468.2 478.7 492.6 523.5 552.9 578.2 600.2 615.6 624.6 632.3 639.4 643.7 647.1 648.6 649.7 650 649.4 648.5 647.9 646.9 646 646.5 646.6 645.4 645 645.7 643.6 642.1 641.1 642.7 642.9 643.6 644 642.1 638 631.9 625.6 619.5 615.1 609.7 603.1 600.7 601.3 599.5 597.5 595.7 594.2 594.3 593.4 593.6 593.8 592 591.4 590.9 593.1 595.5 599.5 602 605 605.6 606.5 609.3
704.8 704 703.2 700.9 696.2 690.4 685 678.6 670.5 663.4 656.9 651.1 644.4 637.6 627.5 616.3 626.7 646 660.9 673.7 684.6 695 700.5 706.7 706.5 709.4 708.5 705.3 703.4 692.8 679.5 672.3 665.6 655.4 656.1 650.2 648.4 649.5 647.7 636.5 623.7 606.8 601.9 599.6 597.7 588.9 574.6 553.9 511.5 472.1 439.9 413.6 394.1 373.5 358.5 347.5 338.7 332.6 328.4 324.9 321.2 319.1 317.9 313.7 309.4 309.1 313.4 312.7 322.8 330.5 339.6 343.4 345 349.8 352.8 357.2 365.1 374.9 382.5 392.9 401.5 408.5 414.3 424.2 434.4 440.9 451.1 458.8 464.3 469.4 474.6 476.8 477.7 463.1 444.4 422.3 402 382.3 367.2 354.4 342.5 336 329.4 319 314.1 313.5 316 316.7 314.5 318.3 318.8 317.5 319.3 323 326.7 327.5 330.1 331.7 335.1 339.2 341.8 343.9 347.2 352.1 356.4 361.8 367.3 374.4 385.1 395.4 408 427.1 443.2 463.1 480.3 493.3 502.4 501.3 492.6 513.9 528.9 526.3 538.1 573.7 603 620.3 630.6 638.9 645.7 649.3 652.1 654.2 655.3 655.1 655.1 655.1 655 655 655 654.6 655.4 656.5 657 656.1 655.7 653.6 653.5 652.1 651.8 650.6 647.3 644.1 638.2 632.3 625.2 620 615.9 610.9 604.7 598.9 597 596 593.4 591.7 590.5 588.4 587.9 586.8 586.7 585.6 584.6 588.6 591.9 594.7 597.9 601.5 602 603 604.3 606.6
704.4 704.9 703 699.5 694.3 687.5 680.5 672.8 665.8 659.2 653.2 646.2 638.6 624.9 619.4 628.2 641.4 656.3 670.3 682.1 693.2 702.7 708.3 713.7 712.9 714.9 715.3 712.4 710 702.2 688.9 677 678.2 669.6 655.7 646.2 644.1 639.6 636.9 633.8 627.5 609.1 610.2 611.4 606.9 598.8 578.8 552.2 517.5 480.8 449.4 420.6 401 387.2 371.4 358.4 347.2 339.3 333.4 330 325.6 320.3 315.2 311.4 310.1 307.9 304.3 304.1 308.9 310.7 315.8 322.7 327.2 331.7 334.8 336.7 342.7 349.2 355 367.9 377.2 382.5 386.8 395.1 405.7 414.2 421.8 430.3 435.9 440.9 445 448.8 451.5 442.9 427.5 411.1 391.7 376.2 363.1 352 341.1 335 327.9 317.2 313.3 311.8 312.2 311.9 312.9 313.1 320.1 320.5 323.1 325.8 326.7 329.1 330.5 334.6 338.3 342.4 346 349.8 354.2 359.5 362.9 369.3 379.8 389.3 400.7 416.7 435 453.5 471.6 492.2 509.1 523.5 531.8 528.5 516.9 535.8 557.4 562.5 560.1 571.6 604.7 626.5 637.3 645.3 651.4 655.7 658.1 660.2 661.5 661.6 661.6 662.2 662.2 663.1 664.6 666.7 667.6 666.9 667.5 667 666.4 665.7 663.6 661.7 660 656.5 651.6 645.7 637.6 629.8 623 618.7 615 610.6 605.4 600.4 594.5 591.3 590 585.8 582.9 581.9 582.3 580 578.5 578.9 580.4 583.7 586.6 591.5 594.2 598.4 600 602.3 604.1 605.2
702.8 703.9 700 696 690.5 683.1 674.5 666.8 658.6 650.5 645.1 635.8 624.6 628.4 633.4 643.8 654.4 665.6 679.7 690.2 700.7 711 717 721.1 719.9 721.3 718.6 716.5 711.6 707.5 696.2 691.7 687.7 677.4 658.9 647.6 641.6 639.9 633.7 633.8 632.7 615 618.2 617.4 613.9 606.8 588 564 533.9 499.7 462.2 432.9 415.7 399.3 380.7 369.3 358.5 350.3 343.1 337.2 331.3 326.9 322.1 318 313.1 309 305.8 302.6 301 300.1 303.8 304.4 308.9 316 320.4 322.1 324.6 330.2 334.8 340.7 351.8 357.5 362.8 368.8 379.5 389.6 397.8 408.2 412.8 416.2 421.4 426.7 429.2 428.2 410.9 396.5 382.8 369.7 356.8 350.8 340.4 332.4 322.9 317.5 312.6 310.8 311.2 310.2 310.7 314.5 318 320.7 323.3 323.7 325.8 329.4 333 338.7 342.8 346.3 350.8 355.6 361.3 367.7 371.5 381.5 395.4 410.3 426.4 443.4 462 481.1 500.6 518.1 536 552.3 561 555.2 542.7 550.4 574.5 589.8 593.4 588.1 606.2 631 645.8 654.4 659.5 662.7 665.1 665.1 665.8 666.2 667.3 668 670.2 671.7 673.1 676.5 677.7 679.3 678.5 678.6 678.3 676.1 673.4 669.4 664.2 657.8 650.7 641.3 632 624 616.3 614.1 609.5 603 598.5 595.8 591 586.4 582.5 578.7 574.6 573.3 574.5 573.5 571.4 571.7 576.4 578.4 583.8 586.8 589.2 592.9 597.2 598.4 599.8 604
699.9 700.7 697.3 692.2 686.3 678.6 671 664.4 656.7 646.5 635.1 629.8 636 643.4 646.3 656.6 665.2 676 687.3 697.4 707.7 719 724.2 727.7 725.3 721.6 720.4 719.8 715.2 713.9 702.5 696.4 690.7 678 654.3 642.4 641.6 642.1 635.4 631.6 634.4 623.1 623.5 622.4 618.6 614.1 605.7 588 551.7 515.7 482.3 451.7 434.1 415.4 397.8 384.4 373.3 364.1 355.7 347.2 341.3 336.6 327.1 321.8 316.4 311.8 308.5 304.2 301.2 299.4 297.8 298.6 297.8 301.8 305.1 309 313.1 314.1 319.6 322 328.1 334.6 341 346.8 353.2 362.2 371.4 376.6 385.5 391.9 398.7 408.1 410.7 405.6 402.8 384.7 372 360.2 347.5 340.2 334.2 326.9 320 317.6 314.6 312.7 310.1 312 314.9 315.8 318.2 322.4 325.1 327.1 329.1 331.7 335.4 341.1 346.6 351.5 358 363.6 367.4 374.6 385.1 396 412.1 430.5 449 465.9 484.6 503.6 523.3 542.8 560.4 575.4 583.8 584.4 571 568 587.4 612 620.6 621.6 630.6 645.9 655.8 663.7 668.2 670.7 672.3 672.5 671.3 671.7 672.6 674 676.3 678.9 682.1 685.4 688.1 689.1 689.8 688.6 686.3 683 678.6 672.4 662.4 651.8 643 633 623.8 615.3 609.1 608.4 603.5 597 591.3 587.5 583.2 579.1 574.9 571.4 569.1 568.2 569.6 568.6 566.2 566.8 570 574.3 579.8 583.1 587.3 590.1 592.3 595.6 599.2 603.8
699.5 700.1 695.6 689.9 683.5 675.9 668.1 660.9 652.8 641 633.3 643.7 649.6 655.7 661.4 666.8 675.4 684.9 694.3 704.4 716.5 725.7 731.1 733.5 730.3 724.8 724 721.7 721.2 717.6 707.5 700.5 688.9 683.1 656.7 649.1 648.1 646.9 640.4 631.3 628.7 628.3 624.6 624.1 623.3 620.7 616.7 606.3 585.1 549.5 506.2 476.5 456.7 434.8 416.9 403.2 388.2 377.7 365.1 358.3 352.4 347.2 337 331 327.4 322 315.1 308.5 305.4 301.2 297.9 296.7 296.5 295.7 295.8 298.3 300.5 302 305.2 307.8 310.5 316 322.6 327.3 337.8 341.7 350.6 358.2 363.9 369.4 373.5 381 392.1 392.2 393.2 376.1 361.9 355.1 341.1 331.8 326.3 320.7 315 314.1 314.7 310 309.8 312.1 312.4 314.7 317.6 320.8 323.8 327.4 330.6 334.4 342.9 349.9 353.7 359.1 363.7 369.7 375.5 382.1 391.7 406 425.9 446.9 465.9 484.2 502.3 524.2 545.1 564.4 578.8 592.3 601.8 606.9 602 597.5 604.2 629 644.1 651.2 657 663.2 666.7 671.3 674.8 676.8 678 679.1 678.7 678.6 679.2 680.9 682.6 685.7 689.6 694.1 698.2 700.5 701.4 697.4 691.3 685.1 678.8 668.3 656.5 644.9 633.8 623.2 614.7 606.8 601 599.7 597.8 592.5 586.3 581.7 578.1 574.4 571.1 567.6 567.2 565.8 566.6 565.4 563.8 565.4 568.5 573 577.2 580.8 584.3 587.7 591.3 594.1 597.4 601.8
697.6 697.6 694.8 689.6 683.1 675.9 667.6 658.7 649.9 637.7 643.7 653.1 660.7 667.6 672.9 675.6 684 692.5 702.1 712.8 722.8 731.3 736.9 739.6 737.1 733.8 732.5 726.7 723.3 719.8 711.1 703.4 696.1 681.1 665.7 657 654.8 658.4 644.7 636.7 631.1 627.9 630.1 633.1 633.2 629.7 624.9 619.7 606.4 589.8 552.7 513.9 483.6 460.7 442.4 421.8 404.6 392.1 382.4 371.7 365.4 355.1 342.7 347.2 340.7 333.2 326.7 320 314.1 312 307 302.9 299.1 297.2 295.2 294.5 294.9 295.1 295.3 297.3 299.1 303.5 306 311.3 318.2 325.3 333 341 345.9 349.8 356.3 359.1 365.4 375.1 374.3 366.3 351.4 340.2 330.4 324.7 317.6 318.9 314.1 312.7 313.7 311.2 308.2 314.2 315.7 318.1 320.2 322.7 326 330.3 335.3 341.9 348.2 355.4 361.3 364.5 370.7 375.9 383.9 393.2 397.8 412.7 435.7 456.1 477.9 498.4 520.2 542.6 563 582.3 595.6 605.4 613.9 621.1 628.4 633 639.6 650.4 659.5 664.4 668.6 671.2 675.3 678.1 681.1 683.1 683.6 684.7 684.6 684.8 685.6 687.1 688.4 692 695.9 700.8 705.1 708.7 709.6 707 697.8 686.7 678.3 666.5 653.3 640.8 629.5 617.7 608.5 601.3 596 591.9 589.9 586.1 581.4 578 573.6 569.8 566.9 565.1 565.1 563.5 562.8 561.1 560.5 562.1 566.1 571.3 573.8 577.3 581.6 584.2 587.3 590.9 595.1 599.6
696.6 696.4 693.6 688.1 680.8 672.7 665.4 657.8 645.5 642.4 653.3 661.8 669.8 676.9 682.4 686.4 692.3 700.3 708.9 718 727.9 736.6 741.9 745.6 745.8 742.2 738.1 733.9 728.6 721.1 714.7 706.4 695.8 693.7 679.2 681.5 661.8 665.1 655.6 645.2 636.3 629 630.8 636.2 637.2 636.9 634.2 629.7 621.9 611.8 586.9 548.9 525 489.5 460.9 442.5 424 410.1 396 385.8 378.3 364.6 367.6 360.5 355.9 350.1 342.3 335.2 330.4 324.9 319.5 314.2 308.3 304.5 297.8 293.7 293.9 293.6 292.9 292.8 292.8 294.6 297.3 300.5 305 311.6 318.8 325.5 327.7 333.5 341.3 342.7 345.7 351.6 353.9 352.6 342.6 329.5 319.4 314.6 311 312.8 311.1 311.5 309.2 308.5 315.5 316.8 317.2 319.5 321 323.5 330.6 333.8 339.5 347.8 354.5 357.6 363.5 368.5 377.6 387 395.4 405.2 416.5 413.8 440.4 465.3 488.1 510.6 533.7 557.4 581.3 598.1 610 618.1 627 635.7 642.9 649.1 655.6 661.8 668.4 672.7 677 680 681.9 684.1 686.4 687.9 688.9 688.9 689.7 689.8 690.9 692.1 693.9 697.7 702.9 707.7 712.6 715.2 717.4 711.2 701.1 690 677.4 664.7 651.5 638.5 626.5 614.2 603.7 596.7 592 588.1 584.5 580.9 577.8 574 569.7 566.1 564.7 562.5 561.7 561.6 560.4 559.8 558.4 559.4 563.8 567.3 570.6 574.7 578.3 581.8 585.1 588.3 591.3 596.5
698.5 697.4 695.7 689 682.3 676.2 665.9 656.1 644.4 651.4 660.1 669.6 678 685.9 691.8 696.7 701.1 710.5 718.8 726.7 734.5 741.2 746.5 749.6 752.2 747.5 744.2 740.1 733.8 724.4 718.3 713.2 710.3 705.9 692.7 690.3 672.1 665.8 658 652.4 641.6 634.3 630.3 635.7 640 642.7 640.6 636.8 635.1 629.8 614.5 580.8 547.9 528.6 489.4 464.9 447.9 429.2 414.6 398.9 389.3 382.8 380.4 375.8 370.6 365.9 360.9 353.4 343.9 339.4 334.3 328.2 322.2 315.8 309.6 302.9 297.5 294.7 294.6 293.2 292.1 291.9 292.3 292.9 296.1 302.2 306.1 311.9 316.4 319.5 326.5 329.6 332.1 337.9 340.9 340.6 333.1 321.9 312.4 308.7 306.1 306.2 305.4 303.4 306.6 313.4 320.3 320.1 319.9 321.7 324.4 328.5 338.2 340.9 346.9 351.4 360.1 365.6 370.8 377.6 386.6 397 407.2 420.2 429.9 434.9 446.3 465.8 487.3 516.7 545.8 571 592.9 610.2 619.8 628.6 638 646 652.6 657.9 664.7 670.4 675.7 680.6 684.5 687.2 689.3 690.5 691.7 693.2 694.9 695.6 695.8 696.1 696.9 698.8 701.4 705.2 708.4 712.1 715.9 719.4 719 714.8 705.5 693.7 679.1 663.6 649.3 635.3 621.9 611.1 601 593.7 588.1 585.3 581.4 577.6 574.5 570.2 567.5 565.4 563.3 561.7 560.6 560.4 558.4 560 559.9 559.3 559.5 563.3 567.5 571 575.1 578.1 581.7 584.7 586.4 589.4
700.6 700.8 696.8 690.3 682.9 677 666.8 656.7 645.7 656.4 665.7 675.9 685.2 693.2 700.3 706.4 711.2 717.8 725.5 733.9 740.2 745.9 751 756.2 758.5 754.9 751.6 746.1 740 729 723.9 720.5 715.9 703.8 695.2 693.4 674.6 672.5 660.5 656.9 646.5 646.3 643.2 640.2 642.6 645.7 645.9 644.3 645.8 642.6 630.8 612 586.4 555.6 523.6 500.6 479.9 457.6 437.8 418.7 408.4 401 397.4 391.9 385.9 381.4 376.5 371.5 363.2 356.4 350.1 342.7 334.9 328.8 323.2 315.9 306.9 299.4 296.2 294.7 293.4 293.2 293 291.6 291.2 294.3 297.5 301.2 304.6 308.2 312.9 316.9 322 323.4 327.9 330.7 324.9 315.5 308.1 305.3 303.5 302.8 303.9 303.1 310 315.4 318.6 319.5 319.6 322.1 325.9 331.6 337.4 346.4 349.9 355.7 362.3 369.1 376.4 385.9 395.5 407.2 422.4 438.4 448.9 447.3 460.2 487.7 508.3 514.4 550 582.2 602.2 617.1 628 638.8 647.5 654.3 659.8 665.6 672.4 679.2 684 687.7 690.5 693.5 696.2 697.5 699.4 700.3 701.7 702.5 703.2 703.5 704.4 706.2 708.7 712.4 715.3 717.5 721.3 721.3 718.5 715.1 706.9 694.9 681 663.6 647.8 633.5 620 609.2 600.9 592.8 586.5 583 580.5 577.7 572.8 570.1 568.3 567 564.7 564 563 561.9 561.1 560.9 560.5 559.3 557.5 560.5 562.6 566.2 568.7 573.7 576.8 578.8 581.8 584.3
703.6 701.6 697 690.5 680.8 673.4 670.6 664.2 649.7 660.8 669.1 680.6 690.5 699.2 707.3 714.1 718.2 723.6 729.9 738.8 746.4 752.4 757.5 762.9 764.4 762.3 758.8 754 745.7 737.4 732.6 723.3 720.3 709.4 700.8 695.8 686.8 676.2 663 659.5 658.4 655.3 649.7 646.8 645.5 648.4 651.6 650 652.4 649.9 642.3 632.6 618 598.9 573.5 543.6 514.2 490.9 470.3 451.5 435.1 422.4 417.4 409.4 405.2 400.6 394.5 388.4 382.5 374.7 369 360.6 350.2 343.9 335.6 328.4 319.1 310.9 303.7 298.2 297.5 296.9 296 295.2 292.5 291.9 293.8 295.7 299.5 300.5 302.9 306.5 310.2 312.7 315.7 316.2 315.5 314.1 307 302.3 301.8 298 297.7 305.3 309.9 313.1 315.6 316.9 318.4 322 326.1 335.7 340.4 347.2 353.9 360.2 367.9 374.6 383.3 395.2 406.3 422.2 441 457.9 469 461.8 482.2 506.9 529.8 548.4 560.6 592.8 610.1 622.6 635.2 647.3 655.7 662 667.6 672.1 679 684.9 689.6 694 697.9 701 704.2 705.6 707.1 707.7 708.5 709.3 710.8 711.6 712.5 713.9 716.6 719.5 721.5 724 723.3 720.3 718.2 713.1 706.3 695.8 681.8 662.9 648 633.6 620.8 610.4 601.1 594.3 587 582.6 581.5 579.3 575.4 571.9 570.6 568.8 567.3 566.6 565.7 564.1 563.1 562.7 563 561.9 561.1 559.7 554.9 559 561.4 565.5 570.4 573.1 576 579.1
705.2 701.4 698.2 694.7 687 682.4 677.7 671 657.1 664.2 672.3 683.3 694.5 703.9 713.2 720.1 725.4 729.9 734.9 743.9 751.6 758.7 763.5 768.1 770.1 767.9 766 763.1 757 745.9 742.4 727.8 723 715.8 706.1 694.2 689.3 676.3 672.9 671.6 664.1 658.6 652.2 650.4 653.1 653.2 654.1 657.1 658.4 655.4 648.6 641.3 633.3 622.3 602.1 576.1 551.8 523.4 509.9 487.9 464 448.7 436.5 429 425.3 419.4 413.3 407.1 402.5 394.2 386.4 379.8 371.8 362.1 351.3 340.6 331.3 320.9 314.2 305.7 300.9 297.4 296.4 295.3 291.6 289.3 293.5 291.1 294 294.8 297.4 301.6 301.5 306.8 305.5 305.2 306 305.9 302.2 298.9 296.9 295.1 300.6 310.7 310.8 311.7 312.3 315.2 318.5 323.5 330.5 335.7 345.3 350.2 358.8 365.8 373.2 379.8 390.6 403.5 420 437.4 459.6 476.2 487.3 476.8 493 523.9 547.2 568.6 586.3 603.5 617.8 629.2 642.6 653.8 662.6 668.4 673.4 678.6 684.3 690.3 695.2 700.3 706 708.9 711.3 713.9 715.1 716 716.9 717.7 718.4 718.9 720.1 721.8 723.4 725.1 727.1 726.7 721.8 719.8 716.4 711.1 704.4 693.4 678.1 663 648.5 635.2 623.3 612.2 601.6 594.5 587.8 584.2 582 580.3 576.6 575.1 573.9 573 572.1 570.7 569.9 570.4 569.7 568.9 568 566.6 565 562.9 560.9 556.1 544.4 556.7 563.2 567 570.7 573.5
708.4 706.6 705.1 701.7 695.9 690.5 685.2 679.7 671.8 664 674.8 684.6 697 708.4 718.2 726.4 731.1 737.1 743.1 749 755.7 762 767.3 771.5 774.4 774.8 772.8 771.1 765 753.5 748.5 732.3 725 719.1 711.1 699.8 687.5 683.6 685.1 680.3 671.2 663.6 660.6 661.4 662.2 662 662 665 664.2 661.9 655.1 649.3 643.2 634.7 625.9 611.7 590.8 576.4 550.3 526.1 502.5 479.1 461.7 448.6 443.7 440.7 435.3 430.7 420.7 416.1 408 398.4 389.8 379.9 367.5 355.1 343.9 332.5 323.9 316.1 307.2 299.9 295.7 292.7 288.4 291.5 292 290.2 288.1 292 290.5 294.1 296.2 296.9 296.8 298.4 297.7 300.8 300.8 297.4 293.5 294.9 301.8 309.4 309.7 310.3 310.9 315.2 321.3 325 330.3 336.3 349 355.6 363.5 370.5 378.6 390.3 403.3 419.1 432.3 455.2 476.2 493.1 504 487.1 506.6 533.8 560.6 584 603.6 616.7 625.8 636 648.2 658.1 665.7 672.5 678.4 683.8 689.5 695.9 702.6 707.7 711.8 715.4 718.6 720.8 722.5 723.3 723.7 724.2 724.4 725 726 727.8 729.2 729.3 728.6 725.2 720.5 716.4 712.7 707.4 698.3 687.3 673.5 659.1 646.4 635.4 623 612.3 602.2 595.3 589.8 586 583.2 582.2 580.9 580.3 578 576.1 575 574.9 575.3 576.3 576.3 576.6 575.9 574 570.1 563.1 560.2 554.1 539.6 548 553 560.8 564.9 568.8
713.1 712.6 711.1 708.2 703.8 698.8 692.4 684.2 676.8 666.8 676.7 686.1 698.6 711.9 722.5 730.9 737.2 743.1 747.9 753.5 758.5 764 769 772.9 777.3 778.6 778 776.4 769.3 756.5 749.6 735.9 727.4 722.5 716 704.1 703.1 700.6 696.7 688.1 675.7 667.7 668.5 673 669.9 670.1 669.9 669.7 669 666.6 662 659.1 654.8 648 640.6 632.4 622.4 611.4 591.7 568.7 536.8 515.7 490.5 472.3 460.2 458.7 455.8 452.6 447.1 439.9 428.4 419.9 409.8 396.1 385.1 370.6 356.1 344.8 333.5 323.4 313.4 305.2 298 292.8 287.1 291.3 291 289.4 285.3 286.6 287.8 292.3 293.5 291.6 292.9 291.2 293.8 295.6 294.5 295.2 290.9 294.3 301.4 306.1 306.8 307.1 309.6 312.1 319.3 325.4 333.3 343.4 353.5 360.8 368.5 377.3 390.9 403.8 419 431.9 447.8 469.5 491.1 508.9 518.3 496.9 521 546.6 573.2 593.9 609.8 623.1 631.8 640.2 651.9 661.7 667.9 675.4 682.1 688.4 694.7 702.2 708.4 713.3 717 720.6 724.4 726.9 728 728.9 729.7 730.2 730 730 730.6 731.6 732.4 731.1 726.6 721.3 717.3 713.7 709.6 702 690.3 678.1 668.3 657.2 645.8 633.5 623.1 612.8 603.2 596.3 592.7 589.3 586.1 585.1 584.7 584.2 583.3 582.1 582.2 582.8 584.4 584.8 584.6 584.6 583.5 582.4 578.1 567.2 557.1 546.9 541.4 539 544.7 552.6 558.2 563
718.3 718 717.8 716.2 711.9 705.8 699 689.3 683 667.7 678.6 687.2 699.9 713.9 725.7 733.6 740.8 747.1 751.8 756.6 761.1 765.3 770 775.9 781.7 783.3 783.4 780.9 774 762.4 753.1 739.3 727.9 722.8 720.7 722.6 714.1 707.7 706 693.2 682.4 676.9 679.1 681.5 680.1 677.6 674.3 673.3 671.2 669.1 665.2 662.7 660.3 657.1 652.5 647 643.7 636.1 621.5 596.7 572.6 544 517.1 497 484 477.4 470.4 468.7 468.4 461.5 454.7 446 433.9 418.5 400 385.9 371.2 356 344.3 332.2 319.7 310.9 304.3 295.9 285.9 288.6 288.9 285.7 282.7 282.1 284.7 289.7 291.2 288.6 287.7 286.4 289.4 291 290.5 290.1 292.3 296.5 301.4 302.7 305.9 307.2 309 311.5 317.9 326 340.3 348.4 357.5 367 376.8 388.4 405 421.3 437.7 450.5 466.7 487 507.3 524.2 535.3 523.6 523.7 555.4 579 596.9 613.2 626.1 634.1 645.1 654.4 662.6 669.6 677.1 684.5 691.6 699.7 707.2 712.6 717.6 721.2 724.6 727.8 730 731.2 732.5 733.4 733.9 733.7 733.8 733.8 732.1 731.6 727.7 722.7 717.3 715.6 711.7 705.6 697.8 686.5 676.2 666.7 654.9 645 634.3 623.9 614.6 605 600.1 596 594.2 591.2 590.2 588.6 588 587.9 587.7 589 590.9 592.7 593.2 594.4 594.8 592 588.5 581.2 570.1 561.6 546.7 535 534 536.6 542.1 549.6 556.2
724.5 724.9 724.6 722.9 719.2 712.9 706.9 700 693.4 682.7 677.1 687.8 700.1 714.3 726.1 735 741.4 748.2 754 758.5 763.4 767.9 774 779.1 784 786.1 786.7 784.8 776.3 764.9 754.8 743.5 739.3 731.7 724.6 727.6 723.6 717.8 711.1 702.6 695.6 691.1 690.9 690.3 688.2 684.1 677.8 676.1 673.1 670.5 668.4 666.9 662.3 659.6 656.9 656.4 656 653.1 648.7 637.1 603.9 569.3 543.9 524.6 509.7 499.6 492.6 486.9 484.2 480.2 477.6 471.1 460.2 443.7 423.2 403.1 387.1 368.6 354.3 339.6 329.3 319.7 308.6 298.6 291 283.6 280.4 278.6 279.1 279.4 284.1 287.5 286.9 285.9 284.4 283 284.5 287.8 289.3 287.7 290.7 296.6 298.7 298.3 302.8 305.3 307.4 309.9 316.7 328.7 343.6 352.2 361.8 373.4 387.6 402.9 420 439.5 459.6 474.7 488.5 507.2 525.5 540.9 552.3 555.5 543.3 537.6 568 592.5 610.8 622.2 631.7 645.8 655.9 664.3 671.2 678.6 686.2 694.6 703.5 710.1 715.1 719.6 722.8 725.8 727.2 728.3 730.3 732.1 734.2 735.1 735.2 734.6 733.3 731.2 728.8 725.4 722.4 717.9 714.5 708.9 701.2 691.7 682.3 672.5 663.6 653.9 642.9 634.2 625.9 617.9 610.6 604.7 600.6 598.5 596.4 595.4 595.2 593.9 593.6 594.8 597 599.8 601.1 602.8 604.4 605.6 599.8 597.9 586.3 571.3 557.3 540.5 529 528.9 529.7 532.9 540.5 547.3
730.7 731.4 730.6 729.6 726.2 721.6 717.3 711.7 703.8 688.1 677.8 689.6 699.2 712.1 724.2 734 740.5 748 754.3 759.8 764.8 771.2 776.4 781.2 786.2 788.2 788.7 786.3 780.9 769.1 761.6 751.2 745.4 739.9 734.6 730.4 726.2 726 716.8 713.9 707 698.7 699 697.8 695.5 689.6 683 680.4 675.6 671.4 668.4 668.8 666.7 663.2 660.6 659.3 658.7 657.9 656.2 655.8 650.1 618.2 583.1 559.1 539.1 522.1 512.4 505.1 503.9 499.1 495.3 491.8 480.2 464.9 447.6 426.1 406.9 382.4 364.1 348.4 337.4 327.1 314.1 302.4 295.5 288.3 285.3 281.6 278.1 276.2 284.3 285.1 285.2 283.8 282.4 280.6 283.9 286.9 285.5 287.6 290.2 291.7 294.1 296.4 301.8 304 306.7 309.6 318.3 331.1 340.9 354.8 365.1 380.7 394.4 412.5 433 455.9 475.9 496.4 511 525.9 542.4 556.4 567.3 575.9 579.1 576.9 576.2 575.1 593.7 605.6 621.6 640.6 654.2 664.4 672.5 679.3 688.1 696 704.7 711.6 715.7 720.6 724.3 726.3 726.6 726.5 727.5 729.8 731.8 731.6 733.4 732.5 731.2 728.2 725.5 723.3 719.5 715.4 710.7 704.8 698.3 689.8 682.1 673.1 665.3 657.1 648.5 640.1 631.4 623.4 616 610.3 607.3 604.6 602.9 601.3 600.5 599.5 600.3 602.1 606 607.7 610 613.2 615.3 611.8 609.1 600.6 588.4 567.6 540.3 528.7 518.7 522.9 523.5 526.2 530.2 537.7
736.3 737.2 737.4 736.4 733.1 729.6 725.7 721.7 713.9 696 680.4 689.1 699.4 710.2 721.2 730.1 737.1 745.8 752 758.5 765.2 771.4 777.1 781.5 786.4 789.6 791.4 789.4 783.6 776.7 771.2 761.9 754.4 752.5 744.2 739.8 726.8 725.8 725.2 721.9 717.5 707 707.7 708 703.6 696.5 692 684.9 678.9 672.9 666.8 666.1 666.1 665.9 664.4 662.6 661.3 659.4 659.7 661.3 663.7 662.7 633.3 602.6 579.7 557.9 541.8 534.2 525.6 519.1 510.7 503.6 495.4 482.3 465.1 444.1 423.5 397.1 376.1 358.4 345.8 330.2 315.7 306.4 296.2 290.4 284.9 280.7 276.7 275.2 280 281.7 281.6 280.8 279.4 278.7 281.8 284.6 284.6 287.2 289.7 290.4 291.8 296.4 301 302.5 307.1 310.5 319.7 333.2 345.1 358.1 368.9 385.9 402.8 424.2 448.4 470.8 490.1 513.3 530.2 542.2 554.6 567.5 579.8 589.9 597.8 607.8 610.2 609.4 611 615.8 619.9 623.6 642.6 658.2 672 680.8 688.5 695.9 703.7 711.8 717.5 722.3 725.4 726.9 725.8 726.6 724.3 725.4 725.6 725.1 725.6 726.1 724 720.6 718.9 715.4 711.9 708.4 704.2 698.9 693.8 688.4 682.1 674.5 668.2 660.2 653.4 644.5 637 629.4 621.4 616.7 613 611.3 610 608.2 606.6 605.7 608.5 611.5 615.8 618.2 620.1 622.5 620.9 617.8 607.6 592.9 574.1 549.2 526.5 517.9 513.5 517.4 520 520.3 523.2 528.5
741.8 742.5 743.3 742.5 741.1 738.1 735.7 730.5 723.1 707.1 686.1 686.7 698.8 708.1 716.5 725.3 732.8 741.8 749.8 756.4 763.7 770.7 776.3 781.2 785.8 789.5 792.1 791.8 788.7 783.8 778.1 771.7 762.5 761.5 755.4 752.7 748.3 739.7 735.9 735.5 729.7 720.3 722 717.4 714.8 704.7 701 691.7 684.3 677.1 670.6 667.4 666.1 669.4 666.4 664.3 662.2 664.6 667.5 670.9 678.2 687.7 690.8 669.4 644.6 615.5 585.9 569.7 557.8 544.7 528.1 514.8 504.4 493.7 478.6 458.5 436.1 410.7 387.4 369 351 335.3 323.2 309.4 299.2 290.3 285.7 279 276 272.4 278.4 279.3 278.4 277.4 277.1 278.7 282.1 284.2 285.2 286.8 289.5 287.7 291.9 294.6 297.3 299.4 304 311.4 322.8 335.4 348.5 359.2 373.5 391.1 411.2 435.3 460.6 481.9 503.7 527.1 544.1 554.2 565.5 575.9 587.4 596.2 608.9 619.9 626.5 632.3 635.4 639.8 646.7 649.5 659.2 669.2 675.4 682.5 689.4 698.3 707.3 713.7 719.6 723.7 726.1 727.7 728 727 723.1 721.3 720.3 718.2 717.3 716.1 712.6 710.3 707.4 704.5 701.3 699 695.4 692.9 688.5 685.5 681.2 676.4 670.4 664.3 656.2 649.7 643.2 636.6 628.9 624.4 621.6 619.2 617.9 616.9 615.2 615.7 618.5 622 624.8 627.5 631.2 630.3 622.5 613.2 595.3 564.3 551.7 537.8 518.3 511.9 512.8 514.7 514.7 515.7 518 522.1
747.5 748.6 749.2 749.2 747.6 746 744.6 738.4 729.9 717 701.6 684.9 695.6 704.6 710.9 717.9 726.6 736.2 746.4 754.5 762.3 769 774.7 780.6 786.2 790.9 794.6 795.2 793.2 791.2 787.4 782.8 774.4 770.6 763.2 757.6 762.3 761.1 752.8 743.4 742.5 733.3 736.6 729.8 727.2 716.4 710.6 698.9 694.1 685.4 677.3 670.4 667.1 669.4 673 670.8 667.2 668.2 674.8 680.4 688.3 692.9 702.7 698.2 676.9 649.8 622.5 595.7 578.6 562.5 543.4 526.5 513.1 500.7 487.2 468.7 447.7 424.9 400.4 378.6 360.5 343.5 326.2 313 300.1 292.6 287.6 280 275.5 272.3 274.1 276.2 276.6 274.7 274.7 280.1 283.4 283.6 284.1 284.6 284.7 288.1 290.7 293.3 295.2 298.2 303.6 310.9 324.2 338.2 350.4 361.7 379.1 399.1 421.9 446.7 471.5 494.5 519.3 537.4 553.2 564 570.9 575.6 585.9 599.2 613.6 622.9 631.2 636.8 642 651 658.2 665 673 679.5 684.8 690 696.2 701.9 710.3 716.3 721.3 724.8 726.5 728.2 728.1 725.3 720.1 717.5 715.3 709.3 707.3 703.5 700.4 698.7 696 692.7 690.5 688 685.6 684.3 683.8 683.2 681.8 677.6 672.4 666.6 661 654.3 647.4 641.4 635.4 630.8 627.5 626 625.6 623.6 624 625.1 625.9 626 627 628.2 631.7 627.7 605.8 594.2 573.3 556.5 543.7 527.7 511.7 509.7 511.5 512 511.1 513.1 514 516.9
752.8 754.1 755.6 755.3 754.2 754.5 752.5 747.8 737.9 727.8 715.8 701.1 687.4 694.4 700.3 701.3 712.4 726.5 741.4 752.4 761.3 768.2 775.9 781.8 788.2 793.6 798 800.4 801.2 799.7 797.9 793.5 786.3 784.9 780.6 778.7 773.8 769.8 764.5 758.2 752.4 744.6 744.7 743.1 737 728.6 719.8 710.9 704.2 693.1 684.1 677.9 678.6 673.3 672.6 677.4 674.6 675.8 681.5 688.3 696.1 699.1 700.8 704.7 692.8 666.3 635.9 604.7 576.1 559.9 547.5 533.8 520.4 508.4 494 476.3 456.8 433.7 410.9 386.7 367.7 349.1 331.8 316.7 303.7 291.8 287.1 282.3 278.3 275.5 269.9 273.5 275.1 271.8 274.1 278.5 282.5 282.6 282.4 282.9 283.5 286.1 291.2 291 293.2 296.7 301.6 311.4 325.2 340.6 352.3 364.8 384.6 406.3 431.4 456.9 479.4 504.3 528.8 545.3 558.8 560.7 547.7 554 567.6 585.9 601.8 617.9 628.9 637 648.6 657.9 665.8 673.2 680.2 686.5 691.8 696.7 702.4 708.6 713.8 718.8 722.6 725.5 727.1 727.2 725.4 721.1 717.8 709.4 705.6 700.5 695.2 691.7 687.8 685.5 682.6 679 676.7 674.9 675.1 677.2 679.4 680.7 681.5 679 674 669.3 663.7 658 652 646.5 641.8 637.4 634.7 634.2 632.8 630.1 629.5 628.4 627.5 624.4 621.2 611.9 607.8 604 588.2 577.9 564.3 550.4 536.8 519.7 510.6 508.3 510.4 510.2 510.3 509.7 511.9 513
758.9 760.7 761 761.6 761.7 761.7 759.5 755.4 748.8 740.1 732.3 724.3 718.5 719.9 721 721.1 711.3 716.7 736.4 750.2 759.7 768.2 776.3 783.2 789.6 795.6 801.1 805.5 808.8 810.1 808.6 805.3 802.6 801.1 803.9 799.7 791.8 789.1 783.8 775.9 765.5 758.6 757.5 754.2 747.5 741.7 733.3 724.1 713.3 700.7 693.8 690 690.2 684.7 681.1 676.6 679.1 683.5 689.4 695.1 700.5 698.4 697.4 700.4 698.1 674.7 630.5 593.3 564.4 549.3 540.2 534.4 525.4 514.4 499.9 482.2 463.5 443.8 419.4 396.3 373.8 354.3 336.9 318.2 305 294.2 287.1 282.6 280.8 278 272.5 268.8 270.4 268.8 274 278.4 281.3 281 280.9 281.6 281.1 283.9 287.7 287.9 290.4 296.4 301.8 314.7 326.2 340.9 353.4 368.6 390 413 441.4 465.2 488.2 511.6 533.3 549.9 558.4 540.5 540.2 561.4 578.3 583 581.1 600.6 622.4 638.3 652.4 662.5 670.8 678.5 686.3 692.5 698.1 703 708.6 712.8 717.7 721 724.2 727 727 726 721.9 716.6 710.9 701.6 693.5 689.3 682.7 678.8 673.9 669.4 666.2 664.7 664.7 662.5 665.5 670 674 677.8 680.3 679.8 676.7 672.1 666.7 661.7 656.3 650.6 645.7 642.3 640.9 641.1 637.9 634.5 631.5 629 625.8 620.1 609.6 598.7 591.2 587.3 580.1 572.7 561.8 551.2 529.6 515.9 508.8 507.5 508.5 508.1 508.3 508.4 509.1 510
766.4 767.2 768.5 769.2 770.2 768.9 767.6 762.7 757.3 750.7 744.5 739.6 736.8 735.8 733.8 731.1 717.2 713.9 732.5 748 758.6 767.8 776.3 783.6 789.9 796.7 803.2 808.6 813.5 817.4 816.1 816.6 816.3 816.7 816.2 816.9 813.3 803 798.5 791 775.7 772 768.4 764.9 758.9 753.3 747.9 739.3 730.3 719.5 711.4 705 704.6 699.7 698.9 691 681.3 684.4 692.6 699.1 701.4 697.5 692.7 693.2 694.3 680.8 628.4 585.1 559 545.1 537 528.7 522.1 516.1 503.3 487.8 468.3 448.5 427.2 406.6 381.5 360.5 338.6 323.1 308.9 295.2 286.9 281.2 279.7 278.1 274.4 270.5 268.2 267.3 275.2 277 277.4 279.5 278.1 279.1 280.4 281.2 284.1 286.8 289.4 293.6 302.6 312.3 325.9 341.2 354.6 372.2 394.9 418.6 448.3 468.9 492.1 514.5 534.8 547.7 543.5 522.8 541.3 566.8 586.2 602.1 607.4 595.7 619.2 639.7 653.5 664.4 673.5 683.4 690.1 697.7 704.6 710.3 715.1 719.1 722.6 724.6 726.5 727.9 727 724.2 718.6 709.4 698.7 690.7 680.3 674.5 668 662.3 657.2 653.1 649.2 648.2 649.7 650.2 654.3 662.2 669.4 675.4 679 679 676.8 674.7 669.9 664.8 660.1 654.4 650.8 648.9 648 647.4 643.2 637.7 632.8 629.9 620.9 614 596.3 587.5 583.5 581.5 578.6 570.6 562.5 547.1 527.7 514.5 510.4 506.1 507 507.3 506.5 506.2 506.3 507.7
775.5 776.7 778.2 778.4 777.9 776.1 773.2 769.1 763.5 758.3 752.6 747.5 744.3 741.8 738.8 735.3 714.1 714.2 729.1 744.7 754.3 765.5 774.6 782.4 790 797 803.8 810.5 816.8 822.1 823.6 825.7 828.7 829.9 827.5 823.2 822.9 814.6 808.8 799.3 788.5 782.6 777.5 775 770.2 763.1 756.7 752.5 749.1 740.1 733.2 724.9 720.3 713.4 713.7 705.9 693.6 684.7 687 698.3 701.4 694 689.1 687.2 689.8 683.3 629.4 584.1 556.5 543.4 531.8 523.7 517.3 514.5 505.7 490.1 471.6 454.1 435.1 411 388.8 367.4 343.1 327.9 312.5 297 287.8 279.7 275.9 275.2 274.2 269.8 267.5 269.7 276.8 275 275.6 276.9 278.6 280.3 282 282.5 283.9 285.9 287.4 294 303.1 310.5 328 341.9 357.4 374.5 397.8 423.4 448.1 467.8 489.7 508.8 525.3 530.8 521.9 514.1 544.7 571.5 595.1 610.1 619.7 614.5 615 635.6 651.6 664.9 675.6 686.3 694.7 703.6 711.2 716.7 721.1 725 728.2 730 730.4 729.5 726.8 721.8 715.1 704.5 690.2 674.9 664.5 656.9 648.9 643 638.2 634.5 633.7 634.9 637.8 639 646.9 657.2 665.9 673.1 676.9 677.6 677.2 675.7 671.2 667.7 663.8 659.7 658.4 656.9 654.8 649 644.6 639.6 633.5 626.4 617.3 606 587.5 575.9 575.2 576.2 571.6 562.9 554.3 537.2 521.5 517.6 514.6 510.8 507 505.2 505.4 505.3 505 503.3
783.1 785.8 786.6 786.3 784.8 781.9 778.4 773.4 767.3 762 757.1 752.3 749 746.4 743 738.8 720 712.7 721.1 735.5 747 760.5 771.2 778.9 785.9 794.3 802.6 810.1 818.2 824.2 828.7 832.6 837 840.2 837.4 832.8 828.5 822.9 818.2 809.6 799 789.8 784 781.3 779.4 774.9 770.4 767.8 761.5 757.4 748.6 743.3 739.8 728.9 723.2 713.4 705.1 692.3 684.3 690.7 699.5 693.1 686 683.3 687.6 686.4 640.5 589.4 558.4 540.7 527.8 520.9 513.7 509.2 505.3 493.7 475.4 456.8 438.1 417.2 394.9 371.8 349.1 330.5 314.5 299 287.4 279.7 275.2 271.3 270 266.7 266.2 269.8 274.5 273.3 275.5 276.1 278.5 279.6 280.7 281.1 281 285.1 287.7 293.3 302.2 312.7 326.4 340.3 357.7 376 400 424.2 446.4 462.2 480.3 499 509 510.4 497.8 522.7 551 577.8 601.6 617.6 628.2 631.3 630.3 630.3 638.6 656.6 675.8 687.2 699.5 708.8 717 722.7 726.9 730.9 733.5 734.3 733.9 731.7 726 720.9 712.1 698.8 680.9 663.5 646.8 637.7 631.8 626.3 621.5 619.5 620.5 623 625.7 631.2 643 654.1 663.4 669.2 674 675.5 675.6 673.3 671.1 666.5 666.9 664.1 662.2 660.3 655.2 647.1 641.3 638.8 637.3 622.9 603.1 589.5 578.9 570.8 564.1 559.1 556.4 550.6 544.3 530.1 522.4 518.4 515.5 512.8 511.8 506.4 503.8 503.9 504.3 501.7
791.2 794.4 795.6 793.4 790.3 785.3 781.1 775.3 769.6 764 759.4 754.8 751.4 749.1 745.4 732.6 728.2 720.1 719.8 729 740.4 753.6 764.4 773.2 779.9 789.8 799.3 808.4 817.9 825.8 832.7 837.4 840.7 843 842.9 840.2 835.3 829.9 824 819 813.5 803.6 797.5 792.6 791.4 788 784.7 780.1 776.1 771.7 762 756.2 749.5 739.4 732 721.2 713.4 701.3 688.7 686.7 691.5 691.6 686 679.8 685.5 685.7 659.7 603.4 565.3 543.5 531.3 521.2 514.3 509.2 503.7 494.7 477.3 461.3 441.7 422 399.4 375.7 353.5 332.5 316.9 302.9 290.2 282.4 275.2 269.6 267.1 266.3 267.3 270.7 272.9 271.6 274.4 275.6 277.8 278.8 279.5 279 280.6 284.9 289 295.7 301.9 311.9 325.3 341.2 360.3 380.1 397.7 419.9 438.9 453.8 468.1 480.6 490 489.8 493 524.1 553.5 583.1 608.7 625.5 635.8 642.4 648.1 654 658.7 671.3 682.6 693.3 701.9 712.4 720.6 727.4 732.5 736.5 738.3 738.2 736.8 733.4 727.7 720.2 705 678.3 660.7 648.5 633.4 623.8 618.3 613.8 610.5 607.7 609.6 612.5 615.9 625.9 638.5 650.3 658.7 664.6 667.6 669.5 670.8 670.2 667.9 665.1 664.5 664.1 662.5 661.1 655.2 647.4 640.6 630.5 623.6 607.4 595.5 578.5 568 564.5 558.1 553.4 548.2 544.5 537.3 527.8 524.7 519.9 517.6 516.2 513.9 509.1 506.5 504.7 501.3 500.8
800.5 803.5 803.4 798.5 794.2 787.4 782.3 776.1 769.2 763.9 759 754.1 750.5 746 736.5 740.8 742.3 734.8 720.7 722.8 733.5 743.2 756.3 766.3 775.4 785 794.2 805.5 816.3 825.6 833.7 839.5 843.3 846.4 848.1 846 843.5 840 835.9 833.7 830.7 821.6 817.2 811.7 809 805.5 801.8 796.3 790.6 781.2 772.7 765.3 756.8 745.3 738.9 727.2 718.7 706.8 698.1 692.8 687.2 689.1 685.9 680.6 679.8 683.9 677.1 622.1 581.7 555.1 540.7 525.3 510.9 507.1 503.5 496.8 482.2 463.5 443.9 424.2 402.7 379.5 356.7 336 320.5 304.6 292.1 281.1 274.4 269 264.1 267.9 267.5 268.9 270.5 270.9 271.9 274.4 277.4 278.3 278.5 277.6 279.9 283.5 291.3 298.9 303.5 309.9 323.1 345.6 345 363.7 390.2 405.3 419.4 430.9 448.3 460.8 468.7 467.1 495.6 517 548.7 578.2 609.8 630.8 643.1 650.9 660.7 668.7 676.2 684.7 693.1 701.6 709.9 717.3 724.5 732 737 740.9 742.8 742.4 740.4 734.5 727.4 713.2 686.5 662.3 646.9 631.3 620.1 612.8 606.9 603.9 601.9 600.4 601.3 604.6 611.4 621.8 633.3 645 653.8 658.6 663.2 663.5 663.8 664 664.9 662.5 661.3 659.5 658.3 656.8 653.9 648.8 639.5 618.8 600 592.2 586.1 573.9 564.6 553.2 546.6 545.1 542.5 540.1 529.8 526.4 523.4 522.5 522.3 521.2 520 518.1 515.7 511.2 505.9 502.3
810 811.1 808.9 802.1 796.2 789.4 782.2 774.7 765.9 760.7 751 751.3 754.4 756 755.7 755.2 752.1 748 743.2 735.7 725.5 735.9 748.8 760.1 770.8 781.6 791.4 803.9 815.3 825.3 834.8 841.6 846.8 850.9 854.4 855 853.8 853.2 850.5 850.8 848.6 843.6 837.4 831 827 821.3 816.4 810 805.2 791.4 780.5 773.6 762.7 751.6 742.8 732.8 723.3 714.6 706.5 698.9 691.3 687.6 687.6 683.1 680.1 678.4 676.6 656.9 605.4 575.2 554 530.8 513.3 504.9 502.2 497.5 486 465.5 447.8 429.8 408.3 386.5 364.2 339.2 322 306.8 292.7 281.7 274.5 268.8 263.2 267.2 266.1 271.5 271.7 271.6 272 272.2 275.8 277 276 277.2 278.8 281.4 291.8 296.7 300.9 308.7 326.7 350 373.9 395.4 411.4 410.7 417.2 420.8 425.3 435.1 460.9 480.3 513.1 539.4 555.2 571.7 609.1 634.8 648 658.1 669.5 678 687.2 695.5 703.2 709.5 716.2 722.4 730.1 736.4 742.1 745.3 746.8 746 743.6 736.6 717.2 689.8 669.1 646.6 633.9 622.6 612 604.5 599.3 597.6 594.5 594.6 596.5 601.4 608.1 617.8 630.4 638.8 648.9 654.3 655.7 656.8 656.3 656.7 659.3 658.8 656.7 655.3 654.2 652 650.2 646.5 636.4 607.9 595.5 586.4 577.3 564.8 556.5 549.4 543.5 541.2 535.1 532.4 531.2 531 527.3 527.7 527.7 527 527.5 524.5 523.3 517.6 511.8 507.1
818.3 816.8 813.5 806.8 799.4 791.7 783.7 777.1 763.2 762.6 766 766.6 767.1 766.6 766.1 763.8 760.6 757.3 754.4 751.5 741.9 731.9 746 757.4 769.3 780.3 791.8 804 816.8 827.4 836.8 844.7 851.6 857 860.9 864 865.7 866 867.7 864.9 861.4 859.2 855.2 850.5 845.3 840.8 832.2 827.4 817.7 803.2 789.9 778.4 764.5 757.6 744.7 735.1 725.8 718.8 711.8 703.9 695.1 685.9 688 686.2 679.2 675.3 670.8 660.5 643.7 613.7 580.8 549.7 522.3 508.4 501.5 497.1 488.8 470.7 451.8 433.1 413.2 391.2 369.1 344.8 325.6 309.7 295.5 283.2 274 267.3 262.2 264.8 264.9 270.6 272.1 272.8 272 269.4 271.8 274.6 275.1 275.9 277.3 284.1 288 292.6 296.3 309.8 333.1 356.4 384.5 410.7 433.5 443.7 450.4 454.5 459.2 474.6 490.2 507.2 519.1 547.5 576.2 600.6 620.2 642.3 653.9 664 677.4 686 694.9 704.7 711.7 716.9 723.7 729 735.6 741.2 746.3 749.2 750.8 750.5 747.6 737.3 702.6 674.3 650.6 630.8 622.4 614.4 605.3 599.2 594.1 591.5 590.5 590.4 592.1 597.8 604.8 614.9 625.7 635.1 645 650 650.7 650.6 649.3 651.1 653.6 651.8 650.8 650.9 647.9 644.8 639.3 636.2 615.5 599.4 591.6 582.5 574.9 560.6 546.4 542.7 541.9 540.9 537.7 536.2 537.6 536.4 536.7 537.6 537.8 536.6 534.3 532.3 527.6 523.9 517.8 512
824.3 821.5 817.9 811.8 803 794.1 784.4 773.1 771.7 778.5 778.5 776.8 776.6 776.5 775.2 772.8 769 765.8 762 761.4 754 734.4 751 760.8 770.5 782.3 792.9 804.5 816.8 828.5 838.3 848.4 856.6 862.9 868.2 872.5 876.4 878.4 879.3 876.8 872.2 869 866.1 862.5 858.4 854.4 847.3 840.5 828.7 811.8 798.1 784.1 766.2 756.9 746.2 735.9 726 720.1 714.8 704.1 696.2 687.2 686.7 688.6 682.2 672.2 665.7 660.2 647.2 633.5 609.1 573.2 546.2 518.7 503.2 496.6 489.8 475.1 458.5 436.4 417.4 394.8 373.3 350.3 329.5 311.7 297.5 287 274 266.4 264.5 263.4 267 270.4 272.4 273.2 268.5 267.8 269.2 270.6 271.6 273.7 276.2 283.7 285.2 288 295.6 312.1 337.2 360.4 395.7 424.5 448 468.4 479.4 480.8 488.3 510.2 522 535 549.2 564.3 586.4 616.3 637.2 650.6 661.3 670.8 683.3 693.3 701.8 712.2 718.2 723.6 729.1 734.5 739.4 744.6 749.9 753.1 754.9 754.7 750.7 727.2 691.2 661.4 639.4 620.6 613.8 607.1 599 592.4 588.7 586.6 585.1 583.2 588.9 594.4 601.9 611.9 622.2 632.9 639.8 643.1 645.3 645 644.9 646.9 648.6 647.5 646.8 645.3 641.6 634.5 626 615 605.7 591.7 584.7 575.3 563.7 555.4 544.4 541.3 539.2 539 541.2 541 541.5 539.7 538.4 540.6 541.5 541 539.5 537.7 532.4 526.7 521 515
831 826.2 820.9 814.4 804.9 795.6 777.3 781.5 787.7 788 788 786.5 786.7 787.2 785.3 782.5 777.4 773.1 768.9 766.2 760.9 747.2 752.5 762.6 772.7 784.1 794 806 817.7 828.8 839.3 850.6 860.4 868.1 874.1 879.9 884.9 888.1 887.9 885.3 880.3 875.9 871.8 869.6 866.2 862 855.9 848.1 837.1 817.1 802.2 783.6 767.8 755.6 745.7 733.4 724.4 720 712.6 699.8 694 687 679.8 686.3 684.5 674.8 669 660.4 654.5 639.7 623.5 606.2 581.2 538.4 510.3 497.2 489.1 477.9 458.5 440.4 420.7 400.2 377.4 355.3 331.9 313 297.5 287.4 275.4 266.3 262.6 259.6 265.1 269.2 271.7 271.4 266.7 266.1 267.5 268 271.3 273.1 275.6 279.5 283.1 289.6 299.3 312.5 334.5 357.6 396.1 425.5 453.1 482.4 501.5 506.8 514.2 541.9 552.6 563.1 576.4 591.4 610.5 631.1 647.5 658.5 667 678.1 688.3 698.3 707.3 716.8 723.1 728.6 733.6 738.7 743.5 750 757.5 761.7 761.7 759.9 751.4 716.2 681 652.7 629.4 618 606 600 592.3 587.8 584.3 582.3 581 581.2 586.1 591.1 600.9 609 620.2 628.3 632.7 636 638 640.6 642.3 643.9 644.1 644 642.8 639.8 634 623.1 611.2 601.7 592.3 578.6 573.3 564.4 558.4 556.8 550.4 545 541 537.3 538.4 541.6 542.3 543.7 542.6 542.3 541.2 542.9 540 537.7 533.9 529 522.3 516.3
840.3 831.3 824.4 816.9 806.2 792.1 789 797.8 799.4 799.6 799.5 799.6 799.6 800.3 798.4 793.4 786 780 774.8 769.3 766.1 753 752.5 762.4 772.8 784.2 794.3 806.5 817.5 828.6 840.2 851.1 862.6 871.7 878.5 885 890.6 894 894.1 890.7 885.3 879.7 875.4 871.9 868.5 864.6 859 850.7 837.7 820.4 801.1 781.4 767.4 754.5 741.1 727.8 718 711.8 705.1 694.8 687.4 683.1 674.1 677.2 683.2 676.3 669.7 664.4 661.9 649.5 631.4 617.5 600.6 568.2 525.6 499.2 486.3 477.1 461.3 441.9 421.8 401.9 380.3 357.8 333.6 315.8 300 287.6 277.2 268.1 261.4 260.7 262.8 269.7 272.9 269.1 264.8 264.6 265.5 268 270.2 272.6 274.8 279.3 285.3 293.4 304.4 316.5 334.2 358 388.3 421.3 453.5 486.1 513.7 534.4 538.6 565.2 578.1 589.5 603.1 614.6 629.1 643.2 656.2 664.7 672.2 683.1 693.6 702.5 710.4 718.7 725.6 730.8 735.9 741.6 748.4 757.5 765.1 768.5 767.8 764.2 743.6 703.7 672.9 649.4 633.3 613.8 600.2 590.4 585.8 582.3 581.1 580.2 576.5 577.3 581.9 588 598.5 606 616.7 623.3 627.8 630.9 634.8 638.6 640.7 642.1 642.3 641.5 639.5 636.2 627.5 614 601.3 591.1 579.6 570.4 565.9 560.3 557.4 557.5 549.5 543.8 539.3 537.1 537.6 538.2 541.6 542.2 541.8 541.6 542.7 542.4 539.6 538.1 536.4 530.5 523.7 517.3
847.3 835 825.4 814.2 798.5 797.9 804.6 808.2 810.7 813.4 814.6 814.1 813.4 811.9 809.8 804.3 795.3 786.6 780.1 772.6 767.2 758.3 751.8 760.5 770.7 783 794.9 806.2 816.7 828.4 840.6 851.9 863.1 873.4 881.1 888 894.1 899.3 899.2 895.3 888.2 880.7 876 872.1 868.1 863.9 858.4 848.3 835.6 819.1 799.5 778.4 762.1 748.1 732 719.1 707.3 699.3 695.7 684.7 674.1 671.1 664.3 659.9 675 674.3 669.4 667 665.8 657.6 642.4 625.9 610.4 588.9 551.7 506.8 490.5 477.5 464.1 448 428 405.2 383.2 360.3 340 318.7 303.6 291.5 278.7 268.5 260.8 258.9 261.8 267.2 268.4 265.4 262.8 264.1 266.4 267.2 269 271 273.4 279.4 286 293.9 305.1 315.7 334.8 360.9 389.9 425.3 456.7 485.7 516.2 547 563.3 579.8 592.1 603.2 616.8 627.5 640.7 651.7 662.2 670.5 677.5 687.9 697.4 705.6 713.7 720.8 726.2 732.2 738.5 744.5 753.1 763.8 770.8 775 774 767.9 727.4 693.4 664.9 644 628.1 610.2 593.1 583.3 578.2 575.2 575.3 574.8 572.6 574.9 580.2 587.1 595.9 605.1 612.6 620.9 625.9 628.6 632.2 635.1 638 639 637.5 636 635 630.1 622.3 608.7 592.2 579.7 565.9 562.5 561.6 555.8 550.3 546.1 544 539.3 537.1 536.1 537.1 536.8 537 537.6 539.1 539.3 540.2 539.5 537.7 537.2 536.9 529.5 521.8 516.4
849 835.4 824.7 813.2 811.1 812 816.3 819.6 823.4 825.3 826.2 825.7 824 822.6 818.5 812.3 802.1 791.6 782.8 772.5 768.2 761.2 758.2 766.5 776.6 785.1 796.6 808.5 818.3 830 840.8 852.4 862.8 874.1 882.5 890.3 897.6 903.5 903.7 899.2 891.3 882.9 877.1 872.2 867.6 863.3 856.9 845.5 830.9 814.3 795.2 773.1 755.4 737.7 720.2 707.7 693.7 684.9 681.9 671.1 655.6 644.9 639.3 636.6 651.3 666.5 667 663.9 661.8 658.5 647.1 630.2 613.8 597.1 572.1 521.7 496.2 479.8 465 448.1 430.3 408.4 387.9 363.2 341.9 322.4 303.6 291.9 281.4 271.9 263.7 261.2 259.6 263.5 263.8 261.7 261.3 263.5 264.7 265.7 267.2 268.9 274.1 280 284 293.1 300.4 313.7 332.2 359.2 389.1 421.8 456.8 485.3 515.8 549.5 571.3 585.8 597.5 608.5 622.4 633.1 646.7 657.7 667.6 674.5 681 690.8 699.2 708.1 715.9 722 727.3 733.8 740.2 747.7 758.4 768.2 776.3 780.8 781.2 765.8 716 686.6 662.1 641.7 626.6 607.2 591.4 576.1 569.9 568.8 568.9 567.3 564.2 571.6 578.1 584.6 592.8 601 610.9 618.4 623.9 626.8 628.7 630.6 633.2 633.5 631.8 629.3 624.7 619.4 610.2 599.9 583.4 569.2 559.6 556.6 553.7 551.7 546 541.7 539.9 539.9 536.9 535 535.5 535.4 535 534.4 535.1 536.2 535.7 535 533.6 531.6 528.5 524.2 518.1 513.9
847 832.3 823.7 819.9 821.6 822.4 826.8 831.4 834.5 835.4 835.8 834.4 832.3 828.9 823.4 815.6 804.9 793 781.9 772.5 768.1 760.2 762.2 772.2 780.9 790.6 801.7 813.8 823.5 833.9 845.1 854.4 864.5 874.1 883.1 891.1 899 907 906.7 902.1 894.8 885.6 878.7 872.3 867.4 862.4 855.6 841.6 824.8 805 790.1 768 745.9 727.2 709.4 695.4 680.7 667.4 661.2 653.2 636.4 611.7 594.5 601.6 622.5 645.3 652.8 652.4 647.5 647.4 630.3 620.8 605.8 595.2 575.1 542.8 512 487.3 468.7 449.8 433.3 411.4 389.7 367.8 343.3 323.7 305.1 293.3 280.2 268.9 263.4 259.6 256.7 260.8 261 260.2 261.3 263.3 263.8 263.8 265.3 271.9 277.3 280.5 289.3 290.1 298 313.9 334.3 357.1 384.7 414.7 449.7 482.4 514.3 544.5 567.3 581.4 594.9 607 620.8 633.8 648.7 660.8 670.1 676 681.8 692 700.4 708.8 716.1 722.4 727.4 734.1 741.2 750.2 761.7 771.2 780.3 785.7 784.2 755.4 712.7 678.8 658.4 636.6 618.9 601.2 581.9 569.2 562.7 561.8 562.8 560.6 562.4 569.6 576.8 582.2 590.9 602.2 610.2 617.4 622.6 623.6 624 623.5 624 624 622.3 620.8 615 606 598.1 589.4 578 565 552.8 551.8 547.1 544.4 542.1 541.2 540.6 541.2 539.1 536.5 533.6 533.4 533.2 533.6 533.3 532.8 533.2 532.5 529.3 526.7 523.2 517.5 514.1 509.8
841.2 832.6 829.5 829.6 832.3 834.8 839.1 843.4 844.8 845.2 843.7 841.1 836.6 831.2 824.8 814.7 803.4 791.8 779.4 769.9 766 761.6 763.9 773.5 782.8 795.5 806.9 819.8 830.6 841.3 849.8 858.1 866.9 875 882.7 890.3 898.6 907.8 907.8 903 895.6 886.9 879.9 872.3 866.6 861.4 854.1 839.5 817.4 795.8 781.8 761.8 736.1 719.1 698.2 677.2 661.8 646.6 635.1 616.5 590.2 557.1 544.6 568.5 598.4 615.3 618 618.9 616.2 621.8 608.3 598.3 591.7 579.1 569.5 550.9 528.9 503.9 478.2 453.7 433 413.3 392.8 369.3 345.9 327.8 306.2 291.9 281.1 270.3 265.9 260.5 256.7 258.4 259.6 258.9 261.5 263 262.6 262.6 265.3 272.6 276.3 278.9 284.6 289.2 302.8 315.2 336.3 357.4 382.5 410.4 440 473.5 506.2 536.5 555.5 569.5 583.8 598.9 616 632.3 648.9 662.2 670.5 676.4 682.3 692.4 699.7 707.5 714.9 721.3 726.9 733.4 741.4 752.6 763.4 772.9 781.3 786.2 783.8 739.7 704.4 678.4 652.2 630.6 613.1 596.7 579.5 566.3 557.3 553.9 553.8 553.5 560.4 566.6 574.3 580.4 590.8 600.6 609.2 614.2 619.6 621.2 616.2 613.9 612 612.1 612 609.2 605.7 599.5 597.8 588.9 571 556.9 549.2 548.4 544.2 542.4 541.6 539.3 538.7 539.2 539.9 539.7 533.5 530.8 531.2 530.5 529.4 527.7 529.1 527.1 523.9 519.5 515.7 511.4 507.6 503.6
842.3 840 838.7 839.9 842.6 847.5 852 854.7 854.9 852.9 849.7 844.2 838.3 830.5 822.6 812.6 799.9 788.6 776.7 769.7 766.2 762.2 766.2 775.7 784.4 798.8 811.3 825 837.8 848.6 857 864 870.7 876.9 882.7 887.9 895.1 904.4 904.3 899.5 892.9 884.5 878.1 871.6 865.4 860.1 852.6 835 810.8 784.6 769.4 749.3 723.7 705.4 683.6 660.9 642.8 622.4 598.4 578 550.5 527.8 527.8 535.5 563.6 582 580.8 582.9 582.3 585.4 582.1 576.1 572.3 569.2 558.5 545.3 529.2 508.2 488.7 461.6 436.4 414.8 393.9 370.5 347.7 326.4 310.7 294.5 282.7 271.9 267.1 262.1 256.9 256.7 257.7 259.3 260.8 261.4 262 261.9 265.1 274.8 279.3 276.4 287.6 291.8 304.5 318.9 337.1 355.9 378.1 403.6 435 462.8 494 521.4 536.7 550.5 564.9 583.2 606.1 627.5 647.6 660.9 669.4 675 680.8 690.2 698.5 706.6 713.5 720.2 727.2 733.8 741.3 753.5 763.8 772.7 779.8 784.9 781.7 736.1 697.3 667 640.8 627.1 605.7 586.5 569.2 553.2 544.5 545.2 546.6 551.8 557.4 564 570.7 578.9 587.7 598.4 607.7 612.2 617.1 615.6 609.4 605.2 602.4 602.6 603.7 600.7 594.3 587.5 587.6 572.5 560.6 552.2 548.2 549.4 544.8 542 541.2 538.7 537.7 536.3 534.1 532.7 530.8 527.7 526.3 525.6 524.7 523.7 522.7 522 517.9 515.1 510.2 504.7 500.8 498.9
