ncols 200
nrows 200
xllcorner 140000
yllcorner 750000
cellsize 50
-1.5 -1.5 -1.5 -1.5 -1.5 -1.5 -1.5 -1.5 -1.5 -1.5 -1.5 -1.5 -1.5 -1.5 -1.5 -1.5 -1.5 -1.5 -1.5 -1.5 -1.5 -1.5 -1.5 -1.5 -1.5 -1.5 -1.5 -1.5 -1.5 -1.5 -1.5 -1.5 -1.5 -1.5 -1.5 -1.5 -1.5 -1.5 -1.5 -1.5 -1.5 -1.5 -1.5 -1.5 -1.5 -1.5 -1.5 -1.5 -1.5 -1.5 -1.5 -1.5 -1.5 -1.5 -1.5 -1.5 -1.5 -1.5 -1.5 -1.5 -1.5 -1.5 -1.5 -1.5 -1.5 -1.5 -1.5 -1.5 -1.5 -1.5 -1.5 -1.5 -1.5 -1.5 -1.5 -1.5 -1.5 -1.5 -1.5 -1.5 -1.5 -1.5 -1.5 -1.5 -1.5 -1.5 -1.5 -1.5 -1.5 -1.5 -1.5 -1.5 -1.5 -1.5 -1.5 -1.5 -1.5 -1.5 -1.5 -1.5 -1.5 -1.5 -1.5 -1.5 -1.5 -1.5 -1.5 -1.5 -1.5 -1.5 -1.5 -1.5 -1.5 -1.5 -1.5 -1.5 -1.5 -1.5 -1.5 -1.5 -1.5 -1.5 -1.5 -1.5 -1.5 -1.5 -1.5 -1.5 -1.5 -1.5 -1.5 -1.5 -1.5 -1.5 -1.5 -1.5 -1.5 -1.5 -1.5 -1.5 -1.5 -1.5 -1.5 -1.5 -1.5 -1.5 -1.5 -1.5 -1.5 -1.5 -1.5 -1.5 -1.5 -1.5 -1.5 -1.5 -1.5 -1.5 -1.5 -1.5 -1.5 -1.5 -1.5 -1.5 -1.5 -1.5 -1.5 -1.5 -1.5 -1.5 -1.5 -1.5 -1.5 -1.5 -1.5 -1.5 -1.5 -1.5 -1.5 -1.5 -1.5 -1.5 -1.5 -1.5 -1.5 -1.5 -1.5 -1.5 -1.5 -1.5 -1.5 -1.5 -1.5 -1.5 -1.5 -1.5 -1.5 -1.5 -1.5 -1.5
-1.5 -1.5 -1.5 -1.5 -1.5 -1.5 -1.5 -1.5 -1.5 -1.5 -1.5 -1.5 -1.5 -1.5 -1.5 -1.5 -1.5 -1.5 -1.5 -1.5 -1.5 -1.5 -1.5 -1.5 -1.5 -1.5 -1.5 -1.5 -1.5 -1.5 -1.5 -1.5 -1.5 -1.5 -1.5 -1.5 -1.5 -1.5 -1.5 -1.5 -1.5 -1.5 -1.5 -1.5 -1.5 -1.5 -1.5 -1.5 -1.5 -1.5 -1.5 -1.5 -1.5 -1.5 -1.5 -1.5 -1.5 -1.5 -1.5 -1.5 -1.5 -1.5 -1.5 -1.5 -1.5 -1.5 -1.5 -1.5 -1.5 -1.5 -1.5 -1.5 -1.5 -1.5 -1.5 -1.5 -1.5 -1.5 -1.5 -1.5 -1.5 -1.5 -1.5 -1.5 -1.5 -1.5 -1.5 -1.5 -1.5 -1.5 -1.5 -1.5 -1.5 -1.5 -1.5 -1.5 -1.5 -1.5 -1.5 -1.5 -1.5 -1.5 -1.5 -1.5 -1.5 -1.5 -1.5 -1.5 -1.5 -1.5 -1.5 -1.5 -1.5 -1.5 -1.5 -1.5 -1.5 -1.5 -1.5 -1.5 -1.5 -1.5 -1.5 -1.5 -1.5 -1.5 -1.5 -1.5 -1.5 -1.5 -1.5 -1.5 -1.5 -1.5 -1.5 -1.5 -1.5 -1.5 -1.5 -1.5 -1.5 -1.5 -1.5 -1.5 -1.5 -1.5 -1.5 -1.5 -1.5 -1.5 -1.5 -1.5 -1.5 -1.5 -1.5 -1.5 -1.5 -1.5 -1.5 -1.5 -1.5 -1.5 -1.5 -1.5 -1.5 -1.5 -1.5 -1.5 -1.5 -1.5 -1.5 -1.5 -1.5 -1.5 -1.5 -1.5 -1.5 -1.5 -1.5 -1.5 -1.5 -1.5 -1.5 -1.5 -1.5 -1.5 -1.5 -1.5 -1.5 -1.5 -1.5 -1.5 -1.5 -1.5 -1.5 -1.5 -1.5 -1.5 -1.5 -1.5
-1.5 -1.5 -1.5 -1.5 -1.5 -1.5 -1.5 -1.5 -1.5 -1.5 -1.5 -1.5 -1.5 -1.5 -1.5 -1.5 -1.5 -1.5 -1.5 -1.5 -1.5 -1.5 -1.5 -1.5 -1.5 -1.5 -1.5 -1.5 -1.5 -1.5 -1.5 -1.5 -1.5 -1.5 -1.5 -1.5 -1.5 -1.5 -1.5 -1.5 -1.5 -1.5 -1.5 -1.5 -1.5 -1.5 -1.5 -1.5 -1.5 -1.5 -1.5 -1.5 -1.5 -1.5 -1.5 -1.5 -1.5 -1.5 -1.5 -1.5 -1.5 -1.5 -1.5 -1.5 -1.5 -1.5 -1.5 -1.5 -1.5 -1.5 -1.5 -1.5 -1.5 -1.5 -1.5 -1.5 -1.5 -1.5 -1.5 -1.5 -1.5 -1.5 -1.5 -1.5 -1.5 -1.5 -1.5 -1.5 -1.5 -1.5 -1.5 -1.5 -1.5 -1.5 -1.5 -1.5 -1.5 -1.5 -1.5 -1.5 -1.5 -1.5 -1.5 -1.5 -1.5 -1.5 -1.5 -1.5 -1.5 -1.5 -1.5 -1.5 -1.5 -1.5 -1.5 -1.5 -1.5 -1.5 -1.5 -1.5 -1.5 -1.5 -1.5 -1.5 -1.5 -1.5 -1.5 -1.5 -1.5 -1.5 -1.5 -1.5 -1.5 -1.5 -1.5 -1.5 -1.5 -1.5 -1.5 -1.5 -1.5 -1.5 -1.5 -1.5 -1.5 -1.5 -1.5 -1.5 -1.5 -1.5 -1.5 -1.5 -1.5 -1.5 -1.5 -1.5 -1.5 -1.5 -1.5 -1.5 -1.5 -1.5 -1.5 -1.5 -1.5 -1.5 -1.5 -1.5 -1.5 -1.5 -1.5 -1.5 -1.5 -1.5 -1.5 -1.5 -1.5 -1.5 -1.5 -1.5 -1.5 -1.5 -1.5 -1.5 -1.5 -1.5 -1.5 -1.5 -1.5 -1.5 -1.5 -1.5 -1.5 -1.5 -1.5 -1.5 -1.5 -1.5 -1.5 -1.5
-1.5 -1.5 -1.5 -1.5 -1.5 -1.5 -1.5 -1.5 -1.5 -1.5 -1.5 -1.5 -1.5 -1.5 -1.5 -1.5 -1.5 -1.5 -1.5 -1.5 -1.5 -1.5 -1.5 -1.5 -1.5 -1.5 -1.5 -1.5 -1.5 -1.5 -1.5 -1.5 -1.5 -1.5 -1.5 -1.5 -1.5 -1.5 -1.5 -1.5 -1.5 -1.5 -1.5 -1.5 -1.5 -1.5 -1.5 -1.5 -1.5 -1.5 -1.5 -1.5 -1.5 -1.5 -1.5 -1.5 -1.5 -1.5 -1.5 -1.5 -1.5 -1.5 -1.5 -1.5 -1.5 -1.5 -1.5 -1.5 -1.5 -1.5 -1.5 -1.5 -1.5 -1.5 -1.5 -1.5 -1.5 -1.5 -1.5 -1.5 -1.5 -1.5 -1.5 -1.5 -1.5 -1.5 -1.5 -1.5 -1.5 -1.5 -1.5 -1.5 -1.5 -1.5 -1.5 -1.5 -1.5 -1.5 -1.5 -1.5 -1.5 -1.5 -1.5 -1.5 -1.5 -1.5 -1.5 -1.5 -1.5 -1.5 -1.5 -1.5 -1.5 -1.5 -1.5 -1.5 -1.5 -1.5 -1.5 -1.5 -1.5 -1.5 -1.5 -1.5 -1.5 -1.5 -1.5 -1.5 -1.5 -1.5 -1.5 -1.5 -1.5 -1.5 -1.5 -1.5 -1.5 -1.5 -1.5 -1.5 -1.5 -1.5 -1.5 -1.5 -1.5 -1.5 -1.5 -1.5 -1.5 -1.5 -1.5 -1.5 -1.5 -1.5 -1.5 -1.5 -1.5 -1.5 -1.5 -1.5 -1.5 -1.5 -1.5 -1.5 -1.5 -1.5 -1.5 -1.5 -1.5 -1.5 -1.5 -1.5 -1.5 -1.5 -1.5 -1.5 -1.5 -1.5 -1.5 -1.5 -1.5 -1.5 -1.5 -1.5 -1.5 -1.5 -1.5 -1.5 -1.5 -1.5 -1.5 -1.5 -1.5 -1.5 -1.5 -1.5 -1.5 -1.5 -1.5 -1.5
-1.5 -1.5 -1.5 -1.5 -1.5 -1.5 -1.5 -1.5 -1.5 -1.5 -1.5 -1.5 -1.5 -1.5 -1.5 -1.5 -1.5 -1.5 -1.5 -1.5 -1.5 -1.5 -1.5 -1.5 -1.5 -1.5 -1.5 -1.5 -1.5 -1.5 -1.5 -1.5 -1.5 -1.5 -1.5 -1.5 -1.5 -1.5 -1.5 -1.5 -1.5 -1.5 -1.5 -1.5 -1.5 -1.5 -1.5 -1.5 -1.5 -1.5 -1.5 -1.5 -1.5 -1.5 -1.5 -1.5 -1.5 -1.5 -1.5 -1.5 -1.5 -1.5 -1.5 -1.5 -1.5 -1.5 -1.5 -1.5 -1.5 -1.5 -1.5 -1.5 -1.5 -1.5 -1.5 -1.5 -1.5 -1.5 -1.5 -1.5 -1.5 -1.5 -1.5 -1.5 -1.5 -1.5 -1.5 -1.5 -1.5 -1.5 -1.5 -1.5 -1.5 -1.5 -1.5 -1.5 -1.5 -1.5 -1.5 -1.5 -1.5 -1.5 -1.5 -1.5 -1.5 -1.5 -1.5 -1.5 -1.5 -1.5 -1.5 -1.5 -1.5 -1.5 -1.5 -1.5 -1.5 -1.5 -1.5 -1.5 -1.5 -1.5 -1.5 -1.5 -1.5 -1.5 -1.5 -1.5 -1.5 -1.5 -1.5 -1.5 -1.5 -1.5 -1.5 -1.5 -1.5 -1.5 -1.5 -1.5 -1.5 -1.5 -1.5 -1.5 -1.5 -1.5 -1.5 -1.5 -1.5 -1.5 -1.5 -1.5 -1.5 -1.5 -1.5 -1.5 -1.5 -1.5 -1.5 -1.5 -1.5 -1.5 -1.5 -1.5 -1.5 -1.5 -1.5 -1.5 -1.5 -1.5 -1.5 -1.5 -1.5 -1.5 -1.5 -1.5 -1.5 -1.5 -1.5 -1.5 -1.5 -1.5 -1.5 -1.5 -1.5 -1.5 -1.5 -1.5 -1.5 -1.5 -1.5 -1.5 -1.5 -1.5 -1.5 -1.5 -1.5 -1.5 -1.5 -1.5
-1.5 -1.5 -1.5 -1.5 -1.5 -1.5 -1.5 -1.5 -1.5 -1.5 -1.5 -1.5 -1.5 -1.5 -1.5 -1.5 -1.5 -1.5 -1.5 -1.5 -1.5 -1.5 -1.5 -1.5 -1.5 -1.5 -1.5 -1.5 -1.5 -1.5 -1.5 -1.5 -1.5 -1.5 -1.5 -1.5 -1.5 -1.5 -1.5 -1.5 -1.5 -1.5 -1.5 -1.5 -1.5 -1.5 -1.5 -1.5 -1.5 -1.5 -1.5 -1.5 -1.5 -1.5 -1.5 -1.5 -1.5 -1.5 -1.5 -1.5 -1.5 -1.5 -1.5 -1.5 -1.5 -1.5 -1.5 -1.5 -1.5 -1.5 -1.5 -1.5 -1.5 -1.5 -1.5 -1.5 -1.5 -1.5 -1.5 -1.5 -1.5 -1.5 -1.5 -1.5 -1.5 -1.5 -1.5 -1.5 -1.5 -1.5 -1.5 -1.5 -1.5 -1.5 -1.5 -1.5 -1.5 -1.5 -1.5 -1.5 -1.5 -1.5 -1.5 -1.5 -1.5 -1.5 -1.5 -1.5 -1.5 -1.5 -1.5 -1.5 -1.5 -1.5 -1.5 -1.5 -1.5 -1.5 -1.5 -1.5 -1.5 -1.5 -1.5 -1.5 -1.5 -1.5 -1.5 -1.5 -1.5 -1.5 -1.5 -1.5 -1.5 -1.5 -1.5 -1.5 -1.5 -1.5 -1.5 -1.5 -1.5 -1.5 -1.5 -1.5 -1.5 -1.5 -1.5 -1.5 -1.5 -1.5 -1.5 -1.5 -1.5 -1.5 -1.5 -1.5 -1.5 -1.5 -1.5 -1.5 -1.5 -1.5 -1.5 -1.5 -1.5 -1.5 -1.5 -1.5 -1.5 -1.5 -1.5 -1.5 -1.5 -1.5 -1.5 -1.5 -1.5 -1.5 -1.5 -1.5 -1.5 -1.5 -1.5 -1.5 -1.5 -1.5 -1.5 -1.5 -1.5 -1.5 -1.5 -1.5 -1.5 -1.5 -1.5 -1.5 -1.5 -1.5 -1.5 -1.5
-1.5 -1.5 -1.5 -1.5 -1.5 -1.5 -1.5 -1.5 -1.5 -1.5 -1.5 -1.5 -1.5 -1.5 -1.5 -1.5 -1.5 -1.5 -1.5 -1.5 -1.5 -1.5 -1.5 -1.5 -1.5 -1.5 -1.5 -1.5 -1.5 -1.5 -1.5 -1.5 -1.5 -1.5 -1.5 -1.5 -1.5 -1.5 -1.5 -1.5 -1.5 -1.5 -1.5 -1.5 -1.5 -1.5 -1.5 -1.5 -1.5 -1.5 -1.5 -1.5 -1.5 -1.5 -1.5 -1.5 -1.5 -1.5 -1.5 -1.5 -1.5 -1.5 -1.5 -1.5 -1.5 -1.5 -1.5 -1.5 -1.5 -1.5 -1.5 -1.5 -1.5 -1.5 -1.5 -1.5 -1.5 -1.5 -1.5 -1.5 -1.5 -1.5 -1.5 -1.5 -1.5 -1.5 -1.5 -1.5 -1.5 -1.5 -1.5 -1.5 -1.5 -1.5 -1.5 -1.5 -1.5 -1.5 -1.5 -1.5 -1.5 -1.5 -1.5 -1.5 -1.5 -1.5 -1.5 -1.5 -1.5 -1.5 -1.5 -1.5 -1.5 -1.5 -1.5 -1.5 -1.5 -1.5 -1.5 -1.5 -1.5 -1.5 -1.5 -1.5 -1.5 -1.5 -1.5 -1.5 -1.5 -1.5 -1.5 -1.5 -1.5 -1.5 -1.5 -1.5 -1.5 -1.5 -1.5 -1.5 -1.5 -1.5 -1.5 -1.5 -1.5 -1.5 -1.5 -1.5 -1.5 -1.5 -1.5 -1.5 -1.5 -1.5 -1.5 -1.5 -1.5 -1.5 -1.5 -1.5 -1.5 -1.5 -1.5 -1.5 -1.5 -1.5 -1.5 -1.5 -1.5 -1.5 -1.5 -1.5 -1.5 -1.5 -1.5 -1.5 -1.5 -1.5 -1.5 -1.5 -1.5 -1.5 -1.5 -1.5 -1.5 -1.5 -1.5 -1.5 -1.5 -1.5 -1.5 -1.5 -1.5 -1.5 -1.5 -1.5 -1.5 -1.5 -1.5 -1.5
-1.5 -1.5 -1.5 -1.5 -1.5 -1.5 -1.5 -1.5 -1.5 -1.5 -1.5 -1.5 -1.5 -1.5 -1.5 -1.5 -1.5 -1.5 -1.5 -1.5 -1.5 -1.5 -1.5 -1.5 -1.5 -1.5 -1.5 -1.5 -1.5 -1.5 -1.5 -1.5 -1.5 -1.5 -1.5 -1.5 -1.5 -1.5 -1.5 -1.5 -1.5 -1.5 -1.5 -1.5 -1.5 -1.5 -1.5 -1.5 -1.5 -1.5 -1.5 -1.5 -1.5 -1.5 -1.5 -1.5 -1.5 -1.5 -1.5 -1.5 -1.5 -1.5 -1.5 -1.5 -1.5 -1.5 -1.5 -1.5 -1.5 -1.5 -1.5 -1.5 -1.5 -1.5 -1.5 -1.5 -1.5 -1.5 -1.5 -1.5 -1.5 -1.5 -1.5 -1.5 -1.5 -1.5 -1.5 -1.5 -1.5 -1.5 -1.5 -1.5 -1.5 -1.5 -1.5 -1.5 -1.5 -1.5 -1.5 -1.5 -1.5 -1.5 -1.5 -1.5 -1.5 -1.5 -1.5 -1.5 -1.5 -1.5 -1.5 -1.5 -1.5 -1.5 -1.5 -1.5 -1.5 -1.5 -1.5 -1.5 -1.5 -1.5 -1.5 -1.5 -1.5 -1.5 -1.5 -1.5 -1.5 -1.5 -1.5 -1.5 -1.5 -1.5 -1.5 -1.5 -1.5 -1.5 -1.5 -1.5 -1.5 -1.5 -1.5 -1.5 -1.5 -1.5 -1.5 -1.5 -1.5 -1.5 -1.5 -1.5 -1.5 -1.5 -1.5 -1.5 -1.5 -1.5 -1.5 -1.5 -1.5 -1.5 -1.5 -1.5 -1.5 -1.5 -1.5 -1.5 -1.5 -1.5 -1.5 -1.5 -1.5 -1.5 -1.5 -1.5 -1.5 -1.5 -1.5 -1.5 -1.5 -1.5 -1.5 -1.5 -1.5 -1.5 -1.5 -1.5 -1.5 -1.5 -1.5 -1.5 -1.5 -1.5 -1.5 -1.5 -1.5 -1.5 -1.5 -1.5
-1.5 -1.5 -1.5 -1.5 -1.5 -1.5 -1.5 -1.5 -1.5 -1.5 -1.5 -1.5 -1.5 -1.5 -1.5 -1.5 -1.5 -1.5 -1.5 -1.5 -1.5 -1.5 -1.5 -1.5 -1.5 -1.5 -1.5 -1.5 -1.5 -1.5 -1.5 -1.5 -1.5 -1.5 -1.5 -1.5 -1.5 -1.5 -1.5 -1.5 -1.5 -1.5 -1.5 -1.5 -1.5 -1.5 -1.5 -1.5 -1.5 -1.5 -1.5 -1.5 -1.5 -1.5 -1.5 -1.5 -1.5 -1.5 -1.5 -1.5 -1.5 -1.5 -1.5 -1.5 -1.5 -1.5 -1.5 -1.5 -1.5 -1.5 -1.5 -1.5 -1.5 -1.5 -1.5 -1.5 -1.5 -1.5 -1.5 -1.5 -1.5 -1.5 -1.5 -1.5 -1.5 -1.5 -1.5 -1.5 -1.5 -1.5 -1.5 -1.5 -1.5 -1.5 -1.5 -1.5 -1.5 -1.5 -1.5 -1.5 -1.5 -1.5 -1.5 -1.5 -1.5 -1.5 -1.5 -1.5 -1.5 -1.5 -1.5 -1.5 -1.5 -1.5 -1.5 -1.5 -1.5 -1.5 -1.5 -1.5 -1.5 -1.5 -1.5 -1.5 -1.5 -1.5 -1.5 -1.5 -1.5 -1.5 -1.5 -1.5 -1.5 -1.5 -1.5 -1.5 -1.5 -1.5 -1.5 -1.5 -1.5 -1.5 -1.5 -1.5 -1.5 -1.5 -1.5 -1.5 -1.5 -1.5 -1.5 -1.5 -1.5 -1.5 -1.5 -1.5 -1.5 -1.5 -1.5 -1.5 -1.5 -1.5 -1.5 -1.5 -1.5 -1.5 -1.5 -1.5 -1.5 -1.5 -1.5 -1.5 -1.5 -1.5 -1.5 -1.5 -1.5 -1.5 -1.5 -1.5 -1.5 -1.5 -1.5 -1.5 -1.5 -1.5 -1.5 -1.5 -1.5 -1.5 -1.5 -1.5 -1.5 -1.5 -1.5 -1.5 -1.5 -1.5 -1.5 -1.5
-1.5 -1.5 -1.5 -1.5 -1.5 -1.5 -1.5 -1.5 -1.5 -1.5 -1.5 -1.5 -1.5 -1.5 -1.5 -1.5 -1.5 -1.5 -1.5 -1.5 -1.5 -1.5 -1.5 -1.5 -1.5 -1.5 -1.5 -1.5 -1.5 -1.5 -1.5 -1.5 -1.5 -1.5 -1.5 -1.5 -1.5 -1.5 -1.5 -1.5 -1.5 -1.5 -1.5 -1.5 -1.5 -1.5 -1.5 -1.5 -1.5 -1.5 -1.5 -1.5 -1.5 -1.5 -1.5 -1.5 -1.5 -1.5 -1.5 -1.5 -1.5 -1.5 -1.5 -1.5 -1.5 -1.5 -1.5 -1.5 -1.5 -1.5 -1.5 -1.5 -1.5 -1.5 -1.5 -1.5 -1.5 -1.5 -1.5 -1.5 -1.5 -1.5 -1.5 -1.5 -1.5 -1.5 -1.5 -1.5 -1.5 -1.5 -1.5 -1.5 -1.5 -1.5 -1.5 -1.5 -1.5 -1.5 -1.5 -1.5 -1.5 -1.5 -1.5 -1.5 -1.5 -1.5 -1.5 -1.5 -1.5 -1.5 -1.5 -1.5 -1.5 -1.5 -1.5 -1.5 -1.5 -1.5 -1.5 -1.5 -1.5 -1.5 -1.5 -1.5 -1.5 -1.5 -1.5 -1.5 -1.5 -1.5 -1.5 -1.5 -1.5 -1.5 -1.5 -1.5 -1.5 -1.5 -1.5 -1.5 -1.5 -1.5 -1.5 -1.5 -1.5 -1.5 -1.5 -1.5 -1.5 -1.5 -1.5 -1.5 -1.5 -1.5 -1.5 -1.5 -1.5 -1.5 -1.5 -1.5 -1.5 -1.5 -1.5 -1.5 -1.5 -1.5 -1.5 -1.5 -1.5 -1.5 -1.5 -1.5 -1.5 -1.5 -1.5 -1.5 -1.5 -1.5 -1.5 -1.5 -1.5 -1.5 -1.5 -1.5 -1.5 -1.5 -1.5 -1.5 -1.5 -1.5 -1.5 -1.5 -1.5 -1.5 -1.5 -1.5 -1.5 -1.5 -1.5 -1.5
-1.5 -1.5 -1.5 -1.5 -1.5 -1.5 -1.5 -1.5 -1.5 -1.5 -1.5 -1.5 -1.5 -1.5 -1.5 -1.5 -1.5 -1.5 -1.5 -1.5 -1.5 -1.5 -1.5 -1.5 -1.5 -1.5 -1.5 -1.5 -1.5 -1.5 -1.5 -1.5 -1.5 -1.5 -1.5 -1.5 -1.5 -1.5 -1.5 -1.5 -1.5 -1.5 -1.5 -1.5 -1.5 -1.5 -1.5 -1.5 -1.5 -1.5 -1.5 -1.5 -1.5 -1.5 -1.5 -1.5 -1.5 -1.5 -1.5 -1.5 -1.5 -1.5 -1.5 -1.5 -1.5 -1.5 -1.5 -1.5 -1.5 -1.5 -1.5 -1.5 -1.5 -1.5 -1.5 -1.5 -1.5 -1.5 -1.5 -1.5 -1.5 -1.5 -1.5 -1.5 -1.5 -1.5 -1.5 -1.5 -1.5 -1.5 -1.5 -1.5 -1.5 -1.5 -1.5 -1.5 -1.5 -1.5 -1.5 -1.5 -1.5 -1.5 -1.5 -1.5 -1.5 -1.5 -1.5 -1.5 -1.5 -1.5 -1.5 -1.5 -1.5 -1.5 -1.5 -1.5 -1.5 -1.5 -1.5 -1.5 -1.5 -1.5 -1.5 -1.5 -1.5 -1.5 -1.5 -1.5 -1.5 -1.5 -1.5 -1.5 -1.5 -1.5 -1.5 -1.5 -1.5 -1.5 -1.5 -1.5 -1.5 -1.5 -1.5 -1.5 -1.5 -1.5 -1.5 -1.5 -1.5 -1.5 -1.5 -1.5 -1.5 -1.5 -1.5 -1.5 -1.5 -1.5 -1.5 -1.5 -1.5 -1.5 -1.5 -1.5 -1.5 -1.5 -1.5 -1.5 -1.5 -1.5 -1.5 -1.5 -1.5 -1.5 -1.5 -1.5 -1.5 -1.5 -1.5 -1.5 -1.5 -1.5 -1.5 -1.5 -1.5 -1.5 -1.5 -1.5 -1.5 -1.5 -1.5 -1.5 -1.5 -1.5 -1.5 -1.5 -1.5 -1.5 -1.5 -1.5
-1.5 -1.5 -1.5 -1.5 -1.5 -1.5 -1.5 -1.5 -1.5 -1.5 -1.5 -1.5 -1.5 -1.5 -1.5 -1.5 -1.5 -1.5 -1.5 -1.5 -1.5 -1.5 -1.5 -1.5 -1.5 -1.5 -1.5 -1.5 -1.5 -1.5 -1.5 -1.5 -1.5 -1.5 -1.5 -1.5 -1.5 -1.5 -1.5 -1.5 -1.5 -1.5 -1.5 -1.5 -1.5 -1.5 -1.5 -1.5 -1.5 -1.5 -1.5 -1.5 -1.5 -1.5 -1.5 -1.5 -1.5 -1.5 -1.5 -1.5 -1.5 -1.5 -1.5 -1.5 -1.5 -1.5 -1.5 -1.5 -1.5 -1.5 -1.5 -1.5 -1.5 -1.5 -1.5 -1.5 -1.5 -1.5 -1.5 -1.5 -1.5 -1.5 -1.5 -1.5 -1.5 -1.5 -1.5 -1.5 -1.5 -1.5 -1.5 -1.5 -1.5 -1.5 -1.5 -1.5 -1.5 -1.5 -1.5 -1.5 -1.5 -1.5 -1.5 -1.5 -1.5 -1.5 -1.5 -1.5 -1.5 -1.5 -1.5 -1.5 -1.5 -1.5 -1.5 -1.5 -1.5 -1.5 -1.5 -1.5 -1.5 -1.5 -1.5 -1.5 -1.5 -1.5 -1.5 -1.5 -1.5 -1.5 -1.5 -1.5 -1.5 -1.5 -1.5 -1.5 -1.5 -1.5 -1.5 -1.5 -1.5 -1.5 -1.5 -1.5 -1.5 -1.5 -1.5 -1.5 -1.5 -1.5 -1.5 -1.5 -1.5 -1.5 -1.5 -1.5 -1.5 -1.5 -1.5 -1.5 -1.5 -1.5 -1.5 -1.5 -1.5 -1.5 -1.5 -1.5 -1.5 -1.5 -1.5 -1.5 -1.5 -1.5 -1.5 -1.5 -1.5 -1.5 -1.5 -1.5 -1.5 -1.5 -1.5 -1.5 -1.5 -1.5 -1.5 -1.5 -1.5 -1.5 -1.5 -1.5 -1.5 -1.5 -1.5 -1.5 -1.5 -1.5 -1.5 -1.5
-1.5 -1.5 -1.5 -1.5 -1.5 -1.5 -1.5 -1.5 -1.5 -1.5 -1.5 -1.5 -1.5 -1.5 -1.5 -1.5 -1.5 -1.5 -1.5 -1.5 -1.5 -1.5 -1.5 -1.5 -1.5 -1.5 -1.5 -1.5 -1.5 -1.5 -1.5 -1.5 -1.5 -1.5 -1.5 -1.5 -1.5 -1.5 -1.5 -1.5 -1.5 -1.5 -1.5 -1.5 -1.5 -1.5 -1.5 -1.5 -1.5 -1.5 -1.5 -1.5 -1.5 -1.5 -1.5 -1.5 -1.5 -1.5 -1.5 -1.5 -1.5 -1.5 -1.5 -1.5 -1.5 -1.5 -1.5 -1.5 -1.5 -1.5 -1.5 -1.5 -1.5 -1.5 -1.5 -1.5 -1.5 -1.5 -1.5 -1.5 -1.5 -1.5 -1.5 -1.5 -1.5 -1.5 -1.5 -1.5 -1.5 -1.5 -1.5 -1.5 -1.5 -1.5 -1.5 -1.5 -1.5 -1.5 -1.5 -1.5 -1.5 -1.5 -1.5 -1.5 -1.5 -1.5 -1.5 -1.5 -1.5 -1.5 -1.5 -1.5 -1.5 -1.5 -1.5 -1.5 -1.5 -1.5 -1.5 -1.5 -1.5 -1.5 -1.5 -1.5 -1.5 -1.5 -1.5 -1.5 -1.5 -1.5 -1.5 -1.5 -1.5 -1.5 -1.5 -1.5 -1.5 -1.5 -1.5 -1.5 -1.5 -1.5 -1.5 -1.5 -1.5 -1.5 -1.5 -1.5 -1.5 -1.5 -1.5 -1.5 -1.5 -1.5 -1.5 -1.5 -1.5 -1.5 -1.5 -1.5 -1.5 -1.5 -1.5 -1.5 -1.5 -1.5 -1.5 -1.5 -1.5 -1.5 -1.5 -1.5 -1.5 -1.5 -1.5 -1.5 -1.5 -1.5 -1.5 -1.5 -1.5 -1.5 -1.5 -1.5 -1.5 -1.5 -1.5 -1.5 -1.5 -1.5 -1.5 -1.5 -1.5 -1.5 -1.5 -1.5 -1.5 -1.5 -1.5 -1.5
-1.5 -1.5 -1.5 -1.5 -1.5 -1.5 -1.5 -1.5 -1.5 -1.5 -1.5 -1.5 -1.5 -1.5 -1.5 -1.5 -1.5 -1.5 -1.5 -1.5 -1.5 -1.5 -1.5 -1.5 -1.5 -1.5 -1.5 -1.5 -1.5 -1.5 -1.5 -1.5 -1.5 -1.5 -1.5 -1.5 -1.5 -1.5 -1.5 -1.5 -1.5 -1.5 -1.5 -1.5 -1.5 -1.5 -1.5 -1.5 -1.5 -1.5 -1.5 -1.5 -1.5 -1.5 -1.5 -1.5 -1.5 -1.5 -1.5 -1.5 -1.5 -1.5 -1.5 -1.5 -1.5 -1.5 -1.5 -1.5 -1.5 -1.5 -1.5 -1.5 -1.5 -1.5 -1.5 -1.5 -1.5 -1.5 -1.5 -1.5 -1.5 -1.5 -1.5 -1.5 -1.5 -1.5 -1.5 -1.5 -1.5 -1.5 -1.5 -1.5 -1.5 -1.5 -1.5 -1.5 -1.5 -1.5 -1.5 -1.5 -1.5 -1.5 -1.5 -1.5 -1.5 -1.5 -1.5 -1.5 -1.5 -1.5 -1.5 -1.5 -1.5 -1.5 -1.5 -1.5 -1.5 -1.5 -1.5 -1.5 -1.5 -1.5 -1.5 -1.5 -1.5 -1.5 -1.5 -1.5 -1.5 -1.5 -1.5 -1.5 -1.5 -1.5 -1.5 -1.5 -1.5 -1.5 -1.5 -1.5 -1.5 -1.5 -1.5 -1.5 -1.5 -1.5 -1.5 -1.5 -1.5 -1.5 -1.5 -1.5 -1.5 -1.5 -1.5 -1.5 -1.5 -1.5 -1.5 -1.5 -1.5 -1.5 -1.5 -1.5 -1.5 -1.5 -1.5 -1.5 -1.5 -1.5 -1.5 -1.5 -1.5 -1.5 -1.5 -1.5 -1.5 -1.5 -1.5 -1.5 -1.5 -1.5 -1.5 -1.5 -1.5 -1.5 -1.5 -1.5 -1.5 -1.5 -1.5 -1.5 -1.5 -1.5 -1.5 -1.5 -1.5 -1.5 -1.5 -1.5
-1.5 -1.5 -1.5 -1.5 -1.5 -1.5 -1.5 -1.5 -1.5 -1.5 -1.5 -1.5 -1.5 -1.5 -1.5 -1.5 -1.5 -1.5 -1.5 -1.5 -1.5 -1.5 -1.5 -1.5 -1.5 -1.5 -1.5 -1.5 -1.5 -1.5 -1.5 -1.5 -1.5 -1.5 -1.5 -1.5 -1.5 -1.5 -1.5 -1.5 -1.5 -1.5 -1.5 -1.5 -1.5 -1.5 -1.5 -1.5 -1.5 -1.5 -1.5 -1.5 -1.5 -1.5 -1.5 -1.5 -1.5 -1.5 -1.5 -1.5 -1.5 -1.5 -1.5 -1.5 -1.5 -1.5 -1.5 -1.5 -1.5 -1.5 -1.5 -1.5 -1.5 -1.5 -1.5 -1.5 -1.5 -1.5 -1.5 -1.5 -1.5 -1.5 -1.5 -1.5 -1.5 -1.5 -1.5 -1.5 -1.5 -1.5 -1.5 -1.5 -1.5 -1.5 -1.5 -1.5 -1.5 -1.5 -1.5 -1.5 -1.5 -1.5 -1.5 -1.5 -1.5 -1.5 -1.5 -1.5 -1.5 -1.5 -1.5 -1.5 -1.5 -1.5 -1.5 -1.5 -1.5 -1.5 -1.5 -1.5 -1.5 -1.5 -1.5 -1.5 -1.5 -1.5 -1.5 -1.5 -1.5 -1.5 -1.5 -1.5 -1.5 -1.5 -1.5 -1.5 -1.5 -1.5 -1.5 -1.5 -1.5 -1.5 -1.5 -1.5 -1.5 -1.5 -1.5 -1.5 -1.5 -1.5 -1.5 -1.5 -1.5 -1.5 -1.5 -1.5 -1.5 -1.5 -1.5 -1.5 -1.5 -1.5 -1.5 -1.5 -1.5 -1.5 -1.5 -1.5 -1.5 -1.5 -1.5 -1.5 -1.5 -1.5 -1.5 -1.5 -1.5 -1.5 -1.5 -1.5 -1.5 -1.5 -1.5 -1.5 -1.5 -1.5 -1.5 -1.5 -1.5 -1.5 -1.5 -1.5 -1.5 -1.5 -1.5 -1.5 -1.5 -1.5 -1.5 -1.5
-1.5 -1.5 -1.5 -1.5 -1.5 -1.5 -1.5 -1.5 -1.5 -1.5 -1.5 -1.5 -1.5 -1.5 -1.5 -1.5 -1.5 -1.5 -1.5 -1.5 -1.5 -1.5 -1.5 -1.5 -1.5 -1.5 -1.5 -1.5 -1.5 -1.5 -1.5 -1.5 -1.5 -1.5 -1.5 -1.5 -1.5 -1.5 -1.5 -1.5 -1.5 -1.5 -1.5 -1.5 -1.5 -1.5 -1.5 -1.5 -1.5 -1.5 -1.5 -1.5 -1.5 -1.5 -1.5 -1.5 -1.5 -1.5 -1.5 -1.5 -1.5 -1.5 -1.5 -1.5 -1.5 -1.5 -1.5 -1.5 -1.5 -1.5 -1.5 -1.5 -1.5 -1.5 -1.5 -1.5 -1.5 -1.5 -1.5 -1.5 -1.5 -1.5 -1.5 -1.5 -1.5 -1.5 -1.5 -1.5 -1.5 -1.5 -1.5 -1.5 -1.5 -1.5 -1.5 -1.5 -1.5 -1.5 -1.5 -1.5 -1.5 -1.5 -1.5 -1.5 -1.5 -1.5 -1.5 -1.5 -1.5 -1.5 -1.5 -1.5 -1.5 -1.5 -1.5 -1.5 -1.5 -1.5 -1.5 -1.5 -1.5 -1.5 -1.5 -1.5 -1.5 -1.5 -1.5 -1.5 -1.5 -1.5 -1.5 -1.5 -1.5 -1.5 -1.5 -1.5 -1.5 -1.5 -1.5 -1.5 4.4 3 -1.5 -1.5 -1.5 -1.5 -1.5 -1.5 -1.5 -1.5 -1.5 -1.5 -1.5 -1.5 -1.5 -1.5 -1.5 -1.5 -1.5 -1.5 -1.5 -1.5 -1.5 -1.5 -1.5 -1.5 -1.5 -1.5 -1.5 -1.5 -1.5 -1.5 -1.5 -1.5 -1.5 -1.5 -1.5 -1.5 -1.5 -1.5 -1.5 -1.5 -1.5 -1.5 -1.5 -1.5 -1.5 -1.5 -1.5 -1.5 -1.5 -1.5 -1.5 -1.5 -1.5 -1.5 -1.5 -1.5 -1.5 -1.5
-1.5 -1.5 -1.5 -1.5 -1.5 -1.5 -1.5 -1.5 -1.5 -1.5 -1.5 -1.5 -1.5 -1.5 -1.5 -1.5 -1.5 -1.5 -1.5 -1.5 -1.5 -1.5 -1.5 -1.5 -1.5 -1.5 -1.5 -1.5 -1.5 -1.5 -1.5 -1.5 -1.5 -1.5 -1.5 -1.5 -1.5 -1.5 -1.5 -1.5 -1.5 -1.5 -1.5 -1.5 -1.5 -1.5 -1.5 -1.5 -1.5 -1.5 -1.5 -1.5 -1.5 -1.5 -1.5 -1.5 -1.5 -1.5 -1.5 -1.5 -1.5 -1.5 -1.5 -1.5 -1.5 -1.5 -1.5 -1.5 -1.5 -1.5 -1.5 -1.5 -1.5 -1.5 -1.5 -1.5 -1.5 -1.5 -1.5 -1.5 -1.5 -1.5 -1.5 -1.5 -1.5 -1.5 -1.5 -1.5 -1.5 -1.5 -1.5 -1.5 -1.5 -1.5 -1.5 -1.5 -1.5 -1.5 -1.5 -1.5 -1.5 -1.5 -1.5 -1.5 -1.5 -1.5 -1.5 -1.5 -1.5 -1.5 -1.5 -1.5 -1.5 -1.5 -1.5 -1.5 -1.5 -1.5 -1.5 -1.5 -1.5 -1.5 -1.5 -1.5 -1.5 -1.5 -1.5 -1.5 -1.5 -1.5 -1.5 -1.5 -1.5 -1.5 -1.5 -1.5 -1.5 -1.5 -1.5 3.5 15.7 21.4 18.2 11.5 -1.5 -1.5 -1.5 -1.5 -1.5 -1.5 -1.5 -1.5 -1.5 -1.5 -1.5 -1.5 -1.5 -1.5 -1.5 -1.5 -1.5 -1.5 -1.5 -1.5 -1.5 -1.5 -1.5 -1.5 -1.5 -1.5 -1.5 -1.5 -1.5 -1.5 -1.5 -1.5 -1.5 -1.5 -1.5 -1.5 -1.5 -1.5 -1.5 -1.5 -1.5 -1.5 -1.5 -1.5 -1.5 -1.5 -1.5 -1.5 -1.5 -1.5 -1.5 -1.5 -1.5 -1.5 -1.5 -1.5
-1.5 -1.5 -1.5 -1.5 -1.5 -1.5 -1.5 -1.5 -1.5 -1.5 -1.5 -1.5 -1.5 -1.5 -1.5 -1.5 -1.5 -1.5 -1.5 -1.5 -1.5 -1.5 -1.5 -1.5 -1.5 -1.5 -1.5 -1.5 -1.5 -1.5 -1.5 -1.5 -1.5 -1.5 -1.5 -1.5 -1.5 -1.5 -1.5 -1.5 -1.5 -1.5 -1.5 -1.5 -1.5 -1.5 -1.5 -1.5 -1.5 -1.5 -1.5 -1.5 -1.5 -1.5 -1.5 -1.5 -1.5 -1.5 -1.5 -1.5 -1.5 -1.5 -1.5 -1.5 -1.5 -1.5 -1.5 -1.5 -1.5 -1.5 -1.5 -1.5 -1.5 -1.5 -1.5 -1.5 -1.5 -1.5 -1.5 -1.5 -1.5 -1.5 -1.5 -1.5 -1.5 -1.5 -1.5 -1.5 -1.5 -1.5 -1.5 -1.5 -1.5 -1.5 -1.5 -1.5 -1.5 -1.5 -1.5 -1.5 -1.5 -1.5 -1.5 -1.5 -1.5 -1.5 -1.5 -1.5 -1.5 -1.5 -1.5 -1.5 -1.5 -1.5 -1.5 -1.5 -1.5 -1.5 -1.5 -1.5 -1.5 -1.5 -1.5 -1.5 -1.5 -1.5 -1.5 -1.5 -1.5 -1.5 -1.5 -1.5 -1.5 -1.5 -1.5 -1.5 -1.5 -1.5 -1.5 2.2 21.6 29.9 33.9 26 17.3 -1.5 -1.5 -1.5 -1.5 -1.5 -1.5 -1.5 -1.5 -1.5 -1.5 -1.5 -1.5 -1.5 -1.5 -1.5 -1.5 -1.5 -1.5 -1.5 -1.5 -1.5 -1.5 -1.5 -1.5 -1.5 -1.5 -1.5 -1.5 -1.5 -1.5 -1.5 -1.5 -1.5 -1.5 -1.5 -1.5 -1.5 -1.5 -1.5 -1.5 -1.5 -1.5 -1.5 -1.5 -1.5 -1.5 -1.5 -1.5 -1.5 -1.5 -1.5 -1.5 -1.5 -1.5 -1.5
-1.5 -1.5 -1.5 -1.5 -1.5 -1.5 -1.5 -1.5 -1.5 -1.5 -1.5 -1.5 -1.5 -1.5 -1.5 -1.5 -1.5 -1.5 -1.5 -1.5 -1.5 -1.5 -1.5 -1.5 -1.5 -1.5 -1.5 -1.5 -1.5 -1.5 -1.5 -1.5 -1.5 -1.5 -1.5 -1.5 -1.5 -1.5 -1.5 -1.5 -1.5 -1.5 -1.5 -1.5 -1.5 -1.5 -1.5 -1.5 -1.5 -1.5 -1.5 -1.5 -1.5 -1.5 -1.5 -1.5 -1.5 -1.5 -1.5 -1.5 -1.5 -1.5 -1.5 -1.5 -1.5 -1.5 -1.5 -1.5 -1.5 -1.5 -1.5 -1.5 -1.5 -1.5 -1.5 -1.5 -1.5 -1.5 -1.5 -1.5 -1.5 -1.5 -1.5 -1.5 -1.5 -1.5 -1.5 -1.5 -1.5 -1.5 -1.5 -1.5 -1.5 -1.5 -1.5 -1.5 -1.5 -1.5 -1.5 -1.5 -1.5 -1.5 -1.5 -1.5 -1.5 -1.5 -1.5 -1.5 -1.5 -1.5 -1.5 -1.5 -1.5 -1.5 -1.5 -1.5 -1.5 -1.5 -1.5 -1.5 -1.5 -1.5 -1.5 -1.5 -1.5 -1.5 -1.5 -1.5 -1.5 -1.5 -1.5 -1.5 -1.5 -1.5 -1.5 -1.5 -1.5 -1.5 -1.5 -1.5 22.3 35.8 35.5 40.5 38.3 27.9 -1.5 -1.5 -1.5 -1.5 -1.5 -1.5 -1.5 -1.5 -1.5 -1.5 -1.5 -1.5 -1.5 -1.5 -1.5 -1.5 -1.5 -1.5 -1.5 -1.5 -1.5 -1.5 -1.5 -1.5 -1.5 -1.5 -1.5 -1.5 -1.5 -1.5 -1.5 -1.5 -1.5 -1.5 -1.5 -1.5 -1.5 -1.5 -1.5 -1.5 -1.5 -1.5 -1.5 -1.5 -1.5 -1.5 -1.5 -1.5 -1.5 -1.5 -1.5 -1.5 -1.5 -1.5
-1.5 -1.5 -1.5 -1.5 -1.5 -1.5 -1.5 -1.5 -1.5 -1.5 -1.5 -1.5 -1.5 -1.5 -1.5 -1.5 -1.5 -1.5 -1.5 -1.5 -1.5 -1.5 -1.5 -1.5 -1.5 -1.5 -1.5 -1.5 -1.5 -1.5 -1.5 -1.5 -1.5 -1.5 -1.5 -1.5 -1.5 -1.5 -1.5 -1.5 -1.5 -1.5 -1.5 -1.5 -1.5 -1.5 -1.5 -1.5 -1.5 -1.5 -1.5 -1.5 -1.5 -1.5 -1.5 -1.5 -1.5 -1.5 -1.5 -1.5 -1.5 -1.5 -1.5 -1.5 -1.5 -1.5 -1.5 -1.5 -1.5 -1.5 -1.5 -1.5 -1.5 -1.5 -1.5 -1.5 -1.5 -1.5 -1.5 -1.5 -1.5 -1.5 -1.5 -1.5 -1.5 -1.5 -1.5 -1.5 -1.5 -1.5 -1.5 -1.5 -1.5 -1.5 -1.5 -1.5 -1.5 -1.5 -1.5 -1.5 -1.5 -1.5 -1.5 -1.5 -1.5 -1.5 -1.5 -1.5 -1.5 -1.5 -1.5 -1.5 -1.5 -1.5 -1.5 -1.5 -1.5 -1.5 -1.5 -1.5 -1.5 -1.5 -1.5 -1.5 -1.5 -1.5 -1.5 -1.5 -1.5 -1.5 -1.5 -1.5 -1.5 -1.5 -1.5 -1.5 -1.5 -1.5 -1.5 -1.5 8.2 35.2 37.6 38.3 45.9 40.3 28.4 12.1 -1.5 -1.5 -1.5 -1.5 -1.5 -1.5 -1.5 -1.5 -1.5 -1.5 -1.5 -1.5 -1.5 -1.5 -1.5 -1.5 -1.5 -1.5 -1.5 -1.5 -1.5 -1.5 -1.5 -1.5 -1.5 -1.5 -1.5 -1.5 -1.5 -1.5 -1.5 -1.5 -1.5 -1.5 -1.5 -1.5 -1.5 -1.5 -1.5 -1.5 -1.5 -1.5 -1.5 -1.5 -1.5 -1.5 -1.5 -1.5 -1.5 -1.5 -1.5 -1.5
-1.5 -1.5 -1.5 -1.5 -1.5 -1.5 -1.5 -1.5 -1.5 -1.5 -1.5 -1.5 -1.5 -1.5 -1.5 -1.5 -1.5 -1.5 -1.5 -1.5 -1.5 -1.5 -1.5 -1.5 -1.5 -1.5 -1.5 -1.5 -1.5 -1.5 -1.5 -1.5 -1.5 -1.5 -1.5 -1.5 -1.5 -1.5 -1.5 -1.5 -1.5 -1.5 -1.5 -1.5 -1.5 -1.5 -1.5 -1.5 -1.5 -1.5 -1.5 -1.5 -1.5 -1.5 -1.5 -1.5 -1.5 -1.5 -1.5 -1.5 -1.5 -1.5 -1.5 -1.5 -1.5 -1.5 -1.5 -1.5 -1.5 -1.5 -1.5 -1.5 -1.5 -1.5 -1.5 -1.5 -1.5 -1.5 -1.5 -1.5 -1.5 -1.5 -1.5 -1.5 -1.5 -1.5 -1.5 -1.5 -1.5 -1.5 -1.5 -1.5 -1.5 -1.5 -1.5 -1.5 -1.5 -1.5 -1.5 -1.5 -1.5 -1.5 -1.5 -1.5 -1.5 -1.5 -1.5 -1.5 -1.5 -1.5 -1.5 -1.5 -1.5 -1.5 -1.5 -1.5 -1.5 -1.5 -1.5 -1.5 -1.5 -1.5 -1.5 -1.5 -1.5 -1.5 -1.5 -1.5 -1.5 -1.5 -1.5 -1.5 -1.5 -1.5 -1.5 -1.5 -1.5 -1.5 2.2 -1.5 4.1 30.1 41.4 43 44.2 46.4 42.5 29.7 14.8 6.6 2.4 2.2 1.5 -1.5 -1.5 -1.5 -1.5 -1.5 -1.5 -1.5 -1.5 -1.5 -1.5 -1.5 -1.5 -1.5 -1.5 -1.5 -1.5 -1.5 -1.5 -1.5 -1.5 -1.5 -1.5 -1.5 -1.5 -1.5 -1.5 -1.5 -1.5 -1.5 -1.5 -1.5 -1.5 -1.5 -1.5 -1.5 -1.5 -1.5 -1.5 -1.5 -1.5 -1.5 -1.5 -1.5 -1.5 -1.5 -1.5 -1.5
-1.5 -1.5 -1.5 -1.5 -1.5 -1.5 -1.5 -1.5 -1.5 -1.5 -1.5 -1.5 -1.5 -1.5 -1.5 -1.5 -1.5 -1.5 -1.5 -1.5 -1.5 -1.5 -1.5 -1.5 -1.5 -1.5 -1.5 -1.5 -1.5 -1.5 -1.5 -1.5 -1.5 -1.5 -1.5 -1.5 -1.5 -1.5 -1.5 -1.5 -1.5 -1.5 -1.5 -1.5 -1.5 -1.5 -1.5 -1.5 -1.5 -1.5 -1.5 -1.5 -1.5 -1.5 -1.5 -1.5 -1.5 -1.5 -1.5 -1.5 -1.5 -1.5 -1.5 -1.5 -1.5 -1.5 -1.5 -1.5 -1.5 -1.5 -1.5 -1.5 -1.5 -1.5 -1.5 -1.5 -1.5 -1.5 -1.5 -1.5 -1.5 -1.5 -1.5 -1.5 -1.5 -1.5 -1.5 -1.5 -1.5 -1.5 -1.5 -1.5 -1.5 -1.5 -1.5 -1.5 -1.5 -1.5 -1.5 -1.5 -1.5 -1.5 -1.5 -1.5 -1.5 -1.5 -1.5 -1.5 -1.5 -1.5 -1.5 -1.5 -1.5 -1.5 -1.5 -1.5 -1.5 -1.5 18.7 20.2 -1.5 -1.5 -1.5 -1.5 -1.5 -1.5 -1.5 -1.5 -1.5 -1.5 -1.5 -1.5 -1.5 -1.5 -1.5 -1.5 -1.5 -1.5 -1.5 2.7 6.9 20.2 33.3 44.1 45.7 44.3 47.5 41.3 34.1 19 25.6 10.5 2.2 0.5 -1.5 -1.5 -1.5 -1.5 -1.5 -1.5 -1.5 -1.5 -1.5 -1.5 -1.5 -1.5 -1.5 -1.5 -1.5 -1.5 -1.5 -1.5 -1.5 -1.5 -1.5 -1.5 -1.5 -1.5 -1.5 -1.5 -1.5 -1.5 -1.5 -1.5 -1.5 -1.5 -1.5 -1.5 -1.5 -1.5 -1.5 -1.5 -1.5 -1.5 -1.5 -1.5 -1.5 -1.5 -1.5 -1.5
-1.5 -1.5 -1.5 -1.5 -1.5 -1.5 -1.5 -1.5 -1.5 -1.5 -1.5 -1.5 -1.5 -1.5 -1.5 -1.5 -1.5 -1.5 -1.5 -1.5 -1.5 -1.5 -1.5 -1.5 -1.5 -1.5 -1.5 -1.5 -1.5 -1.5 -1.5 -1.5 -1.5 -1.5 -1.5 -1.5 -1.5 -1.5 -1.5 -1.5 -1.5 -1.5 -1.5 -1.5 -1.5 -1.5 -1.5 -1.5 -1.5 -1.5 -1.5 -1.5 -1.5 -1.5 -1.5 -1.5 -1.5 -1.5 -1.5 -1.5 -1.5 -1.5 -1.5 -1.5 -1.5 -1.5 -1.5 -1.5 -1.5 -1.5 -1.5 -1.5 -1.5 -1.5 -1.5 -1.5 -1.5 -1.5 -1.5 -1.5 -1.5 -1.5 -1.5 -1.5 -1.5 -1.5 -1.5 -1.5 -1.5 -1.5 -1.5 -1.5 -1.5 -1.5 -1.5 -1.5 -1.5 -1.5 -1.5 -1.5 -1.5 -1.5 -1.5 -1.5 -1.5 -1.5 -1.5 -1.5 -1.5 -1.5 -1.5 -1.5 -1.5 -1.5 -1.5 -1.5 -1.5 3.7 31.2 29.5 22.2 -1.5 -1.5 -1.5 -1.5 -1.5 -1.5 -1.5 -1.5 -1.5 -1.5 -1.5 -1.5 -1.5 -1.5 -1.5 -1.5 -1.5 -1.5 4 6.9 14.4 27.8 37.1 47.8 47.3 49.2 45.1 44.3 32.6 37.4 34.8 22.1 1.8 -0.1 -1.5 -1.5 -1.5 -1.5 -1.5 -1.5 -1.5 -1.5 -1.5 -1.5 -1.5 -1.5 -1.5 -1.5 -1.5 -1.5 -1.5 -1.5 -1.5 -1.5 -1.5 -1.5 -1.5 -1.5 -1.5 -1.5 -1.5 -1.5 -1.5 -1.5 -1.5 -1.5 -1.5 -1.5 -1.5 -1.5 -1.5 -1.5 -1.5 -1.5 -1.5 -1.5 -1.5 -1.5 -1.5
-1.5 -1.5 -1.5 -1.5 -1.5 -1.5 -1.5 -1.5 -1.5 -1.5 -1.5 -1.5 -1.5 -1.5 -1.5 -1.5 -1.5 -1.5 -1.5 -1.5 -1.5 -1.5 -1.5 -1.5 -1.5 -1.5 -1.5 -1.5 -1.5 -1.5 -1.5 -1.5 -1.5 -1.5 -1.5 -1.5 -1.5 -1.5 -1.5 -1.5 -1.5 -1.5 -1.5 -1.5 -1.5 -1.5 -1.5 -1.5 -1.5 -1.5 -1.5 -1.5 -1.5 -1.5 -1.5 -1.5 -1.5 -1.5 -1.5 -1.5 -1.5 -1.5 -1.5 -1.5 -1.5 -1.5 -1.5 -1.5 -1.5 -1.5 -1.5 -1.5 -1.5 -1.5 -1.5 -1.5 -1.5 -1.5 -1.5 -1.5 -1.5 -1.5 -1.5 -1.5 -1.5 -1.5 -1.5 -1.5 -1.5 -1.5 -1.5 -1.5 -1.5 -1.5 -1.5 -1.5 -1.5 -1.5 -1.5 -1.5 -1.5 -1.5 -1.5 -1.5 -1.5 -1.5 -1.5 -1.5 -1.5 -1.5 -1.5 -1.5 -1.5 -1.5 -1.5 -1.5 12.8 9.3 27.5 42.7 36.2 21 2.9 -1.5 -1.5 -1.5 -1.5 -1.5 -1.5 -1.5 -1.5 -1.5 -1.5 -1.5 -1.5 -1.5 -1.5 -1.5 -1.5 3.7 10 12.7 23.5 32.5 41.8 52.8 56.3 56 51.4 41.1 35.9 40.9 38.6 14.7 3.5 -1.5 -1.5 -1.5 -1.5 -1.5 -1.5 -1.5 -1.5 -1.5 -1.5 -1.5 -1.5 -1.5 -1.5 -1.5 -1.5 -1.5 -1.5 -1.5 -1.5 -1.5 -1.5 -1.5 -1.5 -1.5 -1.5 -1.5 -1.5 -1.5 -1.5 -1.5 -1.5 -1.5 -1.5 -1.5 -1.5 -1.5 -1.5 -1.5 -1.5 -1.5 -1.5 -1.5 -1.5 -1.5
-1.5 -1.5 -1.5 -1.5 -1.5 -1.5 -1.5 -1.5 -1.5 -1.5 -1.5 -1.5 -1.5 -1.5 -1.5 -1.5 -1.5 -1.5 -1.5 -1.5 -1.5 -1.5 -1.5 -1.5 -1.5 -1.5 -1.5 -1.5 -1.5 -1.5 -1.5 -1.5 -1.5 -1.5 -1.5 -1.5 -1.5 -1.5 -1.5 -1.5 -1.5 -1.5 -1.5 -1.5 -1.5 -1.5 -1.5 -1.5 -1.5 -1.5 -1.5 -1.5 -1.5 -1.5 -1.5 -1.5 -1.5 -1.5 -1.5 -1.5 -1.5 -1.5 -1.5 -1.5 -1.5 -1.5 -1.5 -1.5 -1.5 -1.5 -1.5 -1.5 -1.5 -1.5 -1.5 -1.5 -1.5 -1.5 -1.5 -1.5 -1.5 -1.5 -1.5 -1.5 -1.5 -1.5 -1.5 -1.5 -1.5 -1.5 -1.5 -1.5 -1.5 -1.5 -1.5 -1.5 -1.5 -1.5 -1.5 -1.5 -1.5 -1.5 -1.5 -1.5 -1.5 -1.5 -1.5 -1.5 -1.5 -1.5 -1.5 -1.5 -1.5 -1.5 2.3 47.3 48.5 39.1 30.5 32.1 42.3 32.8 19.5 2.7 -1.5 -1.5 -1.5 -1.5 -1.5 -1.5 -1.5 -1.5 -1.5 -1.5 -1.5 -1.5 -1.5 -1.5 -1.5 2.9 9 11.4 17.7 31.2 38.4 44.3 61 64.2 67.2 53.4 34.6 42.7 43.6 41.5 6.6 -1.5 -1.5 -1.5 -1.5 -1.5 -1.5 -1.5 -1.5 -1.5 -1.5 -1.5 -1.5 -1.5 -1.5 -1.5 -1.5 -1.5 -1.5 -1.5 -1.5 -1.5 -1.5 -1.5 -1.5 -1.5 -1.5 -1.5 -1.5 -1.5 -1.5 -1.5 -1.5 -1.5 -1.5 -1.5 -1.5 -1.5 -1.5 -1.5 -1.5 -1.5 -1.5 -1.5 -1.5 -1.5
-1.5 -1.5 -1.5 -1.5 -1.5 -1.5 -1.5 -1.5 -1.5 -1.5 -1.5 -1.5 -1.5 -1.5 -1.5 -1.5 -1.5 -1.5 -1.5 -1.5 -1.5 -1.5 -1.5 -1.5 -1.5 -1.5 -1.5 -1.5 -1.5 -1.5 -1.5 -1.5 -1.5 -1.5 -1.5 -1.5 -1.5 -1.5 -1.5 -1.5 -1.5 -1.5 -1.5 -1.5 -1.5 -1.5 -1.5 -1.5 -1.5 -1.5 -1.5 -1.5 -1.5 -1.5 -1.5 -1.5 -1.5 -1.5 -1.5 -1.5 -1.5 -1.5 -1.5 -1.5 -1.5 -1.5 -1.5 -1.5 -1.5 -1.5 -1.5 -1.5 -1.5 -1.5 -1.5 -1.5 -1.5 -1.5 -1.5 -1.5 -1.5 -1.5 -1.5 -1.5 -1.5 -1.5 -1.5 -1.5 -1.5 -1.5 -1.5 -1.5 -1.5 -1.5 -1.5 -1.5 -1.5 -1.5 -1.5 -1.5 -1.5 -1.5 -1.5 -1.5 -1.5 -1.5 -1.5 -1.5 -1.5 -1.5 -1.5 -1.5 -1.5 -1.5 26 68.6 69.5 61.5 46.9 42.1 38.5 38.4 29.5 11.9 3.2 2.5 -1.5 -1.5 -1.5 -1.5 -1.5 -1.5 -1.5 -1.5 -1.5 -1.5 -1.5 -1.5 1.7 3.2 9.1 13.1 13.7 28 38.2 45.7 60.9 74.7 75.5 70.3 43.3 38.3 44.6 45.6 17.4 -1.5 -1.5 -1.5 -1.5 -1.5 -1.5 -1.5 -1.5 -1.5 -1.5 -1.5 -1.5 -1.5 -1.5 -1.5 -1.5 -1.5 -1.5 -1.5 -1.5 -1.5 -1.5 -1.5 -1.5 -1.5 -1.5 -1.5 -1.5 -1.5 -1.5 -1.5 -1.5 -1.5 -1.5 -1.5 -1.5 -1.5 -1.5 -1.5 -1.5 -1.5 -1.5 -1.5 -1.5 -1.5
-1.5 -1.5 -1.5 -1.5 -1.5 -1.5 -1.5 -1.5 -1.5 -1.5 -1.5 -1.5 -1.5 -1.5 -1.5 -1.5 -1.5 -1.5 -1.5 -1.5 -1.5 -1.5 -1.5 -1.5 -1.5 -1.5 -1.5 -1.5 -1.5 -1.5 -1.5 -1.5 -1.5 -1.5 -1.5 -1.5 -1.5 -1.5 -1.5 -1.5 -1.5 -1.5 -1.5 -1.5 -1.5 -1.5 -1.5 -1.5 -1.5 -1.5 -1.5 -1.5 -1.5 -1.5 -1.5 -1.5 -1.5 -1.5 -1.5 -1.5 -1.5 -1.5 -1.5 -1.5 -1.5 -1.5 -1.5 -1.5 -1.5 -1.5 -1.5 -1.5 -1.5 -1.5 -1.5 -1.5 -1.5 -1.5 -1.5 -1.5 -1.5 -1.5 -1.5 -1.5 -1.5 -1.5 -1.5 -1.5 -1.5 -1.5 -1.5 -1.5 -1.5 -1.5 -1.5 -1.5 -1.5 -1.5 -1.5 -1.5 -1.5 -1.5 -1.5 -1.5 -1.5 -1.5 -1.5 -1.5 -1.5 -1.5 -1.5 -1.5 -1.5 7.8 61.1 73.6 78.4 74.1 63.7 53.9 49.4 43.2 38.4 26 10 6.5 3.9 -1.5 0.9 2.1 -1.5 -1.5 -1.5 -1.5 -1.5 -1.5 -1.5 -1.5 4.3 18.8 19.6 15.7 14.8 23.8 37.9 46.4 58.7 72.2 80.7 75.6 58.1 37.7 42.9 45.4 27.7 -1.5 -1.5 -1.5 -1.5 -1.5 -1.5 -1.5 -1.5 -1.5 -1.5 -1.5 -1.5 -1.5 -1.5 -1.5 -1.5 -1.5 -1.5 -1.5 -1.5 -1.5 -1.5 -1.5 -1.5 -1.5 -1.5 -1.5 -1.5 -1.5 -1.5 -1.5 -1.5 -1.5 -1.5 -1.5 -1.5 -1.5 -1.5 -1.5 -1.5 -1.5 -1.5 -1.5 -1.5 -1.5
-1.5 -1.5 -1.5 -1.5 -1.5 -1.5 -1.5 -1.5 -1.5 -1.5 -1.5 -1.5 -1.5 -1.5 -1.5 -1.5 -1.5 -1.5 -1.5 -1.5 -1.5 -1.5 -1.5 -1.5 -1.5 -1.5 -1.5 -1.5 -1.5 -1.5 -1.5 -1.5 -1.5 -1.5 -1.5 -1.5 -1.5 -1.5 -1.5 -1.5 -1.5 -1.5 -1.5 -1.5 -1.5 -1.5 -1.5 -1.5 -1.5 -1.5 -1.5 -1.5 -1.5 -1.5 -1.5 -1.5 -1.5 -1.5 -1.5 -1.5 -1.5 -1.5 -1.5 -1.5 -1.5 -1.5 -1.5 -1.5 -1.5 -1.5 -1.5 -1.5 -1.5 -1.5 -1.5 -1.5 -1.5 -1.5 -1.5 -1.5 -1.5 -1.5 -1.5 -1.5 -1.5 -1.5 -1.5 -1.5 -1.5 -1.5 -1.5 -1.5 -1.5 -1.5 -1.5 -1.5 -1.5 -1.5 -1.5 -1.5 -1.5 -1.5 -1.5 -1.5 -1.5 -1.5 -1.5 -1.5 -1.5 -1.5 -1.5 -1.5 2.4 50.9 66.7 76.5 85.8 81.5 73.8 69.3 64.5 60.5 44.2 35.5 27.8 11.9 8.7 6.1 8 8.9 7.7 1.9 -1.5 -1.5 4.8 1.9 -1.5 3.8 15.3 21.4 31.2 29.2 25.3 18.4 34.9 47 66.2 72.3 77.2 75.1 65.7 44 42.9 44.8 25.2 -1.5 -1.5 -1.5 -1.5 -1.5 -1.5 -1.5 -1.5 -1.5 -1.5 -1.5 -1.5 -1.5 -1.5 -1.5 -1.5 -1.5 -1.5 -1.5 -1.5 -1.5 -1.5 -1.5 -1.5 -1.5 -1.5 -1.5 -1.5 -1.5 -1.5 -1.5 -1.5 -1.5 -1.5 -1.5 -1.5 -1.5 -1.5 -1.5 -1.5 -1.5 -1.5 -1.5 -1.5 -1.5
-1.5 -1.5 -1.5 -1.5 -1.5 -1.5 -1.5 -1.5 -1.5 -1.5 -1.5 -1.5 -1.5 -1.5 -1.5 -1.5 -1.5 -1.5 -1.5 -1.5 -1.5 -1.5 -1.5 -1.5 -1.5 -1.5 -1.5 -1.5 -1.5 -1.5 -1.5 -1.5 -1.5 -1.5 -1.5 -1.5 -1.5 -1.5 -1.5 -1.5 -1.5 -1.5 -1.5 -1.5 -1.5 -1.5 -1.5 -1.5 -1.5 -1.5 -1.5 -1.5 -1.5 -1.5 -1.5 -1.5 -1.5 -1.5 -1.5 -1.5 -1.5 -1.5 -1.5 -1.5 -1.5 -1.5 -1.5 -1.5 -1.5 -1.5 -1.5 -1.5 -1.5 -1.5 -1.5 -1.5 -1.5 -1.5 -1.5 -1.5 -1.5 -1.5 -1.5 -1.5 -1.5 -1.5 -1.5 -1.5 -1.5 -1.5 -1.5 -1.5 -1.5 -1.5 -1.5 -1.5 -1.5 -1.5 -1.5 -1.5 -1.5 -1.5 -1.5 -1.5 -1.5 -1.5 -1.5 -1.5 -1.5 -1.5 -1.5 -1.5 11.6 58.1 65.5 76.5 95.5 95.1 80.4 76.2 74.7 69.1 61.5 46.2 36.3 24.4 16.6 12.7 12.8 11.8 12.9 13 4.2 2.2 5.9 6.8 9.8 9.3 20.9 21.7 28.9 33.2 34.6 28.2 26.7 42.1 57.8 73.8 77.7 80.1 80.4 55.3 47.3 47 37.8 -1.5 -1.5 -1.5 -1.5 -1.5 -1.5 -1.5 -1.5 -1.5 -1.5 -1.5 -1.5 -1.5 -1.5 -1.5 -1.5 -1.5 -1.5 -1.5 -1.5 -1.5 -1.5 -1.5 -1.5 -1.5 -1.5 -1.5 -1.5 -1.5 -1.5 -1.5 -1.5 -1.5 -1.5 -1.5 -1.5 -1.5 -1.5 -1.5 -1.5 -1.5 -1.5 -1.5 -1.5 -1.5
-1.5 -1.5 -1.5 -1.5 -1.5 -1.5 -1.5 -1.5 -1.5 -1.5 -1.5 -1.5 -1.5 -1.5 -1.5 -1.5 -1.5 -1.5 -1.5 -1.5 -1.5 -1.5 -1.5 -1.5 -1.5 -1.5 -1.5 -1.5 -1.5 -1.5 -1.5 -1.5 -1.5 -1.5 -1.5 -1.5 -1.5 -1.5 -1.5 -1.5 -1.5 -1.5 -1.5 -1.5 -1.5 -1.5 -1.5 -1.5 -1.5 -1.5 -1.5 -1.5 -1.5 -1.5 -1.5 -1.5 -1.5 -1.5 -1.5 -1.5 -1.5 -1.5 -1.5 -1.5 -1.5 -1.5 -1.5 -1.5 -1.5 -1.5 -1.5 -1.5 -1.5 -1.5 -1.5 -1.5 -1.5 -1.5 -1.5 -1.5 -1.5 -1.5 -1.5 -1.5 -1.5 -1.5 -1.5 -1.5 -1.5 -1.5 -1.5 -1.5 -1.5 -1.5 -1.5 -1.5 -1.5 -1.5 -1.5 -1.5 -1.5 -1.5 -1.5 -1.5 -1.5 -1.5 -1.5 -1.5 -1.5 -1.5 3.9 25.5 55.7 72.4 76.9 75.3 91.6 97.9 90.1 82.7 83 79.3 73.3 60.8 44.7 35.2 30.9 25.2 16 15.4 15.3 15.4 16 8.5 8.5 12 9.7 18.8 24.9 27.1 30.4 33.3 37.3 40.2 31.6 47.2 56.7 64 77.7 77.8 81.1 68.5 60.7 44.4 14.7 -1.5 -1.5 -1.5 -1.5 -1.5 -1.5 -1.5 -1.5 -1.5 -1.5 -1.5 -1.5 -1.5 -1.5 -1.5 -1.5 -1.5 -1.5 -1.5 -1.5 -1.5 -1.5 -1.5 -1.5 -1.5 -1.5 -1.5 -1.5 -1.5 -1.5 -1.5 -1.5 -1.5 -1.5 -1.5 -1.5 -1.5 -1.5 -1.5 -1.5 -1.5 -1.5 -1.5 -1.5 -1.5
-1.5 -1.5 -1.5 -1.5 -1.5 -1.5 -1.5 -1.5 -1.5 -1.5 -1.5 -1.5 -1.5 -1.5 -1.5 -1.5 -1.5 -1.5 -1.5 -1.5 -1.5 -1.5 -1.5 -1.5 -1.5 -1.5 -1.5 -1.5 -1.5 -1.5 -1.5 -1.5 -1.5 -1.5 -1.5 -1.5 -1.5 -1.5 -1.5 -1.5 -1.5 -1.5 -1.5 -1.5 -1.5 -1.5 -1.5 -1.5 -1.5 -1.5 -1.5 -1.5 -1.5 -1.5 -1.5 -1.5 -1.5 -1.5 -1.5 -1.5 -1.5 -1.5 -1.5 -1.5 -1.5 -1.5 -1.5 -1.5 -1.5 -1.5 -1.5 -1.5 -1.5 -1.5 -1.5 -1.5 -1.5 -1.5 -1.5 -1.5 -1.5 -1.5 -1.5 -1.5 -1.5 -1.5 -1.5 -1.5 -1.5 -1.5 -1.5 -1.5 -1.5 -1.5 -1.5 -1.5 -1.5 -1.5 -1.5 -1.5 -1.5 -1.5 -1.5 -1.5 -1.5 -1.5 -1.5 33 26 18.3 49.8 64.6 65 78.8 84.6 85 82 97.6 97.1 91.8 88.6 84.4 81 73.3 62.6 47.2 30.6 34.2 26.7 18.7 20.2 16.4 16 13.2 11.5 14.1 15.9 13.6 23.3 27.6 30 39.1 42.8 48.6 41.1 45 65.8 70.5 68 77.8 78.1 74.2 63.3 33.4 -1.5 -1.5 -1.5 -1.5 -1.5 -1.5 -1.5 -1.5 -1.5 -1.5 -1.5 -1.5 -1.5 -1.5 -1.5 -1.5 -1.5 -1.5 -1.5 -1.5 -1.5 -1.5 -1.5 -1.5 -1.5 -1.5 -1.5 -1.5 -1.5 -1.5 -1.5 -1.5 -1.5 -1.5 -1.5 -1.5 -1.5 -1.5 -1.5 -1.5 -1.5 -1.5 -1.5 -1.5 -1.5 -1.5
-1.5 -1.5 -1.5 -1.5 -1.5 -1.5 -1.5 -1.5 -1.5 -1.5 -1.5 -1.5 -1.5 -1.5 -1.5 -1.5 -1.5 -1.5 -1.5 -1.5 -1.5 -1.5 -1.5 -1.5 -1.5 -1.5 -1.5 -1.5 -1.5 -1.5 -1.5 -1.5 -1.5 -1.5 -1.5 -1.5 -1.5 -1.5 -1.5 -1.5 -1.5 -1.5 -1.5 -1.5 -1.5 -1.5 -1.5 -1.5 -1.5 -1.5 -1.5 -1.5 -1.5 -1.5 -1.5 -1.5 -1.5 -1.5 -1.5 -1.5 -1.5 -1.5 -1.5 -1.5 -1.5 -1.5 -1.5 -1.5 -1.5 -1.5 -1.5 -1.5 -1.5 -1.5 -1.5 -1.5 -1.5 -1.5 -1.5 -1.5 -1.5 -1.5 -1.5 -1.5 -1.5 -1.5 -1.5 -1.5 -1.5 -1.5 -1.5 -1.5 -1.5 -1.5 -1.5 -1.5 -1.5 -1.5 -1.5 -1.5 -1.5 -1.5 -1.5 -1.5 -1.5 -1.5 24.8 69.6 68.4 56.4 53.2 78.7 85.1 79.6 94.9 96.3 95 91 98 102 101.1 92.5 84.5 80.1 71.5 61 37.3 41.6 38.4 33 22.9 24.2 21.8 22 17 15.8 17.9 20.2 16.4 24.6 29.8 39.1 43 51.2 56.1 44.8 59.5 77.1 82.1 78.5 77.2 75.5 65.8 21.1 -1.5 -1.5 -1.5 -1.5 -1.5 -1.5 -1.5 -1.5 -1.5 -1.5 -1.5 -1.5 -1.5 -1.5 -1.5 -1.5 -1.5 -1.5 -1.5 -1.5 -1.5 -1.5 -1.5 -1.5 -1.5 -1.5 -1.5 -1.5 -1.5 -1.5 -1.5 -1.5 -1.5 -1.5 -1.5 -1.5 -1.5 -1.5 -1.5 -1.5 -1.5 -1.5 -1.5 -1.5 -1.5 -1.5
-1.5 -1.5 -1.5 -1.5 -1.5 -1.5 -1.5 -1.5 -1.5 -1.5 -1.5 -1.5 -1.5 -1.5 -1.5 -1.5 -1.5 -1.5 -1.5 -1.5 -1.5 -1.5 -1.5 -1.5 -1.5 -1.5 -1.5 -1.5 -1.5 -1.5 -1.5 -1.5 -1.5 -1.5 -1.5 -1.5 -1.5 -1.5 -1.5 -1.5 -1.5 -1.5 -1.5 -1.5 -1.5 -1.5 -1.5 -1.5 -1.5 -1.5 -1.5 -1.5 -1.5 -1.5 -1.5 -1.5 -1.5 -1.5 -1.5 -1.5 -1.5 -1.5 -1.5 -1.5 -1.5 -1.5 -1.5 -1.5 -1.5 -1.5 -1.5 -1.5 -1.5 -1.5 -1.5 -1.5 -1.5 -1.5 -1.5 -1.5 -1.5 -1.5 -1.5 -1.5 -1.5 -1.5 -1.5 -1.5 -1.5 -1.5 -1.5 -1.5 -1.5 -1.5 -1.5 -1.5 -1.5 -1.5 -1.5 -1.5 -1.5 -1.5 -1.5 -1.5 -1.5 24.6 61.1 76.5 75.3 63.6 56.8 82.8 90.3 89.8 95.4 112.9 110.4 102 99.8 105.9 103.5 99 88.1 85 77.3 68.3 53.7 58.7 53.6 44.8 33.4 32.6 39.2 26 21.5 18.1 19.9 21.2 26.4 17.2 22.9 35.5 40.4 49.6 56.7 58.1 53.6 74.4 87.3 92.3 85.2 72.6 55.9 12.7 -1.5 -1.5 -1.5 -1.5 -1.5 -1.5 -1.5 -1.5 -1.5 -1.5 -1.5 -1.5 -1.5 -1.5 -1.5 -1.5 -1.5 -1.5 -1.5 -1.5 -1.5 -1.5 -1.5 -1.5 -1.5 -1.5 -1.5 -1.5 -1.5 -1.5 -1.5 -1.5 -1.5 -1.5 -1.5 -1.5 -1.5 -1.5 -1.5 -1.5 -1.5 -1.5 -1.5 -1.5 -1.5 -1.5
-1.5 -1.5 -1.5 -1.5 -1.5 -1.5 -1.5 -1.5 -1.5 -1.5 -1.5 -1.5 -1.5 -1.5 -1.5 -1.5 -1.5 -1.5 -1.5 -1.5 -1.5 -1.5 -1.5 -1.5 -1.5 -1.5 -1.5 -1.5 -1.5 -1.5 -1.5 -1.5 -1.5 -1.5 -1.5 -1.5 -1.5 -1.5 -1.5 -1.5 -1.5 -1.5 -1.5 -1.5 -1.5 -1.5 -1.5 -1.5 -1.5 -1.5 -1.5 -1.5 -1.5 -1.5 -1.5 -1.5 -1.5 -1.5 -1.5 -1.5 -1.5 -1.5 -1.5 -1.5 -1.5 -1.5 -1.5 -1.5 -1.5 -1.5 -1.5 -1.5 -1.5 -1.5 -1.5 -1.5 -1.5 -1.5 -1.5 -1.5 -1.5 -1.5 -1.5 -1.5 -1.5 -1.5 -1.5 -1.5 -1.5 -1.5 -1.5 -1.5 -1.5 -1.5 -1.5 -1.5 -1.5 -1.5 -1.5 -1.5 -1.5 -1.5 -1.5 1.2 4.4 49.1 73.3 75.7 76.9 60.2 58.3 80.4 103.4 95.9 95.3 113.4 123.4 117 109.7 109.7 109.6 102.7 93.2 88.9 83 75.3 66.5 55 64.4 54.6 44.6 34.3 41.4 40.5 31.9 22.5 22.7 25.9 25.1 25.2 19.5 22 37.4 45.5 52.4 64.1 55.9 71 85.6 95.5 100.5 85.3 40.5 8 -1.5 -1.5 -1.5 -1.5 -1.5 -1.5 -1.5 -1.5 -1.5 -1.5 -1.5 -1.5 -1.5 -1.5 -1.5 -1.5 -1.5 -1.5 -1.5 -1.5 -1.5 -1.5 -1.5 -1.5 -1.5 -1.5 -1.5 -1.5 -1.5 -1.5 -1.5 -1.5 -1.5 -1.5 -1.5 -1.5 -1.5 -1.5 -1.5 -1.5 -1.5 -1.5 -1.5 -1.5 -1.5 -1.5
-1.5 -1.5 -1.5 -1.5 -1.5 -1.5 -1.5 -1.5 -1.5 -1.5 -1.5 -1.5 -1.5 -1.5 -1.5 -1.5 -1.5 -1.5 -1.5 -1.5 -1.5 -1.5 -1.5 -1.5 -1.5 -1.5 -1.5 -1.5 -1.5 -1.5 -1.5 -1.5 -1.5 -1.5 -1.5 -1.5 -1.5 -1.5 -1.5 -1.5 -1.5 -1.5 -1.5 -1.5 -1.5 -1.5 -1.5 -1.5 -1.5 -1.5 -1.5 -1.5 -1.5 -1.5 -1.5 -1.5 -1.5 -1.5 -1.5 -1.5 -1.5 -1.5 -1.5 -1.5 -1.5 -1.5 -1.5 -1.5 -1.5 -1.5 -1.5 -1.5 -1.5 -1.5 -1.5 -1.5 -1.5 -1.5 -1.5 -1.5 -1.5 -1.5 -1.5 -1.5 -1.5 -1.5 -1.5 -1.5 -1.5 -1.5 -1.5 -1.5 -1.5 -1.5 -1.5 -1.5 -1.5 -1.5 -1.5 -1.5 -1.5 -1.5 1.8 6.2 37 76.6 80.6 78.3 73.2 61.3 70.9 76.7 103.2 110.8 104.8 115.6 126.4 121.4 118.7 117.3 115.6 106.1 102 93.7 88.9 85.7 81.2 61.7 71.1 67.9 56.3 43.7 45.4 42.7 41.1 34.8 28.5 28.5 28.8 28.4 25.5 24 23.9 37.5 48.5 56 61.2 66.6 80.1 98.9 101.4 94.4 45.2 7.5 -1.5 -1.5 -1.5 -1.5 -1.5 -1.5 -1.5 -1.5 -1.5 -1.5 -1.5 -1.5 -1.5 -1.5 -1.5 -1.5 -1.5 -1.5 -1.5 -1.5 -1.5 -1.5 -1.5 -1.5 -1.5 -1.5 -1.5 -1.5 -1.5 -1.5 -1.5 -1.5 -1.5 -1.5 -1.5 -1.5 -1.5 -1.5 -1.5 -1.5 -1.5 -1.5 -1.5 -1.5 -1.5 -1.5
-1.5 -1.5 -1.5 -1.5 -1.5 -1.5 -1.5 -1.5 -1.5 -1.5 -1.5 -1.5 -1.5 -1.5 -1.5 -1.5 -1.5 -1.5 -1.5 -1.5 -1.5 -1.5 -1.5 -1.5 -1.5 -1.5 -1.5 -1.5 -1.5 -1.5 -1.5 -1.5 -1.5 -1.5 -1.5 -1.5 -1.5 -1.5 -1.5 -1.5 -1.5 -1.5 -1.5 -1.5 -1.5 -1.5 -1.5 -1.5 -1.5 -1.5 -1.5 -1.5 -1.5 -1.5 -1.5 -1.5 -1.5 -1.5 -1.5 -1.5 -1.5 -1.5 -1.5 -1.5 -1.5 -1.5 -1.5 -1.5 -1.5 -1.5 -1.5 -1.5 -1.5 -1.5 -1.5 -1.5 -1.5 -1.5 -1.5 -1.5 -1.5 -1.5 -1.5 -1.5 -1.5 -1.5 -1.5 -1.5 -1.5 -1.5 -1.5 -1.5 -1.5 -1.5 -1.5 -1.5 -1.5 -1.5 -1.5 -1.5 -1.5 -1.5 6 40.4 65.3 82.3 85.9 81.7 72 69.7 80.4 81.1 102.7 120.5 117.4 113 125.7 126.5 124.8 119.7 128 116.9 110.1 103.2 94.6 94.3 89.6 79.4 78.2 74.5 64.6 55.7 45.4 52.7 50.8 46.2 39.5 40.7 35.5 33.8 30.2 26.9 32.2 36.2 34.6 52.2 58 62.1 79.1 88.2 104.5 99.8 44.5 8.3 -1.5 -1.5 -1.5 -1.5 -1.5 -1.5 -1.5 -1.5 -1.5 -1.5 -1.5 -1.5 -1.5 -1.5 -1.5 -1.5 -1.5 -1.5 -1.5 -1.5 -1.5 -1.5 -1.5 -1.5 -1.5 -1.5 -1.5 -1.5 -1.5 -1.5 -1.5 -1.5 -1.5 -1.5 -1.5 -1.5 -1.5 -1.5 -1.5 -1.5 -1.5 -1.5 -1.5 -1.5 -1.5 -1.5
-1.5 -1.5 -1.5 -1.5 -1.5 -1.5 -1.5 -1.5 -1.5 -1.5 -1.5 -1.5 -1.5 -1.5 -1.5 -1.5 -1.5 -1.5 -1.5 -1.5 -1.5 -1.5 -1.5 -1.5 -1.5 -1.5 -1.5 -1.5 -1.5 -1.5 -1.5 -1.5 -1.5 -1.5 -1.5 -1.5 -1.5 -1.5 -1.5 -1.5 -1.5 -1.5 -1.5 -1.5 -1.5 -1.5 -1.5 -1.5 -1.5 -1.5 -1.5 -1.5 -1.5 -1.5 -1.5 -1.5 -1.5 -1.5 -1.5 -1.5 -1.5 -1.5 -1.5 -1.5 -1.5 -1.5 -1.5 -1.5 -1.5 -1.5 -1.5 -1.5 -1.5 -1.5 -1.5 -1.5 -1.5 -1.5 -1.5 -1.5 -1.5 -1.5 -1.5 -1.5 -1.5 -1.5 -1.5 -1.5 -1.5 -1.5 -1.5 -1.5 -1.5 -1.5 -1.5 -1.5 2 4.3 2.5 2.3 3.5 11.6 9.1 54.3 68.8 81.8 85.1 77.5 79.5 76.1 86 97.9 98.7 115 121.7 117.9 125.9 126.8 128.7 124.3 129.9 133.2 128.3 114.3 103.3 100.6 95 89.6 77.9 88 73.3 62.6 55.4 61 61.3 57.1 46.9 51.7 45.9 42.9 38.7 32.5 33.1 43.9 50 42.8 54.2 61 70.4 84.5 104.3 102.2 46.1 9.4 -1.5 -1.5 -1.5 -1.5 -1.5 -1.5 -1.5 -1.5 -1.5 -1.5 -1.5 -1.5 -1.5 -1.5 -1.5 -1.5 -1.5 -1.5 -1.5 -1.5 -1.5 -1.5 -1.5 -1.5 -1.5 -1.5 -1.5 -1.5 -1.5 -1.5 -1.5 -1.5 -1.5 -1.5 -1.5 -1.5 -1.5 -1.5 -1.5 -1.5 -1.5 -1.5 -1.5 -1.5 -1.5 -1.5
-1.5 -1.5 -1.5 -1.5 -1.5 -1.5 -1.5 -1.5 -1.5 -1.5 -1.5 -1.5 -1.5 -1.5 -1.5 -1.5 -1.5 -1.5 -1.5 -1.5 -1.5 -1.5 -1.5 -1.5 -1.5 -1.5 -1.5 -1.5 -1.5 -1.5 -1.5 -1.5 -1.5 -1.5 -1.5 -1.5 -1.5 -1.5 -1.5 -1.5 -1.5 -1.5 -1.5 -1.5 -1.5 -1.5 -1.5 -1.5 -1.5 -1.5 -1.5 -1.5 -1.5 -1.5 -1.5 -1.5 -1.5 -1.5 -1.5 -1.5 -1.5 -1.5 -1.5 -1.5 -1.5 -1.5 -1.5 -1.5 -1.5 -1.5 -1.5 -1.5 -1.5 -1.5 -1.5 -1.5 -1.5 -1.5 -1.5 -1.5 -1.5 -1.5 -1.5 -1.5 -1.5 -1.5 -1.5 -1.5 -1.5 -1.5 -1.5 -1.5 -1.5 -1.5 -1.5 2.2 26.5 39.6 57.7 64.6 54.2 42.6 31.3 53.3 75.8 80.4 80.1 72.3 82.6 82.3 84.5 98.1 100.8 111.6 123.3 124 119.8 125.8 127.3 130.8 127.8 135.9 137.4 135.6 118.7 105.6 102.3 96.5 88 97.2 83.7 69.9 62.5 58.9 70.5 67.3 58.5 60.3 56.1 49.6 48.3 39.6 34.5 41.6 53.2 53.7 51.8 59.6 66.8 80.7 95.3 100.5 42.7 10 -1.5 -1.5 -1.5 -1.5 -1.5 -1.5 -1.5 -1.5 -1.5 -1.5 -1.5 -1.5 -1.5 -1.5 -1.5 -1.5 -1.5 -1.5 -1.5 -1.5 -1.5 -1.5 -1.5 -1.5 -1.5 -1.5 -1.5 -1.5 -1.5 -1.5 -1.5 -1.5 -1.5 -1.5 -1.5 -1.5 -1.5 -1.5 -1.5 -1.5 -1.5 -1.5 -1.5 -1.5 -1.5 -1.5
-1.5 -1.5 -1.5 -1.5 -1.5 -1.5 -1.5 -1.5 -1.5 -1.5 -1.5 -1.5 -1.5 -1.5 -1.5 -1.5 -1.5 -1.5 -1.5 -1.5 -1.5 -1.5 -1.5 -1.5 -1.5 -1.5 -1.5 -1.5 -1.5 -1.5 -1.5 -1.5 -1.5 -1.5 -1.5 -1.5 -1.5 -1.5 -1.5 -1.5 -1.5 -1.5 -1.5 -1.5 -1.5 -1.5 -1.5 -1.5 -1.5 -1.5 -1.5 -1.5 -1.5 -1.5 -1.5 -1.5 -1.5 -1.5 -1.5 -1.5 -1.5 -1.5 -1.5 -1.5 -1.2 -1.5 -1.5 -1.5 -1.5 -1.5 -1.5 -1.5 -1.5 -1.5 -1.5 -1.5 -1.5 -1.5 -1.5 -1.5 -1.5 -1.5 -1.5 -1.5 -1.5 -1.5 -1.5 -1.5 -1.5 -1.5 -1.5 -1.5 -1.5 -1.5 1.9 8.1 34.4 44.8 67.5 73.3 73.2 63.1 55.1 37.6 64.2 71.9 70.5 72.9 83.7 87.4 88.6 92.9 98.8 106.2 124.1 127.1 127.3 125.6 129.9 132.4 133.5 137.7 141.4 142.1 138.5 117.4 107.2 106.4 101.1 102.7 101.4 80.5 68.9 57.1 72 74.2 66.7 63 63.5 58.1 53.6 49.7 40 43.8 52.8 58.8 53.4 59.6 65.3 76.2 89.5 101.7 48.8 18.9 -1.5 -1.5 -1.5 -1.5 -1.5 -1.5 -1.5 -1.5 -1.5 -1.5 -1.5 -1.5 -1.5 -1.5 -1.5 -1.5 -1.5 -1.5 -1.5 -1.5 -1.5 -1.5 -1.5 -1.5 -1.5 -1.5 -1.5 -1.5 -1.5 -1.5 -1.5 -1.5 -1.5 -1.5 -1.5 -1.5 -1.5 -1.5 -1.5 -1.5 -1.5 -1.5 -1.5 -1.5 -1.5 -1.5
-1.5 -1.5 -1.5 -1.5 -1.5 -1.5 -1.5 -1.5 -1.5 -1.5 -1.5 -1.5 -1.5 -1.5 -1.5 -1.5 -1.5 -1.5 -1.5 -1.5 -1.5 -1.5 -1.5 -1.5 -1.5 -1.5 -1.5 -1.5 -1.5 -1.5 -1.5 -1.5 -1.5 -1.5 -1.5 -1.5 -1.5 -1.5 -1.5 -1.5 -1.5 -1.5 -1.5 -1.5 -1.5 -1.5 -1.5 -1.5 -1.5 -1.5 -1.5 -1.5 -1.5 -1.5 -1.5 -1.5 -1.5 -1.5 -1.5 -1.5 -1.5 -1.5 -1.5 -1.5 15.7 12.7 -1.5 -1.5 -1.5 -1.5 -1.5 -1.5 -1.5 -1.5 -1.5 -1.5 -1.5 -1.5 -1.5 -1.5 -1.5 -1.5 -1.5 -1.5 -1.5 -1.5 -1.5 -1.5 -1.5 -1.5 -1.5 -1.5 -1.5 2.2 4 27.6 37.3 47.6 67.5 75.1 74.6 75.2 74.2 57.9 51.2 58.7 60.2 76.3 92.1 97 94.1 91.3 101.5 114 121 131.9 140.6 130.1 131.5 133.3 135.4 138 144.1 152.6 144 139.8 119.3 114.9 110.8 104.5 116.2 103.6 81.8 68.4 68.3 76.4 73.1 68.9 72.3 64 60.8 55.5 50.9 45.3 58.5 61.1 62.4 60.5 66.1 74.8 80.8 97.7 72.2 37.8 7.8 -1.5 -1.5 -1.5 -1.5 -1.5 -1.5 -1.5 -1.5 -1.5 -1.5 -1.5 -1.5 -1.5 -1.5 -1.5 -1.5 -1.5 -1.5 -1.5 -1.5 -1.5 -1.5 -1.5 -1.5 -1.5 -1.5 -1.5 -1.5 -1.5 -1.5 -1.5 -1.5 -1.5 -1.5 -1.5 -1.5 -1.5 -1.5 -1.5 -1.5 -1.5 -1.5 -1.5 -1.5 -1.5
-1.5 -1.5 -1.5 -1.5 -1.5 -1.5 -1.5 -1.5 -1.5 -1.5 -1.5 -1.5 -1.5 -1.5 -1.5 -1.5 -1.5 -1.5 -1.5 -1.5 -1.5 -1.5 -1.5 -1.5 -1.5 -1.5 -1.5 -1.5 -1.5 -1.5 -1.5 -1.5 -1.5 -1.5 -1.5 -1.5 -1.5 -1.5 -1.5 -1.5 -1.5 -1.5 -1.5 -1.5 -1.5 -1.5 -1.5 -1.5 -1.5 -1.5 -1.5 -1.5 -1.5 -1.5 -1.5 -1.5 -1.5 -1.5 -1.5 -1.5 2.2 2.8 8.6 2.9 20.7 25 -1.5 -1.5 -1.5 -1.5 -1.5 -1.5 -1.5 -1.5 -1.5 -1.5 -1.5 -1.5 -1.5 -1.5 -1.5 -1.5 -1.5 -1.5 -1.5 -1.5 -1.5 -1.5 -1.5 -1.5 -1.5 -1.5 -1.5 1.9 13 32.1 45.4 64.3 76 81.1 77.5 77.3 79 77.1 55.4 48.5 61.2 80.9 97.8 102.4 104.8 103.8 108.1 118.1 121.1 130.9 140.8 139.1 131.7 133.6 135.5 139.1 152.3 157 152.7 145.5 132.3 126.3 121.3 111.6 123.8 117.9 101.8 81.9 66.2 75.2 76.8 72.4 78.3 74 67.3 62.8 59.3 47.9 55.4 64.1 66.2 59.9 68.1 77.8 82.1 89.4 102.3 65.1 32.6 10.1 -1.5 -1.5 -1.5 -1.5 -1.5 -1.5 -1.5 -1.5 -1.5 -1.5 -1.5 -1.5 -1.5 -1.5 -1.5 -1.5 -1.5 -1.5 -1.5 -1.5 -1.5 -1.5 -1.5 -1.5 -1.5 -1.5 -1.5 -1.5 -1.5 -1.5 -1.5 -1.5 -1.5 -1.5 -1.5 -1.5 -1.5 -1.5 -1.5 -1.5 -1.5 -1.5 -1.5 -1.5
-1.5 -1.5 -1.5 -1.5 -1.5 -1.5 -1.5 -1.5 -1.5 -1.5 -1.5 -1.5 -1.5 -1.5 -1.5 -1.5 -1.5 -1.5 -1.5 -1.5 -1.5 -1.5 -1.5 -1.5 -1.5 -1.5 -1.5 -1.5 -1.5 -1.5 -1.5 -1.5 -1.5 -1.5 -1.5 -1.5 -1.5 -1.5 -1.5 -1.5 -1.5 -1.5 -1.5 -1.5 -1.5 -1.5 -1.5 -1.5 -1.5 -1.5 -1.5 -1.5 -1.5 -1.5 -1.5 -1.5 -1.5 2.2 5.4 3 3.2 11.1 17.9 18.7 16.6 31.9 34.7 -1.5 -1.5 -1.5 -1.5 -1.5 -1.5 -1.5 -1.5 -1.5 -1.5 -1.5 -1.5 -1.5 -1.5 -1.5 -1.5 -1.5 -1.5 -1.5 -1.5 -1.5 -1.5 -1.5 -1.5 -1.5 -1.5 1.8 7.7 40.6 49.4 67.8 80.3 84.9 85.4 88.2 86.5 81.5 73.1 53.3 62.9 85.1 101.1 110.4 113.1 115.2 116.3 119.9 125 125.9 141.3 144.6 138.1 134.1 136 139.1 146.7 167.1 169.4 160.1 144.9 138.2 137.7 124 120.7 138.3 113.9 99 77.9 67.1 77.1 78.1 76 81.5 80.3 73.7 67.6 56.6 52.2 66.3 71.2 70.1 68.3 79.4 85.5 87.9 102.4 104.7 64.5 29.6 3.2 -1.5 -1.5 -1.5 -1.5 -1.5 -1.5 -1.5 -1.5 -1.5 -1.5 -1.5 -1.5 -1.5 -1.5 -1.5 -1.5 -1.5 -1.5 -1.5 -1.5 -1.5 -1.5 -1.5 -1.5 -1.5 -1.5 -1.5 -1.5 -1.5 -1.5 -1.5 -1.5 -1.5 -1.5 -1.5 -1.5 -1.5 -1.5 -1.5 -1.5 -1.5 -1.5 -1.5
-1.5 -1.5 -1.5 -1.5 -1.5 -1.5 -1.5 -1.5 -1.5 -1.5 -1.5 -1.5 -1.5 -1.5 -1.5 -1.5 -1.5 -1.5 -1.5 -1.5 -1.5 -1.5 -1.5 -1.5 -1.5 -1.5 -1.5 -1.5 -1.5 -1.5 -1.5 -1.5 -1.5 -1.5 -1.5 -1.5 -1.5 -1.5 -1.5 -1.5 -1.5 -1.5 -1.5 -1.5 -1.5 -1.5 -1.5 -1.5 -1.5 -1.5 -1.5 -1.5 -1.5 1 6 9 2.8 4.6 10.1 10 10 17.2 19.6 20.9 27.8 31 41.6 44.4 29 -1.5 -1.5 -1.5 -1.5 -1.5 -1.5 -1.5 -1.5 -1.5 -1.5 -1.5 -1.5 -1.5 -1.5 -1.5 -1.5 -1.5 -1.5 -1.5 -1.5 -1.5 -1.5 -1.5 -1.5 -1.5 14.2 53.4 53.2 67 67.8 85.7 91.8 92.4 94.8 88.6 75 60.7 59.8 72.8 100 110.6 116.6 117.1 118.9 124 132.1 128.7 139.9 145.1 139.9 145.3 139.6 144.4 156.1 175.4 178 174.4 158.1 144.3 144.5 133 118.8 141.6 131 113.8 93.4 76.9 72.1 79.1 78.9 83.6 84.5 80.4 74.8 67.7 55.5 62.4 75.4 75.1 70.6 77.8 89.4 91.7 96.2 102.8 101.8 52.7 19.4 -1.5 -1.5 -1.5 -1.5 -1.5 -1.5 -1.5 -1.5 -1.5 -1.5 -1.5 -1.5 -1.5 -1.5 -1.5 -1.5 -1.5 -1.5 -1.5 -1.5 -1.5 -1.5 -1.5 -1.5 -1.5 -1.5 -1.5 -1.5 -1.5 -1.5 -1.5 -1.5 -1.5 -1.5 -1.5 -1.5 -1.5 -1.5 -1.5 -1.5 -1.5 -1.5 -1.5
-1.5 -1.5 -1.5 -1.5 -1.5 -1.5 -1.5 -1.5 -1.5 -1.5 -1.5 -1.5 -1.5 -1.5 -1.5 -1.5 -1.5 -1.5 -1.5 -1.5 -1.5 -1.5 -1.5 -1.5 -1.5 -1.5 -1.5 -1.5 -1.5 -1.5 -1.5 -1.5 -1.5 -1.5 -1.5 -1.5 -1.5 -1.5 -1.5 -1.5 -1.5 -1.5 -1.5 -1.5 -1.5 -1.5 -1.5 -1.5 -1.5 -1.5 -1.5 -1.5 0 1.8 5.7 18.6 8.5 8 9.7 11.8 12.3 14.1 23.1 27.5 32.7 30.1 37.9 41.9 37.6 25.1 2.8 -1.5 -1.5 -1.5 3.2 15.2 23.3 -1.5 -1.5 -1.5 -1.5 -1.5 -1.5 -1.5 -1.5 -1.5 -1.5 -1.5 -1.5 -1.5 -1.5 -1.5 -1.5 -1.5 17 50.3 61.7 60.7 77.2 80.8 91.2 99.4 102.6 91.5 75.8 68.3 70.4 64.9 85.7 102.5 113.5 117.8 121.3 123.7 137 134.6 137.9 141.8 143.4 144.9 150.2 149 163.3 176.3 181.5 182.7 172.8 153.3 147.9 146 133.4 128 144 126.6 112 94.1 77.4 74 81.3 82.7 90.9 88.1 86.2 72 69.2 53.7 69.9 77.8 74.2 74.1 85.8 100.8 94.7 101.6 105.4 99 44.4 18.4 -1.5 -1.5 -1.5 -1.5 -1.5 -1.5 -1.5 -1.5 -1.5 -1.5 -1.5 -1.5 -1.5 -1.5 -1.5 -1.5 -1.5 -1.5 -1.5 -1.5 -1.5 -1.5 -1.5 -1.5 -1.5 -1.5 -1.5 -1.5 -1.5 -1.5 -1.5 -1.5 -1.5 -1.5 -1.5 -1.5 -1.5 -1.5 -1.5 -1.5 -1.5 -1.5
-1.5 -1.5 -1.5 -1.5 -1.5 -1.5 -1.5 -1.5 -1.5 -1.5 -1.5 -1.5 -1.5 -1.5 -1.5 -1.5 -1.5 -1.5 -1.5 -1.5 -1.5 -1.5 -1.5 -1.5 -1.5 -1.5 -1.5 -1.5 -1.5 -1.5 -1.5 -1.5 -1.5 -1.5 -1.5 -1.5 -1.5 -1.5 -1.5 -1.5 -1.5 -1.5 -1.5 -1.5 -1.5 -1.5 -1.5 -1.5 -1.5 -1.5 -1.5 -1.5 -1.5 5.6 8.6 11.2 20.8 15.1 15 12.6 14.5 18.8 23.1 28.3 37.2 43.1 41.4 37.9 40.8 27.6 18 4.3 1.8 3.7 10.1 18.7 36.8 25.8 -1.5 -1.5 -1.5 2 -1.5 -1.5 -1.5 -1.5 -1.5 -1.5 -1.5 -1.5 -1.5 -1.5 -1.5 1.7 18.3 48.8 60.1 63.1 71.5 82.2 86.6 94.5 99.4 93.1 75.3 89.4 87.7 80.7 69.8 90.2 102.1 115.4 127.4 130.1 135.8 138 142.8 148.5 153.4 150.3 149.7 157.2 162.3 177.1 182.2 185 179.3 162.6 153.3 149.7 141.6 130.3 145.3 143.1 125.7 109.8 95.7 79.8 80.7 86 90.7 94 88.7 84.9 78.6 67.1 60.6 76.7 78.8 77.6 78.8 96.3 101.8 96 97.3 108.1 94.2 50.7 26 11.5 -1.5 -1.5 -1.5 -1.5 -1.5 -1.5 -1.5 -1.5 -1.5 -1.5 -1.5 -1.5 -1.5 -1.5 -1.5 -1.5 -1.5 -1.5 -1.5 -1.5 -1.5 -1.5 -1.5 -1.5 -1.5 -1.5 -1.5 -1.5 -1.5 -1.5 -1.5 -1.5 -1.5 -1.5 -1.5 -1.5 -1.5 -1.5 -1.5 -1.5
-1.5 -1.5 -1.5 -1.5 -1.5 -1.5 -1.5 -1.5 -1.5 -1.5 -1.5 -1.5 -1.5 -1.5 -1.5 -1.5 -1.5 -1.5 -1.5 -1.5 -1.5 -1.5 -1.5 -1.5 -1.5 -1.5 -1.5 -1.5 -1.5 -1.5 -1.5 -1.5 -1.5 -1.5 -1.5 -1.5 -1.5 -1.5 -1.5 -1.5 -1.5 -1.5 -1.5 -1.5 -1.5 -1.5 -1.5 -1.5 -1.5 -1.5 -1.5 -1.5 6.5 5.2 21 12.3 16.7 25.9 18.8 21.3 22.6 27.6 26.4 25.5 30.7 41.7 49.1 41.6 40.4 29.1 25.1 17.3 9.3 7.8 15.3 22 36 37.3 8.5 1.4 1.3 9.1 35.3 36.8 37.4 25.6 3.1 -1.5 -1.5 39.1 7.7 17 15.1 5 24.9 44.7 67.4 73.6 75 79.5 83.9 87.8 89.2 82.9 80.2 87.8 90.1 88 82.6 76.6 93.5 108.5 125.5 128.8 132.8 138.4 146.1 157.8 160.3 163.8 153.5 156.5 162.3 173.2 180.4 182.8 184.2 169.6 159.1 151.7 146.9 141.1 145.3 146.9 142.2 121.2 110.7 97.8 81.6 85.7 87.3 96.6 92.1 90.9 90 75.8 59.9 69.3 78.4 81.1 79.5 87.8 103.2 96.4 92.8 101.6 110.1 98.5 95 56.2 39.5 22.5 8.6 -1.5 -1.5 -1.5 -1.5 -1.5 -1.5 -1.5 -1.5 -1.5 -1.5 -1.5 -1.5 -1.5 -1.5 -1.5 -1.5 -1.5 -1.5 -1.5 -1.5 -1.5 -1.5 -1.5 -1.5 -1.5 -1.5 -1.5 -1.5 -1.5 -1.5 -1.5 -1.5 -1.5 -1.5 -1.5 -1.5 -1.5
-1.5 -1.5 -1.5 -1.5 -1.5 -1.5 -1.5 -1.5 -1.5 -1.5 -1.5 -1.5 -1.5 -1.5 -1.5 -1.5 -1.5 -1.5 -1.5 -1.5 -1.5 -1.5 -1.5 -1.5 -1.5 -1.5 -1.5 -1.5 -1.5 -1.5 -1.5 -1.5 -1.5 -1.5 -1.5 -1.5 -1.5 -1.5 -1.5 -1.5 -1.5 -1.5 -1.5 -1.5 -1.5 -1.5 -1.5 -1.5 -1.5 -1.5 -1.5 -1.5 2.9 6.7 10.2 10.5 11.4 14.6 20.2 23.1 30.4 33.4 39 31 28.5 38 41.1 40.5 34.4 30 28.6 24.6 23.3 20.6 17.2 22.8 38 38.9 19.6 15.4 7.3 14.6 32.2 38.1 46.2 47.8 39.1 13.7 8 37.9 49.8 40.1 37.3 14.4 22.3 39.2 68 79.7 81.2 79.9 84.1 88.3 89.8 79.3 84.1 87.8 91.3 93.1 91.7 82.5 81.2 96 113.7 120.7 125.2 133.9 142.1 150.6 158.2 163.5 161.3 162 161 163.9 172.3 170.5 173.3 185 163.8 158.4 154.7 149.5 142.9 150.9 149.1 141.4 122 106 95.7 82.2 86 92.3 96.1 94.7 92.8 87.4 79.1 65.3 76.1 85.1 85.5 79.1 98.5 98.4 94.6 97.7 109.1 102.2 97.8 93.1 80.7 68 44.7 36 21.4 5.1 1.9 -1.5 -1.5 -1.5 -1.5 -1 -1.5 -1.5 -1.5 -1.5 -1.5 -1.5 -1.5 -1.5 -1.5 -1.5 -1.5 -1.5 -1.5 -1.5 -1.5 -1.5 -1.5 -1.5 -1.5 -1.5 -1.5 -1.5 -1.5 -1.5 -1.5 -1.5 -1.5 -1.5
-1.5 -1.5 -1.5 -1.5 -1.5 -1.5 -1.5 -1.5 -1.5 -1.5 -1.5 -1.5 -1.5 -1.5 -1.5 -1.5 -1.5 -1.5 -1.5 -1.5 -1.5 -1.5 -1.5 -1.5 -1.5 -1.5 -1.5 -1.5 -1.5 -1.5 -1.5 -1.5 -1.5 -1.5 -1.5 -1.5 -1.5 -1.5 -1.5 -1.5 -1.5 -1.5 -1.5 -1.5 -1.5 -1.5 -1.5 -1.5 -1.5 -1.5 -1.5 -1.5 0.8 2.1 8 11.8 12.8 12.1 14.6 20 37.7 37.6 44.9 35.7 34.9 30.8 31.8 33.2 35.5 30.8 30.7 30.3 26.9 25.8 23.9 20.9 37.7 37.8 26.9 26.9 23.5 18.3 29.9 37.6 51.9 70.9 60.7 40 33.8 23.8 42.5 45.3 38 26.2 20.8 35.5 56 79.4 84.9 83.9 84.2 88.2 88.7 79.2 82.2 88.2 90.5 93.8 96.1 96.2 75.4 81.6 97.2 113.1 116.9 126.9 142.3 144.7 154.6 164.7 169.3 174.2 164.6 164.2 166.5 169.6 171.9 177.7 169.7 163.1 162.9 154.1 143 153.6 156.4 151.8 139.1 119.6 105.2 91.7 82.9 92.9 98.9 95.9 93.8 93.5 85.3 72.6 74.7 85.8 88.4 84.2 89.2 99.4 94 94.7 105.5 108.8 98 96.4 89.8 76.4 70 66.5 58.8 52.6 34.3 25.8 -1.5 -1.5 -1.5 -1.5 3 2.2 -1.5 -1.5 -1.5 -1.5 -1.5 -1.5 -1.5 -1.5 -1.5 -1.5 -1.5 -1.5 -1.5 -1.5 -1.5 -1.5 -1.5 -1.5 -1.5 -1.5 -1.5 -1.5 -1.5 -1.5 -1.5 -1.5
-1.5 -1.5 -1.5 -1.5 -1.5 -1.5 -1.5 -1.5 -1.5 -1.5 -1.5 -1.5 -1.5 -1.5 -1.5 -1.5 -1.5 -1.5 -1.5 -1.5 -1.5 -1.5 -1.5 -1.5 -1.5 -1.5 -1.5 -1.5 -1.5 -1.5 -1.5 -1.5 -1.5 -1.5 -1.5 -1.5 -1.5 -1.5 -1.5 -1.5 -1.5 -1.5 -1.5 -1.5 -1.5 -1.5 -1.5 -1.5 -1.5 -1.5 -1.5 -1.5 -0.1 2.2 4.2 9.7 16.1 12.8 13.8 18.2 34.9 42.1 47.3 44.8 34.6 30.5 30.9 31.5 32.6 35.3 32.8 31.8 32.4 30.7 26.2 23 23.7 30.4 31.5 38.9 35.7 31.2 27.5 36.5 48.4 71.8 69.9 60 45.3 48.4 28.6 38.2 37.7 34.5 25.5 30.3 49 73.2 85.7 89.3 92.5 89.1 87.8 80.1 85.9 88.3 92.7 94.3 100.4 103.7 92.7 78.5 84.3 106.4 118 125.6 140.7 146.5 149.6 161 169.1 171.4 167.4 165 167.2 169.8 170.5 171.1 168.3 171.1 166.9 164.9 152.4 153 165 157.5 152 135.4 121 103.7 88.8 90.8 97.2 97.6 97.4 98.9 92.8 85 67.8 83.4 89.6 88.2 88.8 94.4 95.5 91.3 97.3 105.9 100.8 100 93.3 82.3 80.6 73.2 68.5 58.4 52.9 39.8 30.6 5.7 3.3 2.8 4.3 4.1 8.8 4.7 -1.5 -1.5 -1.5 -1.5 -1.5 -1.5 -1.5 -1.5 -1.5 -1.5 -1.5 -1.5 -1.5 -1.5 -1.5 -1.5 -1.5 -1.5 -1.5 -1.5 -1.5 -1.5 -1.5 -1.5
-1.5 -1.5 -1.5 -1.5 -1.5 -1.5 -1.5 -1.5 -1.5 -1.5 -1.5 -1.5 -1.5 -1.5 -1.5 -1.5 -1.5 -1.5 -1.5 -1.5 -1.5 -1.5 -1.5 -1.5 -1.5 -1.5 -1.5 -1.5 -1.5 -1.5 -1.5 -1.5 -1.5 -1.5 -1.5 2.7 -1.5 -1.5 -1.5 -1.5 -1.5 -1.5 -1.5 -1.5 -1.5 -1.5 -1.5 -1.5 -1.5 -1.5 -1.5 -1.5 1.4 2.8 5.9 10 25.4 22.4 14.1 16.8 27.4 37 50.7 55.6 43 31.5 31.4 31.5 32.3 34.8 35.2 34.5 35.5 37.9 34.5 30.6 24.7 31 42.4 46.2 44.1 29.9 28.9 34.8 45.6 64.7 72 67.7 55.6 60.4 39 40.2 42.6 39.9 40.3 24 41.9 63.6 83.5 91.6 97.9 96.6 87.1 83.8 85.7 87.9 94.5 93.1 108.7 108.6 107.8 88.4 79.9 95.8 115.7 119.8 137 151.2 151.2 154.2 162.1 171.9 172.1 167.5 168 176.7 172.6 172.4 170.5 174.1 174.5 169.4 161 150.4 165.6 167.2 158.1 155 138.8 120.2 102 90.2 93.3 99.7 101.8 102.3 100.4 90.9 81.6 79.9 88.7 94.4 93.8 93.1 93.6 91 92.7 102.2 101.6 102.9 102.9 95.5 86 75.9 71.9 61.3 58.5 47.4 49.8 31.7 10.6 17.4 14.3 10.2 21.6 26.4 26.3 21.2 -1.5 -1.5 -1.5 -1.5 -1.5 -1.5 -1.5 -1.5 -1.5 -1.5 -1.5 -1.5 -1.5 -1.5 -1.5 -1.5 -1.5 -1.5 -1.5 -1.5 -1.5 -1.5
-1.5 -1.5 -1.5 -1.5 -1.5 -1.5 -1.5 -1.5 -1.5 -1.5 -1.5 -1.5 -1.5 -1.5 -1.5 -1.5 -1.5 -1.5 -1.5 -1.5 -1.5 -1.5 -1.5 -1.5 -1.5 -1.5 -1.5 -1.5 -1.5 -1.5 -1.5 -1.5 -1.5 -1.5 -1.5 0.7 -1.5 -1.5 -1.5 -1.5 -1.5 -1.5 -1.5 -1.5 -1.5 -1.5 -1.5 -1.5 -1.5 -1.5 -1.5 -1.5 2.9 6.8 8.5 21.5 32.5 39.5 20.5 17.6 26.7 33.9 40.1 56.1 51 36.9 32.7 32.9 32.9 37.5 36.7 36.1 37.2 38.6 37.5 36.4 39.1 27.9 40.4 45.7 45.6 39.7 32.5 33 46.4 53.2 72.3 72.2 58.3 49.7 54 67.1 45.3 43.5 48.6 45.1 36.2 57.7 74.6 91.4 94 96.2 88.9 86 91.3 89.8 94.7 98.5 106.5 112.6 112.6 104.4 84.9 91.3 107 119.1 129.2 151.4 156.6 158.2 160.9 176.6 179.2 177.3 173.5 191 191.5 179.3 181.6 181.5 190.5 178.3 173.3 161.4 167.5 170.1 170.1 159.9 155.4 136.1 112 100.4 98 103.1 103.8 100.8 105.5 101.8 89.6 78.6 86.9 92.7 92.2 93.5 94.3 89.6 90.8 96.2 100.3 105.3 118.6 108.8 89.4 84.4 76.6 66.6 57.7 51.7 57.2 48 26.3 25 29.4 30.1 18.2 32.3 35.5 38.8 33.1 -1.5 -1.5 -1.5 -1.5 -1.5 -1.5 -1.5 -1.5 -1.5 -1.5 -1.5 -1.5 -1.5 -1.5 -1.5 -1.5 -1.5 -1.5 -1.5 -1.5 -1.5
-1.5 -1.5 -1.5 -1.5 -1.5 -1.5 -1.5 -1.5 -1.5 -1.5 -1.5 -1.5 -1.5 -1.5 -1.5 -1.5 -1.5 -1.5 -1.5 -1.5 -1.5 -1.5 -1.5 -1.5 -1.5 -1.5 -1.5 -1.5 -1.5 -1.5 -1.5 -1.5 -1.5 -1.5 -1.5 -1.5 -1.5 -1.5 -1.5 -1.5 -1.5 -1.5 -1.5 -1.5 -1.5 -1.5 -1.5 -1.5 -1.5 -1.5 -1.5 2.8 6.5 10.5 13.8 24.2 28.6 48.3 30.4 23.7 17.9 34.8 33.4 47.2 54.4 51.2 38.6 37 38.6 43.1 42.6 39.2 40.5 44.7 51.7 45.3 39.3 39.8 35.1 46.5 51 51.4 36 36.5 46.5 49.9 53.8 65.3 55.8 53.2 73.2 68.1 57.6 49 48.9 51.4 41.8 50.4 65.2 86.3 94.2 92.8 88 91 91 97.6 104.3 106.4 109.6 118.1 121.1 117.5 101.1 97.1 105 109.9 119.5 141 155.4 158.1 164.2 183 187.5 188.8 185.7 181.1 194.7 193.8 198.7 190.8 193.2 196 179.8 171.3 166.9 169.9 178.2 173.1 164.2 158.5 128.2 114.3 110.8 101.4 106.5 105.7 104.8 105.2 103.6 86.7 85.5 96.7 94.1 92.7 93.8 89.8 89.1 93.5 98.1 109.6 122.3 114.5 98.5 93.3 81.8 71.4 62.4 54.2 57.7 58.3 37.6 34.5 33.5 43.7 44.5 25.3 38.1 47.3 48.6 43.7 39.1 -1.5 -1.5 -1.5 -1.5 -1.5 -1.5 -1.5 -1.5 -1.5 -1.5 -1.5 -1.5 -1.5 -1.5 -1.5 -1.5 -1.5 -1.5 -1.5
-1.5 -1.5 -1.5 -1.5 -1.5 -1.5 -1.5 -1.5 -1.5 -1.5 -1.5 -1.5 -1.5 -1.5 -1.5 -1.5 -1.5 -1.5 -1.5 -1.5 -1.5 -1.5 -1.5 -1.5 -1.5 -1.5 -1.5 -1.5 -1.5 -1.5 -1.5 -1.5 -1.5 -1.5 -1.5 -1.5 -1.5 -1.5 -1.5 -1.5 -1.5 -1.5 -1.5 -1.5 -1.5 -1.5 -1.5 -1.5 -1.5 -1.5 0.6 25.8 27.3 19.8 23.8 24.1 24.7 30.8 35.4 31.6 24.9 24.3 33.1 36.7 45.3 50.9 45 40.4 40.4 45.1 46.5 47.8 45.9 48.4 53 56.3 49.5 50.8 46.1 44.3 52.1 55.9 43.2 49 40.1 45.5 51.1 56.3 67.1 53.8 61.6 67.9 65.8 55.7 51.2 49.5 54.1 40.1 62.7 74.4 87.3 87.1 88.7 92.1 96.7 101.3 112.1 115.4 118.3 128.4 131.4 125.8 114.3 108.1 116.7 120.3 114.8 136.9 148.8 158.2 169.2 184.3 188.9 194.7 191.2 188.3 196 198.4 198.3 203.1 200.9 193.3 189 178.3 166.1 175.4 179.6 180.6 171.4 163.2 146.1 121.5 122.5 111.6 101.2 111.6 113.6 108.6 107.6 103.5 87.6 92.4 100.2 93.2 94.2 90.6 89.2 92.9 94.5 109.9 122 122.7 113.1 99.6 89.5 74.5 59.9 56.2 60.3 60.9 52.9 37.4 39.8 46.8 63.8 59.7 39.1 46.2 59.1 66.6 54.1 47.7 5 1 -1.5 -1.5 -1.5 -1.5 -1.5 -1.5 -1.5 -1.5 -1.5 -1.5 -1.5 -1.5 -1.5 -1.5 -1.5 -1.5
-1.5 -1.5 -1.5 -1.5 -1.5 -1.5 -1.5 -1.5 -1.5 -1.5 -1.5 -1.5 -1.5 -1.5 -1.5 -1.5 -1.5 -1.5 -1.5 -1.5 -1.5 -1.5 -1.5 -1.5 -1.5 -1.5 -1.5 -1.5 -1.5 -1.5 -1.5 -1.5 -1.5 -1.5 -1.5 -1.5 -1.5 -1.5 -1.5 -1.5 -1.5 -1.5 -1.5 -1.5 -1.5 -1.5 -1.5 -1.5 -1.5 -0.1 1.5 9.3 40.6 24.6 26.3 31.5 28.5 27 30.3 38.2 35.9 20.9 22.8 32.2 40.8 46.3 56.9 51.5 45.4 42.9 48.2 53.6 50.1 50.8 54.8 56.5 55.1 57.6 56.7 49.4 48.2 62.1 48.5 47 44.5 44.4 53.2 60.4 68.5 61.1 61.6 69.2 72.5 67.6 63.2 57.6 63.4 57.3 51.5 67.5 76.7 83.7 88.8 92.8 100 115.3 116.4 126 128.2 126.5 133.8 135.2 126.1 111 118 123.9 124 135.9 148.3 158.7 163.8 180.5 190.8 193.1 198.3 196.1 194.5 200.2 208.6 205.2 203.2 204.6 193.5 181.8 176.4 176.4 185.5 194.6 181.1 173.2 159.7 133.3 136.6 120.5 105.5 105.3 114.5 110.9 114.7 109.9 101.2 91.7 98.1 95.3 99.1 94.1 90.3 90.6 93.7 107.5 123.6 122.9 118.8 106.9 89.9 77.2 66.5 58.4 66 61.8 55.4 44.8 55.9 55.1 60.9 70.1 63.9 47.3 56.2 70.1 71.5 64.7 51 25.3 29.6 2.9 -1.5 -1.5 -1.5 -1.5 -1.5 -1.5 -1.5 -1.5 -1.5 -1.5 -1.5 -1.5 -1.5 -1.5
-1.5 -1.5 -1.5 -1.5 -1.5 -1.5 -1.5 -1.5 -1.5 -1.5 -1.5 -1.5 -1.5 -1.5 -1.5 -1.5 -1.5 -1.5 -1.5 -1.5 -1.5 -1.5 -1.5 -1.5 -1.5 -1.5 -1.5 -1.5 -1.5 -1.5 -1.5 -1.5 -1.5 -1.5 -1.5 -1.5 -1.5 -1.5 -1.5 -1.5 0.6 1.9 -1.5 -1.5 -1.5 -1.5 -1.5 -1.5 -1.5 -1.5 1.6 6.3 23.9 27.8 29.9 35.1 32.2 26.8 27.4 34.6 34.2 28.3 20 25.2 36.6 43.9 49.4 57 48.3 46.5 49.2 56.6 54.2 54.9 62.3 59.8 57.8 62.3 68.4 66.9 57.3 61.3 68.3 54.1 54.7 49.7 51.9 54.6 64 66.4 53.8 67.1 71.8 72.6 72.4 63.4 71.1 67.6 56 61.3 69 80.2 90.3 97.8 106.6 119.3 122.8 131.2 134.9 132.3 141 142.7 136.1 116.2 119.9 127.6 140 140.9 151.2 156.9 170.7 173 185.8 194.7 197.5 206.6 205.3 203.7 209.6 209.4 207.9 211.5 199.1 190.3 183.3 174.9 186.2 192.6 185.1 177.9 166.1 146.2 158 139.7 122.1 108.3 107.9 119 117.3 115.8 110.3 99.3 96.7 97.1 99 100.4 91.1 91.9 93.1 104.7 121.8 123.6 120.2 110.5 89 80.4 73.8 66.2 63.1 63.9 63.5 56.4 54.7 57.9 60.3 64.5 70.6 69.5 59.4 66.4 76.2 74.5 74 62.6 47.8 42.8 11.5 -1.5 -1.5 -1.5 -1.5 -1.5 -1.5 -1.5 -1.5 -1.5 -1.5 -1.5 -1.5 -1.5
-1.5 -1.5 -1.5 -1.5 -1.5 -1.5 -1.5 -1.5 -1.5 -1.5 -1.5 -1.5 -1.5 -1.5 -1.5 -1.5 -1.5 -1.5 -1.5 -1.5 -1.5 -1.5 -1.5 -1.5 -1.5 -1.5 -1.5 -1.5 -1.5 -1.5 -1.5 -1.5 -1.5 -1.5 -1.5 -1.5 -1.5 -1.5 -1.5 -1.5 -1.5 9.8 10.2 -1.5 -1.5 -1.5 -1.5 -1.5 -1.5 -1.5 3 7.5 18.3 26.4 33.6 35.1 34.9 29.9 26.6 28.9 28.8 24.9 20.1 21.6 29.5 36.2 41.8 46.7 45.3 45 47.9 58.1 59.8 66.3 66.4 62.3 58.9 66.6 75 76.5 71 57.9 70.3 77.4 62.6 68.3 51.5 55.4 62.3 64.7 55.6 57.4 63.1 69.1 73.4 71.6 75.4 81.7 61.9 54.7 59.3 83.8 86.2 99.1 104.7 119 132 142.2 143 146.7 147.8 151.5 150.5 128 119.8 134 142.4 146.4 156.4 157.3 172.5 172 179.4 195 199.4 207.9 213.9 209 206.2 215.4 214.5 207.6 205 199.1 187.8 182.7 186.7 190 183.8 182 173 155.4 170 159.7 137.7 125.3 108.4 111.9 117.6 119.2 115.1 111.7 98.1 99.7 97.9 97.5 91.8 92.9 99.6 99.2 122 127.2 122.1 116 95.6 81.4 76.9 73.9 63.8 66.2 66.9 64.1 59.7 60 64.8 66.9 68.6 71.9 69.1 65.3 76.1 76 80.3 80.1 71.4 54.2 44.5 22 -1.5 -1.5 -1.5 -1.5 -1.5 -1.5 -1.5 -1.5 -1.5 -1.5 -1.5 -1.5
-1.5 -1.5 -1.5 -1.5 -1.5 -1.5 -1.5 -1.5 -1.5 -1.5 -1.5 -1.5 -1.5 -1.5 -1.5 -1.5 -1.5 -1.5 -1.5 -1.5 -1.5 -1.5 -1.5 -1.5 -1.5 -1.5 -1.5 -1.5 -1.5 -1.5 -1.5 -1.5 -1.5 -1.5 -1.5 -1.5 -1.5 -1.5 -1.5 -1.5 -1.5 6.7 7 5.8 -1.5 -1.5 -1.5 1 3.6 15.7 5.9 9.8 14.4 26.5 33.7 35.4 38.2 33.5 27.9 27.2 28.1 26.3 22 18.6 22.2 25.7 29.3 37.4 39.2 39.3 45.3 50.4 57.3 71.3 74.4 63.6 61.9 63.8 75.1 77 74.2 69.6 65.7 75.6 70.7 71.5 57.8 57.2 63.4 67.6 54.8 58.3 57.8 62.4 71.1 71.7 69.6 82.7 84.6 65.5 57.2 78.6 86.2 93.5 112.7 114.1 126.3 143.5 147 149.4 149.3 153.7 153.6 141.9 122.4 133.8 139.2 147 160.3 166.2 170.7 180.1 178.7 198.6 203.7 205.5 215.9 218.1 209.8 206.4 216.2 214.9 212.1 207.5 199.7 192.5 189.5 194.5 188.4 183.6 178.2 171.2 173.7 169.8 162.1 137.5 122.9 111.1 122.7 129.3 122.3 117.3 111.2 99.2 97.7 94.7 92.9 94.1 102.4 104.4 115 135.3 135 120.7 110.1 84.3 80.1 78.2 73.3 70.1 74.4 69.2 61.9 69.8 69.1 65.3 73.2 73.3 70.9 64.3 75.4 79.3 82.6 86.1 84.7 80.6 64.3 49.3 24.3 2.3 -1.5 -1.5 -1.5 -1.5 -1.5 -1.5 -1.5 -1.5 -1.5 -1.5
-1.5 -1.5 -1.5 -1.5 -1.5 -1.5 -1.5 -1.5 -1.5 -1.5 -1.5 -1.5 -1.5 -1.5 -1.5 -1.5 -1.5 -1.5 -1.5 -1.5 -1.5 -1.5 -1.5 -1.5 -1.5 -1.5 -1.5 0.7 1.1 1.8 2.2 -1.5 -1.5 -1.5 -1.5 -1.5 -1.5 -1.5 -1.5 -1.5 -1.5 -1.5 7.1 7.4 -1.5 -1.5 -1.5 -1.5 6.2 12.6 22.3 13.5 13.9 23.1 32.1 35.2 43.8 47 29.6 28.2 31 30.8 24.8 20.8 21.4 24.5 27.8 29.7 34 38.5 43 43 47.2 68.6 83 65.5 69.6 67.6 67.4 76.2 79.3 82.1 71.3 75.3 77.6 63.9 69.4 63.8 59.2 74.4 59.3 58.6 59 58.9 64.7 66.2 67.3 73.6 79.3 79.6 67.3 76.2 85.5 90 105.6 116.5 117.7 130.9 148.1 149.1 152.7 155.2 157.4 156.4 132.6 132.4 135.2 142.4 152.5 171.2 170.1 172.3 173.8 182.6 200.2 209.3 210.5 218.2 218.6 207.7 210.2 218.5 218.8 213.5 205.6 205.1 186 191.2 190.5 183.8 175.3 178.6 179.9 172.9 172 157.6 132.5 117.4 123.9 127.4 133.2 119.1 116.8 102.4 99.7 95.4 95.7 96.4 101.6 108.3 116.7 132.2 144.9 130.4 115.4 96.8 95.9 91.8 83.7 72.6 77.1 74.7 66.6 71.6 73.2 68.7 66.7 75.4 76.5 74.5 67.5 80.6 81.8 85.1 89.1 86 82.5 71.7 56.5 34.3 6.3 -1.5 -1.5 -1.5 -1.5 4.4 8.1 12.1 11.2 5.5
-1.5 -1.5 -1.5 -1.5 -1.5 -1.5 -1.5 -1.5 -1.5 -1.5 -1.5 -1.5 -1.5 -1.5 -1.5 -1.5 0 1.5 3.7 6.7 1.7 -1.5 -1.5 -1.5 -1.5 -1.5 -1.5 2.2 2.5 2.3 2.2 12.1 -1.5 -1.5 -1.5 -1.5 -1.5 -1.5 -1.5 -1.5 -1.5 -1.5 4 9.6 -1.5 -1.5 -1.5 -1.5 5.6 21.2 14.4 25.8 13.9 16.2 30 35.4 54.6 41.7 32.4 29 33.8 40.9 28.3 21.9 22.6 26 27.4 28.4 30.5 35.4 35.5 36.2 39.6 53.6 70.9 65 69.4 73.3 77 73 79.3 81.8 81 73.7 75.5 74.3 76 75.2 67.9 69 67 60.5 61 59.5 64 63.9 66.2 68.6 77.6 78.1 79.8 73.8 81.2 86.5 98.3 120.2 122.1 124.5 147.3 150.8 152.8 155.8 160.8 160.4 150.4 144.2 142.2 139.9 147.5 157.4 165.5 169.5 173.7 174.7 193.1 201.6 207 212.7 215 211.2 211 220.7 225.5 219.8 217.4 207.5 193.8 190.5 191.5 193.4 179.2 182.4 190.1 179.1 175 172.8 150.1 122.5 124.4 129.9 131.6 129.9 122.1 110.7 101.2 96.6 95.6 96.9 101.9 106.8 117.6 132.8 147.1 142.7 120.7 105.4 108 102.5 96.9 88.6 76.1 77.9 68.8 70.4 82.1 77.9 69.3 71.6 77.2 78.4 75.2 78.1 83.2 82.1 89.4 91.1 83.9 83.4 75.4 69.2 44.6 20.3 9.2 13.5 25.5 35.7 43.2 49.4 46.8 42
-1.5 -1.5 -1.5 -1.5 -1.5 -1.5 -1.5 -1.5 -1.5 -1.5 -1.5 -1.5 -1.5 -1.5 -1.5 -1.5 0.4 2.8 10.4 23.2 -1.5 -1.5 -1.5 -1.5 -1.5 1.8 -1.5 3.2 5 6.6 5.8 2.2 1.7 -1.5 -1.5 -1.5 -1.5 -1.5 -1.5 -1.5 -1.5 -1.5 3.5 5.2 4.9 2.8 0.6 -1.5 2.5 9.9 19.9 13.7 14.3 15.1 24.1 31.4 38.4 46.6 34.9 29.8 30.1 38.8 30.5 23.8 23.7 24.6 28.5 30.1 30.4 35 35.4 35.6 37.5 42 52.7 56.2 69.4 75.3 86.2 82 83 83.1 80.8 71.4 76.8 80 83.8 83.3 76.2 68.8 62.8 61.6 63.1 61 62.8 65.8 62.5 64.1 71.6 78.9 82.2 82.2 69.3 82.5 90.9 115.1 136 134.2 133.5 150.4 155.1 156.8 164.2 167.3 160.6 151.1 159.4 145.9 144.7 148.1 158.1 164.6 169.8 171.9 180.3 195.2 197.8 208.8 211.9 212.1 211.4 223.1 226.7 221.5 219.4 217.8 203.6 193.2 192.8 194.8 187.1 179.7 195.2 192.8 184.7 182.1 165.9 129.8 125.8 124.4 133.1 130.1 121.7 116 103.3 98.2 96.6 98 101.7 109.2 119.1 135.2 142.1 146.9 133.2 115.5 109.6 108.3 103.2 96 85.1 82.5 75.3 67.9 86.5 85.3 78.2 69.6 75.6 81.5 78.7 74.4 81.6 82.5 83.8 87.8 87.7 87.5 83.1 80.5 76.6 73.2 48.5 50.5 59.7 96.5 86.6 93.2 90.6 79.9
-1.5 -1.5 -1.5 -1.5 -1.5 -1.5 -1.5 -1.5 -1.5 -1.5 -1.5 -1.5 -1.5 -1.5 -1.5 -1.5 0.5 2.8 10.7 23 -1.5 -1.5 -1.5 0.7 2.1 23.6 6.4 6.9 12.2 12.5 8.6 3.6 1.9 -1.5 -1.5 -1.5 -1.5 -1.5 -1.5 -1.5 -1.5 -1.5 1.4 1.2 5.4 4.3 3.3 -1.5 -1.5 4.5 10.2 10.5 13.6 13.4 22.2 25.1 32.9 40.4 40.2 34 29.1 28.8 28.3 26 24.4 29.3 32 29.5 31.9 36.6 38.2 35.9 37.2 38.2 44 59.4 68.9 77.5 91.5 96.8 94.5 85.5 83.3 74.8 78.2 83.4 83.9 85.3 79.1 73.3 66.8 60.9 62 62.3 66.7 71 68.7 63.2 64.9 75.8 82.5 86.9 84 82.5 81.9 99.9 132.8 139 138.1 137.2 154.7 156.9 167.5 174.9 159.9 152.2 164.3 168 149.8 149.8 154.7 163.4 170.5 171.4 172.4 187.6 192.7 202.1 209.6 213.8 214.4 221.2 233.1 224.3 227.1 218.1 209.4 200.3 194 195.5 196.2 181.6 188.3 196.7 193.2 184.6 174.7 160.4 127.3 124.9 125.6 132.3 126.9 112 104.9 102.1 99.3 98.2 98.9 113.6 118.8 134.1 143.4 153.3 141.1 124 115.4 110.1 109.4 104.5 97.9 80 79.4 71.9 83.1 94.3 83.8 75.1 69.4 79.6 81.7 80.2 85 84.7 82.6 88.4 87.1 90.6 94.8 86.3 87.6 82.4 84.3 92.8 103.6 138.6 149.5 151.2 146.7 129.4
-1.5 -1.5 -1.5 -1.5 -1.5 -1.5 -1.5 -1.5 -1.5 -1.5 -1.5 -1.5 -1.5 -1.5 -1.5 -1.5 0.1 1.9 7.5 13.7 3.1 0.8 1.7 2.7 29.8 43.3 40.5 12.4 16.9 28.7 25.3 17.6 4.6 1.2 -1.5 -1.5 -1.5 -1.5 -1.5 -1.5 -1.5 -1.5 -1.5 -1.5 4.9 6.4 6.3 5.8 -1.5 -1.5 7.2 10.1 21.1 14.9 14.9 16.5 24.1 33.7 41 55 48.2 32.2 28.9 26.7 25.1 29.7 28.2 34.2 36 38 37.5 38.4 34.8 35.6 45 61 71.5 78 86.5 101.6 103.3 100.9 87 79.5 72.5 84.1 83.2 85.3 84 78.7 69.4 62 61.3 63.8 67 69 73 64.5 65.2 68.4 82.4 88.9 85.9 78.5 86.8 90.8 116.3 139.1 139.7 138.6 140.5 155 159.1 164.8 162 157.5 159.8 163.1 162.4 152.7 154.4 157.3 161.9 167.8 171.9 183.5 194.7 209.1 221.7 219 221.8 218 230 226.3 227.1 230.7 218.3 209.7 198 195.6 200 189.4 186.9 195 197.5 188.1 180.9 173.8 156.3 126.2 124 126.2 120.9 113.1 103.3 101.6 99.3 99.6 98.5 113.3 119.5 135.9 144.6 150.2 152.1 138 122.8 120.8 111.1 109.4 102.6 95.4 85.4 83.7 70.2 90.2 89 81.2 76.6 70.9 80.8 83.3 85.5 88.5 85 82.9 85.4 91.9 100.2 96.2 90.5 89.1 86.9 88 105.3 136.5 153.1 151.6 150.9 141
-1.5 -1.5 -1.5 -1.5 -1.5 -1.5 -1.5 -1.5 -1.5 -1.5 -1.5 -1.5 -1.5 -1.5 -1.5 -1.5 -1.5 0.6 6.1 8.7 9 6.2 6.3 22.4 32.1 46.9 48.8 39.1 23 29.7 33.6 27.1 14.8 6.2 -1.5 -1.5 0.2 -1.5 -1.5 -1.5 -1.5 -1.5 -1.5 -1.5 1.5 4.3 7.1 6.1 7.3 -1.5 1 6.6 14.1 21 30.2 17 16.2 22.5 31.8 55.2 53.4 46.8 34.8 34.2 28.6 30.8 30.9 34.4 33.3 34.8 38 34.5 32.9 36.1 47.8 60.9 70 79.7 84.9 100.4 105.5 106 102.2 87 78.8 80.3 85 84.6 85.1 81.9 67.6 62.7 63.5 65.2 68.5 69.7 69.1 66.4 66.3 70 77.8 86.6 93.3 89.8 83.8 89.2 103.8 119.7 130.9 139.1 135.9 139.9 154.8 164 162.1 167.1 167.9 169.5 170.1 157.5 152.9 157 162.3 170.8 171.3 180.1 192.8 206.2 219.2 220 224.6 229.5 228 230.8 227.8 231.6 223.9 215.5 201.9 199.9 200.9 200.3 188.9 188.8 195.9 194.2 185 184.5 169.4 140.4 126.9 124.7 115 107.5 103.9 101.2 101.3 100.5 100.3 110.2 120.8 136.6 150.8 150.1 156.6 147.8 131.9 126.3 116.3 108.8 106.1 101.4 91.5 98.2 84.1 77.5 89.2 87.3 82.9 80.6 72.4 81.9 83.5 86.5 86.3 86.5 85.3 94.5 106.6 126.5 106.5 94.8 92.4 88.8 100.4 130.9 150.4 151.6 150 146
-1.5 -1.5 -1.5 -1.5 -1.5 -1.5 -1.5 -1.5 -1.5 -1.5 -1.5 -1.5 -1.5 -1.5 -1.5 -1.5 -1.5 0.7 4.6 6.1 7.3 12.2 14 24.2 41.1 52.8 67.5 57.8 41.3 27.7 36.5 33.8 22.6 13.5 7.5 3.3 4.1 1.9 -1.5 -1.5 -1.5 -1.5 -1.5 -1.5 -1.5 4.9 5.7 6.3 6.5 3.4 2 2.2 8.4 25 30.9 25.5 27.8 19.2 28.2 33.2 44.3 41.4 42.6 38.3 38.4 35.6 30.1 33.7 28.6 29.5 32.7 31.5 32 40 44.7 62.1 67.7 76 92.8 97.7 111.5 113.1 108.2 101.8 87.8 74.2 83.4 82.4 84.9 78.6 68.7 66.6 73.3 76.3 72.8 77.1 74.7 67 69.2 81.2 72 81.4 95.1 100.2 91.3 82.9 91 106.7 119.3 130.9 141 143.5 147.6 154.6 168.4 170.8 168.7 171.2 174.8 170.1 168.6 157.7 165.8 177.1 172.8 177.7 192.1 202.7 211 215.9 227.8 237.7 239.3 229.3 227.8 227.3 224.3 218.2 211 202.2 201.1 201.5 190.3 189.7 192.5 192.4 197.1 186.9 178.3 158.5 134.7 125.2 120.5 116.7 113 112.7 111 106.9 102.8 103.8 119.3 136.6 151.5 152.7 156.6 158.2 141.4 126.8 122.9 117.8 113 107.7 100.8 97.3 101.2 80.8 84.9 92.6 88.1 87 82.5 73 85.3 88.4 92.3 94.2 96.2 95 101.2 127 131.8 125.6 110.5 97.1 97.9 118.8 145.6 149.1 147.6 144.6
-1.5 -1.5 -1.5 -1.5 -1.5 -1.5 -1.5 -1.5 -1.5 -1.5 -1.5 -1.5 -1.5 -1.5 -1.5 -1.5 -1.5 2.2 3.6 6.4 7.2 12.1 18.3 42.4 45.4 55.3 68.3 66 59.8 43.9 32.2 36.6 32.5 20.8 14.9 9 8.2 5.7 2.4 -1.5 -1.5 -1.5 -1.5 -1.5 -1.5 3.2 3.9 5.6 6.9 7.3 6 5.9 3 14 30.8 31.4 33 30.5 23 29 31.7 44.3 47.4 41.8 43.5 41.6 32.4 30.8 29 29.1 29.5 31.3 32.7 39.7 45 53.3 68.5 76.6 93.2 94.6 110.1 118 114.1 107.7 101.7 78.2 75.3 84.4 83.1 75 74.7 76.3 76.2 82 82.8 79.4 79.2 69.2 72.9 81.4 86.1 74.4 89.2 103.1 103.9 97.4 89.2 95.9 109.3 130.3 136.6 142.4 149.7 149.6 158.6 162.9 166.6 174.8 175.3 181.2 176.1 175.6 167.8 178.8 184 179.7 186.4 202.7 206.7 215.6 235.6 239.9 241.6 235.2 229.2 228.3 224.9 222.9 219.8 208.8 198.1 197.3 193.2 191 190.6 195.2 198.7 193 184.1 167.5 145.6 155 141.6 129.6 123.3 121.7 121.3 116.8 114.2 113.7 120.9 138.9 153.1 155.5 159.8 156 148.5 135.8 125.8 122.2 118.9 114.5 106.1 98.2 102.9 98.6 83.8 86.5 90.9 93.4 89.1 84 79.5 86.8 92.6 96.8 99.4 103.8 101.3 126.2 129.1 130.5 134.3 120 100.3 108.3 137.9 144.8 143.4 142.6
-1.5 -1.5 -1.5 -1.5 -1.5 -1.5 -1.5 -1.5 -1.5 -1.5 -1.5 -1.5 -1.5 -1.5 -1.5 -1.5 -1.5 3.4 4.6 5.4 8.8 14.6 20.9 45.6 58.6 65.3 61.4 64.5 64.6 60.6 39.2 34.2 38.7 29.3 26.7 14.5 12.1 7.8 2.6 -1.5 -1.5 -1.5 -1.5 -1.5 -1.5 1.1 3 2.9 7 18.1 23.4 8.8 4.8 6.2 17.9 28.6 32.2 35.6 23.8 24.3 31.1 45.2 48.4 49.7 39.4 48.4 35 29.6 34.7 34.1 31 31.7 32.3 32.8 45.7 63.5 69.4 81.8 92 101.4 100.6 119.7 114.6 113.8 111.7 96 76.3 81.2 79.9 75.7 76.4 78.1 71.1 88.8 98.8 96.9 87.2 81.6 78.3 80.5 95.7 88.4 83.7 101.3 115.4 108.1 103.2 98.3 99.5 116.6 134.1 136.9 141 148.8 152.8 155.3 164.7 178.1 176.2 177 178.4 186.9 183.9 179.3 190.7 187.8 200.5 201.7 206.7 224.2 239.2 249.1 247.9 239.3 232.7 230.5 226.6 225.6 223.2 208.9 202.6 192.8 194 191 191.2 195.6 199.4 193.2 181.8 176.9 164.4 157.3 154.9 145.6 137.5 132.3 135.8 128 122.4 122.8 115.1 135.6 156.4 160 167.7 164.1 157 137.8 136.9 123.6 125.7 124.1 115.5 104.9 101.8 107.6 101.6 89.8 85 94.2 101.2 95.6 85.1 84.4 88.2 100.1 111 106.9 112.1 117.5 129.6 133.1 135 136.6 124.8 104.1 122.4 139.8 141.3 140
-1.5 -1.5 -1.5 -1.5 -1.5 -1.5 -1.5 -1.5 -1.5 -1.5 -1.5 -1.5 -1.5 -1.5 -1.5 1.3 7.5 8.4 7.7 6.8 12.3 19.3 37.7 48.7 64.7 71.9 67.9 64.8 64.5 63 50.4 34.5 34.3 34.6 32.4 23.6 18.5 11.3 10.1 7.7 2.2 -1.5 -1.5 -1.5 -1.5 -1.5 0.7 2.2 5.6 16.9 26.8 18.3 9.5 7.3 10.8 16.8 30.1 33.2 31.7 24.7 27.2 37.1 47.9 50.6 46.8 38.9 36.1 31.7 30.4 38.6 32 32.1 32.6 34.1 44.3 60.3 70.7 83.6 99 103.6 101.3 111.7 118.8 121.8 114.3 107.1 89.4 76.3 76 77.4 77.4 79.9 76 83.8 96.5 99.3 102.7 86.6 82.2 89.4 96.1 97 88.5 91.6 109.7 117 116.2 110.4 100.2 103.1 126.1 136.6 138.5 143.7 150.2 156 157.7 173.6 179.6 177.4 178.7 187.8 195.5 199.3 193.4 196.1 207.8 215.6 220.5 236.5 247.9 253.8 251.8 246.1 239.8 236.9 229.1 225.3 223.7 213 201.6 192 193.3 191.3 189.7 190.5 196.8 191.1 187.6 183 169.7 167.5 162 154.3 149.6 130.3 147.7 139.9 132.9 134.2 123 127.7 157.6 167 169.6 176 162.8 146.7 136.7 137.4 130.4 129.8 123.7 113.3 103.8 111.4 109.4 106.2 95.3 88.5 100.1 104.2 93.4 84.6 84.7 96.5 114.1 114.4 121.5 117.6 130.3 133.7 133.9 136.9 134.7 116 112.2 126.8 135 130.4
-1.5 -1.5 -1.5 -1.5 -1.5 -1.5 -1.5 -1.5 -1.5 -1.5 -1.5 -1.5 -1.5 -1.5 -1.5 2 14.8 24.5 13.9 15.1 18.8 27.4 43.1 49.9 61.7 72.4 68.3 64.7 63.9 63.7 51.4 42.9 35.3 36.7 34.6 30.5 24 17.7 21.6 16.7 9.7 8.8 2.2 -1.5 -1.5 -1.5 -1.5 3.9 2.2 13 27.1 24.3 14 17.4 15.5 18.2 19.9 30.3 32.6 25.9 30.7 31.1 49 46.4 46.3 37.6 36.1 34.9 30.5 38.5 34.3 32.8 33.3 42.2 38.2 54 69.6 79 99 103.6 102.9 101.5 118.5 121.9 119.2 115.4 99.1 80.4 76.6 80 82.5 82.7 79.8 92.4 87.5 99.7 102.9 96.8 93.3 97.3 96.5 101.9 99.3 92 96.9 110.7 116.3 118.2 116.2 105.1 108.1 126.3 138 139.7 143 156.2 158.7 170.6 177.6 178.4 179.2 188.9 199.9 206 210.9 201.6 207.2 220 225.2 239.5 246.8 257.5 257 252.3 247.2 244 236 225.1 221.2 214.3 203.3 190.9 188.3 193.1 189.7 188.3 190.5 195.7 190.4 187.8 179.5 174.6 174.5 159.6 148.9 142.4 145.4 152.4 144.6 141.5 135.2 132.2 156 167.3 169.9 177.2 174.7 159.1 141.9 140.4 136.3 134.7 129.5 121.8 110.3 114.7 112.7 106.8 108.6 101.4 98.9 104.8 104 93.3 84.6 85.9 106.7 118.6 119.7 125.7 123.7 133.1 133.1 135.1 137.1 131.4 116.2 114.3 120.3 120.4
-1.5 -1.5 -1.5 -1.5 -1.5 -1.5 -1.5 -1.5 -1.5 -1.5 -1.5 -1.5 -1.5 -1.5 -1.5 1.6 6.5 8.5 11.8 16 21.9 37.9 53.3 58.2 60.3 65.5 70.5 69.3 65.6 58.7 55.2 46.1 34.7 36.3 34.9 36.7 29.9 33.4 29.1 31.1 19.6 10.7 12 1.2 -1.5 -1.5 -1.5 -1.5 5 9.5 26.3 29.7 19.6 23.1 29.7 23.5 28.2 23.5 35.7 29.8 28.9 30.2 40.7 51.9 43.5 38.9 38.7 37.9 33.4 31.7 33 35.7 35.6 43.5 44.5 48.1 65.2 73.2 90.1 106.4 102.3 103 111.4 120.4 122.2 121.4 110.9 87.3 77.4 79.1 84 90.7 91.3 92.2 98.6 94.5 103.4 97.3 100 109.4 104.7 97.6 102.8 100.4 95.7 103.9 117.6 118.9 119.4 123.5 111.8 110.2 125.4 140.8 138.3 156.2 160 165.6 171.5 179.5 178 186.8 200.2 211.9 219.7 215.5 211 217.9 224.9 229.8 242.1 256.1 259 254.9 250.6 243.7 237.8 228.3 222.8 216.5 209.6 195.1 185.7 194.1 195.5 187.5 188.2 198.7 196.3 190.2 190.8 179.2 177.1 166.1 155.3 151.4 139.2 155 157.2 150.7 140.3 138.9 148 165.6 170.3 178.6 181.1 165.5 156.2 145.9 137 136.8 133.3 126.1 121.2 115.6 123.9 113.2 110.7 110.8 102.4 103.1 107.8 101.8 92 85.6 98.7 119.5 124 126.8 123.3 127 132.2 132.3 136.7 135.1 127.7 110.6 110.1 113.9
-1.5 -1.5 -1.5 -1.5 -1.5 -1.5 -1.5 -1.5 -1.5 -1.5 -1.5 -1.5 -1.5 -1.5 -1.5 0.4 2.6 2.2 7.6 11.4 27.6 39.5 53.7 64 62.6 62.7 70.3 70 64.8 56.7 51.1 47.8 34.7 35.2 35.1 35.2 32.5 37.4 36.3 38.3 33 17.3 12.3 4.6 0.6 -1.5 -1.5 -1.5 1 4.3 23.2 31.9 28.3 31 38.1 38.3 37.8 37.9 31.4 30.3 31.7 34.5 32.8 45.4 50.8 43.7 42.9 41.9 40 31.4 35 37.5 42.2 40.2 44.6 46.3 55 66.2 81.9 97.6 107.6 101.3 102.9 112.1 121.1 119.8 115.6 91.8 80.4 79.7 83.7 91.4 95.3 88 99.2 101.5 97 102.9 107.7 111.2 112.6 106.3 103 107.3 101.4 99.6 108.8 123.5 131.5 127.1 133.2 118.6 112.8 133.3 137.5 146.4 161.3 161.8 165.2 164.8 170.9 184.2 196.7 210.2 220 224.3 219.4 221.3 223.2 227 237.4 249.9 252.1 256 249.5 243.4 236.2 228.6 225.9 220.8 215 198.3 185.5 189.4 191.5 186.9 188.4 191.5 195.6 194 199.3 185.9 178.1 173 161.8 151.1 144 148 161.3 165.3 149.3 141.1 146.3 155.5 166.4 179.6 181.5 176.1 163.2 156.5 151.5 141.8 135.5 131.2 129.3 126 125 126.1 117.2 111.1 110.7 108 108.5 110 103.4 96 90.8 116 121.8 123.3 124.1 123.9 124.8 128.8 131.6 133.9 128.8 119.4 103.9 100.8
-1.5 -1.5 -1.5 -1.5 -1.5 -1.5 -1.5 -1.5 -1.5 -1.5 -1.5 -1.5 -1.5 -1.5 -1.5 -1.5 -1.5 -1.5 2.6 17.5 22.2 32.6 39.4 54.6 60.7 65.7 62.9 68 67.3 55 52.7 45.8 36.5 35.6 35.8 38.6 39.8 46.4 39.7 39.7 40.6 27.6 14.5 9.2 4.1 -1.5 -1.5 -1.5 -1.5 -1.5 12 30.2 32.9 27.9 45.2 44.4 44.1 40.2 38.8 31.7 37.5 38.9 35.4 35.1 46.7 51.9 46 41.3 44.5 34.7 40 40.1 41.6 51.2 45.3 50.5 55.7 63.7 69 83.9 102.9 106.9 103.9 105.8 118.1 120.1 116.5 98.5 89 81.7 82.9 90.8 96.7 88 99.3 102.7 97.9 99.8 108 114.3 114.2 120.3 107.3 103.7 104.4 103.1 106.4 120.3 124.3 129.6 134.3 132.9 123.5 115.7 134.6 141 154 162.2 170.8 164.3 163.8 169.5 187.6 205.4 216.4 221.1 225.2 220.6 223.7 232.3 232.5 240.6 246.9 246.5 243.4 238.8 232.6 226.1 222.5 221.9 216.6 201.4 189.6 185.5 187.6 187.2 187.3 189.4 192.2 200.5 200 194.1 184.2 178.6 166.2 154.9 152.9 148.7 160.2 166.2 162.1 145.5 144.6 154.6 161.9 172.7 180.2 179.7 175.1 174.3 159.3 152.2 147.7 137.7 133.4 128.9 127.3 130.9 130.9 123.7 114.7 111 109.1 110.5 110.1 104.4 89.7 101.7 120.6 123.4 124 124.2 122.1 123.3 125 129.4 128 126.3 121.5 96.7
-1.5 -1.5 -1.5 -1.5 -1.5 -1.5 -1.5 -1.5 -1.5 -1.5 -1.5 -1.5 -1.5 -1.5 -1.5 -1.5 -1.5 -1.5 2.5 30.3 36.3 28.7 39.2 48.3 58 66.2 63.9 57.5 64.6 55.2 55.9 52.1 38.3 38.3 36 38.4 44.5 49.7 47.5 41.2 41.4 39 22.4 11.8 5.4 -1.5 -1.5 -1.5 -1.5 -1.5 7 23 27.8 26.9 46 45.4 44.3 40.9 38.4 34.6 39.2 39.7 37.8 40.3 40.4 53.4 47.2 44.5 38.4 36 42.6 43.9 41.7 46.5 51.6 58.2 72.5 71.8 74.8 76 99.6 99.8 104 102.7 114.2 118 108.3 97.6 97.8 88.4 85.4 91.1 97 96.7 90.2 95.9 96 97.2 107.2 111.9 121.5 121.8 122.3 111.6 106.4 108.3 103.5 115.7 128.4 127 131 136.3 138.1 131.2 122 134.5 141.4 154.3 154.1 168.3 163.1 164.4 172.1 194.4 213.6 216.5 222.2 219.6 222 226.8 232.8 233.9 240.4 237.7 235.6 230.4 225.2 218.9 218.8 220.4 216.6 204.6 195.7 184.3 186.1 186.8 187.2 188.1 194.3 203.5 200.8 195.9 188.2 180.2 174.2 161.6 154.6 152.4 156.6 164 166.5 155.7 148.2 153.9 159.9 164.4 175.8 178.7 176.9 178 177.2 165.1 154.3 151.3 140.5 139.2 136.7 133.9 134 134.2 129.8 115.3 111.2 108.9 111.6 108.7 98.6 89.4 115.9 117.8 122.6 122.9 123.3 120.5 117.1 121.3 125.9 127.2 127.7 117.4
-1.5 -1.5 -1.5 -1.5 -1.5 -1.5 -1.5 -1.5 -1.5 -1.5 -1.5 -1.5 -1.5 -1.5 -1.5 -1.5 -1.5 -1.5 5.2 33.6 36.5 35 34.6 45 62 65.9 65.4 62.3 54.4 52.5 52 51.9 42.1 42.4 38.6 43.4 43.5 48.7 61.4 47.4 38.5 39.1 26.9 14.5 7 2.8 1.4 -1.5 -1.5 -1.5 2 9.1 25 24 46.5 45.5 43 41.9 38.5 40.6 45.1 41 40.3 41.6 43.7 48.1 52.8 48.9 38.2 36 45.7 47 46 43.7 58.3 63 70.8 77.7 71 78.7 89.1 101.5 106.6 100.3 103.4 113 106.7 97.3 99.7 102.7 93.1 93.6 96 94.3 89.2 93.9 102.3 105.4 104.7 110.4 120.5 126.1 125.5 122.9 118.1 111.4 113.1 108.5 130 128.7 136.1 139.1 140.4 138.2 140.7 132.7 133.8 138.7 144.6 153.9 159.7 162.3 162.9 179.1 200.6 212.6 215.2 215.2 214.5 223.9 228.8 229 227.9 230.6 228.7 224.4 221.7 217 214 213.9 212.6 206.4 194.7 183.9 185.8 190.4 188.1 187.9 198.9 201.3 203.2 200.7 196.7 185.3 176.8 163.9 155.5 153.2 162.8 161.9 166.4 166.9 155.5 151.1 157.5 157.6 168.5 176 175.7 175.7 176.9 177.2 171.6 154.3 150.7 144.8 142.8 140.4 139 137.3 130.7 129.1 116.1 113.1 109.4 110.9 109.3 100.4 93 110.3 119 122 122.1 126 113.8 108.2 121.9 127.5 126.2 124
-1.5 -1.5 -1.5 -1.5 -1.5 -1.5 -1.5 -1.5 -1.5 -1.5 -1.5 -1.5 -1.5 -1.5 -1.5 -1.5 -1.5 1.1 8.5 35.6 40.3 39.7 35.2 42.4 51.9 66.1 65.4 64.7 56.3 52.8 50 48 44.7 43.1 44.7 47.3 43.5 43.6 49.4 49.4 42.5 37.2 31.1 19.9 10.8 5.6 3.1 0.7 -1.5 -1.5 -1.5 5.5 8.3 15.7 24 37.6 42.1 40.5 40.5 45.1 48 48.9 42.4 43.5 45.4 53.8 53.3 45.8 37.9 36.4 41.9 47.6 47.5 42.5 57.5 60.1 72.7 79.1 76.9 75.4 89.3 107.2 108.6 105 102 106.6 104.4 98.7 105.7 104.9 99 96.9 98.8 95.9 94.7 92 103.5 105.4 107.5 107 112.2 122.9 127.6 126.6 125 118.7 117.1 116.5 117.1 129.9 135.8 137.4 138.9 142.9 143.5 147.7 143.8 132.1 134.1 144.9 154.8 157.8 159.7 166.2 188.2 199.8 212.4 210.7 206.2 219.1 219.3 221.2 223 219.6 219.8 216.4 214.4 213.1 211.1 211.8 209.7 204.2 202.6 186 185.3 185.4 187.8 188.8 199.1 201.2 203 205.2 202.4 193.3 182.8 172.8 157.5 154.3 163.9 163.5 165 167.5 169.6 160.2 152.9 154 157.7 169.8 174.8 174.4 175.7 174.3 174.5 173.2 155.8 150.3 148.3 152.3 152.2 141.9 134.5 131.4 126.6 113.8 114.5 109.5 111.7 110.1 105.4 94.7 105.3 121.6 120.8 123.7 121.2 107.2 111.1 120.1 124.9 124.3
-1.5 -1.5 -1.5 -1.5 -1.5 -1.5 -1.5 -1.5 -1.5 -1.5 -1.5 -1.5 -1.5 -1.5 -1.5 -1.5 -1.5 1.9 8.9 33.1 42.8 45.3 41 36.5 45 65.4 65.9 65.1 60.2 54.1 50.2 45.8 43.2 44.7 45.6 51.5 49.1 44.4 45 47.9 41.9 35.2 30.9 28.7 18.3 11.6 5.3 3.2 -1.5 -1.5 -1.5 -1.5 6.2 9.7 22.8 37.8 44.5 43.9 46.2 46.9 50.3 56.2 47.5 48.9 47.1 53 55.5 50.8 38 36.6 43.7 47.2 48.7 45 49.3 56.2 70.7 82.3 84.8 84 83.8 101.1 108 104.7 101.5 100.1 100.5 101.3 119 113.7 106 105.2 108.2 101 103.5 93.6 99.2 105.6 107.3 108.2 108.7 118.2 122.8 128.3 130.8 122.8 115.5 116.9 113.2 129.5 131.9 137.3 137.7 143.5 148.5 148.4 151.7 142.8 132.5 137.4 147.6 159.4 162.6 162.2 169.3 182.2 196.5 202.5 202.2 205.4 218.1 213.4 217.4 214.3 213.9 211.3 212.8 208.9 206.4 205.1 202.3 197.4 196.1 189.9 184.5 185.9 190.7 192.9 194 202.8 204.2 208.3 205.8 199.3 186 178.5 164.4 154.1 161.4 169.4 166.9 167.1 168.5 170 157.2 153.9 156.6 161.5 171.5 173.4 174.1 174.1 173.9 175.2 167.8 152.6 148.9 146.6 152.6 153.6 138.6 136 129.3 125.5 114.4 113.4 110 111.3 112.7 104.4 93.5 105.8 115.3 119 121.4 119.6 105.4 115.5 122.8 122.5
-1.5 -1.5 -1.5 -1.5 -1.5 -1.5 -1.5 -1.5 -1.5 -1.5 -1.5 -1.5 -1.5 -1.5 -1.5 -1.5 -1.5 2 20 31.3 39.3 48.2 48.4 43.7 35.9 43.6 58.3 65 61.7 59 51.6 46.1 44.2 46.4 45.5 54.8 52.8 45.3 44.2 46 43.6 37.3 32.8 33.1 24.4 16.1 10.5 7 1.9 -1.5 -1.5 -1.5 1.5 4.3 18.2 38.4 46.1 47.6 49.7 47.7 52.2 55.7 60 50.9 56.3 49.8 49.3 52.8 42.2 42.9 42.7 45.1 46.4 49.5 46.5 52.8 68.4 78.2 90 99.7 96.4 94.5 106.9 102.1 99.6 99.6 98.6 106.2 119.1 121.7 116.8 106.7 113.1 108.2 107.9 105.5 95.2 106 107.5 109.3 108.4 111.7 122.3 125.1 134 128.6 121.4 117.6 116.3 118.2 127.8 135.1 138.3 143.8 153.6 157.8 148.7 149.1 139.3 134.6 145.2 151.3 165 159.9 165.5 171.2 175.1 188.3 196.3 199.9 196.6 206.8 209.2 211 208.7 203.2 203.3 201.3 201.9 199.4 192.7 192.1 191.4 188.6 185.6 192.7 191.6 195.1 191.1 198.5 205 207.9 207.4 205 191.8 185.7 174.7 157.6 157.5 167.4 165.1 165.3 169.3 174.4 166.3 153.2 153.6 156.4 164.1 170.5 172.9 172.5 172.4 173.7 170.5 154.1 148.6 146.6 143.8 149.3 140.9 138.2 133 125.8 123.5 115.6 109.3 109.4 113.2 110.9 104.2 93.5 102.5 114.7 119.5 118.9 111.6 105.8 118.3 118.8
-1.5 -1.5 -1.5 -1.5 -1.5 -1.5 -1.5 -1.5 -1.5 -1.5 -1.5 -1.5 -1.5 -1.5 -1.5 -1.5 -1.5 1.2 8.2 34.4 39.7 47.2 51 54.6 45.7 39.4 43.5 56.5 62.6 61.1 54.1 49.4 45.4 44.8 45.1 54.7 51.9 46.2 43.8 43.8 44.4 45.2 36.8 32.8 30.6 19.9 16.3 14.8 8.1 -1.5 -1.5 -1.5 -1.5 1.4 15.1 32.3 44 47.9 47.6 51.9 50.8 59.9 58.2 64.2 56.3 54.6 49.8 52.8 42.1 40.3 45.6 45 47 50.1 49.1 52.5 63.2 76.7 85.5 97.8 110.3 101.1 104.3 103.1 104.9 101.2 98.7 108.2 114.6 126.3 121.3 112.3 110.2 112.5 108.7 116.9 107.7 103.8 109.1 109.9 111.1 110.2 115.1 122.2 131.5 131.9 124.2 119 119.9 117.1 121.6 134.2 136.2 140 155.5 167.6 162.5 153.8 149.1 144.9 150.6 161.7 157.1 157.3 158.2 164 165.5 171.1 184 191.5 188.6 194.5 198.6 204.2 202.7 199.6 196.8 196.2 196.3 190.2 185.6 187.3 186.1 184.6 186.1 188.7 193.9 197.9 197.8 194.4 205.9 205 205.6 204.8 200.2 188.7 179.7 163.1 159 163.3 168.4 164.7 167.3 174.5 171.3 160.4 151.7 154.3 158.4 166.7 170.3 171.1 170.6 168.6 171.9 155.1 147.3 145.4 143 138.8 139.2 134.4 134.8 124.6 122.9 115.4 110.6 108.4 110.4 108.3 107.9 99.8 92.3 102.3 113 114.5 114.9 108.8 107.7 114.5
-1.5 -1.5 -1.5 -1.5 -1.5 -1.5 -1.5 -1.5 -1.5 -1.5 -1.5 -1.5 -1.5 -1.5 -1.5 -1.5 -1.5 1.2 5.4 34.8 43.3 47.6 51.4 58.6 56.5 47.1 40.1 46.4 55.7 60.9 57.8 54.1 49.9 46.2 45.7 51.2 50.2 47.4 44.8 45 46.3 52.5 48.7 33.8 32.7 27.1 19.8 21.6 16.3 3.5 -1.5 -1.5 -1.5 -1.5 3.5 24.5 42.1 45.3 47.9 51.7 50.4 52.4 60 65.8 61.1 56.2 50.3 48.5 43.5 41.2 48.8 48.7 50.5 49.8 56.7 46.5 52.4 61.7 73.3 86.7 103.3 114.1 101.8 108.5 105.8 102.2 99.7 103.6 116.3 123.1 124.6 121.3 111.1 110.6 109 120.9 125 106.9 110.3 112.7 114 111.2 111.5 114.2 124.2 127.2 127.7 124.3 121.6 118.5 120.2 126.9 135.1 139.8 156.3 172.7 175.2 172.3 156.7 157.4 148.3 182.1 175.4 159.3 158.3 159.1 161.1 167.5 173.3 182.2 183.3 183 193.6 197.1 195.7 197.6 195 183.5 181.8 182.2 181.3 181 182.9 182.2 193.3 189.9 195.6 200 205 190.4 201.7 204 204.9 205.2 201.7 192.8 188.1 173.5 162 158.6 166.4 164.3 162.7 169.5 172.8 165.8 155 151.1 156.6 159.1 167.8 169.5 169.3 168.2 163.6 155.7 146.2 143.2 139.6 134.4 128.8 128.9 130.5 123.4 120.1 118.2 118.3 107.7 106.6 104.4 104.6 102.5 96.5 92.3 99.8 109.4 112.3 108.6 102.2 105.5
-1.5 -1.5 -1.5 -1.5 -1.5 -1.5 -1.5 -1.5 -1.5 -1.5 -1.5 -1.5 -1.5 -1.5 -1.5 -1.5 -1.5 1.4 8.1 30.1 46.4 48 50.4 56.4 56.6 50.4 39.6 40 46 55.7 56.3 53.8 53.4 46.8 46.3 52.7 56 53.7 46.6 45.1 45 54 54.1 40.6 35.9 38.7 32.6 26.7 23.4 13.9 3.6 -1.5 -1.5 -1.5 4.4 12.4 36.5 43.9 43.8 51 50.5 50.2 65.3 65.7 60.7 59.7 52.9 46.9 45.8 48.1 50.5 48.9 51.6 53.2 52.9 48.4 52.6 58 65 77.4 92.3 112.7 110.3 106.5 106.2 101.8 100.7 100.8 107.2 120.2 128.2 129.3 120.1 110.9 110 121.7 130.8 124.1 111.3 113.7 118.4 113.1 111.5 112.7 120.2 123.6 124.8 124 121.1 120.9 119.1 122.1 128.5 135.9 150.1 175.7 183 181.6 175.4 170.9 157.2 155.8 173 176.4 160.9 157 156.6 163.7 169.2 175 177.8 176.5 180.1 187.2 192.8 194.6 193.3 185.1 175.6 174.2 173 174.8 178.2 188.3 197.6 193.5 194.3 203.4 203.2 196.9 195.9 204.3 205.1 202.7 200.6 196.2 193.9 183.5 164.5 159.7 160.1 161.4 162.6 164 175.6 170.2 158.9 151.2 150.5 155.6 159.1 168.2 167.5 164.1 153.9 149 143.7 140.6 138.3 134.4 124.5 120.6 123.9 120.5 121.1 119.3 116.5 115.2 105.5 105.7 103.9 101.6 92.3 97.8 93.7 91.2 104.3 101.9 94.7 89.2
-1.5 -1.5 -1.5 -1.5 -1.5 -1.5 -1.5 -1.5 -1.5 -1.5 -1.5 -1.5 -1.5 -1.5 -1.5 -1.5 0.6 2.1 9.6 25.6 34.7 47.3 49.8 52.5 51.8 50.2 49 38.4 39.7 42.8 47.1 51.4 54.7 48 46 57.9 61.4 56.5 50.6 46.9 50.2 50.6 57 47.1 35.8 39 37.1 31.9 26.9 23.2 9.1 -1.5 -1.5 -1.5 -1.5 11.7 23.4 39.5 39.8 44.3 49.5 45.7 60.4 67.6 61 60.1 54.7 46.2 52.1 68.7 49.1 54.5 50.9 57.7 55.6 55.5 49.3 57.4 60.7 70.4 84 101.9 114.5 113.6 110.3 103 101.9 101.2 104.9 116.9 131.8 137.1 131.6 112.4 111.9 128.4 131.6 128.6 125.3 113.6 123.1 120.1 113.2 111.9 114.7 121.7 123.3 124 124.7 121.2 122.4 122.9 125.1 135.6 151 169.7 189.7 193.2 186.9 181.7 171.9 155 159.8 163.3 158.2 155.3 155 163.1 167.3 171.7 171.2 171.4 171.6 181 186.4 188.5 186.6 182.1 174.6 170.3 169.5 168.7 168.8 184.6 196.9 197.6 198.2 200.4 206.2 201.9 200.4 200.3 209.3 208.4 201.2 198.7 194.4 184.7 172.9 163.4 160.2 159.5 161.6 164 167.4 172.7 166.6 153.3 149.3 150.4 156.7 156.8 158.7 155 153.3 141.9 138.5 137.9 136.6 137.2 131.1 122.4 115.8 116.4 120.1 118.3 118 118.9 110 103.7 99.6 101.8 94.7 90.6 96.3 93 90.1 91.3 89.9 88.7
-1.5 -1.5 -1.5 -1.5 -1.5 -1.5 -1.5 -1.5 -1.5 -1.5 -1.5 -1.5 -1.5 -1.5 -1.5 -1.5 0.9 2.7 3.4 13.2 30.6 44.5 54.8 52.1 50 48.9 47.8 45.8 40.2 41.1 44.4 48 50.8 48.3 47.4 57.5 63.9 61.3 54 48.9 57.7 49 57.3 45.1 38 37 34.8 32.3 23.9 23.1 17 -1.5 -1.5 -1.5 -1.5 10.2 12.5 30.9 34.4 41.3 40 43.9 51.5 68.8 66.8 58.2 55.9 47.1 51.4 73.9 58.5 53.2 53 62.4 61.7 60.4 51.6 57.6 59.4 65 81.6 90.2 113.9 117 116.3 111.8 99.1 104.1 104.7 114.6 129.4 138.8 135.5 118.6 113.7 131.7 136.1 137.1 130.8 118 119.8 128.7 119 112.6 112.7 114.2 119.6 121.7 123.5 125.5 123.5 123.2 129.1 133.5 150 168.5 192.7 205.3 200 193.8 187.1 171.1 153.5 154 153.8 154 154 153.9 163.1 166.1 169.2 168.6 168.7 174.8 182.9 183.3 181.9 180 174.9 169.9 168.1 166.7 168.3 179.7 194.5 200.3 201.1 197.6 203.1 206.3 202.7 202.4 208.2 212.1 207.2 195.5 192.8 188.8 177.5 170.8 160.8 159 160.8 162.7 163.6 170.3 169.4 166.2 151.3 147.3 150.5 150.5 151 149.6 142.8 137.3 134.4 130.9 133.8 134.8 136.2 125.4 116.3 117.1 114.9 118.4 119 116 114.6 102.7 99.4 97.4 93.9 88.6 92.6 92.3 92.3 91.3 90 91.9
-1.5 -1.5 -1.5 -1.5 -1.5 -1.5 -1.5 -1.5 -1.5 -1.5 -1.5 -1.5 -1.5 -1.5 -1.5 -1.5 1.6 5.8 6.5 9.5 26.4 42.4 46.4 53.9 50.7 49.7 49.6 54.2 45.2 40.8 43.9 46.3 46.8 45.2 48.4 62.2 63.9 65.8 64.8 51.6 56.1 52.5 46.4 48 42.5 36 37.2 33.2 23.8 23.9 22.1 5.8 -1.5 0.5 -1.5 -1.5 8.8 16.4 23.9 31.5 41.2 43.1 46.8 69.6 72 63 55.7 50.7 51.6 69.5 73.8 59.8 56.3 59.3 67.8 62.4 56.7 50.1 58.5 61.4 70.1 81.3 94.7 112.4 120.4 116.5 100.9 107.3 108.1 115.2 125 143.6 143.5 125.5 116.7 127.8 143.6 140.7 136.2 129.6 118.3 128.5 124.7 117 113.2 113.3 115.1 120.4 124.7 124.2 130.6 130.2 132.9 138.3 146.9 168.4 188.2 207.6 207.5 210.7 199.2 189 166.9 154 153.3 153.6 153.7 153.8 155.2 160.2 166.6 166.4 167.7 172 179.5 180.6 179.3 177.8 173.2 168.6 167.1 164.6 170 176.7 190.1 201.3 202 200 200.2 206.7 205.2 207.3 205.8 212.8 210.4 201.9 189.9 188.7 182.8 177.8 170.5 161.2 159.5 160.7 161.8 167.1 167.4 168.2 159.3 148.7 146.1 147.6 143.9 142.1 139.3 134.4 132.9 131.1 132 133.3 135.5 130.2 118.3 112.5 111 112.6 121 117.4 112.8 101.2 97.9 94.9 93.8 88.8 88.5 88.2 89.8 90.2 91 90.2
-1.5 -1.5 -1.5 -1.5 -1.5 -1.5 -1.5 -1.5 -1.5 -1.5 -1.5 -1.5 -1.5 -1.5 -1.5 1.5 2.2 5 9.2 12.5 18.7 30.8 42.2 46 49 50.2 51.4 53.5 50.8 43.1 42.7 51 43.1 43.5 44.8 52.4 60.1 64.3 65.7 58.6 51.3 51.6 48.1 46.4 45.8 40.3 33.7 33.1 26.9 22.2 24.7 16.4 5.4 8.1 2.2 -1.5 5 15.1 17.6 19.9 33 41.6 42.5 55.7 75 71.5 55.9 60.4 58.6 64.4 77 67.2 58.1 55.5 68.2 67.9 63.4 52.5 56.8 59.2 70.1 81.9 83.8 96.5 112.1 116.9 100.4 104.4 109.5 110.9 127.3 141.1 148.2 133.7 127.5 126.8 147.2 149.9 142.8 137.3 125.6 128.9 127.2 119.3 115.2 114.2 114.7 117.6 123.3 123.6 127.9 133 135.8 145.7 151.1 168.5 186.4 204.6 208.9 212.2 211.3 201 190.3 168.9 156.5 154.2 153.9 153.6 156.1 160.2 166.7 171.9 176.7 173.1 173.3 178.7 176.5 175.1 171.6 170 165.1 164.2 168.2 176.1 185.1 196.9 202.9 200.8 199 203.1 207.3 205.8 209.8 205 208.7 207.7 192.7 186 184.4 182.1 182.1 168.5 163.7 161.3 162 161.8 168.2 166.4 164.7 152.1 147.4 145.5 143.5 137.8 136.1 131.9 131.4 129.4 130.8 132.5 132.2 132.9 119.6 112.7 111 110.3 114.9 115.4 111.8 107.4 102.4 95.7 92.7 91 88.4 88 88.1 88 87.4 87.4
-1.5 -1.5 -1.5 -1.5 -1.5 -1.5 -1.5 -1.5 -1.5 -1.5 -1.5 -1.5 -1.5 -1.5 -1.5 3.2 3.8 4.5 6.4 10.6 19.1 26.8 34.1 39 46.6 53.7 58.2 60.8 58.5 47.1 42.6 42.4 43.4 44.5 44.2 50.7 56.5 60.4 67.5 64.5 53.1 53.3 55.3 46.3 45.5 42.7 37.5 31.9 27.8 22.5 26.7 22.1 7.2 11.4 11.1 7.4 2.5 9.8 16.2 18.6 29.4 41.7 41.4 43.5 61.6 66.8 55.5 63.2 65.6 68.5 74 71.5 66.6 59.5 63.2 69.5 69.6 61.8 57.4 58.3 62.9 72.5 77.5 86.7 99.4 110.6 98.6 96.4 107.7 112.2 126.4 145.7 152.5 142.9 132.1 126.5 138.1 151.3 144.7 137.9 132.8 136.3 129.6 124 117.8 115.6 115.7 116.3 119.8 125.8 126.4 132.8 137.8 147.5 155 169.8 180.8 196.6 208.2 211 211.9 210.8 204.6 188.1 172.3 160.7 154.2 155 159.5 164 167.8 172.9 178.8 178.8 174.1 175.8 175.1 172.9 172.4 172.4 164.8 164 166.6 174.1 180.2 187 198 201.8 197.9 203.9 205.8 202.4 205.9 206.2 201.7 204.6 192.4 186 183.7 183.3 184.6 174.2 166.1 163.3 165.4 163.1 159 165.3 165.4 154.7 148.2 145 143.3 136.8 136.5 132.7 132.5 131.6 130.9 129.7 129.8 132.3 117.5 114.3 111.4 110.1 114.7 113.3 112.6 108.7 107.5 105.4 94.9 91.7 90 89 87.9 87.7 87.3 86.5
-1.5 -1.5 -1.5 -1.5 -1.5 -1.5 -1.5 -1.5 -1.5 -1.5 -1.5 -1.5 -1.5 -1.5 -1.5 3.4 5 4.1 7.2 8.4 17.7 26.8 30.7 37.4 45.9 53.6 62.9 67.1 70.2 58.7 43.7 43.8 42.7 48.2 45 48.7 56.4 57 63.4 65.1 54.4 58.7 54.8 50.7 45.9 43.5 40.2 30.6 24.9 20 17.9 20.1 9 9.5 14.6 8.3 6.7 2.8 13.2 17.6 22.5 33.3 38.4 41.6 45.9 50.4 52.4 60.2 66.8 79.3 85.3 79.4 74.2 62.5 60.6 72.9 71.9 67.3 60.6 67.5 60.7 67 71.3 81.8 88.1 97.7 95.6 88.3 103.3 116.4 129.3 150.9 161.2 151.1 135.8 136.1 134.9 150.8 153.4 141.2 138.9 136.9 134.7 130.5 123.9 120.5 118.4 116.9 118.5 119.8 125.4 134.7 136.4 148.3 157.8 171.2 182.6 190.1 200.7 205.7 212.5 211.9 210.2 205.8 185.4 173.9 164.7 159.9 161.6 165.8 170.9 176.3 179.9 182 180.5 175.9 175.3 173 172.6 170.9 166.5 163.1 164.9 168.8 175.1 180.2 184.8 192.8 195.5 199.4 204.9 199.2 198.1 199.9 198.3 197.7 194.4 189.9 187.1 187.7 184.6 176.3 175.6 165 168.4 171.2 166.2 154.4 164.5 152.9 147.3 143.1 142.7 134.8 134.9 132.8 133.6 137.6 136.3 125.6 125.5 129.8 122.1 114.6 112.7 109.6 109.4 113 115.7 119.9 114 105.5 106 99.1 101.2 94.8 88.5 88.6 87.9 88
-1.5 -1.5 -1.5 -1.5 -1.5 -1.5 -1.5 -1.5 -1.5 -1.5 -1.5 -1.5 -1.5 -1.5 8.6 8.4 5.6 4.9 8 9.2 15.1 29.4 34.8 36.7 42 51.1 69.3 71.4 74.4 73.1 55.8 50.2 50 45.1 47.7 45.5 55.1 55.8 57.6 64 54.9 59.2 63 54.1 46.4 44 39.4 32.2 24 20.3 17.7 15.2 11.8 8.7 13.5 10.4 8.9 3.7 4.1 17 22 23.6 38.5 37.9 38.1 40 54 57.7 65.2 83.4 88.1 88.1 84.1 77.4 65.1 70.4 73.8 71.6 68.9 62.4 64.5 66.2 72.9 79.8 81.7 86.8 92.2 86 97.1 116.8 133 155 173.6 159.7 149.2 143.9 138.3 145.5 157.3 148.9 143.1 135.9 139.9 134.9 131.7 127.5 123.5 120.5 123 122.8 128.7 135.4 144 147 160.9 177.6 185.7 187.9 192.9 200.5 206.8 212.8 211.8 211.3 205.4 180.6 176.1 173.4 167.4 166.9 173 178.8 180.7 182 182 177.4 175.8 173.9 170.8 170.1 167.9 163.5 163.5 166.1 171.3 175.8 178.6 181 186.3 193.3 202.3 197.6 194.3 197.4 198.4 200.7 198.1 195.7 191.3 191.1 190.2 179.8 171.1 168.3 167.2 177.4 172.6 166.1 150.9 152.4 146.5 145.1 135.9 133.9 132.5 132.3 129.3 127 132.7 128.7 123.9 125.3 124.2 114.4 112.3 110.4 111.5 112.6 117.3 122.9 120.8 114.2 104.4 102.9 104.6 102.2 97.8 91.2 88.5 87.9
-1.5 -1.5 -1.5 -1.5 -1.5 -1.5 -1.5 -1.5 -1.5 -1.5 -1.5 -1.5 -1.5 -1.5 4.1 13.2 6.4 7.7 6.4 10 11 25.9 34.1 40.4 41.5 53.5 74.7 77.4 76.3 70.4 61.8 60.9 62.9 54.4 52.2 59.3 54.5 52.6 56.6 59.3 63.1 61.8 66 63.2 50.7 46.8 44.4 38.1 29.7 25.4 20.1 17.8 18.9 9.6 8.9 11 7.8 3.9 5.6 9.4 19.4 22.8 34.6 35.7 26.2 27.7 49.3 57.5 62.1 78.7 90.5 91.4 93.3 83 73.9 70.9 74.3 79.7 75.9 67.2 62.7 60.4 72.1 72.5 81.6 79.3 86.2 82.5 96.4 118.1 134.9 154.4 166.5 159.4 157.2 144.8 144.1 145.2 153.1 155.4 147.7 138.3 146.7 141 134.3 130.6 126.8 127.6 123.7 125.2 128.3 138.3 146.1 144.4 160.6 173.9 184.3 187.3 188.6 191.9 199.4 209.1 214 213.4 215 197.1 181.8 175.3 173.8 167.2 171.9 178.7 180.6 180.9 180.3 180.4 177.1 175.7 172.2 168.3 167.3 164.3 161.7 165.7 169.8 172.5 175.9 178.3 180 183.8 190.4 192.1 193 195.8 202.8 207.3 202.8 199.4 196 191.3 189.5 190.5 174.4 169.3 167.7 175.4 176.1 168 152.8 143.3 145.9 139.7 130.8 132.7 131.8 130.4 129 127.7 124.3 124.8 123.7 123.5 124.7 114.6 111.8 110.5 109.9 109.5 119.2 122.6 119.6 114.7 108.4 112.5 111 111.9 110.5 101.6 104.7 93.5
-1.5 -1.5 -1.5 -1.5 -1.5 -1.5 -1.5 -1.5 -1.5 -1.5 -1.5 -1.5 -1.5 -1.5 2 6.2 11 7.8 7.4 10.1 10.4 17.2 29.3 40.2 47.4 53.1 74.9 77.7 75.7 73.5 63.7 66.4 70.2 64.6 53.7 58.9 59.9 49.7 52.3 61.8 63.6 67 65.5 65.7 61.2 50.9 47.4 41.1 35.1 27.9 20.3 21.7 22.3 12.8 12.4 15.7 19.8 7.8 3.3 6 12.5 21.1 21.3 23.2 19.3 19.3 38.2 55 53.1 77.9 80.4 92.7 94.8 88.7 83.1 84.2 74.5 75.4 78.6 73.3 62.9 61.8 63.7 75.1 75.6 77.8 80.7 81.5 100 114.4 128.9 147.2 156.6 154.7 163.7 156.9 147.6 144 150.8 152.2 146 141.3 139.6 145.1 138.9 135 135.8 133.1 130.8 127.9 129.3 141.6 150.4 153.1 164.1 173.6 177 178.7 180.7 186.2 191.3 204.2 207.8 212.6 217.2 208.9 196.7 182.5 176.9 170.2 168.3 171.7 175.9 178.7 179.1 177.2 175.6 174.3 172.3 167.2 164.8 162.7 161.6 164.5 169 173.1 174.9 178.4 180.9 183.2 183.8 186.4 191.3 201.6 208.8 210.8 207.6 201.9 196.6 193.1 189 190.6 178.6 169.4 169.7 170.5 179.8 170.3 157.9 149.6 149.3 132.5 125.4 125 129.3 127.5 127.5 124.5 124.4 120.8 120 123.1 121.3 121.4 111 110.4 110.8 110.5 108.5 117.2 115.4 112.8 109.7 108 107.7 109.8 111.7 107.7 107.5 106.2
-1.5 -1.5 -1.5 -1.5 -1.5 -1.5 -1.5 -1.5 -1.5 -1.5 -1.5 -1.5 -1.5 -1.5 0.8 2.5 5.9 6.5 8.7 8.7 10.2 12.7 25.7 39.1 44 57.6 59.9 75.4 74.7 73.1 65.4 67.3 73.4 71.3 66.7 54.6 59 57.3 52.7 59.6 71.8 71.5 68.1 67.6 66 60.3 55.9 45.8 48.3 33.9 23.4 19.9 21.9 16.1 12.8 20.7 25 21.7 8.2 4.3 5.8 12.9 16.8 17.8 15.2 19.6 31.9 47.9 47.8 72.6 86.5 92.1 96.6 93.9 88.5 82.7 83.3 79.5 78 73.9 64 63 59.9 66.9 70.6 74.3 70 85.3 99.3 114.1 119.9 134.9 143.7 150.4 165.8 168.1 154.6 146.6 150.9 153.2 144.4 141.3 138.5 146.2 146.1 142.1 141 142.1 137.6 133.7 135 142.2 157.5 157.2 156 170.2 175.7 178.1 178.4 178.8 183.1 192.5 202.3 208.8 214.3 218.1 215.1 191 176.9 173.5 168.7 170.1 172.7 174.8 176.9 175.4 173.6 172.3 171.8 168.9 166.9 163.7 165.2 161.9 168.9 173.1 171.8 177.7 179.9 182.1 185.7 187.2 190.3 200.5 213.5 216.7 209.8 204.6 196.5 192.9 188.2 189.2 190.2 172.4 171.5 166.9 171.6 173.8 162.2 149.4 150.2 142.6 127.8 119.6 125.9 126.6 127.5 125.7 125 120.4 118.3 118.9 121.1 119.3 111.5 110.6 110.9 113.2 112.6 109.7 113.5 107.4 105.9 103 104.5 102.7 103.2 102.2 103.2 99
-1.5 -1.5 -1.5 -1.5 -1.5 -1.5 -1.5 -1.5 -1.5 -1.5 -1.5 -1.5 -1.5 -1.5 -1.5 1.1 3.3 7.1 6.2 8 9.3 10.5 15.5 29.9 41.1 54.5 62.6 63.6 70.9 69.8 61.5 69.7 74.9 76.4 73.7 65.9 57.3 63.2 58.7 57.7 66.8 72.7 70.9 71.4 66.6 63.2 64.1 49.8 55.1 46.7 32.4 20.7 21.2 18.1 19.2 16.8 23.5 23.6 20 4.5 5.1 4.8 14.3 14.7 14.7 20.2 24.6 37.3 42 62.2 79.5 86.7 88.8 85.4 89.9 84.4 87.3 78.3 76.1 75.1 73.8 64.5 63.2 55.7 60.7 64.6 70.7 90.5 97 113.4 113.3 119.2 125.6 141.8 158.2 168.4 161.8 146.4 147.4 152.2 146 142.1 140.8 144.9 149.2 145.2 145.8 144.2 146.8 141.7 135.1 147.1 157.5 164.3 156.6 165.2 169.9 177 178 177.3 177.2 184.5 202.8 208.1 211 218.3 216 204.4 182.3 175 170 169.6 171.4 174 175.6 175.3 175.6 173.8 170.6 170.6 165.9 165.3 166.9 165.6 162.2 169.2 172.7 175.9 180.4 184.2 187.6 186.2 187.5 194.8 211.5 220.3 216.5 210.4 202.6 197.2 192.6 187.6 189.3 181.7 172.5 171 167.4 168.4 162.9 155.3 144.7 142.5 138.2 130.9 116.2 122.8 126.5 127.5 128.5 124.1 123.1 116.7 122.6 117.8 117.4 111.5 112.7 111.7 111.3 108 106.6 102.9 97 97.6 101.9 96.4 98 101 102.3 100.4
-1.5 -1.5 -1.5 -1.5 -1.5 -1.5 -1.5 -1.5 -1.5 -1.5 -1.5 -1.5 -1.5 -1.5 -0.7 1.2 2.1 10.3 10.2 7.2 8.5 10.5 13.6 25.4 35 45.9 55.6 66 63.4 65.2 60.2 73.6 76.7 78.7 80.2 74.3 63.6 59.8 66.3 60.8 61.9 73.6 73 72.7 69 62.9 60.2 53.8 57.4 58.9 42 22.7 20.6 23.2 20.3 17.8 20.1 20.5 21.3 11.9 4.8 5.6 15.2 10 12.3 18.3 23.8 33.9 39 50.7 67.4 90.5 85 81.1 88.3 86.9 82.2 83 77.6 79.8 76.7 67 63.4 57.2 55.8 53.1 63.9 89.3 93.3 108.1 113.7 111.6 120.9 132.9 141.7 156.6 160.1 155.6 147.7 150.3 151.7 142.8 142 141.4 150.9 151.4 150.2 148.4 149.7 155.1 145.7 149 159.7 169.3 167.4 158.4 167.5 174.1 177.9 175.5 175.3 180.7 198.4 210.9 207.9 216 217.9 211.5 193 178.7 174.5 169.3 172.2 174.7 175.8 175.8 175.9 175.8 174.8 168.9 166.4 165.4 166.7 166.6 162 166.4 170 175.6 180.7 184.7 185.8 185.1 185.5 189.7 201.7 213.6 218.7 212.4 206.9 202.7 198.1 183.8 182.7 180.8 173.6 172 161.5 163 161.7 156.1 145.1 139.1 131.9 132.5 123.1 114.1 122.8 127.5 126.8 125.1 122.2 116.4 112.8 115.1 115.6 115.7 111 109.3 108.9 106.6 100.8 103.6 95.9 93.6 93.6 96.5 96.1 99.2 97.7 97.5
-1.5 -1.5 -1.5 -1.5 -1.5 -1.5 -1.5 -1.5 -1.5 -1.5 -1.5 -1.5 -1.5 -1.5 -0.7 0.7 2 7.9 13 7.2 8.2 9.4 16.6 21.1 30.1 44.1 50.5 59.5 69 59.1 60.6 67 73.8 82.4 84.7 83.9 72.5 62.6 62.5 64.3 62.3 72.8 73.9 73.2 67.7 69 61.8 59.1 58 59.6 47.1 31.5 25.4 23.4 30.9 21.2 17.9 21.9 23.5 14.6 9.7 11.4 8.3 9 10.9 17 21.2 27.4 34.7 51.1 57.6 78.6 79.5 79.7 85.2 84.9 80.6 79.9 74.5 78.8 79.9 75.3 63.8 60.7 54 53.8 59.3 76.9 88.1 98 112.5 109.2 119.8 133.4 137.9 140.8 149.5 160.2 152.2 148.8 151.1 150.9 143.6 141.8 148.9 154.3 152.8 152.9 149.2 155.3 156.4 153.8 162.9 173.3 174.2 168.3 167.2 168.9 173.9 173 172.2 177.8 199 209.3 209.9 206.9 214.2 212.9 203.4 186.6 179.6 172.4 174.6 175.9 175.6 175.4 175.9 176 174.8 168.7 167.1 165.9 165.6 166.6 164.9 161.8 166.5 173.4 178 179.9 184.6 184.2 182 183.4 191.6 205.3 216.7 209.2 203.4 200.1 197.8 187.2 179.1 176.8 175.5 172.7 164 156.8 156.2 152 148.1 141.5 134.9 123.5 122.5 115.7 113.8 127.2 127.3 124.7 119.5 115.1 109 112.1 117.7 116.4 117.3 109.5 107.5 105.8 100.6 93.3 96 97.9 91.8 93 94.8 95.8 89.6 91.7
-1.5 -1.5 -1.5 -1.5 -1.5 -1.5 -1.5 -1.5 -1.5 -1.5 -1.5 -1.5 -1.5 -1.5 -1.5 0.3 1.7 5.4 13.7 7.8 7.6 9.7 15 19.6 30.4 38.3 44 49.9 53.1 56.1 63.7 64.3 69.2 80.2 84.9 88.6 79.7 73.7 69.3 68.9 69.2 70.9 75.5 74 75.5 66 63.7 67.2 56.9 55.8 53.3 41.3 31.4 26.6 31.3 29.9 18.3 19.4 23.8 15.3 15.9 10.2 6.6 8.6 17.2 16.8 20.7 24.1 28.7 45.9 48.9 59.3 72.5 70.8 83 82.4 80.6 76.2 71.6 68.1 73.5 74.8 65.1 64.5 53.1 53.7 59 68.1 81 89.8 98.4 104.9 110.6 122.8 132.9 137.8 142.1 159.6 159 149 150.8 153 149.9 142.7 144.8 151 153.7 154.1 155.9 151.3 157.8 154.9 164.7 171.5 174.7 171.8 169.5 171.3 170.6 170.6 172 179.7 195.2 207 203.9 202.9 212.6 213.9 206.4 193.9 188 178.8 175 175.6 175.3 175.6 175.7 176 175.2 172.7 168.5 166.2 165.3 166.9 167.7 166.3 163.4 167.3 171.4 176 179.8 182.6 177.7 179.4 185.7 194.4 199.9 197.9 196.9 197.4 193.3 188.7 179.3 173 173.6 172.9 164.8 157.4 151.6 149.1 148.9 141.8 137.2 134.6 116.8 116.8 113.7 111.6 125 127.2 125 122.2 109.6 103.9 110 112.7 112.3 112.9 108 106.7 110.4 98.9 84.4 89.1 88 87.1 88.2 91.4 88.3 82.1
-1.5 -1.5 -1.5 -1.5 -1.5 -1.5 -1.5 -1.5 -1.5 -1.5 -1.5 -1.5 -1.5 -1.5 -1.5 -1.5 1.7 5.5 11.4 8.4 9.4 8.8 14.5 17.6 29.1 35.5 38.2 42.3 46.6 56.2 71.6 69.3 68.8 69.1 78.9 88.9 88 85.2 74.5 72.8 69.6 64.6 74 75.7 76.4 71 71.7 70.2 67 59.5 51.9 44.3 38.5 34.2 29.2 30.7 23.4 16.7 22.7 15.5 16.7 9.1 14.3 8.1 13.1 15 20.6 21.2 27.3 35.1 50.2 45.3 49.8 64.2 70.4 81 81.7 74.4 69.7 64.9 72.2 67.7 67.6 57.4 52.3 53.4 55.4 64.4 73.1 79 80.3 93.5 105.4 116.3 132 135 137.7 152.7 169.6 154.4 149.5 153.9 156.8 146.8 145.2 148.3 150.2 153.7 160 155.3 156.9 159.8 158 169.1 171.5 176.3 176 175.2 172.4 171.1 173.2 178.5 189.2 201.4 197.3 194.1 205.8 212.2 212.1 207.6 195.3 183.8 177.7 175.7 176.4 177.3 177 176.1 176.8 172.9 168 166 166.6 167.3 168.5 168.6 163.1 163.3 167.2 169 172.8 180.6 175 173.3 178.9 185.4 190.4 191.6 187.8 192.4 192 187.3 178.4 172.5 171 172.6 167.5 157 152.7 146.6 146.2 140.1 138.5 135.4 123.1 114.9 111.6 110.7 110.3 121 126.6 125.9 122.5 105.4 101.8 113 112.9 108.7 108.7 107.6 109.7 98.4 83.4 80.2 80.9 78.9 82.2 85.6 85.9 82.6
-1.5 -1.5 -1.5 -1.5 -1.5 -1.5 -1.5 -1.5 -1.5 -1.5 -1.5 -1.5 -1.5 -1.5 -1.5 -1.5 1.8 6.3 11.6 10.3 14.6 11.3 9.9 16.8 22 38.7 38.2 38.6 37.9 57.4 76 73.7 71.3 80 70 76.3 80.7 86.2 84.6 73.3 70.1 68.6 71.8 75.8 75.8 76.5 75.5 74.7 73.5 66 60 49.6 46.8 44.7 38.1 35.7 33.1 21.1 21 16.6 13.4 8.4 13.2 11.9 8.5 13.8 16.7 19.8 26.6 34.9 42.7 46.7 37.8 47.6 63.6 75.1 79.7 78 65.1 67.4 59.4 67.4 65.2 49.7 52.4 53.2 53.9 57.7 62.7 63.3 67.5 83.5 100.5 111.5 129.2 132.8 136 145.5 169.8 170.8 151.9 152.6 159 151.4 149.6 147.8 150.9 151.9 156.6 158.6 160.8 168.5 162.9 161.4 168.9 173.1 174.6 175 176.5 172.2 172.5 176 181.9 185.5 189.3 191.3 204.7 211.7 219.5 221.8 199.3 190.5 182.4 177.7 177.6 177.1 175.6 175.8 175.8 179.4 169.3 165.1 167.5 168.5 168.9 168 166.5 160.5 163 165.8 167.6 172.2 170.3 169.9 173 177.9 180.3 185.3 189.1 188 190.8 188.2 179.1 172.1 169.8 172.9 172.5 160.2 151.2 146.6 143.7 139.9 138.7 136.9 127.6 114.3 107.9 109.7 110 110.4 112.5 120.7 123.5 121 103.2 104.5 110 109.4 102.8 113.2 107 93.3 86.5 75.2 78.2 76.4 74.8 78.4 82.2 74.3
-1.5 -1.5 -1.5 -1.5 -1.5 -1.5 -1.5 -1.5 -1.5 -1.5 -1.5 -1.5 -1.5 -1.5 -1.5 -1.5 1 2.6 9.7 10.1 11 13.7 12.7 10.1 21.4 28.1 38.6 37.4 39.8 55.7 79.4 83.4 83.2 78 79.5 71.9 78.1 83.4 86.7 81.3 71.2 72.1 65.7 70.7 75.9 78.2 77.8 80.2 75.7 71.5 65.4 54.1 56.4 56.7 47.8 41.6 33.9 28.4 18.7 16.3 10.2 15.7 19.7 15.9 13.2 12 14.2 16.9 18.4 32.9 46.4 45.3 33.8 37.8 49.8 62.7 69.5 69.7 64.9 64.3 61.6 56.2 58.6 48.2 49.3 52.7 53.9 54.5 55.4 58 65.1 77.2 95.3 110.1 126.9 136.1 136.8 151 166.8 181.8 163.1 154.2 159.5 159.7 150.8 148.8 150.4 152.2 155.9 164.8 163.9 169.4 171.7 165.3 168.9 171.5 173.6 176.3 175.4 176.8 176.4 176.9 177.3 181 187.6 190.5 205.5 213.1 225.6 225.2 212 193.7 188.1 178.9 176.2 175.7 175.4 175.1 173.9 177.9 171.9 167.1 167.4 169 169.4 168.9 166.5 163.4 162 163.8 165 165.2 166.4 169.3 172.8 171.5 172.9 175.9 182.9 185.6 193.7 191.2 181 172.9 170.1 170.7 171.5 171.1 158.1 147.3 142.4 139.7 137.7 135.3 133.3 116.6 107.2 104.8 108.8 109 111.1 111.2 112.4 112.1 114.2 97.9 101.6 105.5 100.6 100.6 105.2 104.6 86.5 80.8 75.1 74.3 74.4 73.8 75.6 72.8
-1.5 -1.5 -1.5 -1.5 -1.5 -1.5 -1.5 -1.5 -1.5 -1.5 -1.5 -1.5 -1.5 -1.5 -1.5 -1.5 0.3 2.2 7.7 9.2 8.1 9.3 9.3 11.6 13 17.8 32.2 36.8 38.9 52.1 80.3 89.6 88.1 80.7 81 82.3 73 77.7 84.9 83.9 80.6 69.1 67.9 65.8 67.4 81 92 87 82.8 75.8 72 66.5 62.6 64.8 60 53 43.7 37.3 27.4 15.8 13.4 21 28.4 19.5 13.4 12.6 11.8 15.6 17.1 23.9 31.4 31.3 30.5 30.6 41.5 50.3 65 64.9 60.9 57.9 54.3 50.2 46.3 47.5 47.3 51.9 52.2 53.3 54.1 57.7 60.9 70.3 89.9 109 129 135.2 148.5 151.9 161.1 188.8 175.9 162 163.9 164.9 159.2 154.4 151 153.7 154.5 168.8 168.5 172 175.2 171.9 168.7 176.4 176.1 177.6 188.5 184 184.5 179.8 178.8 180.8 187 193.6 198 211.9 222.7 227.7 218.8 198.1 189.4 183.1 175.9 174 173.7 172.6 172.2 172 172.1 170.4 168.1 169.1 170.4 169.7 167.7 165.4 162.8 160.5 163.7 163.3 163.5 169.2 171.5 170.3 171.4 173.6 175 178.9 181.2 179.3 176.9 173.5 169.9 168.8 169.4 165.7 164.9 153.9 142.6 140.3 137.1 137.4 137.3 122.7 110.1 105.2 103.5 104 106.1 108.5 110.8 117.1 117.7 104.7 97.7 94.3 95.4 93.8 89.3 88.9 84.8 81.5 74.2 71.5 74.1 74 73.9 71.9
-1.5 -1.5 -1.5 -1.5 -1.5 -1.5 -1.5 -1.5 -1.5 -1.5 -1.5 -1.5 -1.5 -1.5 -1.5 -0.1 1.3 2.2 7.4 8.6 7.4 7.4 7.9 10.9 11.2 16.3 23.3 22.8 34.9 49.3 78.5 93.7 97.8 95.1 82.8 92.3 84.2 74 74.8 81.4 85.5 75.6 68 66.4 67 76 96 93 91.3 81.5 77.1 80.4 74.5 63.4 64.7 55.5 54 43.1 37.6 20.9 14.3 21.7 37 36.5 18.6 13 11.7 14.3 13.5 15.6 31.1 30.4 27.9 36.4 34.7 43.1 55 58.1 59.6 56.4 50.9 45.3 45.2 47.2 46.4 49.4 50.6 53.2 51.7 53.7 59 66.4 82.1 103.3 121.6 134.6 147.7 147 151.9 171.1 178.3 171.6 163.3 169.8 171 157.7 156.4 156.3 157.8 167.9 175.7 177.9 177.3 181.2 173.7 175.4 178.6 178.3 191 190.4 187.8 185.2 183.2 187 188.4 189.3 194.3 198.9 220.3 222 223.1 205.3 194.4 182.1 177.5 174.6 172.8 172.9 172.3 172 170.7 170.2 168.5 170.6 171.1 170.7 169.1 167.1 164.7 160.6 162.3 162.5 161.8 166.4 169.2 170.7 170 171.9 171.9 175.1 176.1 175.6 174 169.9 166.2 166.3 165.2 162.3 157.3 156.8 146.6 140.2 139.3 138 138.2 134.1 114.7 106.7 104.6 102.7 107.6 106.4 105.9 111.3 119.3 114.5 100.7 101.4 93.9 95.2 92.4 90.5 90.6 91.5 90.5 77.6 72.3 74.9 70.8 75.3
-1.5 -1.5 -1.5 -1.5 -1.5 -1.5 -1.5 -1.5 -1.5 -1.5 -1.5 -1.5 -1.5 -1.5 -0.1 1.5 3.3 2.2 4.7 6.2 8.7 9 8.2 8.4 10.5 11.5 13.1 16 28.5 45.6 67 89.7 96.3 102.9 95.7 91.5 92.5 81.3 74.9 75.6 82.9 85.8 75.9 67.1 68 71.5 88.8 99.2 91 86.9 87.3 88.1 77.7 76.1 65.2 59.6 56.3 45.9 38.6 23 16 20.5 25.9 36.7 27.6 16.1 11.4 12 14.3 18.4 26.2 33.1 31.2 47.4 44.5 35.1 48.2 50.4 56.5 54.9 45.7 44.2 44 44.3 45.3 46.9 49.3 50.5 50.7 53.7 55.4 62.8 76.2 97.3 116.2 134.6 136.2 139 145.9 160.9 178 174.6 169.3 165.9 169.8 164.9 160.3 160 160.6 163.9 176.5 178.7 185.1 188.4 181.8 174.3 176.9 179.2 187.1 192.9 188 187.2 186.4 190 188.6 188.1 189.8 194.1 206.9 222.5 223.4 213 197.8 185.9 177.8 174.8 172.5 172.5 172.4 171.4 170.2 170.3 168.3 170.9 171.8 170.6 169.6 168.2 163.8 160.7 160.9 160.9 161.5 163.7 167.8 167.6 167.3 168.8 171.1 171.5 174.6 176.4 172.7 167.7 166.1 164.9 164.9 162.7 156.1 154.5 150.8 146.3 142 140.2 138.8 135.1 129.4 114.7 108.7 105.2 103 106.5 103.4 106.2 114.2 109.9 97.5 90.1 94 96.8 95.5 94.4 93.2 93.5 89.3 84.8 73 71.6 72.6 69.5
-1.5 -1.5 -1.5 -1.5 -1.5 -1.5 -1.5 -1.5 -1.5 -1.5 -1.5 -1.5 -1.5 -1.5 -1.5 1.8 4.3 3.1 2.2 3.2 6.5 8.4 9.6 8.4 8.5 9.7 10.7 13.8 20.9 38.1 56.8 81.7 96.2 98 102.2 96.5 93.8 90.6 80.5 79.3 77.6 86.9 81.7 71.9 72.2 80.9 80.1 96 97.3 89.5 98.9 92.1 78.7 73 68.3 65.5 58.7 50.2 40.9 26.3 16.5 17.2 17.2 33.9 35.1 22.1 13.4 12.9 15.3 19.9 26.9 32.1 32.1 50.5 51.7 50.2 41.2 40.6 53.9 53.5 41.5 43.5 45.5 44.2 45 46.4 47.8 48.4 51.9 55.9 54.9 56.9 69.5 87.9 107.3 124.6 131.3 132.1 143.1 153.6 179.9 176.9 179.1 170.3 170.5 169.1 160.2 162.4 167.9 164.6 173.6 183.8 185.6 190.9 191.2 188.4 175.7 179.7 181 190.8 188.2 186.9 188.3 196.5 196.6 190.1 188.6 190.4 202.5 214.3 217 215.2 204.9 196.2 176.6 174.3 173.6 173.1 172.7 171.6 170.8 170.7 168.5 170.6 172.1 172 170.5 167.2 164.3 161.6 159.2 160.9 161.6 162.6 166.2 167 166.4 167.3 169.7 169.1 171.2 175.7 176.6 169.2 163 163.9 163.8 161.6 159 154.6 151.8 149 144.6 141.3 139.3 133.4 129.2 117.1 115.6 111 104.6 102.4 106.9 101.5 101.5 101.6 94.8 89.2 89.2 99.3 102.8 96.5 92.7 91.6 88.8 86.6 82.3 68.3 67.8 65.2
-1.5 -1.5 -1.5 -1.5 -1.5 -1.5 -1.5 -1.5 -1.5 -1.5 -1.5 -1.5 -1.5 -1.5 -1.5 2.2 5.1 6.1 3.5 3.9 7.5 8.7 9.6 9.1 8.3 8.6 9.6 12.1 16.6 31.4 45.8 79.9 93.1 98.6 98 100 100.4 99.3 90.2 82.7 81.4 79.9 82 75.9 79.5 87.7 86.6 88.6 100.8 97.9 102.7 99.4 82.8 74.6 70.6 65.9 61.9 57 41.8 24.9 24 17 14.3 16 26.6 24.3 17.2 13.9 15.8 22 25.7 38.4 34.2 36.1 54.1 52.6 40.8 39 46.2 57.1 40.6 41.7 44.6 44.6 45.1 46 47.4 48.3 53.8 57.9 59.6 56.2 61.3 77.6 100.2 119 131 128.8 133 148.5 181.1 177.7 182.5 181.8 168.7 169.4 162.2 167.3 168.3 169.2 171.9 182.1 187.9 189.7 192.7 192 182.1 178.3 180.4 181.8 184.4 185.2 186.3 202.5 201.1 195.5 190.6 188.9 193.9 201.7 211 207.4 205.5 197.2 184.2 173.4 172.5 172.1 172.7 171.5 171.2 171.2 169.7 171.8 172.9 173.1 171.3 169.1 165.2 162 159.6 161 160.8 165.5 161.2 165.3 166.3 165.7 164.8 166.8 169.1 170.1 177.3 172.7 167.6 161.4 161.3 162.8 161.1 160.2 151.1 150.4 146.6 143.2 137 135.8 132 123.3 116.3 115.7 109.5 108.3 102.2 101.8 98.8 100.1 95.5 88.3 86.8 92.3 97.1 100 96.6 93 89.2 81.6 80.2 76.5 61.8 62.8
-1.5 -1.5 -1.5 -1.5 -1.5 -1.5 -1.5 -1.5 -1.5 -1.5 -1.5 -1.5 -1.5 -1.5 -1.5 2.3 6.9 8.1 6.5 5.3 6.4 9.3 9.6 8.8 9 9.1 8.6 13.8 15.4 26.1 38.4 68.2 94.4 99.8 99.3 100 100.9 99.1 92.9 91.5 89.6 87.3 82.4 83 91.1 91.6 92.3 90 100.2 106 107.8 98.9 93 79 75 68.8 61.6 55.7 39.9 32.5 38.6 27.5 24.8 17.1 15.4 20.5 17.6 18.1 17.4 21.2 31.7 43.8 37.4 36.1 47.8 58.1 56.1 40.8 41.8 54 40 42.9 46.2 46 45.6 46.4 47.1 48.3 53.6 61.3 63.8 64 59.1 70.2 88.8 108.2 121 124.5 129.1 143.6 168 177.8 177.9 180.2 175.8 168.4 168.4 165.1 169.6 175.5 172.1 181 190.1 192.3 192.1 193.8 185.6 178.6 179.1 179.8 190 186.9 185.9 197.3 201.5 198.3 192 189.9 189 195.2 200.9 202.8 203 199 193.1 177.2 172.4 171.5 172 171.5 171.6 171.5 170.7 171.1 173.3 173.4 172.4 170.2 165.9 163 160.5 158.7 160.6 163.5 165 162.6 164.2 166.6 163.1 165.1 165.2 166.1 168.3 170.2 169.3 164.9 160.3 159.9 161.5 160.4 153.5 149.6 148.5 142.8 137.8 137 132.6 133.3 131.2 126.2 117.9 109.5 106.2 100.4 99.8 94.8 93.4 91.2 88.3 85.9 91.1 95.5 95.2 93.5 91.1 84.2 78.3 75.7 66.8 58.9
-1.5 -1.5 -1.5 -1.5 -1.5 -1.5 -1.5 -1.5 -1.5 -1.5 -1.5 -1.5 -1.5 -1.5 -1.5 2.2 4.2 7.7 8.1 6.8 8.4 10.9 9.9 9.8 10.4 9.9 8.7 11.5 16 23.4 35.9 54 84.3 95.3 100.8 100.5 100.5 102.4 110.2 100.9 96.3 94.1 86.6 92.5 98.5 90.6 101 97.8 101.7 110.6 111.4 104.4 93.6 87.1 84.3 79.1 58.2 50.5 36.3 38.4 42.4 37.5 34.1 29.3 23.6 19.9 17.8 13.5 19.9 22.8 36.1 41 44.5 43 48.7 58.3 59 43.5 40.8 49.9 40.3 41.4 51.7 53.3 49.6 47 47.5 50.8 53.6 62.7 61.6 73.5 63.1 64.2 79.9 100.7 112.9 123.1 127.7 139 162.1 180.6 179 179.7 177.5 175.9 168.8 167 168.8 180.6 181.3 178.3 188.7 195 194 193 193 183.4 180.2 182.1 191.6 191.4 187.2 194.8 199.5 199.5 193.8 193.1 189.8 193.7 195 200 201 198.2 195.2 182.6 174.2 172.5 172.7 172.9 171.3 171.3 170.8 171.2 173.9 173.6 173.1 171.8 168.2 164.7 161.3 159.7 159.1 164.3 166.5 160.9 160.9 164.4 161.6 162 163.2 164.7 165.6 163.5 164 161.8 160.8 159.1 160.2 159.6 154.1 146.1 145 141.6 139.1 134.2 130.7 135.8 135.8 134.2 119.2 112.5 107.6 102.1 96.8 95.7 92.3 92 91.1 85.4 85.3 88.5 88.3 90.6 90.6 86.7 83.4 76.7 66.1 57.2
-1.5 -1.5 -1.5 -1.5 -1.5 -1.5 -1.5 -1.5 -1.5 -1.5 -1.5 -1.5 -1.5 -1.5 -1.5 -1.5 1.7 5.9 8.8 9 9.5 11.4 11.7 11.2 9.9 9.8 8.8 11.9 15.4 22.1 30.7 44.7 73.8 93.4 99.5 100.3 103.8 102.1 114 121.7 104.6 98.7 103.2 97.1 100.5 98.9 95 102.8 105.1 112.4 115.6 115 99.7 93.8 91.8 82.3 67.5 50.4 35.5 35.3 44.5 57.6 43.4 41.5 30.1 24.8 19.7 14.1 19.8 29.5 36 45 42.6 47.4 54.5 62 59.3 54.6 44.6 44.6 40.9 42.5 51 58.6 60.1 53 48.7 54.9 58.2 64.1 67.3 69.2 70.2 60.6 74.2 95.2 106.4 114.3 122.5 136.6 156.2 182.1 181.7 179.6 183 178.4 175.5 168.8 167.2 182.6 192.4 184.2 181 196.7 195 195.5 196.9 194.2 182.3 182.8 191.8 192.1 189.4 195.7 205.7 205.3 203.7 197.3 190.4 199.6 199.3 193.8 198.8 197.7 197.1 184.7 179.4 173.6 173.1 172.6 171.4 171.3 171.4 170.9 172.7 173.7 173.4 172.2 169.6 166.9 163 160.1 158.2 160.3 164.5 163.7 157.6 156.8 156 153.6 161.1 162.5 162.4 161.9 160.5 160.6 162.7 153.4 158.4 157.3 153.1 145.5 143.2 141.1 141.1 135.8 134 128.8 132.8 135.2 129.8 117.6 116.3 106.2 100.6 93.2 92.6 89.7 90.6 89.9 82.8 83.2 85.2 89.9 91.6 87.9 85.3 77.6 69.1 57.6
-1.5 -1.5 -1.5 -1.5 -1.5 -1.5 -1.5 -1.5 -1.5 -1.5 -1.5 -1.5 -1.5 -1.5 -1.5 -1.5 0 2.2 8.2 10.3 11 11.2 12.5 12.1 11.6 10.9 9.8 11.3 16.2 21 26.8 41.4 64 91.7 98 100.2 99.1 98.7 112 124.5 118.2 107.1 108.1 110.7 103.5 107.9 96.8 98.7 113.9 118 111.8 108.7 106 97.2 90.4 82.4 72.6 54 34.3 35.6 46.3 57.3 51.2 48.8 41.2 33.5 26.2 16.1 16.3 29.5 43.1 43.5 48.3 49.1 50 59.7 60.3 58.3 56.3 46.7 40.7 44.4 51.3 62.6 69 65.7 64.5 57.4 62.3 69.9 70.5 65.5 72.8 67.3 69.8 88.2 102.9 110 115.3 128.4 147.3 178.9 180.6 182 174.8 177.4 183.7 178.3 170.2 180.4 194.6 194.4 184.4 188.1 195 193.6 199.7 200.2 191.1 189.3 189.6 193.2 190 194.9 216.4 214.3 208.7 204 194.2 197.3 205.6 198.4 195.4 196.9 196.4 187.7 182.5 174.6 172.3 170.7 171.6 173.9 171.2 170.6 173.2 172.5 172.5 173.6 173.3 169.8 167.7 164 160.6 157.7 161.3 164.2 163.7 155.2 152.5 150.4 155.9 158.9 158.8 159.9 161.9 157.5 158.6 151.5 152.5 155.4 148.8 145.3 139.4 140.4 142.1 136.1 128.9 123.1 126 124.6 124 116 118.6 110.5 96.7 88.2 89.7 88 90 88.5 82.9 82.2 84.4 86.4 87.7 86.5 84.7 78.8 66.9 59.7
-1.5 -1.5 -1.5 -1.5 -1.5 -1.5 -1.5 -1.5 -1.5 -1.5 -1.5 -1.5 -1.5 -1.5 -1.5 -1.5 0.3 2.6 6 9.4 11.3 11.4 12 14.7 13.9 11.1 10.8 14.3 17.5 23 27.3 37.1 53.9 81.4 94.9 99.5 98 98.1 104.9 112.5 120.1 112.5 114.6 114.5 114.1 106.6 100.3 98.4 111.7 121.4 119.7 107.8 107.5 98.9 91.2 83.6 73.2 59.4 43.5 37.1 47.1 56.5 63.7 59.1 50.5 42.5 34.5 21.5 14.6 22.7 37.5 41.6 48.4 57.7 49.4 56.9 60.7 61.1 58.2 53.8 45.9 49.2 52.4 63.6 71.8 78.2 76.8 72.8 67.2 73.9 76.3 68.9 74.6 72.4 65.3 82.1 97.3 109.1 114.3 120.8 142.8 160.2 165.7 169.8 170.1 177.5 184.5 188.3 184.5 180.8 192.6 198.2 196.2 186.3 190.6 191.9 194.7 201.8 198.4 188.5 193.4 195.3 198.2 193.9 215.3 221.7 215.9 208.7 204.2 193.7 201.1 204.9 203 197.1 197.6 191.2 180.9 177.1 174.1 173.4 171.1 170.1 170.9 171.7 173.3 172.9 172.3 172.7 174.8 173.3 170.3 165.8 162.2 159.5 156.1 161.4 162.5 154.7 150.2 150 153.7 158.8 158.4 159.3 160.9 155.6 149.3 149 147.2 150.3 147.7 144.5 137.4 138.6 141.2 137.2 130.4 127.5 121.8 118.6 122.2 117.2 115 110.6 95.7 89 85.8 86 87.6 87.1 82.8 81.1 87.2 87.2 87.3 85.6 81 82 75.1 61.3
-1.5 -1.5 -1.5 -1.5 -1.5 -1.5 -1.5 -1.5 -1.5 -1.5 -1.5 -1.5 -1.5 -1.5 -1.5 -1.5 1.7 2.2 3.7 8.5 11.3 11.4 12.6 15.3 19.2 12.8 11.9 18.5 20 24.3 34.3 37.3 43.6 69.3 90.4 94.2 91.7 95.4 98 98.4 101.8 102.7 115.9 122.9 119.5 118.7 106.1 97.4 107 114.3 116.7 110.1 102.1 100.8 97 87.5 76.8 55.9 50.8 42.9 44.9 59.2 66.2 65 55 51.9 38.8 27.5 14.5 17.9 44.9 43.1 48.9 56.5 51.9 49.6 58.8 60.8 55.4 60.4 51.7 51.7 59.4 61.9 75.6 89.1 90.1 84.2 75.1 74.2 77.4 76 74.3 80.4 71.4 75.1 92.6 103.8 112.8 116.6 128.2 149.1 155.6 173.5 177 169.8 178 186.5 188.3 179.7 194.5 196.8 198.6 199.4 187.5 189.8 195.9 201.7 200.7 197.2 196.6 202.9 205 200.6 207.7 218.3 221.1 215.3 209 199.6 195.8 204.9 213.1 203.4 195.6 193.2 180.1 176.8 179.8 174.1 171.9 170.8 170.2 170.7 172.5 173.6 172.7 172.3 173.7 173.6 171.5 169.5 165.7 160.2 157.7 158.7 160.7 157.4 151.3 148.1 149.9 154.4 157.2 154.6 156.2 151.4 150.1 145.8 142.7 148.7 147.1 140.3 136.1 134.1 135.7 135.6 128 120.2 118.8 113.3 109.2 106.9 103.1 100 96.3 95.4 94.6 83.2 83.2 86.7 81.9 80.4 81.8 85.1 83.3 84.1 80.7 78.2 75.2 61.5
-1.5 -1.5 -1.5 -1.5 -1.5 -1.5 -1.5 -1.5 -1.5 -1.5 -1.5 -1.5 -1.5 -1.5 -1.5 -1.5 1.7 2.2 2.8 5.3 10.1 11.1 11.6 15.5 18.8 13.3 13.7 18.4 22.2 23.9 33.4 39.1 44 54.7 79.2 89.6 87.2 88.1 91 93.4 84.7 97.1 121.8 122.5 125.6 124.9 115.4 105.9 101.5 110.6 118.1 114.5 104.3 98.9 98.8 93.8 79 60.6 53.7 47.3 44.1 63.8 67.8 70.9 64.3 54 46.3 30.8 16.5 15.3 28.6 45.8 49.9 50.4 52.2 52.2 52.1 59 67 69.5 57.9 55.2 62.5 63.1 75.9 90.3 100 90.8 85.5 77 78.4 81.3 76.6 82.9 82.5 68.5 82.5 99.4 107.7 116 122.7 133.4 150.1 163.6 165.8 164.5 174.3 180 188.2 191.6 191.2 199.1 199.3 202.6 193 191.1 192.9 201.6 203.3 201.6 197.7 205.7 209.6 211.1 207.9 218.8 223.3 220.8 212.1 211.1 201.1 204.4 209.2 206.1 204.1 192.3 181.9 177.9 181.4 183.7 174.4 172.4 170.7 171 173 174.9 174.4 172.4 172.3 172.4 172.5 171.3 169.1 164.3 157.6 155.8 161.5 159.9 151.1 147.6 147.3 149.2 152.7 154 150.2 147.2 149.2 144.4 143.2 142.4 144.8 136.9 133.1 131.2 131.2 134.1 126.3 121.6 119 115.9 108.5 99.9 96.4 94 92.7 94.9 91.2 84.7 81.7 82 80.4 80.6 79.9 80 80.9 81.7 80.6 77.9 74.6 65.5
-1.5 -1.5 -1.5 -1.5 -1.5 -1.5 -1.5 -1.5 -1.5 -1.5 -1.5 -1.5 -1.5 -1.5 -1.5 -1.5 -0.5 1.5 2.6 4.1 5.4 9.9 17.3 14.8 19.8 14.4 18.7 18.2 21.5 26.1 33.5 42.8 49.4 54.1 63.4 78.5 78 81.5 78.6 75.4 80.1 98.4 118.5 123 127.4 130.3 122.5 113 108.2 104.5 109.5 109.8 108.7 100.9 98.7 91.6 77 58.9 54.5 49.7 43 55.6 69 69.8 69.3 60.2 51.2 37.8 23.1 14.7 25.1 38.8 49.7 47.5 50.2 51.4 50.7 56.9 68.1 68.8 65.4 59.9 65 65.7 73.3 88.2 98.2 98.6 89.7 82.3 84 85.4 79.3 81.8 88.4 75.1 75 90.1 103.2 107.6 116.3 124.4 139 159.3 161.4 162.5 170 179.7 189.2 193.8 190.3 201.1 200.3 204.4 198.9 195.5 192.9 202.5 207.2 204.7 200.8 206.3 209.9 218.2 207.7 216.1 222.7 221.9 216.1 214.8 216.3 206.9 206.4 204.5 204.4 196.6 187.8 179.4 180.8 185.7 184 172.6 170.1 170.7 174 174.8 174.6 173.5 172.3 172.4 172.4 170.7 169.9 168.1 161.4 154.9 159 157.8 155.2 148 144.9 146.3 146.3 145.8 145 145.9 146.2 142.9 138.3 132.5 140.8 135.2 131.1 129.9 129.3 130.3 133.6 120.5 119.8 113.2 108.2 100.4 91.8 89.8 89.7 91 86.3 87.8 87.5 81.8 79.9 79.8 79.7 79.2 80.1 80.9 81.2 81.8 76.8 72
-1.5 -1.5 -1.5 -1.5 -1.5 -1.5 -1.5 -1.5 -1.5 -1.5 -1.5 -1.5 -1.5 -1.5 -1.5 -1.5 -1.5 0.1 2.2 2.5 4.2 5.4 15 14.4 13.1 13.9 15.4 17.3 21.5 26.6 35 42.6 50.6 53.8 53.9 63.6 72.3 72.6 70.4 63 76.4 95.6 106.1 122.1 123.6 133.9 126.2 115 117 111.4 108.6 103.2 104.3 101.3 100.8 88.1 76.4 59.2 56.8 49.1 46.1 53.8 66.5 71.9 73 72.3 62.7 45.1 27 14.8 21.2 39.4 46.5 45.8 51.1 54.1 51.1 57.6 67.3 70.8 74 63 69.9 71.2 72.8 87.1 99.3 105.4 96.9 89.1 90.2 91.6 91.4 90.7 94.5 85.5 73.7 86.2 92.6 101.6 106.7 120.9 131.4 146.9 155.6 158.5 165.7 178.3 186.8 191 197.6 198.7 205.1 203.2 205 201 194.5 193.5 208.8 209.7 211 206.5 213.1 217.2 209.9 213.8 222.9 225.5 223 219 215.7 211.1 213.4 209.5 200.3 201.8 192.2 179.2 180.3 185.5 192.7 180.9 171.2 171.1 172.9 175.5 174 173 172.9 173.3 171.9 168.5 167.7 166.7 163.1 155.7 153.2 156.4 147.1 145.6 146.1 144.4 141.6 143 141.6 141.4 145.4 144.2 140.8 131.8 135.2 130.5 129 130.3 128.6 128.5 123.2 122.9 116.8 108.7 105 103.9 90.6 87.2 88.2 86.9 84.5 88.1 88.9 86.1 79.5 79.7 80.7 79.6 80 78.8 80.3 85.8 83.5 72.3
-1.5 -1.5 -1.5 -1.5 -1.5 -1.5 -1.5 -1.5 -1.5 -1.5 -1.5 -1.5 -1.5 -1.5 -1.5 -1.5 -1.5 -1.5 2.2 2.6 5.4 5.5 12.2 13.4 12 13.5 15.2 16.4 21.1 25.5 35.1 42.6 50.9 50.7 55.5 53.9 61.7 59.4 50.3 60.8 74.2 89.8 102.1 113.5 121.1 123.8 124.6 118.7 116.7 112 109 101.8 97 100.5 100.1 88 76.5 57.5 58.3 50.3 48.2 51.8 65.5 72.4 83.2 79.4 63.4 48.9 33.7 20.3 18.6 29.4 41.3 46.8 47.6 53.5 51.1 57.4 63.8 68.1 73 66.7 74.4 73.4 72.9 84 102.9 108.6 109.3 91.9 91.5 95.7 98.9 101.4 91.7 94.2 78 86.2 86.5 95.2 101.7 110.8 121.6 132.8 145 152.5 164.7 174.1 184 198.2 195.6 194 210.9 205 206.9 205.6 196.4 194.3 202 214.6 214.2 211.2 219.4 224.4 215.7 219.3 222.7 227.4 229.6 225 222.8 217.5 212.6 213.3 206 204.9 197.3 182.3 179.4 185.9 192 195.2 180.5 174.8 170.1 171.4 174.3 173.7 173.2 173.1 172.3 170.6 168.3 166.8 164.3 158 153.7 153 153 151.3 150.6 149.7 143.1 140.5 139.8 139.5 134.1 140 140.6 132.6 125.3 125.9 125.7 127.3 127.2 122.7 119.2 116.9 117.1 104.1 102.3 101.4 91.9 87.1 85.7 86.5 85.3 84 83.9 83.1 81.6 79.3 81.8 80.6 79.1 79.4 80.6 83.3 82.7 72.7
-1.5 -1.5 -1.5 -1.5 -1.5 -1.5 -1.5 -1.5 -1.5 -1.5 -1.5 -1.5 -1.5 -1.5 -1.5 -1.5 -1.5 -1.5 2.2 2.2 5.6 7.2 10.8 12.1 11.8 12.8 14.9 15.8 16.9 20.1 27.8 39.3 48.9 49 47.7 45 47.9 48 47.1 53.9 68.1 79.7 98.8 105.3 112.2 119.3 121.9 116.8 108.7 106.6 111.7 109.7 94.8 96.3 93.3 86.7 75.1 62.1 59.3 50.3 52.5 49.7 70 71.2 83.9 84.4 67 54.7 41.4 29.5 18.4 25.6 33.7 47.7 53 45.6 60.4 67.1 65.1 68.1 75.3 70.1 71.5 72.6 74.7 81.8 96.3 106.9 109.2 100.5 94 96.5 117.6 106.2 98.2 102.1 86.8 94.4 94.3 90 97.8 102.1 119 125.4 145 148.1 164.5 184.5 195.6 197.2 196.1 195.3 204.3 213.1 207.3 206.2 202.8 199.7 200.8 214.8 221.4 219.4 223.6 230.2 226.5 216.5 224.9 221.5 229.6 232.8 223.5 220.5 215.3 208.5 206.4 208.7 204.4 187.8 179.8 180.2 186.7 193.7 194.2 187.4 174.5 171.7 171 172.6 173.9 173.3 173.6 173.1 170.3 169.2 167 159.9 156.1 153.4 153.2 152.5 153 152.6 151.8 142.9 140.6 138.1 138.1 136 135.6 130 124.9 120.5 120.9 121.6 122.6 118.1 117.4 113.4 107.7 104.8 96.7 93.5 89 85.9 85 87.5 87.2 83.1 81.8 80.4 80.4 80.1 81.8 81.6 80.6 79 83.8 83.5 83.5 79.1
-1.5 -1.5 -1.5 -1.5 -1 -1.5 -1.5 -1.5 -1.5 -1.5 -1.5 -1.5 -1.5 -1.5 -1.5 -1.5 -1.5 -1.5 -1.5 2.3 2.2 8 13.7 12 11.5 12 14.9 15.4 15.7 18.2 21 32 44.4 46.5 45.3 38 40.7 44.4 46.1 56.4 58.4 69.7 90.7 103.1 104.1 108.9 111.1 110.4 104.8 105.1 108.6 109 101.9 94.7 90.7 85.1 75 61 61.4 51.7 56.5 50.2 65.9 69.9 79.9 82.1 71.6 61.4 50.1 38 19.8 22.6 29.3 34.4 45.6 44.7 65.5 71.1 73.3 68.3 75.5 70.6 68.7 73.4 74.9 78.4 89.5 107.2 109.3 105.6 94.2 96.6 115.3 111.7 106.6 103.2 94.8 94.8 97.3 97.3 94.8 98.9 105.2 119.9 132.3 149.9 164.2 185.7 198.1 199.4 196.8 197.9 195 212.6 213.9 207.6 206.6 204.6 207.8 215.1 227.5 223.1 232.4 234.5 238.4 224 226 223 224.9 229.4 224.9 219.4 222.3 208.3 206.2 208.6 203.5 192.9 181.1 179.5 185.9 190.6 198.3 197.8 186.1 175.1 173 173.2 175.1 174.1 174.8 177.4 173.6 172.6 174.2 162.1 157.1 154.2 154.3 153.9 154.5 154.7 153.2 148.3 145.9 144.3 142.5 140.6 139 129.5 124.4 123.9 120.7 118.4 118.5 118.3 116.4 111.2 108.2 100.3 94.9 90 86.2 84.8 84.9 89.8 94.4 89.5 87.2 85.3 81.4 80.6 81.2 84 83.1 81.2 81.6 81.7 79.8 77.2
-1.5 -1.5 -1.5 -1.5 -1.5 1.5 -1.5 -1.5 -1.5 -1.5 -1.5 -1.5 -1.5 -1.5 -1.5 -1.5 -1.5 -1.5 -1.5 2.2 2.7 4.4 13.8 13.3 11.9 12.1 14 14.1 14.5 16.6 20.5 23.8 35.2 42.7 43.2 37.4 34.4 37.8 43.8 47.7 54.7 62.9 77.7 92.9 95.6 95.9 94.8 102.5 103.8 106.2 106 104 102.7 99.2 84.7 80.6 76.9 62.6 62.8 56.1 57 51 53.5 63.4 80.6 87 77.5 63.5 50.6 46.2 29 18.7 26.2 27.8 33.8 42.1 59.7 75.4 75.9 74.5 78.7 74 72.3 73.7 75.2 77.1 84 94.3 107.1 108.4 98.7 105.9 106.7 113.6 106 100.5 102 100.8 100 101 98.7 98.6 100.3 115.7 127.1 144 165.5 182.3 195.9 198.1 199.3 199.2 199.2 202.4 215.7 208.7 208.6 209.2 211.5 215.6 225.6 224.4 232 235.2 233 226.8 220.7 225.3 226.6 234 230.1 220.9 214.3 211.5 207 208.4 203.4 197.2 188.2 179.9 187.4 201 199.8 199.1 197.4 186.6 178.2 174.8 176.9 179 177.2 177.4 175 173.5 173.9 166 159.5 156.2 154.8 157 158.3 158.6 155.5 153 148.9 148.4 146.5 147.3 140.7 138.4 133.7 129.1 126.7 124.6 121 122 121.3 119.1 117.6 111.1 103.7 94.3 89.4 87.9 87.9 87 97.1 95.4 90.2 90.3 87.7 81.4 81 84.2 89 83.3 79.7 80 77.9 76
-1.5 -1.5 -1.5 -1.5 -1.5 7.4 -1.5 -1.5 -1.5 -1.5 -1.5 -1.5 -1.5 -1.5 -1.5 -1.5 -1.5 -1.5 -1.5 -1.5 -1.5 3.4 11 11.6 10.9 10.7 11.7 11.2 13.3 13.9 15.8 20.6 27.4 37.6 38.2 38.1 33.9 36.7 42.1 41.8 47.4 55.5 68.7 79.2 88.1 91.9 87 103.2 102.9 105.9 105.2 104 102.6 100.6 92.3 78.1 77.2 65.2 59.9 54.4 59.7 52.9 52.4 60.4 74.1 80 81.4 66.8 56.9 52.1 39.4 21 21.2 25 27.8 41 54.8 69.2 73.4 78.1 79.9 76.4 74.7 77.8 80.5 78.6 78.3 83.2 93.3 107.9 106.8 102.6 105.8 110.6 103.5 104.1 102.9 108.2 100.2 102.5 102 100.6 101.8 109.3 119.9 135 161.5 175.2 193.5 197.3 199.6 203.4 205.6 202.1 214.1 215.7 209.9 212.3 209.7 215.7 225.6 225.5 228.2 230.3 227.4 221.7 220.2 224.8 228.3 232.2 233.6 226 218.8 212.3 207.5 211.3 202.7 197.6 191 188.7 195.3 206.7 210.4 205.8 202.5 193.9 188.1 188.8 182.1 179.5 180.2 178 176.3 175.5 173.9 169.2 162.1 157.5 157.2 159.4 163.3 163.1 160.3 159 156 151.9 147.9 146.8 143.5 140.3 139.1 134.1 133 130.8 125.4 121 124.6 122.3 119.3 116.3 112.2 105.1 92.3 94.7 91.4 89.6 87.6 92.6 92.6 92.2 91.1 89.3 88.4 82.9 89.4 89.3 81.3 82.8 86.6 81.6
9.2 5.6 -1.5 -1.5 -1.5 -1.5 -1.5 -1.5 1.5 -1.5 -1.5 -1.5 -1.5 -1.5 -1.5 -1.5 -1.5 -1.5 -1.5 -1.5 -1.5 2.3 8.4 9.5 8.8 9.1 9.3 10.5 9.9 10.9 13.8 17.5 21.3 31 35.2 41.4 34.7 35.8 39.8 38.3 49.6 50.1 58.3 67.7 74.6 84.6 83.8 94 102.3 103.4 104.8 103.8 102.7 99.8 93.8 82.5 70.4 65.6 55.8 56.8 61.4 56.7 54.9 60.2 71.5 78.5 84.9 79.2 61.3 56.2 42.5 25.8 20.4 23.6 32 36.8 52.9 67.2 72.7 78.2 81.2 78.5 75.5 80.6 86.8 89.3 87.2 83.6 92.2 93.3 107.9 100.9 101 107.4 105.7 102 100.9 112.7 108.7 108.9 109.8 108.9 107.3 103.5 116.6 124.6 152.1 165.3 179.1 196.1 199.1 207.1 211.8 214.4 214.6 221.9 223.2 213.5 211.7 209.6 217.1 224.4 227.9 224.3 221.5 221.8 219 223.5 226.8 233.4 235.3 230.2 226.3 219.2 210 211.8 203.4 197.3 197.9 207.1 214.3 219.9 219.4 213.5 210.4 202.2 194.9 195.7 191.4 183.3 183.9 180.4 178.6 176.1 172.9 170.2 165.2 162.2 160.3 159.9 162.1 164.9 164.1 164 162.1 159.3 152.5 149.9 146 142.5 139.3 136.4 133.2 131.3 131.8 123.2 124 127.4 123.7 119.8 116.1 112.6 107.5 106.2 102.3 96.4 88.8 87.6 87.8 91.2 90.1 89.3 87.7 85.1 82.9 90.1 89.4 84.1 88 85.2
6 5.6 2.2 -1.5 -1.5 -1.5 -1.5 2.4 2.7 -1.5 -1.5 -1.5 -1.5 -1.5 -1.5 -1.5 -1.5 -1.5 -1.5 -1.5 -1.5 -1.5 3.2 6.9 8.2 10.3 9.9 10.1 9.9 8.9 11.4 15.7 19.1 28.7 32.3 31.9 32.2 35.3 35.6 36.8 47.6 49.9 50.9 58.6 70.6 69.1 82.4 87.4 98.3 101.6 102.9 108.6 101.5 98 94.3 86.7 74.4 63 59.7 56.1 61.7 63.4 58.4 60.4 63.2 79.7 87.2 80.6 67.5 53.5 47.8 31.1 20.5 24.6 40.6 41.2 53.8 68.9 68.9 75.8 83.2 81.3 76.2 82.7 101.7 101 95.3 93.9 92.6 106.6 97 95.2 98.8 106.7 108.8 98.3 99.9 107.6 113.4 110.1 122.9 115 113.1 112.4 110.8 116 135.2 154.4 167.8 183.9 197.2 204.9 213.2 216 218.8 217.7 227.7 224 212.2 210.3 213.3 217.3 225.1 222.1 217.6 220.5 216.7 222.7 225.2 233.9 235.8 232.6 231 231.1 214.7 213.4 207.3 198.3 203.7 238.6 239.2 249.4 242.5 225.9 218.5 212.6 205.7 205.3 202.3 192.1 182 181.7 180.5 178.1 175.9 171.1 169.2 163.5 163.4 163.3 161.9 165.3 169.7 165.8 165.3 165 159.8 154 149.8 146.7 140.3 136.4 133.4 131.9 129.1 124.1 126.3 127.2 128.7 122.1 122.1 122.4 121.7 120.3 117.5 110.3 102.2 97.3 92.7 89.4 89.2 88 86.3 84.2 82 86.3 90.2 88.8 90.9 88.3
5.5 2.6 2.2 -1.5 -1.5 -1.5 1.7 2.2 1.8 -1.5 -1.5 -1.5 -1.5 -1.5 -1.5 -1.5 -1.5 -1.5 -1.5 -1.5 -1.5 -1.5 1.2 5.2 6.8 8.8 9.3 9.5 9.3 8.2 10.1 15.9 17.7 24.7 30.1 30.7 32.9 37 36.8 36.2 41.9 46 49.9 50.9 56.2 67 82.8 87.3 96.8 101.7 101.5 109.8 104.8 99.2 100.7 98 87.4 68.4 60.4 56.7 58.5 64.1 61.3 63.8 64.3 74.9 92.3 82.5 73.7 59.4 49 37.9 23.9 25.3 38.2 42.3 58.4 72.6 71.2 75.3 85 82.7 80.8 81.1 97.5 103.6 99.6 105.1 93.6 105.5 106.6 98.1 95.6 103.4 106 100.4 99.8 102.1 109.6 112.3 126.9 122.2 117.5 115.1 119.4 113.3 125.2 136.5 156.7 168.1 196 198.6 207 217.6 224.9 214.9 227.5 231.1 222 211.5 212 212.7 217.3 222.2 220.3 212.8 214.6 212 222.7 226.4 232.9 234.1 231.9 231.9 223.5 215.2 210.7 200.9 211.1 245.9 250.1 257.1 262.4 248.2 228.4 222.7 216.3 215.5 208.5 207.3 190.5 180.6 180.5 179.8 176.4 173.1 171.7 166.1 164.9 166.9 163.9 165.4 167.5 167.1 166.7 166 164.5 159 153.2 148.6 144.4 139.5 133.7 131.8 128.5 127.9 130.6 127.5 127.8 126.1 122.8 127.1 126 125.8 126.9 123.7 116.4 113.5 107.5 98.4 94.7 99.4 98.7 96.1 90.4 83.5 87 88.4 94.9 94
4.6 9 5.5 -1.5 -1.5 -1.5 5.7 2.4 3.3 -1.5 -1.5 -1.5 -1.5 -1.5 -1.5 -1.5 -1.5 -1.5 -1.5 5.4 -1.5 -1.5 -1.5 -1.5 4 5.9 9.5 9.9 8.4 8 8.9 12.9 16.4 19.6 27.9 27.6 41.3 46.2 39.3 39.6 37.9 41.9 50.4 51.1 52.1 68.5 83 86.5 90.3 97.1 96.8 107.5 105.3 100.4 101.9 101.5 96.7 80.1 64.1 57.7 55.4 65.5 60.3 74.1 65.8 76.9 89.4 87.3 76.3 63.7 52.4 42.6 26.7 23.5 32.7 41.6 61.8 72.1 75.3 78.1 81 83.3 79.2 79.1 95.7 105.5 105.1 103.4 105 94.2 105.6 98.5 92.4 95.2 103.8 101.6 96.9 100.8 108.3 112.9 117.7 126.6 121 117.5 117.5 113.1 117.2 127.2 140.7 158.7 178.1 195.5 204.5 222.6 224.8 225.6 222.8 231 229.2 220.1 213.3 213.6 212.9 217.6 214.7 208.1 207.1 209.6 211.8 219.8 222.8 232.5 232.5 231.8 227.7 219.7 213.1 208.8 221.6 255.4 259.2 262.3 274.2 273.2 244.6 226.5 223 222.5 220.2 212.6 202.8 187.8 182.2 181.9 178.6 175.5 171.8 169.6 168.7 170.1 170.4 169.9 170 167.1 166.1 164.4 162.3 160.5 156.5 150.9 147.2 141.9 136.8 132.1 130.7 132.8 132.6 130.9 132 130.9 127.2 129.5 129.5 128.9 128.8 127.2 123.9 120.3 115.7 111.3 106 97.7 102.2 102.2 102.3 97.8 89.4 87.5 90.4 92
6.5 6.2 5.8 -1.5 -1.5 5.3 6.5 5.3 2.4 -1.5 -1.5 -1.5 -1.5 -1.5 -1.5 -1.5 -1.5 -1.5 -1.5 -1.5 10.3 -1.5 -1.5 -1.5 -1.5 5.3 7.7 9.9 8.6 7.1 7.1 11.3 15.8 18.6 23.2 24.7 36.4 49.3 47 45.9 45.5 38.8 49.8 55.8 60.7 60.4 79.2 87.5 90.4 97.8 95.3 98.3 109.8 108.5 106 105.1 100.3 90.2 67.9 60.1 55.7 59 63 71.7 68.4 74.8 85.4 89.8 78 69.6 59.3 50.3 33.3 23.6 32.1 39.3 52.2 73.9 83.2 79.9 84.5 85.8 81.1 78.4 86.7 98.7 106.7 106.2 106.5 94.6 106 93.1 92.7 92.1 103 94.9 95.4 99 107.5 109 111.8 118.9 122.3 114.2 112.4 113.7 112.8 120.1 129.5 151.5 165.2 195.1 200.7 215.4 224.8 226.6 223.8 227.8 231.2 231.7 215 213.7 213.6 211.7 211.6 208.4 201.1 198 207.5 210.6 214.9 224.2 231.7 231.9 230.9 227.6 219.1 216.1 221.2 260.5 262.2 268.8 281.3 281 271.5 242.7 227.5 223.7 226.9 218.2 209.5 200 188.6 183.4 180.7 178.1 175 172.6 169.5 171.6 171.7 177.1 179.6 173.5 167.7 163.6 161.6 159.5 159 154.9 149.5 145.8 142.9 137.9 132.5 132.7 134.1 135.7 137.3 133.7 129.7 132.2 130.9 130.8 130.7 128.8 127.5 123.6 120.8 117.1 112.9 111.6 104.3 102 107.6 103.6 98 90.4 88 89.5
11.7 9.6 6.8 -1.5 -1.5 4.1 8.6 5.7 3.3 -1.5 -1.5 -1.5 -1.5 -1.5 -1.5 -1.5 -1.5 -1.5 -1.5 -1.5 -1.5 7.3 2.5 -1.5 -1.5 -1.5 5.5 9.3 8.4 7.3 5.2 7.9 11.1 16.5 16.6 25.3 33.2 42.3 50.6 50.1 51.2 49.7 41.9 52 66.6 69.8 69.8 86 90.2 98.1 95.3 95.2 109.1 113.6 111.8 106 104.4 94 77.7 61.2 55.8 57.3 65.8 71.8 68.7 74.2 82.8 86.4 83.8 75.9 65.6 56.1 39.1 29.1 24 32.1 42.2 67.6 75.1 82.1 83.6 84.4 82.4 79.9 78.3 87.7 99 106.4 107.6 104.9 102.2 92.3 91.6 92.7 92.6 94.5 96 97.2 102.3 106.6 108.5 117.3 116.4 112.6 114.3 117.3 113.5 114.5 122 136.7 158 178.9 194.6 203.1 212.7 221.9 228.2 225.5 228.7 231 225.6 217.1 212.4 211 206.6 203.3 201.2 194.5 200 207 213.8 218 228.3 230.8 231.4 231.2 225.2 224.4 225.1 252.3 275.1 276 286.8 287.6 275.3 260.2 239.2 229.3 230.4 227.8 213.8 207.6 195.5 186.2 182.7 181.1 182.7 179.1 172.5 172.8 176.5 182 178.3 178.2 171.8 163.4 162.2 160 159.5 157.5 151.5 148 145.8 141.2 136.2 132.6 136.3 137.3 137.3 138.3 132.2 133.1 133.3 132.4 131.3 130.9 129 126.8 124.9 118.6 114.8 113.7 112.4 106.1 103.9 104.7 99.8 87.7 88.5 87.7
14.9 13.6 10.8 6 -1.5 -1.5 10.9 6.9 2.4 -1.5 -1.5 -1.5 -1.5 -1.5 -1.5 -1.5 -1.5 -1.5 -1.5 3.2 6 5.9 2.2 1.3 -1.5 -1.5 2 6.7 6.7 6 4.6 8.2 10.2 11.6 14.2 25 35.9 49.5 53 53.3 52.9 51.8 51.3 45.9 67.5 77.7 81.6 74.1 86.6 92.2 92 92.8 101.1 114.5 117.7 105 100.2 93.7 83.6 67.5 57.2 57.3 76.9 81.8 73.9 75.7 82 87.1 84.7 79.7 69.6 67.2 47.5 32.2 34.9 25.3 33.4 50.9 68.5 79.7 84.4 84.5 83.4 80.8 78.1 81 90 104.9 106.6 107.3 93.4 92.5 96.1 95.2 104 108.7 108 98.1 98.6 102.9 105.5 110.2 114.9 112.4 105.2 108.2 116.6 115.7 116 128 151.2 165.6 189.9 194.3 200.9 215.4 226.7 225.6 227 227.3 224.8 215.7 211.6 208.7 205 200.1 200.2 196 192.5 200.2 207.1 216.6 218.6 227.8 230.8 234.5 231.5 232.3 229.4 236.7 269 279.1 283.7 289.3 280.6 270.2 247.2 236.5 238.7 229.8 220.5 211.2 203.4 193.7 186.6 184 182.1 180.8 179.2 177.4 179.3 183.4 183.3 178.1 177.1 168.1 162 159.1 158.6 158.7 157.5 154.9 149.3 145.8 140.2 134.7 138.3 139.4 138.8 137.8 136.2 133.4 134.3 133.9 132.8 132.4 131.5 129.7 126.3 121.8 117.2 117.8 116.9 110.2 105.4 99.2 96.2 95.4 90 93.2
20.9 18.5 14.4 7.8 1.7 -1.5 9.9 6.5 2.2 2.2 -1.5 -1.5 -1.5 -1.5 -1.5 -1.5 -1.5 2.7 5.1 2.2 9 6.1 2.2 6.8 -1.5 -1.5 -1.5 -1.5 6.6 8.2 5.1 8.8 11.9 12.2 13.8 20.5 30.8 50.6 52.8 54.3 51.3 53.9 52.8 44.6 62.1 83.8 85.3 85.7 83 90.2 92 96.3 100.9 110.3 115.9 108.1 102.3 100.8 91.4 81.6 59.5 65.2 78.8 83.9 76.5 82 82 87.6 87.6 83.6 78.8 65.8 59.3 38.1 34.6 32.8 30.3 36.9 58.4 74.5 83.4 85.2 83.5 80.2 77.7 78.8 83.6 91.4 105.4 108 99.7 89 97 95.5 103.9 109.4 109.4 102.3 99.4 100.6 102.6 104.5 106.9 107.5 109 104.7 112.6 115.5 115.3 117 144 153.9 167.1 182.4 192.9 208.7 219.3 227.6 228.8 224.6 224.4 221.2 212.6 206.8 203 195.7 199.6 195.4 191.8 195.8 203.4 209.6 213.3 222.8 225.1 230.4 234.6 233.3 232.3 243.9 263 278.9 279.8 264.7 279.4 275.4 265.8 240.9 243.5 240.2 228.4 220.6 210.7 207.2 197.4 187.9 183.8 183.2 186.4 183.9 183.5 183.9 184.6 177.2 177.6 173.8 163.9 159.2 154.8 156.8 154.2 157.4 150 143.1 139.5 136.3 137.8 140.8 139.5 137.3 136.9 134.1 134.4 135.9 136.5 134.7 135.5 134.9 129.4 127.3 124.5 121.8 117.1 111.5 108.8 104.9 99.7 101.2 97.1 99.4
32.4 26.6 16.3 12 7.5 -1.5 2.7 2.7 3.6 2 1.6 -1.5 -1.5 -1.5 -1.5 -1.5 -1.5 -1.5 6.2 5.1 4.5 8.7 3.3 3.9 -1.5 -1.5 -1.5 -1.5 2.1 3.2 2.9 9 12.8 12.4 15.1 29.5 29.8 43.5 49.3 54 54.7 52.7 56 56.4 51.2 68.3 83.4 87.8 91 90.3 94.5 103.6 104.2 112.7 115.1 119.8 107.7 107 98.9 84.1 67.4 72.5 87.8 87.4 85.2 84.7 85 89 89.3 87.4 88.2 72.8 67.1 53.2 43.7 37.9 29.6 32.8 44.7 66.9 76.6 85.5 83.7 80.6 78.6 73.8 75.2 85.8 100.1 105.2 106.1 87.2 87.1 94.5 93.2 104.6 110.2 109.4 100.1 99.9 102.8 103.9 104.3 104.3 106.4 103.4 103.9 113.7 109.7 113.6 128.2 146.6 151.4 160.3 173.6 194 210.9 220 223.1 222.8 219.5 221.9 211.8 204.2 201.2 195.6 198.7 194.4 191.8 192.2 199.8 202.1 207.4 215.7 221.3 225.8 231.1 234.1 234.3 248.1 263.2 281.9 281.7 262 262 281.6 274.4 251.4 242.2 244.3 233 228.4 220.1 212.5 205.7 195.5 186.9 187.2 183.3 187.8 187.7 183.4 185.5 178.9 172.3 170.5 165.3 156.6 154.2 153.8 154.3 154.7 150.5 141.3 139.3 136.3 138.4 140.6 140.2 137.6 138.1 135.4 134 138.7 138.4 138.9 138.5 136.7 135.9 132.4 130.9 125.7 121 115.6 113 108.1 105 100 97.5 98.7
35.7 30.9 18 13.8 8.9 2.2 2.2 2.2 3 4.3 1.7 1.2 -1.5 -1.5 -1.5 -1.5 -1.5 -1.5 -1.5 6.1 5.2 6.2 5.7 4.8 3.4 10.2 -1.5 -1.5 0.6 2.2 2.2 4.8 9.4 10.8 14.3 29.5 35.2 30.9 47.9 51.1 52.8 51.5 62.1 64.2 60.8 53.9 75 87.6 89.8 95.8 93.4 105 113.9 112.5 115 120 108.2 104.7 96.1 84.8 74.2 78.3 91.5 97.4 98.8 87.7 87.8 96.5 96.3 93.4 86.3 82.4 68.9 59.9 48.5 48 33.9 29.1 35.7 59.5 71.7 82.5 82.4 80.2 78.3 72.8 68.5 80 99.9 101.5 101.2 87.9 81 84.1 86.1 94.8 109.8 110.5 104.9 99.9 100.5 103.6 103.5 104.3 103.5 103.1 103.8 103.2 105.3 112 115.6 131.5 144 145 153.4 178.7 198.8 205 215.4 211.5 214.6 215.9 209 202.2 196.6 191.6 190.1 196.7 191.2 191.7 195.3 199.9 201.3 205.4 215.7 223 228.3 231.3 234.8 254.3 269.9 279.6 276 262 262 279.3 275.7 269.3 247.8 240.7 237.3 229 224.5 220.8 210.6 205.4 194.9 188.7 182.6 180.1 187.9 182.4 183.3 181.5 175.5 169.8 166.8 159.6 154.5 151.2 151.6 151.5 146.8 146.3 139 136.5 137.8 140.1 140.8 140.8 138.7 136.1 134.5 138.9 142.1 142 141.1 145.8 143.1 140.6 136.8 131.1 127.4 124.3 121.1 114.3 112.9 107.3 99.3 97
37.8 37.6 25.3 14.3 12.1 2.2 2.2 2.2 2.2 6.7 5.5 5.2 5.8 1.7 -1.5 -1.5 -1.5 -1.5 -1.5 -1.5 6.9 8.9 11.5 6.5 4.4 12.2 5.2 -1.5 1.2 6.7 2.2 2.2 4.3 8.6 19.2 29 37 38.1 39.1 52.2 51.6 51 54.9 65.5 63.6 58.7 63.1 79.5 87.7 100.1 102.3 102.6 117.3 125.9 119.8 120.9 116.6 101.7 96.2 85.8 77.6 83.2 96.2 106 103.6 102.8 90.5 98.5 102.4 102 91.3 82.9 69.6 68.2 52.9 53.4 36.2 29.3 30.9 45.7 69.4 76.8 77.3 77.2 76.1 73.1 67.6 74.2 96.8 98.6 91.4 88.4 80.8 83 91.2 93.9 101.8 109.6 110.8 99.6 97.3 103.2 103.1 102.9 104 104 103.2 103.2 106.1 112.2 111.4 121 126.5 130.6 142.2 159.5 189 194.7 203 209.2 205.4 206.5 205 199.8 193.7 189.8 189.4 190.4 190.7 192.4 194.1 198.3 199.8 203.2 212 224.5 230.1 233.5 235.8 251.6 282.4 286.1 270.4 262 262 279.1 276.2 273.5 254 245.1 242.3 238.1 233.1 224.4 217.9 209.9 202.8 194.6 186.8 179.2 179.7 182.4 182.2 178.6 177.4 172.3 167.2 159.7 151.9 147.8 148.8 146.6 142.8 144.4 139.2 136.8 137.8 141.5 143.9 145.3 141.9 139.8 138.4 137.9 140.3 141.9 149.5 148.2 146.7 144.7 143 140.3 136.8 127.5 122.6 121.4 115.1 111.3 109.4 102
40.3 41.8 36 16.3 13.1 2.2 2.2 2.2 3.7 7.8 7.2 8 6.6 6.2 2.5 -1.5 -1.5 -1.5 -1.5 -1.5 2.8 10.8 13.8 15 6.7 11.9 10.3 5.5 6.8 8 7.8 2.2 6.1 8.1 15.6 29.8 34.6 41.8 41.6 47.8 47.9 51.6 52.6 62.5 64.7 65.5 67.9 70.8 84.5 98.9 112.6 110.9 115.6 126.6 125.8 129.4 122.3 102.9 94.6 83.2 75.2 81.1 94.8 108.8 109.3 113 102.9 98.9 107 103.8 96.1 85.9 72.3 72.4 59.2 50.4 41.2 30.7 28.6 36.1 57.8 67.7 67.3 65.3 65.9 68.2 66.9 67.6 77.6 86.8 94.8 81.5 78.3 80.2 86 93.8 98.1 105.8 109.9 100.6 96.2 96.5 105.8 101.2 103.2 102.2 102.7 101.8 104.4 106.7 110.8 109.5 116.3 125 133.8 151 178.8 192.8 197.3 206.2 194.8 199.4 198.7 196.9 189 189.3 189.3 189.8 190.6 191.8 194.3 196.8 201.8 206 212 220.9 233.2 238.7 235.5 249.8 285.4 291.8 270.2 262 262 277 277.4 271.4 256.1 248.9 242.1 241.3 244 234.5 224.5 220.1 211.5 205.1 190.8 180.1 177.2 178.1 181.7 180.7 176.9 173.1 167.7 158.5 149.7 147.2 146.1 144.7 142.2 140.5 138.4 137.9 138.3 140.7 145.8 151.7 148.8 144.8 142 139.5 137.7 142.4 148.2 151.3 149.5 145.3 145.2 141.1 137.4 133.8 126.4 120.9 117.6 114.3 113 109.3
39.6 40.3 39.8 29.9 16.9 2.2 2.2 2.7 4.9 10 11.4 11.5 5.7 5.6 2.2 2.2 -1.5 -1.5 -1.5 -1.5 -1.5 2.8 16.7 16.8 9.1 10.9 10.5 9.8 11.6 14.2 9.9 6.9 5.9 7 11 28.4 35.2 40.2 48 42.5 46.4 51.1 52 58.1 63.6 66.5 67.1 73.1 78.4 90 104.7 115.3 124.3 126.3 126.9 131.5 134 113.7 98.3 93.9 77 79.6 95.5 107.1 114.9 112.9 111.4 105.1 106.1 104.8 99.5 95.2 76.5 74 67.1 52.6 38 31.3 29.2 32.3 44.3 54.4 57.8 57.3 57.6 60.9 59.8 67.1 73.3 76.8 80.8 81 78 77.1 82.7 88.5 95 99.9 109.8 110 94.8 90.6 99.2 99.1 101.5 101 101.8 103.7 103.8 102.9 103.1 106.4 107.5 115 127.2 145.9 172.9 190.4 194.3 204.6 198.2 187.9 188.6 188.5 186.8 190.6 191.5 189.9 190.4 191.2 193.4 194.9 204.9 211.9 220 226.7 234.8 240.7 235 242.5 279.6 289.3 270.4 262 262 268.1 265.8 263.7 257.1 253.3 244 240.4 247 245.3 232.2 223.6 220.6 213.4 197.9 185.7 178.6 175.2 179.3 174.4 171.7 171.2 165.2 153.6 148.6 148 145.5 141.3 140.9 139 137.3 137 138.8 141 147.5 151.9 151.4 150.7 144.5 141.5 140.2 141.5 144.6 152.9 153.9 149.3 145.7 143.2 139.6 135.7 132.6 130.6 125.1 121.9 119.4 115.8
43.9 38.2 35.7 34 18.3 2.5 2.2 2.5 5.9 11.4 15 18.1 11.4 2.6 2.2 1.5 -1.5 -1.5 -1.5 -1.5 -1.5 0.8 11 16.3 11.4 8.4 6.9 14.6 16.6 16.3 15.5 11.8 5.8 5.2 7.7 17.2 31.5 36.6 39.7 45.8 42.6 48.7 49.9 59.4 63.8 66.4 68.1 73.1 80.6 87.1 96.6 110.8 125 125.2 130.3 134.6 137.4 124.3 103.6 95.1 78.7 80.2 97.1 108.3 112.8 119.3 114.1 108.3 113.5 109.9 103.8 100.6 88.4 76 74.8 55.7 48.6 32.4 30.5 29 35.1 41.8 43.5 45 48.4 49.7 53.8 61.7 72.1 74.5 75.8 77.1 76.1 75.3 88.7 93.1 92.4 96.2 108.1 106.2 91.2 91.6 89.8 95.7 98 98.6 101 100.5 100.9 101.7 103.4 104.8 105.6 109.9 123.6 142 159.4 179.3 193 192.9 203.1 185.7 184.9 184.4 186.6 194 196.5 193.2 190.3 191.5 192.4 194.5 200.5 218.3 228.5 237.4 237.2 238.8 237.8 235.5 264.2 280.5 273.1 264.8 275.2 266.5 257 254.4 257.4 260.7 254.3 242 242.6 246.9 239 225.3 224.9 217.3 204 193.4 183.8 175.8 172.3 171.9 171.8 170 161.8 153.9 147.4 146.8 144 144.4 138.3 139.3 137.2 138.6 139.4 142.1 145.8 153.1 157.5 157.8 157.1 152.1 147 144.7 143.7 149 156.2 154 146.5 141.8 140.7 141.2 138.8 135.5 133.4 128.3 126 123.1
45.9 44.2 38.7 34.1 17.6 5.4 3 3.9 6.3 13 18.4 27.5 24 10.2 2.1 0.4 -1.5 -1.5 -1.5 -1.5 -1.5 -1.5 9.1 13.7 14.7 5.1 8.1 16.3 19.3 29.2 18.5 14.8 9.3 5.6 8.4 12.8 24.9 34.9 35.3 37.2 46.5 45.7 45.1 53.6 62.9 70.4 72.7 72.5 83.6 90.4 94.8 102.1 112.8 123.5 125.8 136.3 139.6 136.6 108.4 96.9 80.8 80.3 94.9 104.8 114 119.9 120.2 112.5 116.9 116.4 111 103.6 97.5 91.1 78.8 63.9 59.7 38.7 32.6 30.8 31.3 31.7 35.3 36.6 39.1 41.2 48.4 51.6 61.9 69.2 69.3 72.8 75.6 74.3 87.7 91.6 93.5 94 104.7 98.6 89.1 88.7 84.9 89.4 96.5 98.1 106.2 106.9 102.2 104.9 105 104.6 105.6 106.6 117.4 140.5 154.7 175.2 181.6 191.1 189.7 188.2 183.5 183.6 186.3 194.3 202.7 201.5 193.4 192.6 194.8 194.2 200.9 216.1 234.4 240.3 243.1 241.3 237.8 233.1 248 272.9 276.4 273.7 283.2 269.8 245.7 242.8 253.7 263.2 259.3 248.3 245.9 242.3 237.8 229.1 224.1 222.6 215 201.3 190.5 185.8 179.5 173.7 168.3 167.9 160.6 149.4 144.1 145 148.3 139 138.3 138.3 137.7 137.5 140.9 138.8 141.7 150.2 158.1 158.9 162.7 162.3 159.7 153.5 145.9 145.7 150.7 154 151.2 149.9 148.4 146.8 144.2 139.1 134.9 132 132.2 129.8
47.1 44.8 41.7 35 26.6 6.6 4.1 4.2 7.2 14.4 20.7 30.5 29.1 22.3 5.5 0.8 -1.5 -1.5 -1.5 -1.5 -1.5 -1.5 -1.5 4.9 -1.5 -1.5 -1.5 15.3 19.6 26.4 29.8 18.8 14 11.6 9.7 11.8 14.6 24.7 30.6 33.4 45.3 45.3 38.9 44.2 54.8 73.2 83.1 80.2 81.6 92.7 96 101.8 101.3 112.3 122.4 131.9 140.6 138.4 117.7 104.1 85.7 81.5 87.6 96.7 112.6 121 121.7 113.8 116.2 117.5 116.9 107.3 104.1 95.3 86.6 71 61.6 55.3 44.1 31.4 32.6 39.8 41.5 39.7 39 40.4 48.3 45.5 50.4 60.7 59.2 63 71.3 66.6 82.4 90.4 91.6 92.8 95.4 95 86.3 83.7 82.9 86.2 93.1 97 105.3 108.1 108.3 107.3 105.8 105.5 105.2 109.7 114.6 126.5 144.5 156.6 171.7 176.6 174.4 187.5 183.4 183.6 185.5 191 200.5 210.2 202.8 191.6 195.1 196.4 203.7 212.6 234.5 240.2 246 243.9 235 233.1 231 243.2 270.3 272.1 278 267 241.2 238.6 249.9 260.2 259.8 250.5 249 246.2 240.3 233.1 225.1 223.9 219.7 207.2 197.6 190.7 184.8 179.4 171.2 164.7 158.9 149.3 142.6 139.6 138.3 138.3 138.3 138.3 139.1 138.6 137.7 138.7 141 148.4 157.1 165.3 168.4 169.5 172.4 167.2 153.6 146 148.2 151.7 152.2 152.9 152.6 149.1 147.9 146.2 141.9 138.7 138.6 138.7
52.7 47.2 45 37.5 30.5 8.9 6.2 4.8 9.8 17 22.9 26.8 33.5 28.4 15.3 1.4 -1.5 -1.5 -1.5 -1.5 -1.5 -1.5 -1.5 -1 -1.5 -1.5 -1.5 11.8 18.4 24.4 32.5 24.8 20.9 16.4 18.3 21.8 14.1 19.3 28.3 30.4 35.4 35.9 31.9 36.9 46.9 71.8 87.4 88.5 84.2 86.7 103.1 105.8 106.4 100.4 108.8 126.8 134.4 139.5 121.6 113 87.9 78.2 79.3 91.3 106.1 118.2 120.7 117.8 114.9 125.8 120.3 113 107.3 97.3 93.4 86 70.6 60.3 52.6 33 33.5 42.7 49.7 43.7 41.2 50.7 51 47.2 45.8 47.1 48.6 56.3 64.1 62.9 73.9 88.6 90.6 90.7 91.9 91.6 84.3 82.2 82.3 84.3 90.7 97.6 105.7 110.1 115.1 109.1 111.2 106.7 105.5 107.6 110.3 121.6 138.9 143.5 157.5 168.4 156.9 176.9 185.5 185.1 184.2 188.4 194.6 211 209.7 195.8 195.6 196.4 204.7 224 229.6 237.3 248.4 245.4 233.1 231.4 231.1 232.9 244.2 250.7 253.6 252.2 232.3 233.9 243.4 252.5 256.7 250.8 248 246.4 246.2 240.1 232.2 224.4 221.5 213.6 201.5 191.5 185.3 181 174.1 164.3 152.1 151.2 144.3 138.3 138.3 138.3 138.3 138.3 138.3 140.5 138.2 139.7 143.9 148.5 156.4 166.9 172.7 177.5 180.6 179.1 163.7 151.4 148.1 151.2 152.2 154.7 158 157.5 154.3 151.9 147.9 146 143.7 142.7
57.8 51.7 53.8 46 32.9 13.4 11.1 13.2 11.3 20.7 22.5 29.1 29.8 30.2 18.3 6.1 1 0.6 0.3 -0.1 -1.5 -1.2 -1.5 -1.5 -1.5 -1.5 -1.5 -1.5 14.4 22.3 36.7 33.8 27.3 20.2 22.5 32.2 22.2 16.9 21.8 27.8 31.4 30.6 30.3 28.5 38.5 59.4 80.4 89.1 90 87.1 97.8 111.8 107.7 110.5 108.3 112.6 128.7 131.4 131.1 113.2 90.9 77 78.7 90.1 108.9 117.4 124.1 125.5 125.4 124 126.4 120.9 111.5 102.4 96.8 97.2 82.9 70.4 60 41.4 34.6 42.1 52.5 52.3 50.8 51.1 60.8 54.3 45.7 45.4 49 46.7 49.3 56.7 64.9 75.8 88.2 88.8 91.2 88.2 82.8 81.7 81.4 85.2 88.8 94.3 102.3 110.9 121.1 123.2 110.7 109.7 107.7 110.3 110.6 120 133.9 143.7 143.7 148.1 166.7 182.4 187.2 190 183.8 186.4 188.6 204 211.5 202 199.2 199 205.2 223 236.6 237.1 246.3 245.9 233.3 231.1 229.5 226.1 226.1 230.8 235.1 230.7 222.6 226.9 233 239.5 242.6 246.1 243.8 240.1 245.7 246.2 242.3 230.7 222 218.3 205.5 194.6 183.2 180 175.9 165 149.6 145.2 141.4 139 138.3 138.3 138.3 138.3 138.3 138.3 138.4 144.9 149.1 153.1 159 164.4 174.1 181.6 184.3 185 172.8 158.8 154.7 153.7 158.6 157.6 159.3 159.4 159.9 158.3 156.5 152.1 147.1 145.4
60 58.1 54 52.6 34.2 23.4 15.4 21.8 13.9 19.8 31.3 28.8 21.1 22.6 24.1 9.8 4.3 1.9 1.4 -0.3 -1.5 0.3 0.2 -1.5 -1.5 -1.5 -1.5 -1.5 5 20.2 35.7 38.2 33.7 24 22.4 29.5 24.9 31.2 26 18.1 22.3 23 20.5 23.9 33.4 54.3 73 82.4 93.4 94.5 92.6 111 112.7 108.3 111.5 116.9 119.5 131.1 127.4 121.7 92.4 77.2 78.6 85.3 107.3 119.1 128.6 127.7 130.4 132.9 126.5 124 116.3 106.6 103.7 101.1 91 79.1 68.4 54.3 37.3 38.4 59.5 59 55.4 57.3 60.2 58.5 53.9 50.1 59.8 58.8 50.2 50.4 51.1 64.8 77.4 87.6 89.7 83.6 79.6 81.1 82.7 86.5 89.2 94 102.1 111 121.3 124.5 119.4 110 109 110 112.6 112.6 122.6 132.8 139.1 144.5 162.8 175.8 184.5 187.6 187.7 184.1 186.5 197.7 214 217.6 202.9 203.3 209.3 217.8 238.3 240.4 241.3 241.4 235.2 240.3 229.9 226.4 223.9 223.1 223 222.1 220 218.7 227.2 232.5 236.9 237.4 237 231.6 235.9 245.7 245.5 238 226.3 220.9 209.7 194.7 184.5 182 176.7 163.3 147.9 143.8 140.6 138.3 138.3 138.3 138.3 138.3 138.3 138.3 139.3 148.6 156.8 160.9 163.9 170.9 175.2 184.6 186.2 185.6 182.1 170.5 162.9 154.4 159.9 162 163.1 161.7 164.5 165 164 157.1 151.8 149.2
65.9 63.5 52.8 51.5 36.4 25.7 20.7 23.2 18.5 16.6 26.9 32.2 22.5 20.1 19.6 12.4 7.3 3.7 2.2 -1.5 -0.4 1.4 1.7 -1.5 -1.5 -1.5 -1.5 2.3 -1.5 13.2 30 39.8 40.6 31.2 24.7 26.3 27.3 34.4 27.9 23.5 18.6 19 19.8 21.9 28.1 48 69.8 75 84.5 91.3 90 94.6 112.7 111.3 109 116.2 119.6 122.9 120.2 120.3 94.4 77.4 77.5 87.2 101.8 110.7 126.6 132.4 141.3 136.4 130.2 123 116.6 115.9 105.3 109.2 98.3 91 78.5 67.2 45.6 40.5 54.8 59.6 58.2 61.3 66.4 65.6 60.8 60.4 64.2 65.5 60.7 51.6 50.4 55.9 68.8 77.6 85 78.4 74.3 70.5 82.1 90.4 90.7 94.5 100.7 108.4 121.5 124.6 124.9 120.1 110.7 107.2 108 110.1 112.8 128.5 138.5 139.5 155.1 172.3 174.5 184.9 186.5 191.3 185.9 193.3 207 216 206 205.5 212.1 220.3 231.9 245.6 244 238.7 234.2 237.4 229.3 226.4 222.8 221.7 217.4 220.4 218 212.4 219.2 224.1 230.7 233.8 230.9 227.2 228.8 236.1 241.9 237.6 227 215.7 214.8 197.9 190.9 185.5 175.1 160 146.5 141.9 141.1 138.3 138.3 138.3 138.3 138.3 138.3 138.3 140.3 151.4 158.5 169 175.5 177.9 178.1 185.7 187.5 188.5 187 182.8 177.3 163.3 155.7 165.6 168 167 165.4 167 170.3 166.8 160.3 155.2
70 65.1 57.1 52.6 40 29.4 23.7 27.1 24 16.1 23.2 29.4 27 20.4 21.8 21.9 8.6 3.9 2.3 -1.5 -1.5 3 3 -1.5 -1.5 -1.5 -1.5 7.7 9.7 9.4 22.4 32.1 40.2 36.6 24.6 27 30.8 29.7 32.9 30.3 19.6 19.1 19.7 23.3 32.2 40.5 59.5 71.5 76.9 82.7 88.4 91.3 104 114.4 108.7 107.9 110.9 116.1 111.2 111.4 94.4 81.5 76.6 81.9 93.9 107.4 122.4 131.5 139.4 144.6 140.1 125.9 117.9 114.8 110.1 110.7 105.9 94.6 84.7 74.8 62.7 49.8 45.9 56 67.1 80.1 79.6 87 82.7 72.8 72.6 74 79.8 62.2 50.4 50.4 56.9 72.9 73.4 71.2 67.9 66.4 76.4 87.4 91.9 96.8 101.7 109.6 119.1 124.6 123.9 124.2 118.9 114 108.7 109.1 109.8 116 137.4 135.5 147.4 165.2 170.7 178 181.2 188.1 189.1 191.2 202.5 221.9 210.4 209.5 217.3 221.9 230.3 240.9 244.6 241.2 231.1 222.1 225.9 217.4 216.4 215.5 215.1 215.2 215.7 212.6 210 215.3 220.6 224.1 224.3 221 222.2 228.4 230.3 230.2 223.8 214.4 212.2 207 194.1 182.6 172.8 163.3 149.2 141 138.8 138.3 138.3 138.3 138.3 138.3 138.3 138.3 142.1 152.2 162.3 173.1 185.7 187.5 188 188.3 190.4 191.5 193.7 191.2 191.2 181.6 170.2 161 170.6 173.7 173.7 174.5 173.2 172 168 165
81.8 68.4 60.6 53.5 39.9 40.9 24.8 29.8 25.3 17.5 17.2 18.3 27.2 27 21.8 24.1 18.5 6.5 4 4.1 -1.5 3.2 4 -1.5 -1.5 -1.5 -1.5 9.1 21.6 23.8 22.4 27.1 36.1 37.4 25.2 32.8 27.7 28.2 30 32.9 23.3 19.4 20.6 26.4 30.1 46.8 47.6 66.3 74.7 78.6 86.1 90.3 92.7 109.7 113.1 110 105.8 103.6 106.5 102 91.6 85.1 77.7 80.7 89.4 103.3 120.3 128 137.1 149.3 146.7 130.5 122.3 114.9 111.2 112.9 107.4 98.1 92.6 85.3 74.9 63.2 50.2 54.8 75.3 81.9 89.4 89.4 88.9 86.4 76.1 89.3 87.1 85.9 61 50.4 50.4 55.7 61.7 61.7 56.7 56.9 71.6 84.1 92.2 97.1 100.3 106.9 110 120.4 122.3 124.7 124.1 117.9 113.1 108.4 108.6 109.1 118.8 133.9 139.5 158.3 168.1 171.3 176.4 185.7 195 190.4 200.2 214.1 216.5 211.3 223.1 224.5 222.7 237.1 241.4 237.6 233.2 217.9 219.1 213.7 211 213 212.5 213.1 213.5 211.4 206.2 211.3 211.1 213.7 218.6 217 216.8 219.5 223.2 223.3 220.3 211.2 204.1 206.3 195.5 181.6 169.5 162.5 151.7 142.5 138.3 138.3 138.3 138.3 138.3 138.3 138.4 140.3 145.7 155.6 165.2 174.7 186.2 191.2 195.2 196.4 198.3 198.8 197.9 200 202 194 184.8 176.6 168.4 174.8 176 178 176.5 173.8 173.3 169.3
84.6 82 66.2 51 41.9 40.2 29.8 30.9 31.9 24.1 20.3 17.1 16.5 27.6 28.6 23.6 22.8 11.4 13.8 4.6 2.6 3.9 2.3 -1.5 -1.5 -1.5 -1.5 -1.5 18.6 34.6 29 26.6 29.3 34.5 25.9 32.6 29.9 26.2 31.3 27.3 23.4 21.6 23.3 28.3 40.9 47 49.3 52.1 71.8 75.3 81.2 85.8 90.7 98.6 102.8 105.6 102.6 96.9 98.4 96.1 94.9 88 79 76.6 83.2 95.3 118.2 126.4 130.5 139.1 146.3 135.3 131.2 117.7 113.9 114.2 111.3 100.7 93.9 98.6 89.1 80.9 62.5 47.9 70.2 83.6 97.8 103.3 98.3 92 93.5 91.4 90 89.7 78.3 55.2 50.4 50.4 50.4 50.4 50.4 51.2 65.7 82.5 93.9 95.9 100 102.6 107.5 112.8 117 121.2 123.8 116.8 115.6 113.1 107.9 107.8 109.7 124.9 138.2 142.1 159.7 168.4 173.7 185.1 197.3 195.7 199.1 206.3 219.2 211.4 218.2 226.3 220.3 219.4 238.7 235.2 227.5 214.1 208.6 205.3 206.9 206.1 208.9 210.8 211.1 207.2 198.2 207.9 207.1 209 215 213.9 211.6 209.7 218.6 219.7 216.1 208.4 205.5 196.1 191.2 179.3 162.5 157.2 153.7 143.1 138.3 138.3 138.3 138.3 138.3 144.8 146.7 151.7 152.4 158.3 168.3 177.2 186.8 193 200.8 204.8 206.1 208.5 207.1 203.1 208.1 204.8 195.6 186.5 180.9 169.4 177.6 179.5 179.6 179.5 175.4 172.9
77.4 74.9 69.8 55.3 43.7 50 33.9 31.9 33.5 30.5 30 14.9 13.5 19.4 28.2 26.1 22.4 14.7 8.7 9.4 6.8 4.9 3.8 1.2 -1.5 -1.5 -1.5 -1.5 14.4 28.7 36.8 28.5 28.3 26.6 26.2 30.1 35.1 27.4 24.9 24.4 26.7 27.3 23.9 32.5 47.4 51.3 51 48.3 55.5 73.1 78.5 84 88.9 93 97.2 103.3 97.1 99.3 90.6 90.9 100.1 94.7 87.3 78.9 78.5 90.5 110.9 122.9 126.9 134.8 133.8 139.2 135.1 126 116.1 115 114.6 104.9 96.7 99.8 99 94 80 59.6 52.5 73 92.2 109.7 113.5 110.1 103.1 91.5 103.2 93.3 89 67.7 58 50.4 50.4 50.4 50.4 50.4 58.3 79.4 89.1 95.4 97.8 99.6 103.7 111.2 115.1 118.9 119.5 116.8 115.4 114.2 110.7 107.5 107.6 114.5 133.7 139.4 152.5 166.9 171.9 181.6 195.8 199.3 196.2 205.2 208.8 210.6 211.3 220.9 222 218.5 228.7 230.6 217.7 209.9 202.2 197.8 200 207.8 205.2 208.3 207.4 205.8 195.1 203.3 206.3 205.7 207.8 211.8 208.5 200.8 208.1 209.4 208.9 205.5 203.8 191.2 186.6 175.4 160 151.9 144.8 142.3 138.3 138.3 138.3 138.3 144 153 155.7 158.1 165.8 166.6 171.9 182 190.3 197.3 204.7 208.1 215.1 214.1 214.2 209.7 205.9 208.5 206.2 195.4 187.3 180.3 174.8 178.9 181.6 183.3 182.1 173.6
69.8 75.2 72.3 54.3 45.2 43.2 35.3 32 32.2 30.7 29 18.9 14.4 13.5 24.2 22.4 21.4 11.5 12.7 10.2 6.6 3.4 8.8 11.3 1.6 -1.5 -1.5 -1.5 -1.5 19.3 31.1 35.5 29 26.4 26.2 26.4 36.7 32 23.8 24.1 24.6 29.2 26.6 29.7 49.9 59.2 60.5 53.6 51.9 56.8 73.3 79.2 87.9 93.1 97.4 103.7 96.1 98 89 89.2 89.1 92.6 92.7 81.1 76.6 85.2 105.8 116.1 125 134.7 133.5 137.5 137.9 136.4 126.4 117.8 112.2 104.7 99.3 104.8 108.5 103.2 91.7 71.9 64.6 58.8 84.2 107.3 117.9 127 115.7 102.5 100.8 101.6 101.1 84.9 69.3 61.4 50.4 50.4 50.4 50.4 50.4 66.5 81.7 90.5 92.8 96.4 100.9 107.1 112.1 115.2 118.5 117 115.6 114.3 111.5 108.6 107.7 110.5 118.5 135.5 142.6 160.5 170.3 182.8 196.7 201.7 201 208.2 209.9 210.9 212.3 211.1 214.8 216.2 214.5 216.5 207 201.3 198.9 191.5 191.7 200.4 198.2 203.8 203.5 201.5 195.7 197.3 206 203.6 197.7 200.4 204.3 198.7 197.4 203.2 201.8 203.5 192.2 187 173.6 167.8 155.9 147.5 142.5 140 138.3 138.3 138.3 138.3 143.9 155.3 163.1 162.8 174.6 179.3 177.7 186.6 194.3 200.2 207.3 213 215.2 218.6 220 215.2 210.5 210.5 206.9 199 193.7 189.1 177.2 176.4 182.5 182 182 177.7
67.8 74.8 72.5 54.8 48.6 47.4 34.8 34.2 33.2 31.3 27.9 19.9 17.7 16.9 13.2 16.3 17 10.2 12.8 11.6 5.1 11.4 14.6 14.8 10.8 0.4 0.6 -1.5 -1.5 -1.5 19.3 27.1 28.5 26.9 26.3 25.9 31.3 34.3 24.9 24.2 24.7 27.7 30.3 31.1 43 50.6 61.9 63.8 54.7 53.6 61 76.7 82.3 91.7 103.9 95.3 93.1 93.1 86.7 91.7 86.7 87.6 91.6 91.8 76.3 78.9 104.7 113.3 124.4 130.1 135.3 134 138.1 143.8 134.6 123.7 116.9 108.1 106.2 110.3 118.3 111.1 97.1 78.3 81.9 75.1 70.7 93 106.8 119.8 132 116.1 109.3 105 103.6 90.4 84 69.9 59 50.4 50.4 50.4 50.4 56.6 69.5 81.2 88.5 91.5 94.5 100.4 106.5 113.6 116.5 117.1 115.9 114.3 112.5 110.9 108.8 108.3 112.8 125.9 137 149.8 162.4 175.8 193.5 206.8 209.9 207.5 213.1 210.8 213.4 205.8 204.1 210.3 205.8 199.6 197.3 196.8 192.3 191.6 184.5 187.2 191.7 194.1 197.9 196.3 196.3 186.2 199.3 203.8 197.1 191.9 195.5 196.2 187.3 190.7 190.6 188.9 183.7 180.5 170.5 154.4 148.8 142.7 138.3 138.3 138.3 138.3 138.3 138.8 142.2 150 165 175.4 172.8 183 181.2 186.8 197.6 204.2 210.8 216.7 218.5 220.7 221.9 221.6 213 214.9 208.6 200.8 195.5 189 180.5 178.1 178.7 183.5 180.8 181.3
65.4 65.2 66.2 61.1 50 49.4 35.9 35 34.7 32.9 32.5 28.1 26 25 17.7 12.7 12 16.3 14.3 8.2 7.5 16 16.1 15.6 12.6 6 2.2 3.2 -1.5 -1.5 -1.5 17.7 23.7 22.7 24.5 35.6 29 28.6 23.1 25 25.6 33.1 32.5 32.5 36.5 48.6 67.3 67.3 63 61.4 61.4 67.6 80.4 90.1 95.3 97.9 93.9 87 80.6 88.4 89.2 83 85.4 85.2 76.9 78.3 92.6 111.5 121.8 124.9 134 132.3 139.7 146.2 141.6 129.6 120.1 111.6 105.9 111.3 115.4 108.5 97 98.2 94.1 86.6 87.2 77.7 95.6 110.6 120.1 128.7 117.5 123.4 110.8 102.2 87.5 83.6 68.3 51.7 50.4 50.4 50.4 50.4 59.2 70.3 78 89.5 90.7 94.1 103 108.8 113.4 117.3 116.8 114.9 113.5 113.3 111.5 110.2 110.1 120 130.1 136.1 154.2 169.2 185.1 203.5 212.6 215.2 210.9 214.5 207.1 201.1 194.6 196.6 193.5 189.2 188 191.6 187.2 185.3 182.4 182 182.9 188.5 194.7 195.4 191.6 185.7 183.3 192.1 192.1 183.3 182.5 183.5 181.6 178.3 183.6 183.2 177.9 169.8 164.5 153.4 144.4 139.9 138.3 138.3 138.3 138.3 138.9 147.3 149.9 147.6 157.5 170.7 168.7 180.4 185.5 188 198.3 208.1 214.8 221.7 222.3 223.6 224.1 223.8 219.8 216.2 210.5 204.7 195.1 189.9 188.2 187 179.7 176.3 176.1 179.8
68.9 67.5 64.6 54.4 51.8 46.3 36.5 35.1 37.7 40.2 39.6 36 32.2 27.4 25 16.3 15.1 13.6 13.8 6.5 14 16.7 17.4 16.2 14.5 13.5 7.3 2.4 8.3 -1.5 -1.5 -1.5 17.6 18.5 22.6 42.3 31.3 24.3 21.3 29.7 27.9 27.2 34.2 32.7 32.3 38.4 55.1 66.3 65.8 66.1 64.3 67.4 74.2 85.6 90.8 99 99.9 90.7 83.4 78.6 85 84.5 81.5 78.4 76.7 75 87.3 105.5 116.3 122.5 126 129.2 138.9 147.3 143.2 131.4 124.8 117.2 109.4 109.4 108 104.6 113.6 111.5 112.1 96 94.1 91 83.6 97.7 113.2 129.5 130.5 124.3 122.2 108.2 95.1 85.3 73 57.6 50.4 50.4 50.4 50.4 51.1 63.6 70.4 76.3 87.3 88.3 97.5 103.2 107.7 114.4 117.4 113.9 112.3 111.1 109.4 110.2 106.7 113 124.7 133.7 145.7 164.7 174.9 189.8 200.9 214.7 208.5 209.1 204 196.7 189.8 188.3 188.1 182.6 183.2 181.8 181.6 180.7 177.3 176 176.1 178.6 183.4 186.9 184.8 182.7 178.5 181 181 177.6 177.1 178.6 176.1 169.4 166.1 167.8 167.6 165.8 163.7 151.3 140.3 138.3 138.3 138.3 138.3 140.8 149.5 158 163.1 155.3 150.3 160.1 168.7 176.9 184.5 189.8 196.5 208 214.9 218.7 225.3 227.7 226.1 225.9 222.4 217.7 214.7 207.8 203.7 195 191.2 189.3 186.8 178.6 173.3 176
71.9 68.6 58.8 49.3 44.3 41.6 37.5 36.8 37.5 45.5 49.3 48.4 37.8 32.3 26 21 16.1 14.3 7.5 6.9 15 17.1 18.5 19 16.6 19.2 16.3 6.7 2.2 -1.5 -1.5 -1.5 13.2 15.4 15.1 29.8 28.4 19.9 22 31.6 30.8 26.4 28.9 31.3 33.6 37 44.1 53.9 63.9 68.6 69.8 68.1 68.5 82.6 98.5 94.8 95.4 92.1 85.9 75.9 81.6 80.8 76.3 73.2 71.5 71.3 83.3 99.7 109.8 116.3 117.8 124.9 142.4 146 144.9 135.5 131.3 120.8 111.1 109.8 106.9 114.2 117.2 116.2 114.1 113.3 103.6 97.9 92.8 84.2 101.1 119.1 131.8 122.2 128.8 118.5 101.5 85.8 82.6 61.7 50.4 50.4 50.4 50.4 50.4 54.5 59.2 64.8 72.5 84 86.3 98.8 104.4 106.9 112.2 113.9 111.4 108.7 107.8 109.2 108 105.6 113.1 126.5 133.6 153.4 164.7 175.1 188.7 200.2 202.7 198.3 198.6 194.6 184.2 180.3 180.4 180.5 177.3 178.3 176.8 175.8 171.4 169.8 172.2 172 174.9 179 180.9 178.8 173.7 171.4 173.2 170.6 161.9 166.1 165.3 159.4 155 156.7 162.8 164.8 163.9 147.3 138.3 138.3 138.3 138.5 139.6 146.1 158.5 164.7 168.9 166.3 161.5 157.7 168.6 172.1 182.1 190.8 199.4 204.6 213.5 219.2 225.7 230.4 229.2 226.4 223.9 220.1 218.1 213.6 207.3 203.2 192.1 189.1 187.8 182.6 178.9 171.8
74.5 70 64.1 49.9 43.3 41 39.1 37.5 38.2 47.3 50.5 48.4 45 39.3 29.1 23.4 17.9 9.3 17 9 10.4 15.3 19.2 26.2 19.9 19 17.9 12.2 11.7 5.1 -1.5 -1.5 -1.5 7.7 6.5 18.3 21.4 14.8 21.9 31 31 26 27 32.9 35.2 38.5 42.1 47.4 64.4 68.4 70.1 73.3 73 76.5 93.1 101.3 93.4 93 94.6 80 69.9 76.1 75.6 75 68.6 70.1 79.9 94.9 103.9 107 109.6 119.3 137 145.5 151.7 150.9 138.7 125.6 118.2 111.2 108.3 121.2 122.1 118.5 115.9 118.4 113.5 109.4 100.5 98.7 86.7 107.4 130.7 124.4 128.1 123.1 104.3 89.4 83.3 66.3 54.5 50.4 50.4 50.4 50.4 50.4 53.6 59 64.1 71.8 78 87.3 94.5 103.5 106 108.8 107.3 106.4 105.9 108 106.6 104.4 107.3 118.9 128.3 142.8 161.9 167.2 185.6 189.7 188.7 190.2 190 190.3 182.9 178.6 178.6 179 177.7 175.5 174 175.3 170.9 163.1 166.6 171.3 168.6 168.4 170.4 170.6 167.9 163.6 160.8 160.3 155.6 152 151.5 149.1 148.5 147 147.2 148.4 146.2 140.3 138.3 138.3 138.3 139.8 144.1 149.5 163.6 168.9 170.1 169.3 168.2 166.9 168.4 171.6 177.3 188.4 191.4 200.6 211.2 216.2 220.8 228.4 234.6 229.8 225.7 223 220.5 217.8 212.2 205.7 197.3 185.5 184 180.1 179 177.2
71.5 74.9 67 56 43.9 43.2 40.2 38.6 39.8 49.9 48.1 47.4 43.7 39.9 33.1 25.7 18.3 11.3 17.8 9.9 17.3 14 17.5 29.5 26.5 27 24.1 23.1 14.7 11 7 -1.5 -1.5 -1.5 -1.5 6.6 12.4 12.2 15.1 23.6 22.8 27.4 25.8 28.6 36.9 35.8 40.3 42.6 56.3 68 70.3 73.8 76.2 78.5 84 101.5 92.9 92.1 93.4 83.5 70.8 70.9 71.1 69.3 66.1 65.4 77.3 86.9 92.5 97.5 107.4 114.6 125.4 138.2 154.2 155.1 146.1 131.6 126.9 115.8 112.7 127.1 125.1 124.9 123.5 123.8 121.3 117.4 112.2 102.8 93.5 101.6 120.7 125.5 123.3 124.9 106.6 89.8 83.2 71.8 55 50.4 50.4 50.4 50.4 52.4 52 54.1 60.3 69.3 71.7 79.4 87 93.6 101.8 102.9 102.2 104.1 104.1 104.9 106.3 104.3 100.7 112 122.4 130.9 149.2 162.3 173.3 180.5 177.8 182.6 181.7 181.3 180.9 173 170.8 176.7 177.4 176.3 171.1 166.3 168.4 161.7 160.9 164.4 163.8 162.7 160.1 159.6 158.3 155 153 150.5 145.9 143.9 142.3 141.8 142.8 142 141.6 139.1 138.3 138.3 138.3 138.3 141.8 145.2 149.9 155.7 162.8 171.8 175 176.7 172.5 174.2 177.2 177.4 182.6 182.7 187.9 198 205.5 214.1 219.4 226.6 234.2 235 228.1 223.6 220.9 218.2 214.8 207.2 201.4 190.6 180 177.7 178.2 178.2
69.3 73.7 68.3 58.6 47.9 48.4 50.8 40 38.9 44.2 48.9 43.2 39.9 37.6 33.7 25.9 11.9 19.8 18.3 13.7 19.4 17.2 15.7 26.9 24.4 26.9 26.3 26.9 25.6 16.7 8.9 6.8 -1.5 -1.5 -1.5 -1.5 -1.5 8.1 8 12.8 17.7 25.2 24.1 28.7 35.3 39.8 36.9 41.4 44.6 54.4 70.1 71.9 77 85.9 81.2 90.9 96.3 89.1 93.5 89.2 77 65.5 63.2 63.3 59.7 60.1 71 80.4 92.4 99.6 102.3 114.7 120.4 129.6 142.2 154.8 153.1 133.4 132.3 123.3 115.7 124.8 131.1 127.7 126.4 125.9 126.5 121.5 116.5 109.9 101.2 94.8 112.7 123.7 122 124.7 110.2 93.5 85.5 70.4 55.9 50.4 50.4 50.4 59.3 64 59.4 57.8 56.5 63.8 70.6 70.2 78.9 84.9 91.4 97.3 97.6 100.4 100 101.1 103.9 102.3 100 112.2 116.6 126.2 139.4 158 173.9 171.4 173.3 172.7 174.8 175.3 173.2 171.2 166 171.4 175.8 175.1 173.4 163.6 160.8 157 155 153.8 155.3 153.9 153.2 153.1 153.3 151.9 148.5 141.9 138.3 138.3 138.3 138.3 138.6 140.2 139.7 138.8 138.3 138.3 139.8 149.9 159 160.2 156.2 162.4 163.5 170 181 185.2 183.1 177.3 181.1 182.6 186 187.9 186 193.9 202.4 207 217.1 224.2 231.2 234.4 228 223.6 222.3 218.5 215.8 209.4 202.7 195.1 180.3 173.6 175.7 176
65.4 71.7 65.8 57.3 50.9 59.6 56.6 43.1 38.6 35.4 48.9 43.4 38.9 33.8 30.6 22.6 17.7 23.7 20.9 15.3 17.7 18.4 19.4 17.8 22.1 26.9 27 33 34 30 20.4 10.7 5.2 -1.5 -1.5 -1.5 -1.5 -1.5 -1.5 7.6 14.4 18.3 23.9 26.8 32.9 36.4 40.9 37.8 44.5 51.4 65.5 67.6 73.7 80.6 78.5 83.5 91.7 87 93.6 93.3 84.6 77 62.8 58.5 52.6 56.9 64.6 74.2 83.8 100 102.4 107.2 117.4 119.9 134.4 147.2 153.6 142.5 139 136.3 121.3 122.3 129.9 132 134.5 134.1 130 127.3 127 113.1 106 98.4 103.5 118.8 122.6 124.4 117.7 98.2 87.8 72.1 58.8 50.4 50.4 50.6 60.1 69.2 69.8 68.6 58.6 56.2 64.5 67.9 70.5 74.7 83.4 89 91.1 92.7 93.1 96.2 97.6 99.6 97 97.4 115.4 124 132.9 154.5 171.3 166.7 173.2 166.8 165.6 169.5 169.4 167.7 163.2 162.1 166.5 166.6 165.6 158.4 157 153.9 153.2 152.4 148.8 150.2 149.8 143.7 143.8 141.3 142.7 138.3 138.3 138.3 138.3 138.3 138.3 138.3 141.5 139.4 138.3 138.3 146.7 155.8 165.9 172.9 172.9 168.3 173.6 172.8 183 191.2 191.9 189 184.7 187.3 188.2 193.1 193.2 188.4 196.9 206.6 214.1 220.7 227 230.2 227.3 221.5 220.5 217.1 215.5 212.4 203.9 199.4 185.2 177.9 168.6 168.4
68.5 64.2 62.5 56.8 54.8 65.1 62.5 45.8 37 33.5 37 43.7 37.9 34.9 27.5 16 22.2 29.8 31 20.8 17 18.6 20.2 18.4 19.5 26.9 27.9 34.8 38 36.7 34.6 21.1 10.8 -1.5 -1.5 -1.5 -1.5 -1.5 -1.5 -1.5 9.3 13 18.2 26.5 27.3 33.7 41.8 44.3 40 46.1 56 68 71.4 73.5 74.6 79.7 86.4 89.4 88.8 91.9 85.1 81.7 68.4 58.3 51.1 53.9 59.3 69.8 76.8 89.7 104.9 108.9 109.3 115.6 126.9 137.3 148.5 147.8 140.8 140.1 130 123.1 123 127.8 137.4 141.1 138.3 129.4 128.4 121.5 109.9 103.4 98.4 108.5 118.1 116.8 120.6 104 94.3 78 65.3 52.4 50.4 51.1 64 74.4 85.2 79.6 69.8 58.5 56.9 58.7 65.9 67.2 72.1 81.4 86.2 88.7 87.9 88.9 93.1 94 92 92.3 107.8 121.3 127.2 142 154.5 164.2 167.3 164.6 161 162.4 164.7 164.6 158.8 151.9 155.4 158.5 158.9 153.3 153.8 151.4 150.3 147.4 145.7 146.6 146.7 141.6 138.3 138.3 138.3 138.3 138.3 138.3 138.3 138.3 138.3 138.3 138.3 138.3 139.2 146.7 157.2 165.5 175.9 182 184.3 180.5 176.4 177.3 186.5 194.9 195.8 198 192.3 189.8 190.9 196.8 199.5 195.4 190.6 203.9 211.4 218.3 224.5 224 223.4 217.1 216.1 216.2 214.2 212.5 205.1 199.1 187.9 179.1 171.5 164
57.9 58.9 61.4 54.8 54.8 61.4 62.3 42.6 41.1 36 32.5 39.4 37.6 33.3 31.7 15.4 27.7 36.8 36.7 30.8 19.8 17.1 20.1 19.3 20.1 24.4 27.4 34.2 45.2 50.7 44.8 34.8 20.1 -1.5 -1.5 -1.5 -1.5 -1.5 -1.5 -1.5 7.3 9.8 13.8 18.9 24.2 28.2 39.8 44.5 46.4 42.9 49.1 65.7 68.5 70.4 73.2 76.7 79.8 81 78 89.7 85.2 82.7 76.3 61.3 44.4 51 54.3 60 70.2 79.1 93.7 106 110.1 115.3 115.1 126.3 145.7 149.8 138 136.5 133.4 129.2 126 124.5 133.8 144.7 140.9 134.7 127.6 124.7 118.4 109.8 105.5 100.4 108 114.5 109.9 105.3 99.5 80 70.9 55.8 52.1 54.2 63.6 73.5 89.1 99.1 89.8 70.9 60.5 58.2 59.7 62.8 65.6 69.9 79.3 80.7 81.3 85.6 87.8 89.8 88.4 89.6 94 114.6 120.6 132.7 143.3 153.6 164.3 163.4 156.1 154.7 150.4 153.8 151 148.3 144 149 151.4 150.9 146 145.3 145.5 145.2 145 142.7 141 139 138.3 138.3 138.3 138.3 138.3 138.3 138.3 138.3 138.3 138.3 138.3 138.3 147.6 158.8 170.1 180.2 186.2 193.7 195.3 193.4 188.2 183.7 190.5 200.1 202.6 206.4 200.6 193.7 191.7 194.8 201.9 202.6 194 198 207.3 209.6 219.3 222.4 221.3 214.6 209.9 211.6 209.9 208.6 206.5 199.7 190.6 178.4 175.2 170.3
58 57.6 59.6 52.5 52 58.4 56.3 44.7 47.1 47.5 36.5 33.5 34.9 33.6 22.3 16.8 33.3 43.5 43.2 34.9 26.6 20.2 17.6 19.6 28.2 28.2 30.2 42.8 49.9 52.6 51.6 50.5 33.2 16.2 -1.5 -1.5 -1.5 -1.5 -1.5 -1.5 -1.5 -1.5 8.2 13.5 18.1 21.4 27.2 36.9 44.7 46.7 42.2 47.3 60 65.9 71.3 70 77.6 75.1 74.9 76.5 84.1 78.2 70.6 64.8 51.7 42.7 45.5 49.4 62 73 88.1 103.4 107.1 115.1 114 118.4 137 149 135.8 136.9 138.8 133.1 129 127.3 128.9 138 149.2 143.7 136 125.1 123.1 119 110.2 104.7 100.2 102.4 105.3 103.4 98.8 87.8 75.5 60.4 57.2 59.3 62.7 71.9 87 101.1 102.5 89.7 72.8 69.4 61.4 59.5 62.2 65.1 72 76 76.8 79 81.6 83.5 83.1 85.3 89.5 107.1 116.4 119.7 134.8 143.6 153.5 157.1 155.6 149.2 145.4 145.6 145.1 143.7 138.3 138.3 139.6 141.5 140.8 142.5 139.3 138.3 138.3 140.6 139 138.3 138.3 138.3 138.3 138.3 138.3 138.3 138.3 138.3 138.3 138.3 138.3 143 153.5 164.9 179.7 188.8 193 201.8 206.5 206.2 201.5 196 191.5 205.4 213.1 212.9 208.4 201.4 198 197.7 200.7 202.2 198.6 197.1 199.2 203.2 214.6 217.5 216.5 212.2 206 206.4 205.6 205.9 204.8 200.4 191.8 182.9 176 172.8
59.1 58.4 58.8 51 50.6 57.3 53.3 45.4 54.7 53.4 44.2 33.9 31.3 31.3 22.9 19.2 28.9 37.9 41.4 42.5 31.7 23.9 19.9 19.7 28.9 35.6 33.5 41.6 53.1 54 53.2 51.6 46.3 22.7 -1.5 -1.5 -1.5 -1.5 -1.5 -1.5 -1.5 -1.5 -1.5 6.2 9.6 10.7 24.4 28 39.5 43.2 42.9 42.1 44.4 49.1 56.3 75.4 75.7 73.1 64.6 65.3 75.1 76.8 63.1 65.7 53 35.9 39 45 53.2 67.1 88.7 104.7 112.9 109.8 113.9 120.9 131.9 142 137.5 146.1 151.8 144.3 134.9 130.7 127 131.8 144.4 151.5 145.2 131.6 123.8 122 114.9 108.2 102.4 110.9 106.4 102.1 97.7 88.3 77.8 63.5 65.3 72.5 69.7 70.9 83.4 100 101.4 104.3 90.3 85.7 75.8 67.3 61.1 63 67.4 71.7 72.7 73.6 74.8 74 75.6 76.9 84.9 95.7 108.1 118.1 123 135.6 145.2 149.4 148.9 142.3 138.3 142.5 138.3 139.5 138.3 138.3 138.3 138.3 138.3 138.3 138.3 138.3 138.3 138.3 138.3 139 141.7 138.4 138.3 138.3 138.3 138.3 138.3 138.3 139.2 139.7 141.2 146.7 157.3 166.8 183.1 196.3 200.7 208.9 214.9 214.1 213 207.8 206.1 205.6 217.3 219.2 216.1 210.1 202.6 202.8 206.4 202.2 201.7 199.6 200 197.8 205.9 211.2 210.9 210.4 203.2 200.5 200 200.4 201.8 198.9 190.3 183.9 173.1 171.6
60.1 60.2 54.7 51.7 53.3 49.4 48.7 45 53.5 58.6 53.9 41.7 28.5 25.7 23.7 20.1 26.5 38.1 41.1 44.7 40.1 36.2 25.9 20.5 21.5 32.3 36.2 37.8 52.3 53.3 53 57.4 49.8 33.1 11 -1.5 -1.5 -1.5 -1.5 -1.5 -1.5 -1.5 -1.5 -1.5 -1.5 9.4 14.8 23 30.2 38.7 39.5 44 41.7 43.8 50.8 52.8 64.8 65.1 55.7 51.5 56 57.3 55.8 64.9 54.5 40 36 42.7 50.6 62.9 84.5 106.1 112.9 114.6 112.4 122.1 127 137.1 137.3 148.2 162 156.9 146.4 138.2 131.6 131.1 137.9 149 149.7 143.2 134 125.2 119.9 112.5 105 108.3 109.7 99.4 93.5 88.7 79.3 69 71.9 85.7 86.9 74.4 80.1 94.2 98.8 99.6 105.5 98.6 89.3 74.9 69.3 62.2 63.6 65.3 72.2 73.1 73.8 74 74.7 74.7 77.5 88.5 103.3 115.4 118.4 124.6 134.4 141 142.3 138.3 138.3 138.3 138.3 138.3 138.3 138.3 138.3 138.3 138.3 138.3 138.3 138.3 138.3 138.3 138.8 141.2 147 147.2 141 140.8 138.6 138.3 138.3 139.4 140.1 144.3 147.8 153 163.4 168.3 184.9 198.4 212.4 212.4 219.1 221.8 223.7 222.5 219.5 215.8 220 225.3 223 218.7 212.9 207.7 213 207.5 205.2 202 199.1 197.5 197.8 204.3 204 204.2 201.1 195.7 196.2 194.7 197.2 196 191.7 181.7 172.8 171.1
64.7 61.3 59.7 51.7 51 50.3 50.6 46.9 55.9 59.3 54.6 54.9 38.1 27 24.6 21.4 27.5 35.6 42.9 44.9 46.9 49.6 40.3 31.1 24.6 26.4 34 35.9 49.7 52.3 52.8 55.8 52.3 37.8 17.7 7.2 -1.5 -1.5 -1.5 -1.5 -1.5 -1.5 -1.5 -1.5 -1.5 -1.5 3.3 15.3 22.9 25.3 33.5 43.6 42.2 40.3 45.5 49.7 52.1 51.7 52 49.8 45.1 39.5 45 52.1 50.3 39 33.1 37.3 45 60.3 78 96.7 115.8 118.6 112 116.5 118.4 123.5 131.2 141.8 150.4 159.6 160.9 150.7 138.4 133.5 136 141.6 157.8 154.8 145.9 131.6 128.1 116.8 110.2 103.5 110.5 97.1 90.9 88.2 80.7 73.2 77.5 86.4 87.8 87.9 82.7 88.9 96.7 98.5 103.6 106.7 98 86.3 79.7 68.3 63.5 66 72 72.8 73.2 73.5 73.9 74.9 78.9 87.8 95.6 112.7 116.3 120 131.6 139.9 140.4 138.3 138.3 138.3 138.3 138.3 138.3 138.3 138.3 138.3 138.3 138.3 138.3 138.3 138.3 138.8 142.8 146.2 148.8 150.7 154 154.3 150.9 143 142.9 143.5 145.3 147.2 157.3 160.4 169 183 188.7 197.7 211.8 220.2 224.7 237.3 237.8 234.9 234.6 230.8 224.3 228.3 230.7 226.3 220.7 214.3 215.5 217.3 212 205.5 199.5 198.4 195.8 199.9 201.4 199.9 199.9 194.2 193.2 192.7 192.8 191.8 190.7 183.6 172.1 169.5
70.9 67.2 60.8 52.5 52.4 58 56.6 46.9 53 58.9 56.5 48 40.3 34.9 23.9 24.7 27.1 37.4 40.7 49.4 57.9 59.2 58.1 46.7 32.5 26.9 27.7 38 38.6 51 59.8 52.4 47.7 39.8 19.3 15.7 10.6 -1.5 -1.5 -1.5 -1.5 -1.5 -1.5 -1.5 -1.5 -1.5 -1.5 -1.5 17.5 19.4 22.3 29.7 40.4 37.4 41.3 36.1 38.2 51.2 46.4 42.5 31.1 30.3 37.6 43.5 40 27.1 31.2 33.7 38.2 54.7 69.4 88.3 110.6 120.2 118.5 114.9 116.8 117.9 123.4 127.6 137.1 149.8 158.4 161 151.7 140 134.6 138.1 144.6 161.7 154.9 145.9 131.7 123.2 115.7 106.1 109 97.1 90.9 83 80.1 74.9 76.5 88.2 89.5 100.6 95.8 89.7 93.2 99.8 106.4 106 104.9 90.3 86.6 81.5 65.1 65.3 70.1 73.2 72.9 73 73.8 75.3 77.7 85.7 92.2 103.4 116.5 121 133.7 144.2 147.4 138.7 138.3 138.3 138.3 138.3 138.3 138.3 138.3 138.3 138.3 138.3 138.3 138.3 139.6 144.8 154 154.5 156.4 162.2 167.1 172.9 170.3 162 157.1 153.2 157.3 159.9 162.6 168.6 170.1 186.3 198.7 201.3 211.8 220.5 227.4 240.3 246.3 246.6 245.8 243.9 232.9 228.2 233.6 233.2 230.7 224.7 217.9 218.7 217.8 210 204.6 198.4 194.4 192.6 196 194.2 191.8 192.1 190.8 190.1 189.8 189.6 184.2 176.4 171.7 169
69.6 68.8 66 57 58.9 55.6 57.5 47.4 53.9 54.9 53.4 43.4 37.7 29.8 38.5 35.5 29.8 37.1 39.4 44.7 57.5 60.4 59.1 56.6 49.6 33.6 27.9 35 42.2 42.9 57.8 58.4 49.4 42.5 25.1 16.6 16.5 10.9 -1.5 -1.5 -1.5 -1.5 -1.5 -1.5 -1.5 -1.5 -1.5 -1.5 1.8 8.2 18.5 22.3 31.3 32.5 33.9 28.2 31 35.7 36.7 31.3 23.9 24.1 37.2 39.2 28 30.7 38.8 34.3 42.2 50.9 63.1 78.6 96.9 115.1 128.2 119.3 115.3 115.5 117.8 124.7 131.7 138.3 150.8 155.7 158.6 151.9 141.4 137.6 140.9 155.2 159.6 155.8 143.1 130.2 120.2 118.2 99.2 97.6 93.8 84 77.9 76.1 74.4 86.4 89.9 103.5 108.2 102.2 91.4 98.5 106 106.7 105.9 103.4 94.8 87.2 72.7 65.1 69.8 74.3 73.4 75.2 73.6 75.2 80.9 87.4 92.1 99.7 107.2 119.4 135 156.1 157.6 148.5 139 138.3 138.3 138.3 138.3 138.3 138.3 138.3 138.3 139.2 138.3 141.2 145.4 154.1 160.5 162.5 163.3 170 179.9 190.8 192.9 184.4 184.1 178.9 171.8 179 169.8 178.2 187.1 190.4 200.5 213.4 212.1 219.8 227.4 239.1 248 256 255.7 255.9 251.2 242.1 236.1 239.3 238.1 232.4 223.3 218.9 218.3 216.4 208 205.6 198 192.2 187.8 191.5 191.9 193 191.4 190.8 188.7 187.2 181.4 178.7 174.3 170.7
65.9 69.1 67.4 62.5 60.9 52 51.6 49.4 51.6 51.2 48.6 30.4 36.3 45.2 59.4 48.5 42.8 34.8 32.9 38.1 51.4 57.4 58.6 58.7 55.4 50.2 30.8 28.3 42.7 48.3 51.6 56.9 57.2 43.1 33 17.8 22.9 21 8.2 -1.5 -1.5 -1.5 -1.5 -1.5 -1.5 -1.5 -1.5 -1.5 -1.5 2.8 10 18.7 22.7 27.4 28.3 26.1 23.2 29.6 34.3 22.2 19.8 20.2 23 21.3 22.9 33.8 42 40.4 40 47.8 57 66.7 82.6 97.5 119.1 132.8 116.9 113.8 118.1 118.8 129.9 136.3 139.4 147.1 154.3 158 160.8 141.4 140.8 145.7 157 160.6 151 137.4 125.5 115.2 108.3 98.5 95.8 90.2 82.1 76.5 73.3 73.2 82.7 103.1 118 112.4 101.4 98.3 106.5 107.3 109.2 108.3 106.5 92.1 78.3 70.6 66.6 73.6 82.2 81.4 80.7 75.5 79.1 87.3 98.9 101.1 110.3 123.6 140.2 153 160.7 159.6 158.7 138.8 141.6 138.3 139.1 144 141 139.9 142.6 144.8 148.6 154.4 160.5 168.8 166.6 169.4 165 172.5 182.2 197.2 208.1 207.8 200.3 194.9 189.6 190.4 188.1 181.1 194.8 200.9 209.1 217.5 223.4 222.5 225 237 250 263.6 258.7 266.1 264.7 262.8 246 241.4 241.7 236.9 227.3 220.4 218.4 217.2 213 211.4 204.6 198.2 191.6 187.5 190.7 191.9 190.1 188.2 187.3 186.3 184 178.9 175.2 171.6
64.7 67.7 70 64.8 56.3 51.9 54.7 56.2 50.7 50.7 42.7 38.8 47.9 57.9 70.1 55.3 57.3 41.3 39.4 35.2 37.9 42 53 56 54.9 52.2 46.8 32.4 36.7 49.6 49.4 56.6 55.9 52 33.7 21 22.9 22 13.1 4.3 -1.5 -1.5 -1.5 -1.5 -1.5 -1.5 -1.5 -1.5 -1.5 -1.5 -1.5 9.6 19 24.9 26.4 25.4 23.3 19.5 16.3 15.6 16.8 17.5 17 17.8 25.8 32 41.4 50.6 40 42.9 50.3 62.3 77.9 87.4 108.6 126.8 126.5 116.7 118 116.9 124.1 136.2 136.5 139.5 154.5 153.4 156.6 152.4 143.6 143 146.6 160.8 162.8 144.7 132.2 123.8 113 105.6 96.6 91.8 86 79.5 74.4 73.2 77.2 94.8 116.1 122.4 106 98 100.5 106.9 109.6 116.8 110.3 103.2 90 78.6 67.9 69.7 81.4 82.3 81.3 83 82 90 104.8 111.8 109.3 123.6 139.5 155.5 162.8 175.5 169.1 151.3 142.4 144.8 144.2 155.8 165.3 146.3 147.5 150.1 160.1 168.5 177.9 184.7 187.1 185 181.5 177.1 184.8 198.2 211.6 222.1 218.3 214.5 207.5 209.5 199.3 199.7 195.9 205.6 213.1 224.8 237.8 236.7 228.1 232.4 244.1 262.2 266.7 268 268.9 267.3 259.3 243.6 241.8 238.3 230.2 223.2 220.7 218 214.2 210.6 207.2 202.3 195 190.4 187.6 190.6 189.8 186.8 186.6 188.5 185.6 179.5 176.3 172.2
59.5 65.6 67 60.8 53 51.8 51.1 47.2 45 37.4 41.5 50 57.9 67.8 68.3 59.6 57.5 47.5 40.1 44 39.5 36.5 38.1 43.1 54.7 54.2 49.8 43 34.5 43.1 54.6 50.4 54.1 51.8 38.3 23 22.8 24 16.3 3.7 -1.5 -1.5 -1.5 -1.5 -1.5 -1.5 -1.5 -1.5 -1.5 -1.5 -1.5 3.5 9.3 14.6 21.8 21.1 16.8 13.7 10.5 12.5 13.8 16.5 16.5 23.4 25.6 30.5 42.1 52.3 50.7 41.7 46.7 59.8 74.5 82 95.8 115.4 125.1 117.6 121.5 121.7 120.3 127.6 145.3 137.4 138.8 146.3 150.5 160.9 151.5 146.9 145.2 153.1 162.7 147.1 135.7 129.2 121.8 114.6 99.4 104.4 94.5 84.7 77.3 73.2 76.8 88.5 104.2 115.1 108.1 99.8 97.8 101.9 111.5 117.6 117.3 112.7 98.4 83 73.7 67.9 73.6 80.2 80.7 85.8 83.3 91.2 105.1 121.8 114 123.6 135.8 159.6 160.8 175.1 175.3 171.2 153.2 147.7 146.7 155.1 178.4 170.4 161.9 154.4 169.9 183.3 191.7 199.5 199.4 196.6 197.8 195.9 192.7 200.8 215.3 220.9 228.6 228.1 225.1 221.1 220.6 214.5 205.3 209 215.4 229.6 250.4 252.6 241 236.7 236.4 253.5 266 271.5 268.2 269.5 264 253 240.7 239.4 236 226.5 222.3 219.5 215.1 212.1 208.8 203.6 197.9 193.3 189.3 186.2 189 186.9 184.7 185.2 187.2 182.4 177.1 170.9
58.8 59.2 63.2 61.2 51.2 50 50 45.1 37.1 47 55.6 59.8 64.3 68.7 71.1 73 68.7 59 48.5 52.5 51.5 41.1 38.6 38 47.7 52 52 49.7 44.9 33.5 44.7 47.6 48.9 52.5 38.4 23.3 24.6 25 17.6 6.3 -1.5 -1.5 -1.5 -1.5 -1.5 -1.5 -1.5 -1.5 -1.5 -1.5 -1.5 -1.5 3.4 8 14 15.3 14.3 12.1 8.3 9.2 11.2 13.5 17.6 25.3 28 32.6 40.7 44.7 53.9 43.4 43.1 52.9 64.8 76.1 83.7 103.1 114.9 121.9 121.3 123.4 118.4 120.4 133 144.1 137.6 139.5 145 151.4 156.4 157.7 148.1 146.7 156.3 149.5 139 131 127.5 121.2 106.1 104.5 97.6 96.2 84.8 74.1 74.9 88.2 92.9 104.8 108.1 101.8 98.2 98.3 108.2 113.9 116.7 114.3 101.4 89.7 79 70.8 69.8 78.3 83 84.9 85.3 89.9 111 116.2 121.2 125.3 136.1 155.1 161.3 175 176.8 186.4 173.7 155.8 154.1 154.6 178 190 180.6 175.3 176.3 191.8 204.6 223.9 215.8 213.7 210 215 204 204.3 216.5 226.9 235.8 239.7 238.7 236.1 233.4 230.2 218.6 214.3 216 228.1 249.5 267.4 256.2 256.6 247.2 248.3 263.3 270.3 268.5 267 266.2 260.6 245.8 240.3 238.1 231.2 223.3 218.5 215.8 212.6 208.7 206.3 202.9 198.3 192.4 187.6 185.8 186.5 185.3 186.4 186.7 182.7 179.2 174.4
59.1 57.9 55.5 51.6 50.9 54 48.7 41.7 39.6 57.7 64 71.4 75.6 72.3 75.7 83.1 77.3 61.9 58 56.5 50.9 51 38.2 37.7 42.5 53.4 55.9 52.4 46.7 40 37.2 44.6 41.9 41.7 35 22.8 26.7 21.1 20 4.5 -1.5 -1.5 -1.5 -1.5 -1.5 -1.5 -1.5 -1.5 -1.5 -1.5 -1.5 -1.5 -1.5 -1.5 9.7 13.9 19.3 11.7 7.4 7.5 8.8 9.3 13.7 24.8 31.8 35.8 39.1 42.7 49.6 46.9 44.3 51.5 58.8 67.6 76.7 89.1 102.7 111 119.1 121.1 119.7 119 121.9 135 146.7 141 143.2 150 154 155.7 155.6 148.6 151.1 151.9 147 138.9 131 127.1 117.6 109.1 99.3 99.9 94.7 78.4 74 83.4 89.2 99.6 103.2 104.1 100.3 98.6 98.9 105.3 106.9 108.5 106.3 95.2 87.8 76.8 70.5 72.1 78.1 83.8 85.5 90.2 108 123.2 124.2 128.7 137.2 156.3 163.7 175.3 183.6 189.1 196.8 184.8 161.9 161.2 179.6 206.2 208 198.5 193 195.3 205.6 227.2 232.2 230.2 222.5 223.7 222.6 213.1 218.9 230.5 241.5 249.5 251.7 251.4 248.3 246 237.9 226.4 216.9 225.5 243.6 266.8 261.2 260.1 257.7 256.6 256.7 260.7 262.9 261.3 268.6 259.6 247.8 239.8 238.1 233 225 219 216 213 209.6 205.3 203.7 204.1 196.3 191 187.9 185.4 185 185.4 185.3 182.1 178.5 177.5
63.7 63.5 55.2 51.5 51.2 49.1 47 45.2 46.7 57.1 75.3 83.8 83.7 83.6 86 85.2 84.5 67.3 65.2 61 57.1 50.3 44.1 44.7 44.7 50.3 56.4 58.6 56.3 45.8 37.4 36.3 40 35.4 28.4 19.8 23.8 20.6 18.4 10.5 -1.5 -0.3 -1.5 -1.5 -1.5 -1.5 -1.5 -1.5 -1.5 -1.5 -1.5 -1.5 -1.5 -1.5 -1.5 11.5 16.6 20.6 7.6 5.9 7 8.9 13.5 22.8 33 33 36.8 43.7 51.4 52.5 51.5 47.8 58.6 62.3 70.6 79.4 91 100.1 118.2 119.7 118.9 118.5 120.9 127.9 143.2 145.7 140.7 141.5 146.9 154.1 157.6 157.4 150.6 160.3 155.6 148 136 132.1 122.7 113.9 105.9 98.9 96.4 86.9 74.4 80.2 87.6 93.8 101.5 102.7 100.9 98.9 98.2 99.3 103.3 104.2 104.8 99.2 94.6 85.3 76.5 72.3 77.2 83.9 84.9 88.7 105.7 123.1 135 136.6 134.2 149 165 178.4 184.9 195.2 211.3 213 192.9 177.4 185 207 226.1 220.7 213 207.8 209.4 227.2 244.6 249.4 240.7 233.5 234.3 224.4 223.1 229.1 244.5 254.2 259.4 265.2 263.2 259.2 254.2 239.4 226 227.5 237.5 254.7 264.4 262.9 258.2 257.9 257.2 258.8 255.5 252.9 252.4 250.5 244.4 239.3 238.9 236.5 230.4 221.9 218.2 215.4 211.5 206.8 203.4 203 199.8 194.2 191 188.2 186 184.4 183.5 182.8 181.9 180.3
66.3 65.1 61.1 52.5 52.3 51.8 50.4 43.6 52.4 61.7 77.9 88.5 89.2 90.9 97.4 93.2 87.6 73.8 72.4 65 66.2 60.1 48.9 49.9 48.3 45.8 52.2 60.3 58.3 54.9 44.5 30.1 32.5 34.9 30.3 15.4 22.1 21.6 11 12.8 -1.5 0.8 -1.5 -1.5 -1.5 -1.5 -1.5 -1.5 -1.5 -1.5 -1.5 -1.5 -1.5 -1.5 -1.5 4.3 10.5 10.6 7.3 5.3 6.7 8 10.1 18.8 36.9 38.6 34.6 42.4 53.5 54.9 55.9 55.7 53.1 62.6 67.8 76.2 85.6 94.5 112.8 121.8 121.7 119.7 120.8 124.3 131.2 142.3 137.1 137.5 149.1 157.4 158.2 161 162.3 159.9 164.4 159.5 152.4 137.5 128.9 125.2 109.1 101.1 96.9 90.4 77.9 74.6 81.9 88.7 97.1 102.4 102.5 99 98.1 98.5 99.2 101.3 101.8 101.3 96.2 87.7 81.6 73.9 73.8 83 83.8 94.3 104.2 121.5 137.5 144.3 143 141.4 158.3 179.7 187.2 199.5 216.5 220.2 225.1 209.8 210.7 220.6 231.2 235.1 234.2 224 219.8 225.9 243.9 258.2 263.2 254.3 249.4 245.5 241.4 244 240.8 255.3 261.8 277 278 271 262.5 252.8 237.1 228.1 240.9 245.2 259.3 265.4 263.9 258.4 256.5 259.2 254.2 251.7 247.1 248.8 244.9 241.8 239.3 238.5 236.5 226.6 218.7 216 211.8 207.7 202.8 198.4 199 195.2 190.4 188.8 186.6 184.8 185 184.9 185.5 182.8
67.7 67.4 62.8 54.6 52.7 50.2 56.9 45.8 53.3 63.3 75.9 86.7 96.4 92.3 98.1 99.5 91.1 71.5 85.3 73.5 66.5 65.5 70.3 58.3 48.9 43 44.2 51.7 60.9 55.9 53 42 24.2 23.7 24.8 12.2 10.7 10.5 9.5 14.2 -1.5 -1.5 2.2 -1.5 -1.5 -1.5 -1.5 -1.5 -1.5 -1.5 -1.5 -1.5 -1.5 -1.5 -1.5 -1.5 4.4 6.9 7.7 4.2 5.3 11.1 8.5 16.1 35.3 40 36.6 38.5 49 51.9 55.3 60.6 59.6 64.1 71.3 73.2 82.5 88.7 106 118.1 125 122.8 123.7 125.2 133.8 135.6 136.6 139 143.1 155.7 159.6 159 163.4 160.3 157 158.9 158.4 148.2 134.1 129.7 115.8 101 97.3 92.2 81.4 74.1 74.6 83.1 87 100.6 103.2 98.8 98.1 98 98.3 99.2 99.9 99.4 96.6 89 86.2 79 73.8 76.8 81.7 91.4 103.6 116.4 133.9 146.1 157.5 147.2 152.9 168.1 187.2 208.2 216.4 220.3 227.8 237.2 238.7 251.3 253.1 250.1 247.7 242.6 236.8 229.9 243.7 258.2 275.5 274.1 268.3 269.2 264.1 250.6 256.4 252.4 268.2 273.2 274.6 273.6 267.5 259.7 251.7 240.5 246.1 254.9 257.4 271.1 270.9 261.9 257.4 256.2 254.1 251.4 245.5 242.3 247.3 243.6 241.6 240.9 240.9 232 221.6 215.4 212 208.2 203.1 198.6 197.3 195.8 190.6 187.7 186.9 186.9 187 186 186.1 185.6
67.7 67.8 67.5 58.2 53.3 53.1 57.9 45.4 51.8 67.6 77.1 88.9 103 97.5 94.5 96.9 91.8 78.6 85 83.3 72.3 65.8 65 67.8 61.2 48.2 41.3 40.3 52.1 55.6 52.9 44 33.8 18.5 16 10.5 6.9 8.1 6.7 8 -1.5 -1.5 2.2 2.6 3 -1.5 -1.5 -1.5 -1.5 -1.5 -1.5 -1.5 -1.5 -1.5 -1.5 -1.5 0.8 2.1 -1.5 -1.5 3.3 10.2 4.6 7.7 23.3 34 41.4 40.3 42.9 53.9 51.3 59.7 69.9 65.1 75.7 81 79.7 84.5 99.1 113.8 125.7 128.8 126.3 134.9 135.8 139.7 142.4 147.5 145.6 149.8 159 160.6 160.9 160.7 155.1 154.1 154.7 155 140.9 128.9 121.8 106.7 97.4 90.6 83 77.8 74.8 74.5 81.2 88.6 98.5 98.8 98.1 97.8 97.8 99.2 99.7 98.5 96.3 89.5 87.1 81.1 75.8 76.3 80 86 98.1 116.9 124.5 141.7 159.2 155.6 156.3 164.1 181.8 210.4 214.7 218.2 220.4 234.6 247.3 261.7 267.2 261.6 257.1 254.3 251 245.8 240.8 254.9 271.2 288.6 288.1 282.5 275.7 265.5 259.1 265.5 266.1 271.7 272.4 271.1 272.5 263.4 266.2 255.9 249.8 258 267.8 268.3 273.7 265.5 258.2 253.8 254.1 246.3 245.1 239.8 245.9 242.2 242.9 239.9 238.9 234.6 224.2 213.3 210.5 205.3 202.2 197.6 196.5 192.8 190.9 189.5 188.9 188.1 187.4 186.1 185.6 185.6
72.6 74.4 67.7 63.7 52.7 49.3 51.1 43.7 58 71.5 84.1 92.3 99.9 97.3 95.4 92.3 87.3 83.3 81.3 84.7 86 71.5 70.1 80.7 69.8 59.4 49 38.7 38 50.2 50.6 48.5 40.7 28.7 14.8 11 9.8 4.8 4.9 6.2 4.5 -1.5 3.5 7.2 2.5 -1.5 -1.5 -1.5 -1.5 -1.5 -1.5 -1.5 -1.5 -1.5 -1.5 -1.5 -1.5 -1.5 -1.5 -1.5 2.4 2.5 3.4 3.9 6.1 23.2 34.9 38.6 38.4 52.3 51.3 57 65.8 69.5 70.5 84.7 90.1 86.3 92.9 106 124.2 139.8 138.5 139.5 137.5 144.1 149.9 153.1 154.3 154.9 157.1 162.7 162 161.8 154.7 153.6 153.1 155.5 145.2 133.2 120.8 110.8 103.5 90.3 83.1 79.2 76.5 74.3 75 82.4 87 95.7 97.8 97.8 97.7 98.7 100.2 97.8 96.5 92.4 87.2 84.6 78 78 79.1 79.7 90.1 106.9 121.3 137.2 146.4 163.2 157.8 160 171 195.3 213.5 215.6 217 228.1 244.4 258.2 266.5 272.5 266.1 262.4 259.8 255.8 252.2 251.6 265.3 287.6 293.5 293.9 288 282.4 267 265.2 267.6 270.1 271.1 275.5 274.2 269.9 271.2 269 257.4 254.8 270.9 275.8 273.2 265.3 258.2 250.9 254.1 250.7 245.8 241 237.5 240.5 246.4 240 237.7 233.3 224 213.7 209 203.6 199.2 195.9 195.6 193.2 192.1 194.3 194.3 189 187.7 186.7 185.8 185
74.7 78.3 74.8 66.2 53.2 49.9 46 48.1 60.8 72.9 81.4 94.6 100.5 95.4 93.2 91 88.2 95.1 86.6 82.7 87 83.4 68.7 68.3 75.1 68.7 61.5 47.2 37.8 37.2 48.9 47.9 44.6 40 25 13 13.8 8.5 5.2 7 6.1 3.8 2.8 7.8 9.5 7.7 5.6 -1.5 -1.5 -1.5 -1.5 -1.5 -1.5 6.2 2 -1.5 -1.5 -1.5 -1.5 2.4 2.4 3 2.8 3.2 3.3 6.3 26.4 28.9 34.4 43.8 51.1 45.2 57.3 66.5 70 83.5 96.9 92.1 93.3 102 119.8 133.1 140.5 153.5 145.8 142.6 150.8 156.5 160.1 161 161.8 160.3 162 158.5 154.2 153.2 153.6 152.1 149.2 142.4 125.7 115.7 106.1 92.2 85.4 81.3 78.2 75.8 75.6 80 82.2 91.5 97.6 98.6 98.3 97.5 98.3 99.4 95.1 94 88.6 89.2 82 78.5 78.6 77.8 81.1 94.9 116.8 127.3 136.1 156.6 164.9 166.4 168.1 188.6 211.6 215 213.5 214.2 234.2 249.5 261.6 268.2 275.4 269.6 269.3 266.3 259.3 258.4 262.7 279.9 292.4 300.6 295.3 288.4 278.3 267 277.6 275.7 280.2 285.6 279.3 276.1 279.1 279.7 277.1 268.5 271 281.3 277.9 268.1 257.4 249.4 250.7 251 243.2 241.8 236.1 236.4 242.3 242.4 236.3 231.6 222.3 213.2 207.5 203 199.1 198.5 196.6 196.2 194.4 193 197.5 196.8 189.2 188 186.9 184.9
80.7 82.6 79.8 74.3 56.9 53.5 46.6 51.6 56.5 74.4 96.2 103.5 101 95 92.2 86.9 94.8 98.9 95.7 84.3 83.7 84.4 76.9 70.8 67.1 72.9 66.5 59.4 51.3 37.1 37.4 43.8 45 42.4 39.9 14.7 12 11.5 4.5 3.9 3 2.7 3.2 7.3 9.1 11.7 9.6 3 1.5 1 -1.5 -1.5 -1.5 8.3 7.2 -1.5 -1.5 -1.5 -1.5 -1.5 2.4 3.4 3.6 2.9 3.1 3.8 11.8 22 27.6 29.4 40 42 51.8 64.8 69.2 74.7 90.8 94.4 97.1 103.1 114.1 127.3 137.8 154.5 152.1 146.4 145 151.2 156.4 159.8 160.7 165.8 156.8 157.2 155.8 155.2 151.5 154.7 152.3 149.1 133.9 126.7 107.2 97.8 88.9 84.2 78.5 77.2 75.5 76.2 81.3 91.5 99.2 105.5 105.7 98.4 97.3 97.2 97.7 95.4 94 88.3 86.1 78.8 78.3 76.2 79.1 83.5 102.5 119 131.9 148 158.3 168.3 175.8 185.3 203.8 213.8 200.4 202.3 217.4 238.2 252 261.6 274.4 272.8 273.2 272.3 268.6 267 272.6 274.2 289.7 301.3 302.2 296.4 285.8 274.9 278.6 289.2 291.8 290.1 289.2 284.9 286.5 292 286.6 281.8 283.5 277.8 282.4 273.6 260.5 249.8 246.9 250.5 244.4 238 236.1 235.3 240 241.2 233.7 225.9 219.6 213.1 207.5 202.1 199 201.5 199.8 197.6 196.5 194.8 198.8 201.3 194.2 189.4 188.2 186.7
84.2 82.3 82.2 77.4 58.3 59 48.8 52.5 53.6 73.8 102 109.9 108.1 97.8 90.6 93.8 97.2 108 106.6 94.3 84.5 79.9 95.4 85.2 71.9 70.4 75 67.9 60.6 49.4 36.8 37.6 48.8 48.4 46.1 23.1 12.2 10.7 9.7 7.8 3 3.3 4 6.7 8.9 12 12.4 8.6 7.1 4.5 -1.5 -1.5 1.5 6.8 7.7 6.1 -1.5 -1.5 -1.5 -1.5 -1.5 4.7 2.2 3.7 3.3 2.6 8.2 14.4 20.2 25.9 26.9 34.2 44.4 51.4 62.1 68.5 79.2 85.9 92.5 99.6 108.7 122.8 129.8 146.4 157.3 147.1 144.2 141.9 148.7 153.9 157.8 157.5 155.7 151.4 156.4 154.8 155.4 149.9 148 146.2 138.8 130.6 116.4 103.1 91 85.6 78.8 77.5 76 75.5 76.3 85.6 97.1 106.3 115.6 108.2 99.1 99.2 99.5 104.9 98.5 99 86.3 82.5 77.7 79.1 79.4 79.1 84.3 102.1 122.3 136.4 150 169.1 177.8 177.6 197.3 196 190.6 196.3 208.3 223.6 240 254.3 263.2 266.9 273.2 276 274.9 273.2 279 284.2 286.7 297.3 307.2 303.1 295.4 283.3 274.3 285.5 291.2 297.1 297.6 295.3 295.5 298.3 295.8 288.5 285.2 281.7 281.6 279.6 268.6 254.9 246.7 245.9 247.6 243 234.7 233.7 234.4 239.6 230.7 224 215.8 210.8 205.5 201.3 199.8 202.5 202.5 199.3 197.7 197.2 201.9 203.8 202.5 198 198.1 190.5
86.5 82.6 82.2 79.9 69.5 60.8 52.9 49.5 57 71.6 93.9 116 111.1 107.1 96.8 94.6 97.2 108.6 105.7 103.9 99.8 88.7 103.3 100.3 87 78.7 73 72.9 64.3 56.5 43.3 37.4 39.6 46.5 46 31.1 12.6 9.8 8.6 7.9 4.6 2.8 7.2 9.2 10.7 11.5 11.5 9.5 8.3 6.5 2.2 2 2.8 8.2 6.8 7.2 1.7 -1.5 -1.5 -1.5 -1.5 4.8 1.5 1.8 2.4 3.2 3.7 11.8 14.4 18.3 21.9 27.3 39.7 45.8 46.8 61.4 59.6 70.3 78.4 92.8 104 114.1 121.4 131.9 146.9 150.1 139.5 135 133.9 143.8 150.9 151.6 148.4 148.4 148.4 152.9 154.2 152.2 148.5 148.6 146.8 137.8 125.5 113.9 94.9 89.1 83.2 79.4 76.4 76.8 75.3 78.2 87.8 96.9 106.3 113.9 103.7 101.2 101.4 101.6 102.2 100.9 91.8 84.2 81 79.3 74.5 75.9 79.4 88.8 113.3 126.4 140.7 160.7 183.1 176.6 176.6 181.1 183.1 191.2 199.7 207.8 223.8 242.3 251.3 262.8 270.5 275.8 276.5 279.5 282.5 287.3 287.5 294.6 308.1 308.8 307.3 302.4 287.2 293.6 295.8 303.7 304.3 302 307.6 300.8 298.9 299 289.7 284.3 280.6 280.3 273.7 261.5 248.3 245.8 245.8 244.2 242.3 234.6 232.2 232.4 230.4 221 211.9 207 204.2 200.5 202 205.9 207.5 205.4 203.6 199.5 202.5 205.2 205.7 203 203.5 202
90.6 84 81.1 78.2 69.2 63.5 54.5 50.1 58.5 65.8 86.9 106.6 115.3 108.7 97.9 95.7 101.6 107.6 104.6 105 103.7 108 106.5 106.3 98.9 91.6 88.3 71.7 68.8 59.4 55.3 44.6 38.2 39.8 44.5 32.9 14.9 11.9 8.7 7.2 6.2 4.6 4.8 7.6 11.4 11.6 10.4 9.5 9.2 13 6.5 5.1 4.8 6.9 7 6 1.6 -0.2 -1.5 -1.5 5.1 6.5 2.5 1.5 1.5 2.2 3.2 13.3 13 11.5 14.8 24.7 32.2 38.3 37.7 41.4 49.7 57.4 67.4 79.3 91.3 102.3 108 115.2 124.2 129.9 135.1 127.1 126.4 129.9 142.9 142.9 143.8 144.1 146.4 147.5 150 151.4 149.7 149.6 156.7 148.2 133.5 121.7 110 97 94.4 89.4 84.2 82.9 78.2 76.2 79.7 86.7 97 108.8 110.4 102 102 101.5 101.7 101.3 97.7 88.7 83.2 78.5 74.5 74.5 74.5 80 92.1 112.5 134.8 154.7 168.9 177.1 166.2 169.8 172.6 181.9 188 195.7 210.1 223.2 240.8 251.3 264.4 273.6 274.8 287 288 286.9 292.3 291.9 301.1 308.4 311.2 310.3 303.6 300.9 300.5 301.5 307 304.1 310.4 306.4 300.9 298.1 293.5 284.2 282.8 280.6 275.1 262.4 251.6 246.6 245.1 244.2 244.7 235.1 232.4 230.2 226.7 218 215 209 206.2 203.3 204.8 209.1 210.9 210.9 207.6 204.4 205.3 207.1 207 206.2 205.6 202.5
93.1 87.8 80.9 74.6 69.8 58.8 56.7 54 57.3 64.5 81.8 100.5 112.4 108.5 98.2 99.5 100.2 109.7 108.9 107.4 111.6 122.8 124.5 118 112.3 103.7 90.2 82.5 69.6 68.9 67.7 56.8 45.6 38.5 35.7 31.2 17.9 13.3 11.5 11.4 11.1 7.3 6.3 6.2 11.3 11.6 10.5 9.4 8.7 8.3 6.8 7.1 4.8 4.2 7.5 4.6 0.8 -1.4 -1.5 -1.5 9.2 7.3 2.7 1.8 1.5 1.5 1.6 8.7 13 8.2 10.8 15.1 24.6 29.2 29.9 28.2 42.8 46.1 52 65.8 75.9 86.1 94.5 108.4 114.6 122.2 125.5 124.5 124.8 126.1 129.2 130.3 142 143.8 148.1 146.7 149.6 152.5 150.6 150.5 151.4 155.9 141 126.1 118.2 102.4 104.4 101 95.3 90.9 86.4 79.7 77 80.2 89 96.5 108.7 103.2 102.1 102 102.4 100.7 99.4 90.6 85.8 80.9 77.7 74.5 75.6 74.5 74.5 84.7 109.1 138.4 163.6 166.7 159.9 157.4 164.5 170 177.3 186 197.5 205.7 220 231.5 251.4 259.8 267.2 284.1 290.5 285 284.4 283.3 296.1 300.6 306.9 304.7 303.9 302.5 302.8 303.4 305.4 305.8 304.3 309.7 302.6 297.8 291.6 284.7 282.7 280.8 275.4 264.3 258.2 252 246.3 243.4 243.2 239.6 233.1 232.8 234.4 229 222.3 215.8 205.9 207.2 210.1 212.6 215.7 217.3 215.2 212.7 210.1 214.7 214.8 213.6 211 207.2
99.1 88.3 81.3 76.9 67.9 60.5 58.1 55.5 59.5 70.5 75 96.3 106.9 105.7 99.5 107.7 106 108.2 112.6 116.1 113.1 128.8 131.1 132.7 125.3 116.1 102 89.7 82.6 72.1 77.9 72.7 60.2 43.4 29.7 26.7 19.9 15.6 15.6 15.3 15.1 12.1 7.7 5.8 9.5 11.6 11.3 11.1 10.5 9.2 5.1 5.2 4.9 3.8 4.1 3.9 2.2 3.2 2.2 7.9 9.4 9 3.4 2.2 1.7 1.5 1.5 2 5.3 4.7 5.5 8.7 16.1 20.2 24.8 22.2 31.7 42.8 41.3 51.3 61.6 72.6 83.5 99.6 112.5 112.8 118.6 121.9 120.6 119.9 121.8 128.2 141.1 145.2 148.3 152.1 149.6 150 150.7 156.6 150.8 150.1 143.3 132.5 122.6 109.8 109.1 115.5 111 100 100.3 86.3 77.3 77.3 79.7 89.4 99.6 101.8 102.7 104.9 102.4 99.4 96.7 92.5 87.6 81.2 79.9 74.5 74.5 74.5 74.5 74.5 87.5 111.7 146.9 161.4 158.8 149.6 153.8 163 168.1 173.3 183.7 189.7 198.2 207.1 221.6 236.4 256.1 271.2 279.7 279.8 278.1 278.7 284.2 294.1 297.3 301.1 301.3 303.6 306 305.7 302.9 303 302 300.7 301 296.3 291.6 285.3 283.3 281.7 278.6 276.4 266.8 259.6 253.6 247.8 243.6 243.3 236.7 233.3 234.7 235.1 227.2 218.7 213.7 214.5 214.4 217.6 220.6 222.4 221.2 218.4 216.3 217.6 219.5 219.8 220.4 216.8
103.2 94 85.3 77.9 67 60 58.3 56.4 58.8 74.2 74.3 90.8 98.4 99.6 110.4 109.5 108 109.3 117.3 123.9 117.1 125.3 132.8 135.3 133.4 123 115.3 102.7 89 78.3 82.6 80.2 71.8 54.5 33.8 24.8 25.5 18.3 16.3 18.1 21.2 21 20.6 8.2 7.3 11.5 11.3 13.1 12.7 10.7 7 9.5 6.7 4.5 3.4 2.9 2.7 3 2.5 10.4 9.4 9.6 7.7 3.3 2.5 1.8 1.5 1.5 3.7 3.7 8.7 8.5 10.3 14.6 15.9 20.5 22.6 35.1 39.1 41.3 49.5 58.8 69.7 79.9 93.3 108.3 105.9 113.6 116.1 118.5 121.1 124.7 140.4 140.6 149.5 152.3 149.3 149.6 150.9 160 155.9 148.4 142.6 136.6 126.1 115.2 115.8 118.4 126.6 114.4 107 97.2 84.8 77.5 78.4 83.4 100.2 100.9 99.8 105.8 105 101.8 95.7 93 87.3 84.7 81.3 76.1 74.5 74.5 74.5 74.5 74.5 86.8 113.8 135.6 149.2 141.4 142.4 151.4 161.2 162 166.5 172.9 180.5 188.5 191.8 213.3 242.2 253.1 263.8 269.8 272.4 272 272.4 282.9 291.1 293.8 296.6 302 307.9 305.4 303.4 301.7 301.6 304 299.5 299.9 291.3 296 287.9 285.6 284.1 281.7 275.2 265.1 259.8 251.8 247.7 245.5 243.9 234.8 233.3 234.1 225.6 212.2 220.4 220.1 217.6 221.4 225.1 228 228.9 226.1 225.2 222.1 224.4 225.7 224.7 221
106.7 99.5 91.5 82.5 70.2 61.2 61.1 65.1 66.4 67.1 73.5 88 91.7 107.7 111.8 110.5 109.7 110.2 118.8 117.6 120.3 126.2 132.9 140.5 141 137.1 122.5 112.6 102.2 87.5 79.2 83.9 84.5 67.5 43 30 29.3 24.7 19.5 18.4 23.5 24 22.5 10.3 7.3 11.4 19.5 13.9 13.6 12.2 10.2 12.5 9.4 8.5 5 3.7 3.3 2.7 3.6 9.7 10 10.1 8.7 6 3.2 2.2 1.6 1.5 2.5 3.5 4.6 8.5 9.2 13.3 14.5 19.1 21.2 24.5 34.3 36 48.8 50.6 59.5 67.5 76.3 84.7 107 113.7 118.4 118.1 120.8 123.9 126 133.8 142.2 152.4 154.9 154.2 155 156.7 162.4 157.9 147.9 138.8 129.7 122.1 123.7 124.8 127 129.4 114.7 107.7 90.8 78.2 77.9 81.2 88.9 99.4 98.3 97.7 105 104.7 104 95.4 89.5 85 82.9 79.2 74.5 74.5 74.5 74.5 74.5 74.5 83.3 104.8 122 127.8 131.9 140 149.9 153.4 152.8 161.4 166.2 171.3 173.5 196.1 218.9 229.9 244.3 250.3 257.6 262 267.8 272.2 280.7 290.5 290.4 295.1 301.3 304.4 305.2 302.9 299.2 299.3 298.2 299.3 289.7 289.2 295 291.2 294.8 291.7 283.3 266.3 262.2 255.9 250.2 246.4 244 237.3 233.4 230 224.2 222.1 226.9 226.5 218.8 224 229.3 233.5 234.9 237.2 234.7 228.9 232.4 232.2 229.5 224.4
111.2 103.3 100.8 94.3 79 66 71.1 73.9 72.6 76.4 85.2 87.1 101.6 108.5 111.2 110.6 109.7 110.7 114.3 117.2 129.2 140.3 139.2 138.1 145 144.3 133.6 122.6 109.9 98.4 86.5 82.1 81.7 76.9 57 36.1 28.2 28.1 24.6 25.8 21.4 25.1 24.7 16.1 10 10.3 19.2 25.2 17.1 20.9 16.4 16.7 12.3 11.4 6.7 5.6 3.3 2.8 3.3 12.1 12.2 9.5 10 5.8 3.3 3.1 3 2.7 2.9 3.4 4.1 7.1 9.7 14.5 15.8 16.6 20.4 26.7 34.3 33.3 40.8 48 53.2 64.8 68.6 83.4 99.5 117.5 119.1 119.6 121.9 123.3 125.7 128.5 138.7 153.4 161.8 159.4 161 163.9 162.9 166.8 157.3 147.7 136.5 129 128.5 133.9 136.5 129.8 124.4 116.1 104.4 90 78.4 78.7 81.4 85.1 89.2 97.1 97.4 104.6 108.9 99.6 93.6 87.5 84.6 80.7 77.3 74.7 74.5 74.5 74.5 74.5 74.5 74.5 91.8 103.4 112.3 120.9 139.5 147.1 146.3 148.3 152.7 153.1 156.1 179.5 199.8 206.2 218 237.2 239.3 250.6 254.2 262.1 268.5 275.8 280.4 285.5 296.7 301.3 302.1 300.8 297.3 295.8 298.4 296.4 289.4 286.5 288.6 287.6 297.5 295.4 289.3 273.9 262.7 257.2 252 247.8 244.8 243.2 233.3 228.8 226.7 224.7 233.3 234 224.3 228 233 236.9 239.1 241 245.7 236.9 241.6 239.6 237.6 230.4
113.5 108.9 109.6 99.7 83.9 68.8 76.3 80.9 78.5 83.6 89.2 86.6 102.6 107.9 109.9 112.2 112.2 111.3 114.9 122.4 132.5 143.6 144.2 141.2 141.5 145.8 141.3 133.2 120.8 108.3 94.3 82.3 80.7 84.9 74.7 46.7 34.2 27.3 27.9 25.4 27.2 26.1 33.2 19 17.7 12.3 15.6 22.8 26.2 26 29.3 25 15.9 12.3 9.1 5.9 6.6 2.8 3.5 7.7 9.5 6.8 5.7 5.3 3.5 2.9 2.8 2.6 3.3 3.6 6.2 7.6 11.1 15.3 20.5 17.4 19.2 27.8 34.4 36.6 37.9 43.6 53.8 65.6 74 76.2 93.3 102.6 117.5 123.8 126 131 127.5 129.5 137.6 153.8 163.3 168.7 172.3 169.8 168.3 168.5 168 154.8 146.4 131.8 127.5 138 143.7 140.7 129.7 122.4 114.3 100.3 84.5 78.6 81.4 85.4 85.8 92.6 94.1 102.1 104.8 100.5 92.5 87.1 84.8 82.5 80.4 74.5 74.5 74.5 74.5 74.5 74.5 74.5 74.5 83.9 93 105.1 117.5 131.3 135.5 135 134.9 140.1 139.2 153.2 174.8 188.2 191 205.7 219.7 235.3 238.4 248.2 257.6 263.5 270.7 278.5 285.9 295.3 297.7 297.6 296.9 293.7 292.6 295.1 289.7 286.1 281.9 282.7 298.3 293.9 292.5 278.3 263.9 256.2 252.8 249.2 244.6 239.2 233.5 235.5 233 226.8 235.7 236.7 235.7 233.5 239.2 242.9 244.8 248.5 253.1 249.4 249.7 247.8 243.8 239.4
113.7 110.8 108.9 104.5 84.6 73.7 79.7 82.7 86.5 85.1 95.1 90.7 99.6 112.6 116.6 124 126.6 120.5 124.9 126.7 133.2 150.4 160.6 152.7 147.5 145 146.9 141.4 129.4 117.8 102.2 92.3 83.2 81.4 79.5 60.9 45 30.9 27.5 26.1 28.2 27.4 29.9 23.4 14.8 22 16.7 18.6 30.2 33.7 39 37.1 24.8 16.5 11.2 6.4 5.1 4.6 3.6 5.1 6.3 5.3 4.5 3.8 3.8 3.7 3.6 3.2 3.2 3.6 4.6 8.2 8.8 15 22.4 19.8 20.1 26.7 36.6 35.5 37.5 42.2 51.8 67.2 80.7 88.2 94.3 95.7 106.3 122.7 126.4 131.5 130.6 134.2 137.5 153.1 160.7 169.8 180.4 178.3 176.4 170.7 171.8 163.3 149 136.1 129.1 133.4 144.3 146 136.2 125.4 120 108.9 95.3 85.1 78.7 86.6 85.2 85.9 92.6 95.9 104.6 107.4 96.3 89.4 87.1 86.7 82.2 79.6 74.5 74.5 74.5 74.5 74.5 74.5 74.5 74.5 74.5 91 96.1 108 120.3 119.9 121.1 124.6 127.6 142.3 152.6 164.4 173.5 181.9 200.3 215 228.1 235.7 245.2 252.2 266.5 277.3 279.6 288.8 293.2 294.8 295.3 292.7 289.8 290.7 289.3 284.4 280.4 280.7 283.9 293.6 292.7 280.2 266.1 259.2 253.7 249.6 245.3 238.8 239.2 238.2 237.4 231.1 236.5 238.7 238.1 235.2 245.1 248.7 250 250.3 251.5 254.5 253.4 254.9 255.5 256
119.9 112.8 110.3 104.5 91.5 76.3 81.6 85.3 94.5 88 97.1 98.2 94.2 112.5 123.6 132.1 133.9 131.7 135.2 127.5 138.1 149.3 167.2 162.5 156.6 151 148.2 148.5 144.2 129.6 114.2 95.5 92.9 83.6 79.5 76.2 62.4 43.8 29.1 26.9 26.7 28.9 26.7 23 14.9 26.8 31.8 23.4 31.1 35.8 39.4 39.8 37.1 26.5 19.6 9.2 9 9.6 5.9 4.8 6.8 5 4.5 4.3 4.9 4.4 3.6 3.3 3.1 3.7 4.8 7.9 8.1 13 17.3 23.5 26.6 26.6 33 37.5 39.3 41.9 49.2 66.7 82.7 97.1 101.7 97.5 100.2 111.1 119.2 125.2 131.7 140.5 142.4 151.4 161.9 173.4 178.7 194.2 185.5 180.3 175.2 171.5 154.4 143.2 133 133.4 135.2 145.8 144.6 133.3 120 112.2 102.5 91.8 81.7 80.5 84.6 83.1 91.6 95.8 100.9 102 104.1 96.7 89.4 88.1 87.3 80.9 74.6 74.5 74.5 74.5 74.5 74.5 74.5 74.5 74.5 74.5 79.8 86.9 102.1 107.4 114.3 116.1 118.9 131.4 141.5 152.4 157.4 168 179 198.9 213.3 223.8 236.2 247.4 261.7 276.2 277.4 278.4 288.5 290.4 290.6 291.3 287.6 286.6 284.4 282.4 280.4 280 281.1 288.6 292.6 280.5 273.8 262.2 257.5 251.6 245.1 243.9 244.2 244.6 241.7 236 236.2 239.7 240.8 241.5 249.8 256.4 254.4 255 253.2 256.7 258.3 260.5 264 262.4
122.6 121.5 114 112.8 99 83.9 90 90.3 95.4 93.3 102 103.4 98 111.8 119 134 137.3 147.6 144.1 137.4 148.7 160.7 161.1 168.6 166.2 157 152.1 149.2 151.4 142.1 117.8 109.9 101.7 93.1 81.6 76.1 71.2 54.6 37.2 28 28.2 28.9 28.2 23.1 18.1 24.2 38.3 31.6 25 34.2 40.4 42.6 46.6 37 28.2 16.2 11.1 8.9 6.7 6.7 6.8 5.1 5 5.6 5.3 4.3 3.5 2.7 3.4 3.9 10.2 7.8 7.7 9.5 15.8 18.1 30.6 33.3 33.1 42.1 45.3 47.5 48.7 63.6 83.7 98.4 104.5 109.1 108.5 111.1 126.3 132.9 134.2 145.4 152.4 153.9 161.6 167.8 184.5 190.4 198.9 188.4 182.6 176.3 164.4 153.3 138.9 132.5 132.1 137.9 142.2 137.2 128.2 115.7 109.7 95.3 88.5 80.7 82 83.6 87.4 93.6 91.7 93.1 99.5 98.2 91.8 89.5 86.8 81.5 74.5 74.5 74.5 74.5 74.5 74.5 74.5 74.5 74.5 74.5 74.5 74.5 79.6 89.6 97.9 103 106.1 113 129.6 141 144.5 149.9 164.6 179.5 198.7 208.3 223.8 238.2 255.1 269.2 275 274.7 279 284 284.7 285.8 287.4 284.5 282.6 280.2 279.5 280.2 279.6 280.2 282.4 280.1 276.1 263.6 256.7 253.4 251.1 248.5 247.6 248.4 247.6 242.6 235.4 241.6 242.8 245.2 243.1 255.7 257.2 256.8 260.5 263.3 267.1 267.7 268 267.6
137 123 121.7 116.4 105.2 79 94.6 102.5 99.5 98.2 105.7 115.1 106.5 113.5 120.1 130.6 140.1 156.3 151.9 148.6 156.5 168 169.7 167.5 169.3 167.6 162.9 151.6 146.4 139 130.5 119.2 109.7 97.3 86.8 77.8 70.4 58 44.7 34.8 29.1 28.8 26.8 25.3 18.1 19 36.9 34.9 30.1 30.2 39.4 42 43.9 54.2 43.4 24.8 15.6 11.9 9.5 14.4 14.1 5.9 5.9 7.3 5.1 4.5 4 3.4 2.9 3.7 11.8 6.6 7.4 8.1 13.1 13.4 19.6 27 35.6 39.4 47 52.4 53.2 62.2 79.1 100.6 115.7 123.4 130.3 119 125.2 135.8 141.9 148.5 159.8 164.7 168.3 171.9 174.9 193.1 194.6 194.9 190 182.4 168 161.3 149.1 137.5 132.8 132.6 134.4 136 134.3 124.9 113.9 106.8 95.8 84.5 81.6 84.6 83.7 93.2 90.8 87.4 91.1 92.3 89.7 90.3 88.4 82.9 74.5 74.5 74.5 74.5 74.5 74.5 74.5 74.5 74.5 74.5 74.5 74.5 74.5 74.5 81.8 91.4 93.5 97.3 111.1 125 137.1 135.7 150.9 166.3 181.6 203.7 208.6 226.2 244.8 255.2 273.3 272.3 272.2 276.2 280.4 282.1 285.3 281.1 279.2 276.7 273.3 279.1 278.4 278.1 277.8 273.7 276.8 264.7 256.8 254.1 252.5 250.2 250.3 251.1 251.3 247.5 243.6 244.1 244.7 246.7 248.9 253.3 257.4 258.4 264 273.8 274.7 271.2 272.9 273.2
150.1 135.6 125.1 121.7 111.1 86.5 100.4 114.5 116.2 105.3 109.5 122.6 124 114.9 117.5 120.1 133.1 148.9 151.9 151.1 158.7 170.8 172.9 171 169.4 169.6 161.7 153.8 143.1 140.7 140.6 128.4 113.5 103.5 92.8 80 68.9 63.2 55.3 39.8 30.7 27.8 25.6 23.6 18.1 22.4 29.1 37 34.5 33.6 40.7 41.2 46.1 58.5 52.7 31.3 20 16.9 10.7 19.3 17.1 12.5 9 8.6 5.7 4.4 3.9 3.7 2.9 3.8 5.4 6.3 7.6 7 7.4 8.5 13.7 19.9 27.5 41.9 46.4 54.9 58.8 62.3 78.4 93.3 116.8 125.6 134.9 139.7 128.6 136.1 147.4 157.6 173.1 177.8 178.2 185.2 178 185.8 194.4 195.2 195.4 187.7 173.7 163.9 154.1 142.8 135.8 133.4 133.4 134.2 135.1 134.4 120.9 113.5 100.9 92.5 84.2 82.6 82.7 86.3 92 86.2 83.9 87.4 89.7 90.6 90 86.2 75.6 74.5 74.5 74.5 74.5 74.5 74.5 74.5 74.5 74.5 74.5 74.5 74.5 74.5 74.5 75.6 80 83.3 94.9 107.4 122.3 124.2 142.3 154.2 171.7 189.6 201.7 213.6 229.4 245.6 253.2 270.1 270.4 272.9 274.2 278.5 279.5 277.9 276.4 273.2 267.1 274.9 276.7 277.6 276 271.9 271.9 268.9 258.4 255.6 254.7 254.5 254.4 255.3 254.7 253 248.9 246.6 249.9 251.6 251.8 252.3 256.2 257 261 273.6 280.2 275.6 275.6 277.8
157.1 144.8 142.4 124.3 119.2 98.5 102.9 117.8 125.2 117.6 112.2 126.5 131.5 126.7 119 119.6 126.4 141.9 152.2 159.2 158.6 164.3 172.9 174.9 174.7 170.2 171.8 166 152 141.5 139 137.5 123.9 109.3 101.7 90.3 76.7 67.8 63.2 48.5 32.9 29.8 26.1 23.2 19.4 23.1 31.2 38.5 38.8 38.6 42.7 47.9 52.5 55.5 54.6 38.4 22.8 17.7 17.1 16.9 20.2 21.2 15.1 12.3 7.6 5 4.7 3 3.7 3.7 3.7 5.3 6.6 6 6.4 6.9 9.5 12.5 24.1 34.1 48.4 55.8 63.4 66.4 75.1 93.1 110.3 124.4 139.5 149.2 148.1 138.2 150.4 161.4 179.9 188.7 191.5 187.1 191.1 187.8 196.7 199.3 197.7 195.4 182.5 166 160.6 151.6 140.9 136.6 134 133.5 134.5 137.7 127.6 118.9 107.3 100.3 89.8 85 84 83.3 92.6 86.6 83.8 84.2 88.9 90.6 90.4 88.4 81.1 74.5 74.5 74.5 74.5 74.5 74.5 74.5 74.5 74.5 74.5 74.5 74.5 74.5 74.5 74.5 74.5 74.5 84.7 97.8 102.4 115.5 140.3 150.6 161 175.7 192.5 201 215.6 228.8 241.4 251.6 266.7 268.8 269.3 272.5 275.8 275 270.7 275 267 265.5 271.3 273.3 274.4 271.9 271.9 270.7 261.7 259 257.6 257.7 258.3 260.5 257.6 256.3 254.2 258.4 250 261 260.3 257.8 260.2 262.9 262.8 266.2 276.7 277.1 277 278.8
162.6 158.3 153.4 140.4 125.1 107.5 101.6 113.8 128.5 128.8 116.4 131.4 134.9 132.7 123.1 122.7 131.9 140.7 149.7 169.1 169.1 167.9 171.1 177.2 180.5 177 172.6 174.5 159.9 143.3 138.6 136 134.5 117.6 107.9 95.8 87 76.5 62.1 50.2 33.9 36.7 27.9 25.3 24.8 24.6 32.2 43.6 42.2 52 43.9 54.5 54.5 55.9 55.8 46.4 28.6 20.2 18.3 18.1 17.7 21.4 21.2 13.1 10.3 5.2 3.3 3 3.9 3.9 3.8 4 5.4 5.2 5.4 5.8 6.2 9.8 13.1 25.8 44.4 62.6 67.3 70.8 83 94.8 102.6 120.2 139.2 151.2 162.8 156.7 146.6 165.3 178.9 192.4 198.2 200 195.4 195.4 200.4 202.8 203 203.6 189.9 172.8 166.8 166.7 150.8 141.2 137.5 133.9 134.5 136.2 134 123.6 114.7 101 92.9 89.6 84.9 84.4 83.7 83.6 83.7 84 85.2 88.5 91.1 90.7 86.6 79.5 74.5 74.5 74.5 74.5 74.5 74.5 74.5 74.5 74.5 74.5 74.5 74.5 74.5 74.5 74.5 74.5 77.6 85.8 97.5 103.7 123.8 149.5 161.7 172.1 180.1 189.5 194.9 210.2 227.8 237.5 252.7 262.3 264.6 268.7 272.1 269.8 269.2 266.5 266.9 262.3 269.8 271 275.1 272.8 271.9 275.2 263.9 261.5 262.9 262 261.2 264.2 263.3 262.4 259.6 269.9 267.2 264.3 270.1 266.8 263.3 268.7 269.6 267.7 273.7 279.1 281.3 280.4
166.8 167.2 161.6 154.1 138.4 116.8 98.7 112.8 130.4 133.6 123.9 126.7 133.8 134.8 127.9 126.8 138.6 141.3 149.4 168.7 173.7 173.3 175.7 179.8 183.5 181.5 175.2 170.8 161.2 152.6 141.2 134.9 130.1 119.9 113.3 99 87 77.7 72.3 60.8 34.5 40.5 35.7 26.5 28.4 26.6 30 40.8 44.6 48.8 48.3 56.1 55.6 53.9 54.3 50.3 29.9 22.2 22.2 20.6 18.6 17.7 16.5 12.1 8.9 6.9 4 3.4 4.2 4.3 4 4 4.4 5.2 5.3 5.3 5.2 7 8.3 18 34.5 51.7 69.6 75.8 82.4 92.9 105.2 119.2 135 152.5 165.3 171.7 166.4 164.7 177 189.4 200.8 206.9 203.2 200.4 202.9 207.1 204.6 204.7 197.1 181.5 167.9 162.2 158.2 148.4 144.9 137.1 135.1 134.8 135.5 128.8 118.8 104.6 96.4 92.7 87.1 85.9 84.7 84.1 83.7 84.1 84.4 86.9 90.1 91.9 90.8 87.7 74.6 74.5 74.5 74.5 74.5 74.5 74.5 74.5 74.5 74.5 74.5 74.5 74.5 74.5 74.5 74.5 74.5 74.5 83.5 95.2 108.1 144.2 155.6 167.5 170.3 172.4 178.9 194.2 204.5 218.1 236.5 247 258.2 262.7 266.8 267.2 267.6 264.9 262.8 261.5 267.1 268.6 270.3 275.9 276.8 271.8 266.2 264.6 266.3 267.7 267.9 266 268.9 265.8 263 274.5 272.6 268.3 272.8 275.3 271.9 272.7 274.9 274.3 276.2 284.5 289 287.6
168.5 171.9 167.6 160.7 149.3 131.6 109.9 108.6 126.5 135.7 128.1 129.2 134.8 134.8 131.5 129.7 142.3 143.8 147.8 167.5 176.9 181.3 181.6 186.9 187 188.9 181.6 170 166.2 160 144.8 138.9 130.9 126.7 116.6 101.3 89.5 79.7 71.8 65.3 50.3 50.3 45.6 34.7 29.2 31 26.5 34.1 40.2 48.8 52.4 55.5 56.8 54.9 51.2 45.6 31.4 26.3 26.3 22.1 20 17.4 16.1 12.5 10.6 7.9 4.5 3.4 3.2 4.5 4.2 4.3 4.4 4.4 4.5 4.6 4.7 5.3 7.2 10.3 21.8 42.8 65.4 77.2 85.1 92.6 104.8 116.1 126.4 143.8 160.3 175.4 181.9 177 173 185.4 199 206.8 207.9 206.9 204.4 210.9 207.9 207.1 202 191.3 172.8 171.8 160.7 157.2 156.3 145.5 138 132.7 135.4 133.2 120.3 113 109.5 95.8 91.8 86.4 85.1 84.2 84 84.7 84.6 84.6 90.2 92.5 93.3 91.3 85.5 74.5 74.5 74.5 74.5 74.5 74.5 74.5 74.5 74.5 74.5 74.5 74.5 74.5 74.5 74.5 74.5 74.5 74.5 79.5 94.6 112.2 126.5 138.8 150.5 152.3 162 169.5 189.1 202.1 216.4 230.7 245.4 258.6 261.4 262 261.5 261.9 260.3 260.3 262.6 266.9 267.9 271.9 275.6 275.1 268.8 266.7 268.2 272.8 278.1 275.7 271.2 270.4 269.3 271.8 277.1 277.8 269.4 279.2 279.2 277 278 278.3 282 288.5 292.3 294.8
165.5 172.9 173.6 166.6 155 136.6 114.7 112.3 123.3 134.8 135.2 131 141.1 138 138.9 132.1 142.6 146.5 150.7 166.6 178.7 187.2 187.4 190.6 190.4 188.1 182.7 173.6 165.9 159.5 148.6 139.7 128.9 125.3 118 100.8 92.4 82.6 75.1 65.8 54.9 50.7 49.5 40.9 34.6 28.4 26.1 30.1 38.8 59.6 58.1 53 63.2 59.7 50.1 43.2 32 29.6 28.5 24.5 20.1 17.8 17.1 13.4 11.7 8.5 5.5 4.6 2.9 3.5 4.2 3.7 4.1 4.4 4.5 4.6 4.7 4.9 5.3 7.5 18.3 30.1 52.8 75.2 84.6 96.7 105.1 111.9 118.1 133.1 146.1 164.5 178.1 189.1 189.3 186.3 198.8 205.4 210.5 212.2 211 207.7 212.9 206.9 206.1 199.5 180 185.2 168.2 162 159.4 151.8 144.7 136 130.8 129.3 119.4 120.8 120.6 109.9 94.9 95.6 86 84.3 84.3 85 84.7 84.5 89.6 92.9 94.2 93.5 90.3 81.7 74.5 74.5 74.5 74.5 74.5 74.5 74.5 74.5 74.5 74.5 74.5 74.5 74.5 74.5 74.5 74.5 74.5 74.5 76.7 102.2 107.9 114.5 125.7 132.5 144 154.5 164.5 181.7 197.4 212.5 229.9 244.5 256.3 258.3 259.3 259.9 258.6 260.2 261.1 264.4 267.2 270.6 276.8 274.7 278.1 274.1 277.8 281.1 280.8 279.3 279.8 276.5 280.6 279.9 283.1 284.3 282.2 281.3 286.7 283.5 282 283.7 286.9 293.8 299.5 302.5
166.9 171.1 172.9 168.9 158.2 146.6 122.8 111 127.4 140.9 145.9 134 138.5 140 140.4 135.7 142.7 149.2 153.1 168.6 178 191.3 195.3 194.4 191.8 186.8 181.8 175.3 165.9 161.9 151.5 140.9 129.4 122.9 115.6 98.2 90.5 83.6 79.5 69.8 54.2 53.1 45.1 41.8 38.1 32.5 25.3 30.7 37.5 57.5 59.3 56.4 54.7 61.6 54.8 46.4 34.9 35.1 38.7 29.4 25 19.6 17.4 14.2 11.8 10.2 6.6 4.8 3.2 3.3 3.2 3.5 4 4.3 4.4 4.5 4.7 5 5.2 5.6 9.8 23.8 40.2 62.5 73.4 89.3 104.5 108.6 115.5 119.7 131.8 148.4 162.7 177.6 191.5 192.1 191.5 201.2 207.6 210.6 214.5 213.4 212.1 211.1 206.3 201.1 189.4 192.5 181 167.8 160.4 158.3 151.5 143 131.7 127.8 122 122.5 127.3 125.9 107 102.5 101.7 85.9 84.5 84.8 85.6 86 86.3 92.6 95 101.5 102.1 91 79.9 74.5 74.5 74.5 74.5 74.5 74.5 74.5 74.5 74.5 74.5 74.5 74.5 74.5 74.5 74.5 74.5 74.5 74.5 78.3 94.1 93.6 104.7 123.4 125.9 142.4 151.1 164.3 183.5 200.2 209 228 243.6 253.8 257.8 257.8 258.6 260.6 261.3 263.2 266 268.8 273.9 279.5 282.1 281.7 279.6 284.1 287 286.6 286.9 287.8 292.8 290 290 293.5 293.9 288.7 290 291.9 286 290.2 291.8 296.7 304.8 309.6
169.4 170.8 171.8 169.7 162.1 151.8 127 118.1 127.6 139 144.1 138.5 139.2 140.1 143.8 147.8 145.3 153 153.5 165.4 177.6 189.3 194.5 199.8 197.3 188.2 184.7 178.1 171 162 160.1 142.7 130.5 121.9 111.5 97.3 92.2 88.9 81.8 72.6 63.8 55 47.7 44.2 41.1 40.4 26.3 28.8 39.1 44.7 57.8 57.8 48.8 60.5 57.6 51.8 42.7 35.7 42.3 44 39.1 36.7 18.8 15 12.9 11.2 8.2 5 3.9 2.8 2.9 3.4 4 4.3 4.4 4.6 4.8 5 5.2 5.5 5.9 15.7 29.1 51 59.7 77.7 89.9 102.9 105 111.8 119 131.5 148.2 161.3 175.6 192.6 194.8 193.8 206.4 209.5 214.1 219.8 215.1 218.4 213.3 206.9 195.8 192.3 190.9 176.8 167.5 160.9 153.1 146.9 139.6 127.9 126.9 127.8 125.4 127.9 123.3 102.1 105.3 102.7 88.8 85.4 85.4 85.4 85.3 91.6 104.8 113.1 113.6 109.4 91.5 79.3 74.5 74.5 74.5 74.5 74.5 74.5 74.5 74.5 74.5 74.5 74.5 74.5 74.5 74.5 74.5 74.5 74.5 74.5 79.3 84.6 96.4 104.5 114.6 127.2 137.6 146.6 167.9 178.3 197.7 215.3 227.3 239.4 254 252.7 257.1 259.3 260.5 261.7 266.6 268.9 277.8 282.4 284.8 286.1 285.1 292 296.7 295.4 296.5 301.7 303.3 302.2 298.6 301 301.4 299.9 288.7 299.1 297.7 291.6 296.6 300 305.7 313.2
173.3 170 172.8 172.6 165.3 153.5 136.4 124.1 124.3 129.8 139.4 140.3 141.7 145.1 149.2 154.8 151.7 157.7 163.6 167.4 172.4 186.2 194.2 201.3 200.5 191.8 187.9 186.5 176.6 168.2 159.3 149.9 135.8 126.1 113.7 102.7 98.4 88 82.4 74 69.1 63 57.2 56.6 48.3 41.3 35.3 28.4 30.9 40.1 45.2 44.7 46.2 47.7 51.9 53.3 48.2 40.1 41 45.3 43.2 41.2 27 20.7 17.6 19.1 10.5 6.7 5 3.5 2.7 3.3 4 4.3 4.4 4.6 4.9 5.2 5.5 5.6 5.9 6.8 22.4 35.2 47.9 60.3 71.9 86.6 99.1 100.1 103.5 114.8 127 145.9 162.2 179.7 200.8 198.3 197.3 211.8 216.3 219.2 221 219.7 220.8 215 203.5 196.9 189.9 180.3 176.6 168.3 160.8 150.9 142.8 138.8 131.8 133.3 133.9 128.2 131.2 118 106.2 109.1 100.8 94.5 85.8 85.8 85.5 86.9 102.1 113.1 111.3 115.4 107.2 89.7 74.5 74.5 74.5 74.5 74.5 74.5 74.5 74.5 74.5 74.5 74.5 74.5 74.5 74.5 74.5 74.5 74.5 74.5 76.5 77.4 87 92 103.3 115.7 126.2 137.8 150 167.5 180.6 196.5 210.7 229.1 248.8 249.3 257.8 261.2 262 262.7 268.1 276.3 281.5 286.8 288.2 292 294.4 299.5 303.6 308.1 304.7 311.9 314.5 313.5 311.9 313.8 312.9 309.4 306.5 302.4 308.7 302.6 298.9 305.2 304.7 316.3
175.9 173 172.2 172.2 169.3 156.7 145.8 121.1 127.7 134.6 131.8 141.4 147 150.9 159.6 165.5 158.3 164 165.3 165 172.2 187.1 195.2 203.8 204.5 198.4 196.6 188.4 179.4 172.4 163.9 153.4 143.5 134.6 119.8 109.8 107 99.2 86.4 79 73 66.7 69.6 67.7 59 45.5 39 36.7 33.6 34.1 36.9 38.5 40.2 40 50.6 56.3 52.4 47.3 41.7 42 45.6 39.9 30.3 28.2 19 21 21.4 7.6 5 3.5 3.1 3.5 3.9 4.3 4.6 4.9 5.2 5.5 5.6 5.8 5.9 6.4 11.8 23 34.6 45.4 59.8 71.4 85.2 90.2 95.7 101.3 114 130.3 146.4 163.6 183 198.7 202.1 212.7 220.7 223.2 225.6 223.5 221.9 219.6 211.7 202.2 191.9 187.7 179.7 173.4 166.2 154.1 148.6 145.9 148.8 139.2 139.9 134.2 130 128.6 114.9 113.4 106.9 105.9 96.4 87.5 94.5 96 94.9 107.7 113.1 112.2 114.8 102.3 88.5 74.5 74.5 74.5 74.5 74.5 74.5 74.5 74.5 74.5 74.5 74.5 74.5 74.5 74.5 74.5 74.5 74.5 74.5 74.5 78.6 85.2 91.6 104.9 120.1 130.8 141 154.9 169.1 183 206.4 222.4 245.7 250.3 262.4 270.4 273.8 275.6 273.6 284.2 284.8 291.4 299.4 302.3 306.6 310.8 315.7 317 314.9 320.8 324 324 322.2 322.5 321.7 318 315.8 313.1 313.3 314.8 304.5 310.4 312.7 313.6
178.3 175.9 174.8 171.6 168.1 159.5 150.3 125.1 129.4 132.3 137.1 142 148.1 156.1 168 167 164.1 163.1 166.8 165.7 168.6 179.3 192.8 203.2 209.9 205.7 203.2 192.1 183.6 176.7 167 156 147.6 138.2 128.5 119.4 115.4 110.2 101.4 82.2 72.8 74.5 80.7 76.8 75.6 59.5 43.4 41 30.5 40.5 35.1 35 38.5 37.8 44.1 59.5 55 50.3 45.9 39.3 40.3 42.2 34.3 31.7 24.1 18.7 27 14.1 6.2 5 4 4.3 3.5 4.3 4.8 5.1 5.4 5.6 5.7 5.3 5.3 5.7 9.4 14.3 21.2 32.6 50.8 60.3 71.3 82 87.9 92.5 103.8 118.3 135.5 149.3 167.5 186.7 201 209.5 214.6 229.4 227.9 229.7 224.7 224.3 216.2 208.1 201.3 199.9 186.3 179.4 170.3 161.7 155.9 157.6 155.8 154.8 146.4 143.6 133.2 132.2 127.3 111.5 117.2 113.4 110.4 93.9 92.7 102.2 97.8 101.7 110.2 112.4 111.2 114.5 98.1 84.3 74.5 74.5 74.5 74.5 74.5 74.5 74.5 74.5 74.5 74.5 74.5 74.5 74.5 74.5 74.5 74.5 74.5 74.5 78.7 82.2 85.6 93 110.8 126.7 136.7 146.9 160.4 180.5 197.2 219.3 236.6 252.4 264.9 282.8 288.1 288.4 282.2 289.2 296.1 305.1 315.3 318.6 320 322.9 329.1 329.5 329 330.9 332.7 336.1 334.2 330.4 332 328.4 325.5 320.4 315.6 320.3 319.2 313.8 318.4 320
181.3 176.3 176.5 174.6 169.5 160.8 152.8 131.3 129.5 134.1 136.6 151.3 146.5 157.7 166 169.3 169.9 164.1 172.8 167.3 168.8 177.9 189.4 199.5 209.6 211.2 211.8 200.4 188.8 182.1 172 163.5 151.6 145.8 137 125.9 122.6 116.2 111.5 94.5 78 85.1 89.7 79.1 75.3 74.9 52.1 43.4 38.6 35.3 39.5 38 36.5 36.5 38.5 56 56.6 51.1 46.7 43.7 38.3 33.5 35.1 32.4 19.6 18.5 17.7 11.8 7.5 6.3 5.2 3.8 3.2 3.6 4.9 5.4 5.6 5.4 5.4 5.4 5.6 9.8 9.6 12.4 18.4 25.4 38.1 52.5 64.7 77.9 84.4 87.6 93.6 109.5 131.5 143.9 160.3 177.1 192 204.5 216 227.5 233 232.6 231.8 225.6 222.4 212.2 207.4 201.4 193.9 188.6 178.8 171.5 165 164.4 165.1 166.3 155.9 152 141.5 135.5 131.8 117.2 121.2 125.5 114.1 103.9 94.4 97.8 103.3 100.6 105.2 114.3 111.8 111.5 114.1 97.6 81.5 74.5 74.5 74.5 74.5 74.5 74.5 74.5 74.5 74.5 74.5 74.5 74.5 74.5 74.5 74.5 74.5 74.5 76 78.8 83.9 90.2 105.7 120 135.3 142.8 155.2 171.6 193.2 206 229.5 252.2 260.9 282.7 293.1 301.2 299.5 305.7 313.9 321.7 331.4 333.3 336 335.8 338 340.8 344.6 342.7 347.4 350.2 347.6 340.7 342.4 342.7 340.3 334.9 326.2 319.5 325.5 318.4 325 327.3
184.6 178.2 180.7 179.4 173.1 165.3 156.1 140.3 125.9 136.2 139.3 148.7 154.3 161 165.5 169 175.7 176 181.5 178.1 178.1 184.9 192.8 197.9 200.8 218.1 218.3 212 199.7 190.5 182.3 168.5 159.8 152.9 144.6 136.6 133.8 131 116.2 102.1 82.7 89.9 90.1 88 75 74.6 69.6 53.2 38.7 34.7 35.2 38.8 37.9 36.5 37.2 44.1 56.1 49.8 47.3 45.2 40.3 31.1 31.7 28.9 22.1 19.9 20.7 18.1 8 6.8 5.4 4.5 3.5 3.8 4.7 5.4 5.5 5.5 5.5 5.7 5.9 8.2 13.3 12.3 14.7 21.7 37.6 43.7 60.5 69.3 83.4 88.5 90.6 100 122.1 141.8 154 172 199.6 209 217.1 229.1 237 239.1 235.1 227.7 223.2 214.2 207.8 207.6 203.8 195.6 187.6 181 173.1 176 176.7 171 168.3 158.2 151.1 143.4 133.8 127.3 120.9 125.6 122.8 112.1 107 101.2 99.9 100.8 113.1 106.7 114.2 111 107.3 110.3 95.2 80.6 74.5 74.5 74.5 74.5 74.5 74.5 74.5 74.5 74.5 74.5 74.5 74.5 74.5 74.5 74.5 74.5 74.9 77.9 81.8 90.1 97 112.4 127.8 140.2 150.5 165.2 185.9 200.5 222.4 250 261 278.6 294.8 314.2 325.8 323.5 330.2 338 343.8 347.4 347.1 347.8 346.8 352.6 355.3 356.2 357.3 358.9 357.2 352.2 351 350.5 350.1 348.8 344.2 334 332.8 333.4 328.9 336.7
185.6 186.1 185.8 182.4 176.3 167.2 159.4 137.7 127.5 136 142.8 144.5 162.7 167.3 168 170.2 180.8 186.2 184.1 187.9 184.6 188.2 194.4 200.3 200 217.4 221.5 217.1 207.4 193.5 185.8 182 170.3 159.9 151.9 143.8 146.2 137.8 123.6 111 88.2 88.9 90.1 88.9 82.8 71.4 70.5 59.8 45.1 37.6 35.8 37.2 38.8 37.5 38.2 40.1 46.8 51.6 53.6 46.6 45.5 43.1 36.4 27.5 21.1 19.3 28.2 19.4 11.6 6.1 6.1 5 3.4 3.4 4.3 5.4 5.5 5.5 5.6 5.6 5.8 6 13 16.2 15 20.4 27.8 40.4 49 64.2 74.8 87.3 91.2 98.3 111.1 133.2 150.1 167.7 191.4 211.8 218.9 227.9 239.3 241.7 238.5 234.1 226.1 221.8 218 214.1 212.8 198.6 198.7 188.6 181.8 183.5 186.7 183.5 175.2 168.6 158.1 150.5 140 131.7 120.6 125.1 124.8 117 114.2 110.7 104.4 101.6 100.8 114.6 106.6 109.5 105.9 100.6 99.1 90.2 79.3 74.5 74.5 74.5 74.5 74.5 74.5 74.5 74.5 74.5 74.5 74.5 74.5 74.5 74.5 74.5 74.5 74.5 80.8 86.8 97.9 108.9 122.6 134.3 149.1 161.3 176.5 196.3 212.4 239.3 256.9 274.9 291.5 308.9 331.5 339.9 340.4 348.6 355.6 363.1 360.3 358.4 357.3 360 365.7 368.8 369.1 367.5 365.2 362.5 361 360.5 358.3 360.3 356.2 349.6 337.5 344.4 344.2 344
190 189.6 191.3 183.4 178.9 169.6 161.9 140.5 138.5 137.6 142.9 148.4 164.3 170.8 174.4 172 181.9 193.9 200.6 194 191.6 192.6 195.3 204.7 215.6 220.2 222.3 216.8 210.3 200.9 188.7 192.9 186.9 173.1 160 155.6 155.5 150.9 140.3 117.5 94.7 89.7 88.6 85.6 87.4 71.8 68.2 63.6 50.6 41.7 37.6 36.6 41.5 39.5 38.8 45.3 46.7 51.8 55.3 47.9 47.4 49.4 42.2 32.2 22.3 19.5 22.2 23 12.4 5.8 5.7 5.6 4.8 3.1 3.9 5.2 5.4 5.5 5.6 5.6 5.6 5.4 7.7 18.1 16.3 17.7 25.7 33.5 43.1 57.7 74 86.4 92.2 98.5 107.7 120.5 142.3 157.9 185.1 205.9 217.8 228.8 236.9 242.7 241.3 237.9 234.8 226.3 224 219.9 215.2 211.3 199.2 195.9 187.5 196.2 197 197.6 187.8 176.6 166.6 158.8 151.7 142.1 132.2 123.9 129.1 122 118.6 111 106.5 101.9 101.3 102.5 114.4 105.9 101.4 98.7 98.1 95.5 87.7 75.9 74.5 74.5 74.5 74.5 74.5 74.5 74.5 74.5 74.5 74.5 74.5 74.5 74.5 74.5 74.5 74.5 76.4 82.6 89.4 99.6 117.6 132.1 141.3 158.1 174.8 191.3 206.9 226.2 251.1 265.2 284.8 297 317.6 334.3 339.6 348.6 359.4 368.9 368.8 367.4 367.1 370.7 373 379.8 380.9 383.1 382.1 381 373.7 373.1 369.1 367.9 365.4 363.2 352.2 346.9 350.1 348.5
200.7 193.7 192 183.5 178 172 163 146.6 145.5 141.4 140.3 146.5 165.9 169.9 185.4 185.9 185.6 193.9 205.5 202.9 195.1 192.1 195.5 205.5 221.6 223.4 221.7 220.4 216.4 207.4 193.2 193.6 194.7 186.8 176.5 171.7 165.3 156.5 154.2 130.7 104.4 99.5 89 85.8 81.1 71.8 67.1 62.7 55.7 39.3 38.3 37.6 40.3 44.8 40.3 42 52.2 50.9 52.6 49.6 48.1 47 45.9 35.4 28.6 23 16 15.1 13.6 6.3 6 5.9 5.4 3.8 3.5 4.8 5.3 5.4 5.5 5.6 5.7 5.7 6.1 21.3 26 23.1 22.5 27.3 37.8 51.2 64.2 84.9 91.4 98.3 110 117.1 130.3 155.5 174.3 197.2 213.5 229.3 239 240.9 241.1 239.5 238.5 236.5 230.4 229.3 220.4 214.2 205.3 200.9 191.7 203.7 209.7 206.2 199 185.5 174.6 162.2 160 150.7 141 128.9 127.1 132.8 127.3 120.1 113.7 106 106.7 100.8 106.8 110.9 101.6 98 96.9 95.5 90.2 81.1 74.5 74.5 74.5 74.5 74.5 74.5 74.5 74.5 74.5 74.5 74.5 74.5 74.5 74.5 74.5 74.5 74.5 79.5 85 94.9 110.7 130.5 136.6 148.9 166.8 184 199.3 214.2 238.8 254.6 272.8 286.8 301.2 316.8 337.4 344.4 359 370.9 372.8 374.2 375.5 376.3 380.2 384.9 392.3 394 394.2 392.4 391.5 388.4 384.6 380.6 374.1 370.7 366.8 358.4 356 358.3
208.5 200 189.4 183.8 177.6 173.5 164.9 153.7 147.3 144.5 138.8 144.3 163.6 168.5 179.5 190.8 198.7 199.8 203.2 205.9 197 194.2 194.7 202.5 227 231.5 225.3 223 224.1 216.3 201 192.9 202.4 196.1 187 185.1 177.1 171.2 153.5 137.2 116.4 110.7 98.7 89.2 80.1 72.8 68.1 62.5 55.9 49.5 44.1 41.5 39.3 42.6 42.1 41.2 50.5 59 53 51.3 49.2 50 48.7 39.7 32 25.7 18.3 12.2 10.6 8.7 5.9 5.6 5.2 4.6 3.5 4.5 5.3 5.4 5.5 5.6 5.6 5.7 5.3 10.3 29.9 34.3 24.1 22.7 29.7 44.8 59.3 75.5 84.8 90.7 106.6 120 127.3 151.4 173 191.9 209 226 235 238.3 241.5 243.2 240.8 241 237.9 233 230.7 219.2 216.4 206.6 201.2 216.8 213.7 211.6 204.3 193.5 181 171.6 162.6 162 149.6 141 129.4 131.3 135.8 128.5 130 122.3 112 108.1 101.4 105.4 103.2 101.5 96.5 94.8 90 85.4 74.5 74.5 74.5 74.5 74.5 74.5 74.5 74.5 74.5 74.5 74.5 74.5 74.5 74.5 74.5 74.5 74.5 76 83 90.1 102.2 119 130.7 139.2 155.6 173.1 189.3 202.9 224 242.4 256 275.1 284.3 303.2 323.5 339.7 353.8 370.2 375.3 378.9 381.4 382.9 384.1 385.6 396 404.6 409.1 411.2 408 405.1 401.8 395.7 391 383.6 377.8 371.8 366.7 362.3
211.1 205.1 194.8 187.4 183.7 176.3 169.5 159.1 144.6 146.1 143 144.5 152.4 164.7 176.7 187.3 199.4 209.6 207.6 208.7 203.2 196.5 197.8 205.8 235.7 240 238.6 231.5 234.5 230.7 212.5 206.8 198.8 203.5 200.3 190.7 186.4 181.3 166.3 147.8 134.6 122 105.3 93.8 86.9 77.3 72.3 62.9 59.7 57.2 56 50.2 47 41.2 41.9 42.1 44.2 53.9 53.1 51.5 50.3 51.5 57.1 47.4 33.3 26.5 20.2 15.7 10.7 10 8.5 6 4.5 3.7 3.7 4.3 4.4 4.8 5.4 5.5 5.5 5.5 4.9 6.5 16.7 44.9 27.5 20.6 25.2 38.5 55.5 64.1 75 85.2 98.2 118.7 127.2 142.4 170.3 187.2 202.2 218.2 229.3 235.4 239.8 246.7 248.2 247.5 242.5 239.3 233.6 232.1 218.4 217.8 217.4 224 221.6 214.2 208.3 199.7 186.5 185.3 175.7 168.9 161.8 153.8 140.9 136.5 136.9 134.1 137.8 138.8 127.5 115.6 103.5 103.8 107.3 103.5 100.2 97.1 91.5 84.8 78.7 74.5 74.5 74.5 74.5 74.5 74.5 74.5 74.5 74.5 74.5 74.5 74.5 74.5 74.5 74.5 74.5 74.5 82.9 85.5 98.5 109.5 124.1 133.3 142 161.3 175.5 193.6 204.9 226.2 241.1 254.3 272.8 290.2 308.7 331.1 343.1 363.6 372.7 375.3 383.4 388.9 389.3 390.2 396 404.2 411.9 417.8 416.9 416.2 414.9 410.2 402.8 395.7 389.4 386.4 381.9 378.2
210.7 206.1 200.2 192.9 189.7 183.3 171.4 162.9 146.5 149.8 146.5 145.9 149.9 155.6 169.5 184.4 189.2 206.8 212.5 211.9 209.7 202.2 204.6 210.4 239.9 241.3 239.8 237.7 235.4 231.4 224.8 221.4 212.4 205.4 206.3 201.1 198.9 201 179.3 159.9 141.6 134.1 116.8 98.5 94.7 89.3 76.2 69.4 63.8 57.6 60.8 56.9 51 48.2 42.9 42.2 42.4 46.8 62.1 51.3 50.8 53.8 55.3 49.5 38.8 27.2 24.1 18.3 11.1 9.3 8.2 6.7 5 4.5 4.2 3.4 3.4 4.6 4.5 5.3 5.3 5.3 5.3 5.8 10.8 27.3 36.8 23.3 21.5 34.9 45 60.7 66.3 78.5 93.7 114.7 127.5 137.6 156.9 180.4 195.7 208.5 220.9 233.1 237.3 245.6 252.3 257.5 245.7 240.2 239.1 233.5 225.2 233.9 227.2 228 229 221.3 215.7 206.5 199.4 194.2 188.6 179.4 172.2 165.3 153 139 146.9 139 143 145.3 143.1 132.7 115.6 105.8 109.1 113 105.1 98.5 94.6 90.3 82 74.5 74.5 74.5 74.5 74.5 74.5 74.5 74.5 74.5 74.5 74.5 74.5 74.5 74.5 74.5 74.5 74.5 83.7 85.7 89.5 102 118.2 131.9 137.6 145.8 159.7 177.6 187.6 207.5 223.6 240.5 256.9 275.8 295.1 314.6 333.4 352.6 367.6 371.5 381 388.8 392.6 390.9 398.6 406 413.4 419 421.9 424.5 424.5 422.6 416.3 406.4 399.4 395.3 395.4 391.5
