ncols 200
nrows 200
xllcorner 200000
yllcorner 780000
cellsize 50
142.6 138.5 133.9 129.7 125.4 122.7 120.6 119.5 119 121.5 121.7 125.4 128.9 130.8 133 136.6 141.9 148.2 151.3 152.1 164.4 174.5 182.3 184.8 197.2 197.5 199.5 201 206.5 208.6 203.6 199.3 196.2 196.3 199.2 207.4 212 208.4 207 204.5 206 209.3 214.2 209.9 218 228.6 242.4 263.5 286 291.6 310.1 329.3 335.4 336.8 340 341.8 341.1 338.2 331.4 340 346.2 342.5 344.5 342.5 339.8 342.2 346.7 347.3 348 352.3 357.9 355.6 356.8 357.7 360.9 356.8 352.2 349 344.7 336.7 326.7 322.5 321.6 324.9 325.9 321.6 327.1 335.4 336.9 337.7 344.6 352.2 360.7 369.1 378 383.3 392.8 401.2 398.8 409.9 412.3 417.7 418.3 422.5 424.6 433.2 434.3 438.1 431.4 432.3 425.7 430.7 445.9 460 474.1 487.2 498.3 504.8 511.9 518.3 529.1 536.1 536.1 536.5 537.7 536.5 532.2 510 496.8 452 420.9 395.6 375.5 356.9 339.1 323.4 307.2 288.2 272.2 256.3 245.8 235.2 226.4 215.8 210 204.7 199.8 197.8 197.7 194.1 192.9 187.3 179.7 174.5 169 163.6 158.9 155.4 153.4 150.1 147.7 147.7 148.2 148.4 145.3 141.1 143.4 145.5 140 137.7 138.5 137.4 137.8 138.3 138 141.3 135.9 133.2 132.9 132.8 131.5 134.7 136.3 130.8 126.3 123 120.3 116.8 113 111.7 109.9 108.6 107.4 105.4 108.7 110.8 113 112.5 113.3 110.8
138.1 133.1 126.6 124 122.3 119.8 120.4 122.5 124.3 126.6 130.4 137 136.2 141.9 145.2 153.7 158.7 161.4 165.6 171.4 187.6 193.6 205.5 212.3 212.9 209 211.1 217.2 214.9 211.8 208.6 206.3 207.3 205.2 211.2 218.7 220.4 216.8 216.3 220 220.4 226.8 228.1 218.9 226.5 239.1 251.2 269.7 294.5 307.1 332.8 343.7 346.1 352.3 360.8 358.5 360.8 353.4 358.4 366.5 372.7 368.2 360.8 352.8 349.9 349.2 353.2 350.3 356.4 357.2 358.9 357.7 355.4 352.4 355 356.1 351.1 346.4 341 334.3 331.4 330.2 329.9 332.9 334.7 335.1 337.3 343 347.3 348.4 357.1 361.8 371.1 377.7 385.4 397.7 404.6 410.9 415.8 420.8 426.1 431.6 436 442.4 454.8 461.6 459.9 456.3 448.1 441.6 439.5 446 460 473.6 491.9 506.7 517.7 524 531.4 539.8 547.7 546.4 546.2 545.3 543.1 536.7 524.4 501.3 474.7 446 427.1 407.1 393.6 384.6 349.2 333 329.7 311 294.4 273.1 260.1 248.9 236.2 232.9 225.7 220.1 214.3 212.6 203.9 202.9 200.5 195.3 188.8 183.2 180.5 175.1 171.1 168.6 163.2 158.1 157.8 159.2 157.4 153 151.2 151.2 151.1 151.1 148.8 147.3 148.5 146.7 146.5 145 146.5 146.5 142.9 144.1 143.2 142.1 142.3 141.6 141.4 139.3 137.2 135.1 132.3 130.2 127.4 124.4 122.4 121.4 119.3 117.8 121.5 123.8 123.7 123.7 124.2 122.4
131 127.4 124.1 124.6 124.5 123.8 125.7 128.5 131.4 135.5 142 144.5 144 153.4 159.2 166.8 174.1 173.8 182.9 199 206.2 217.3 225.4 231.8 227.5 223.2 226.8 227.4 227.4 224.2 223.8 217.3 215.1 228.3 242 237.7 235.2 233.7 231.8 228.2 234.4 238.9 242.4 235.8 250.9 259 261.9 274.6 299.6 327.4 352.7 361.4 371.7 378.3 372.9 377.4 376.9 389.7 404.4 405.1 402.4 393 382.9 374 370.1 361 359.4 367.4 365.1 361.6 361 357.9 354 349.8 350 348.7 345 340.9 338.7 337.4 337.4 338.1 342.1 340.5 340.8 344.4 346.8 347.7 351.1 355.8 367 373.7 381.5 389.8 399.6 412.1 418.6 432.7 434.9 442 452 459.8 458.6 477.7 476.6 470.6 465.5 463.5 457.7 451.7 453.8 459.7 469.4 486.8 509.5 530.9 535.6 545 552.5 558.6 564.3 565.4 559.3 552.8 549.9 535.5 516.2 503.4 484.1 464.1 439.8 411 395.4 383.4 368.3 330.6 321.5 303.6 291.3 276.9 265.3 259 248.5 241.8 238.1 228.2 224.6 220.2 215.9 211 207.9 203.1 197 191 193.2 194.8 186.5 178.5 172 164 163.3 166.1 163.3 163.9 161.9 158.8 158.5 160.1 156.3 157.1 159.4 157.7 155.3 152.6 155.2 153.5 154.3 157.3 152.9 150.3 152.6 149.3 147.6 148.4 147 144.5 142.4 142.1 143.9 138.1 135.1 139.1 134.2 132.8 135 136.4 135.6 135.3 134.9 133.5
125.9 127.6 129.6 129 129.1 130.9 135.7 138.8 140.5 146.7 148.2 150 155.1 162.7 171.2 179.7 184.2 191.9 209.1 220.4 229.2 242.1 241.7 237.9 237.2 236.8 239.4 242.6 240.6 230 226.6 233.3 241.5 252.3 254.1 250.7 249.5 248 247.3 248.3 252.1 260.1 260 257.6 268.5 270.4 279 289.4 315.1 341.4 366.7 387.8 403.5 405.5 396.5 396.7 418.3 430.5 421.4 413.9 409.4 401.7 401.9 398.5 391.5 376.2 382.2 378.9 371 371.2 364.8 362.4 356.9 354.4 350.6 348.2 346.8 344.8 344.3 343.9 346.2 347.4 345.1 348.3 349.8 349.3 354.1 356.8 364.8 368.4 380.2 391.1 401 407.9 416.6 437.4 453.6 456.5 455.9 461.8 467.8 476 481.4 486.9 481.1 478.6 475.9 472.6 468.6 464.7 466.3 470.6 478.9 497.4 528.4 549.7 559.5 568 572.2 579.3 577.9 576.1 571.7 566 559.3 549.8 535.2 524.3 497.3 477.6 448.7 414.2 390.2 372 347.2 326 302.8 295.9 281.9 274.1 262.7 255.9 250 243.2 239.8 234.7 231.7 227.9 224.8 220.6 216 209.8 205.5 202.2 205.7 203.4 196.9 194.3 188.9 173.2 171.2 173 170.4 172 171.5 169.5 168.3 169.7 165.6 168.9 170.3 167 163.7 163.5 167.5 165.5 166.6 165.4 162.4 164.6 165.2 160.4 158.8 156.9 156.2 154 152.5 151.4 150.6 149.7 149.1 153.6 149.6 151 152.3 151.5 150 150.3 150.1 148.4
131.6 133.9 137.7 134.3 135.5 139.5 142.9 149.5 152.1 155 155.6 158.9 169.3 177.1 185.2 193.4 199.2 216.5 227.2 233.6 242.2 248.4 251.9 252 260.5 262.2 263.7 259.5 258.9 259.1 247.8 257.8 267.5 263.5 266.6 267.3 271.6 272 272.7 269.9 270.2 276.6 273.6 276.5 284.4 287.8 294.3 310.8 332.7 356.9 386.3 403.9 420.4 418.9 422.4 430.7 429.8 429.5 422.3 420.3 418.1 417.5 426.7 417.3 410.4 400 399.8 391.2 387.1 383.1 377.4 371.5 366.9 363.2 356.3 350 354.3 352.1 351.8 350.6 352.4 353.2 354.3 356.8 364.6 365.1 363.5 368.5 378.7 387.2 396.2 407.9 419 429.3 450.1 463.5 473.3 478.1 479.6 476.5 488.3 492.1 497.2 492.8 492.2 494.4 488.5 482.6 477.1 475.2 479.3 484 495.2 518.4 555.2 572 581.5 585.8 590.1 588.7 586.9 582.5 582.9 579.7 570.8 560.3 542.6 535.4 500.1 485.6 463.5 428.6 380.2 365.7 351.3 334.5 303.8 285 277.9 273 271.3 265.9 258.2 257.3 253.5 245.6 240.8 238.7 233.9 229.7 222.7 219.7 215.8 210.8 212.1 209.1 201.5 197.4 186.3 185.7 181.9 180.7 184.3 183.1 182.6 180.1 178.6 178 180.3 180.9 179 173.9 175.1 174.8 176.2 177.1 178.5 175.2 174.9 175.6 172.9 172.8 172.9 171.2 170.1 168 166.3 164.7 162.2 162.8 165.4 166.1 167.1 166.6 167.8 166.9 166.1 166.3 165.9 165.2
135.9 137.7 140.1 143.5 145.5 152.1 153.5 158.1 158.8 162.6 165.9 174.7 185 192.9 199.4 208.4 222.6 234.5 241 249 256.6 260.4 270.8 295.2 302.6 295.4 290.4 288.9 288.7 286.9 290.8 290.4 290.1 289.5 284.1 284.2 287.5 291.9 291.9 288.8 291.5 291.2 290.5 290.5 293.3 301.9 315.3 329.6 359.1 385.3 411.2 422.4 428 425.3 435.3 431.6 432.9 433.4 432 428.3 430.4 429.5 437.6 426.2 423.3 421.6 417.4 404.2 408.6 403 388.5 378.7 371.9 366.6 359.9 357.9 356.6 361.6 362.5 360.8 366.9 365.9 368.6 373.8 377.5 384.7 383.2 386.9 395 406.1 416.1 426.4 440.6 455 474.4 479.8 486.2 492.4 490.4 492.8 495.3 503.5 503.9 502.2 502.3 499.2 495 491.5 488.8 493.5 497.2 502.9 523.2 554 584.8 594.8 603.1 608.1 609.1 605.5 598.8 589.4 585.2 577.4 572.5 567.8 551.8 545.9 520.9 489.9 474.4 450 386 353.8 344 323.4 302.4 284.3 281.9 279.8 276.4 272.3 269.1 262.8 263.2 257.9 251.8 244.9 238.3 235.2 233.2 231.6 227 217.8 216.7 211.2 207.9 200.6 197.9 194.8 196.5 193.4 192.7 192.8 189.1 187.1 186 186.8 188.6 189.4 187.2 184.3 189.3 186.8 185.6 187.1 186.9 186.7 187.6 187.3 186.4 184.1 184 187.9 181.9 181.4 181.3 177.8 179.2 181.2 180.5 183.5 183.4 184.4 184.5 185.5 186.3 185.1 183.1 183.9
139.5 143.8 144.9 152.8 156.8 162.1 166.2 168.1 171.1 172.9 183.2 195.1 199.3 209.6 216.2 222.9 233.9 247.8 251.3 259.5 269.7 283.3 303.4 319.7 330 329.3 322.6 323 330.3 327.6 324.1 321.4 311.2 303.2 302.3 305.5 307.8 308.4 307.8 310.6 315.6 310 303.2 297.7 303.4 318.1 335.6 357.9 388.2 399.2 415.8 421.1 423.6 426.9 437.3 439.2 438.8 441.6 443.9 445.4 446.6 444.9 443.2 440.9 439.9 433 425.1 421.3 418 408.8 389.5 383.1 376.5 375.4 373.4 368.2 368.6 373.9 380.3 391.3 398.5 401 404.4 396.9 402.3 409.3 403.5 409.1 416.4 424.7 440.1 461.1 479 487.8 501.7 506.7 514.4 512.9 506.9 503.6 505.2 508.7 512.1 514.1 511.3 510.5 508 505.3 516.2 520.7 517.9 527.6 556.7 584.8 609.2 619.7 625.6 625.2 622.1 620.4 604.5 594.8 585.1 574.1 571.1 564.1 554.7 544.1 527 483.9 468.2 447.7 398.6 367.8 334.8 320.5 309.4 293.4 287 287 287.2 280.4 275.7 269.9 265.6 259 252 246.6 242.2 240.6 239.2 236 227.8 223.5 218.3 216.1 213.8 209.3 207.9 207.6 205.5 208.9 214.2 205.5 199.5 195.7 196.2 196.4 196 199 198.6 194.7 197.3 196.3 196.3 199.2 200.2 200.6 202.2 198.6 197.3 195.5 197.8 196.6 194.7 193.9 193.8 196.4 196.8 196 200.2 204.3 202.1 201.6 203.9 204.4 203 203.9 202.6 201.8
148.2 151.2 155.3 161.4 169.3 174.2 175.4 177.7 185.1 194.8 199.7 208.4 219.4 223.2 227.6 236.5 249.3 259.4 268.2 275.3 292 315.5 329.9 345.2 356.6 355.5 353.1 348.7 350.8 354.8 360.8 351.1 333.4 329.3 327.4 333.5 325.5 320 322.3 323.9 322.8 321.1 315.3 310.5 314.7 333.2 350.9 374.3 386.5 403.4 416.7 419.4 425.1 433.9 444.6 443.4 449.1 455.8 462.2 456.1 456.9 462 458.3 461.5 455 441.7 430.5 429.8 422 407.1 402.4 394 391.9 393.7 391.7 395.4 392.9 396.9 404.2 419.3 428.4 444.4 446 432.7 419 429.3 432.3 430.3 433.4 447.2 469 499.8 513.7 517.4 522.3 525 523.7 525.8 524.7 517.9 518.2 520.4 521 521.2 520 521.9 526.5 537.9 536.6 543 551.6 568.7 592.4 624.1 630.8 637.6 636.5 629.9 628.3 619 603.1 592.1 584.5 579.7 575.7 568.2 553.1 536.4 520.6 478.2 459.9 442.5 410.6 382.7 350.2 331.8 309.3 298.4 296.3 295.5 296.4 289.4 281.3 275.5 269.7 262.5 256.1 251.5 248.3 245.8 243.7 237.4 229.2 225.7 224.3 223.7 218.1 224.7 219.7 219.7 220.2 223.5 221.3 209.6 206.9 207.1 208.9 208.4 205 204.3 206 205.3 208.2 208.6 208.2 210.7 210.6 213.9 211.6 210.3 209.7 208.8 210.9 209 210.5 208.7 210.3 212.2 210.8 215.2 219.6 221.5 223.2 221.6 221.7 219.4 221.4 226.1 222.9 226.1
159.6 158.6 163.5 172.5 179.9 185.6 186.6 192.7 200.9 206.8 214.8 225.4 232.4 233.9 244.1 259.7 273.7 277.5 292.5 304.2 319.2 336 363.8 378.6 375.1 376.6 379.4 390.4 393.6 388.2 378 367.3 360.3 353.3 346.7 343.1 347.5 342.7 333.3 332.2 332.8 329 327 323.6 330.5 347.7 359.2 376.2 386.8 401.8 411.5 420.5 434.6 443.3 449.5 454.5 459.2 463.9 465.5 472.7 473.4 477.8 487.1 475.8 472 454.1 450.8 439.9 428.3 426.8 426 431.4 438.5 432.1 429.5 426.4 428.8 440.7 451.8 446.6 450.3 456.3 456.6 446.4 441.4 447.7 446.4 451.2 471.2 493.6 516.1 530.9 544.8 548.4 546.2 546 543.2 543.9 540.6 535.4 538.2 537.5 533 532.1 533.2 543.2 558.4 567.9 566.7 574.5 586.9 609 635.8 644 645.9 647.5 643.5 638.3 631.6 620.9 608.5 597.1 595.2 590.8 584 572.8 557.8 532.8 502 469.1 448.4 432.8 416.7 393.7 356.2 337.5 320 313.2 307.2 306.2 305.2 297 288.8 279.5 273.2 265.8 256.8 251.6 254.9 246.4 241.6 239.5 237.9 233.2 236 233.5 224.6 228.5 227.5 226.4 225.9 228.4 226.1 221.2 217.7 218.2 216.7 217.1 215.8 212.1 214.9 215.3 217.1 218.5 219.4 221.5 222.2 222.2 221.7 224.6 225.1 221.7 222.9 224.6 227.8 227 227.4 229.6 230.2 234.5 234.8 237.2 238.7 240.6 242.1 245.4 242 241.7 244.9 247.1
166.5 170.1 178.7 187.3 194.4 196.8 200.8 203.4 213.5 221.1 233.3 241 244.6 253.3 270.9 285.5 291.7 300.4 316.7 336.1 353.8 383.6 398.9 404.9 410.3 403.8 429.5 436.1 435.7 432.7 420.7 410.7 401.1 393.5 377.8 368.5 357 345.4 341.4 340 340.4 342.4 342.6 339.2 349.3 359.4 367.5 377.7 387.6 398.5 412.6 427 435.5 447.7 460.5 475.2 473.1 476.8 484.1 488.1 492.1 498.9 496.9 492.5 481.6 469 462.2 463.6 464 463.1 467.1 477.4 463.8 455.4 452.7 458 474.8 474 481 477.1 472.9 466.7 464.9 461 465.4 470.8 481.1 492.8 505.2 533.4 548.2 553.8 565.9 571.1 576.6 578.7 580.8 580.5 570.6 561.1 556.8 549.9 551.8 556.2 562.2 566.5 575.2 592.5 606.4 618.9 632.2 646.2 654.6 654.8 656.7 658.8 656.7 649.9 638.3 627.8 615.4 605.5 605.3 594.3 590.4 580.8 569.3 532.6 498.5 475 450.3 432.1 418.4 392.5 367.4 351.1 348 343.4 327.3 319.5 309.5 302.6 296.5 288.5 278.2 269.1 263.6 254.7 250 252 249.7 244.4 241.3 238.3 237.4 234.2 233.8 234.7 235.7 234.5 233.4 234.5 232.8 231.8 229.2 228.6 226.5 224.3 225.9 223.1 225.6 226.3 228 227.7 229.6 231.8 233 234 237 238.8 237.7 237 237.8 240.4 244.7 244.8 242.8 245.9 246.3 248.6 253.9 255.6 260.1 259.6 258.8 258 261.8 262.8 260.5 264.1
177.9 182.9 193.7 195.1 203.9 209 213.3 220 229 236.8 245.1 252.3 262.1 278.8 292.9 303 312.2 332.3 354.8 378.8 384.2 420.3 431.3 435.2 440.1 438.9 445.5 445.9 446.4 437.6 433.2 423.9 407.2 393.7 375.2 365.7 355.5 351.9 348.6 351.9 365.6 358.1 365.2 361.4 355.5 364.9 375.1 381.8 389.2 402.3 412.6 425.6 441.4 460.4 478.2 480 483.9 491.8 499 507.5 514.4 515.3 512.9 509.1 500.8 505.2 509.3 505.9 497.9 495.5 507.5 495 482.9 484 478.2 497.5 496.9 495.1 496.5 495 483.9 476.7 476.9 482.6 496.8 508.1 516.7 538.4 561.4 574 579.5 582.8 590.2 601.7 613.6 620.5 615.3 605.2 595.3 599.6 602.9 591.4 587.9 583.6 581 583.1 597.7 620.3 636.7 652.9 661.6 664.1 665.6 666.4 665.2 662.7 660.4 650.8 638.6 626.9 618.3 611.5 608 604.3 597.4 591.6 571.5 529.5 492.9 469.7 455.3 441.3 414.8 397.5 385.4 384.2 371 356.6 346.2 336.5 327.5 316.1 306.6 301.4 296 284.8 272.1 263.2 259.3 255.9 254.6 247.9 246.4 245.1 242.2 240.9 240.2 241.7 243.8 242.3 241.1 241.4 241.5 240.7 238.4 238.4 237.8 241 238.5 236 237.8 236.6 237.1 237.5 240.5 243.8 245 248.6 249.6 252.2 251.3 253.2 253.6 254.9 258.3 261 259.8 261.3 263.8 264.7 267.1 272.9 275.4 276.5 277.2 277.6 275.8 278.6 276.7 276.1
189.1 194.6 201.4 207.2 215.5 223.2 229.9 236.3 243.8 255 255.1 268.5 282.2 295.5 308.9 320.7 340.7 366.2 400.2 401.7 425.6 442.1 448 453 453.8 457.4 451.6 452.7 456 444.8 441.1 422.5 413.3 393.2 377.6 362 357.8 363.6 368.8 371.8 378.4 375.7 378.1 368.4 362.3 367.5 378.7 385.1 394.4 407 416.9 435.1 451.2 474.2 488.6 492 499.3 510.1 520.2 524.9 531.7 534.7 538.4 544 542.4 536.4 527.4 527.2 537 531.8 520.3 508.5 508.4 511.6 530.5 523.3 511.5 508.3 507.6 509.1 500.8 492.1 503.1 515.8 524.1 535.1 562 575.4 588.9 600.4 610.4 617.8 626.6 638.1 652.6 660 652.2 648.2 644.4 634 630.7 625.5 616.7 613.5 610.9 630 644.2 667.8 671.7 674.7 674.5 674.7 675.1 673.8 671 667 662.4 651.7 638.6 632.6 623.2 616.2 611.2 608.4 607.1 599.1 582.4 538.9 504.3 479 459.2 439 425.6 413.8 403.9 392.9 384.2 379 372.4 359 355.8 344.7 329 325.5 317.7 311.6 297.4 280 266.7 263.1 256.7 252.2 252.5 249.8 248.8 248.1 247.7 245 247.5 248.6 249 250.1 250.9 250.3 249.8 249.3 248.6 250.6 250.8 245.3 248.1 247 244.7 246.4 252 255.7 257.9 260.2 262.3 265 265 267.5 266.8 269 269.9 273.7 276 276.5 278 280.6 283.4 286.8 289.7 291.4 290.7 291.8 288.7 288.7 287.2 287.4
200.6 207.5 212.6 224.2 229 240.1 245.6 254.7 258.7 262.6 274.4 293.5 303.8 316.2 323.2 345.8 371.8 400.9 417.3 427.3 447.5 456.1 464.8 481.7 481.2 476.5 470.5 468.5 462 456.6 439.9 431.5 419.1 399.5 382.1 371.1 370.7 381.8 384.7 386.5 384.6 384.9 381.1 374.9 372.1 366.4 379.7 393.2 403.9 411.4 429.6 440.9 462.1 488.8 498.7 508.2 516 528.5 535.2 549.8 557.9 566 577.5 576.9 577.4 562.7 555.8 563.5 554.9 545 546 536 545.3 542.9 538.7 530.7 525.9 528.1 518.3 517.3 521.8 529.7 541.5 547.8 559.8 576 590 602.8 617.4 631.1 642.3 651.3 662.2 672.2 684.6 691 690.2 682.1 672.2 664.2 649.2 638.5 639.7 639.6 655.9 668.9 683.7 687.2 687.9 683.7 680.3 679.8 677.3 675.4 671.2 665.2 655.7 646.5 639.2 630.2 626.5 622.2 617.8 617.2 614.3 610.3 597.8 560 523.8 496.4 473.4 454.1 446.1 438.3 431.7 433.8 426.1 416.2 407.6 395.2 383.4 369 357.3 349.5 340.6 331.4 315.6 301.5 291.6 278.5 271.8 267.6 265.5 259.1 261.9 258.1 254.3 254.7 252.3 254.9 257.5 255.8 255 256.3 258.3 258.4 260.3 262.2 256.2 256 255.6 254.7 254.1 259.6 264.1 266.8 268.8 270.9 274.9 276.7 278.2 281.4 284.3 284.8 287.9 291.1 291.5 292.4 292.6 297.5 302 303.7 303.8 302.6 301 303.9 303.7 307.9 303.9 304.3
215.3 224 231.5 245.2 249.4 256 265.1 270.2 275.5 285.1 300.7 310.9 324.4 337.2 353.6 371.3 392.7 424.1 440.7 454.5 472.3 491 504.8 506.5 508 509.4 500.8 494.9 494.6 482.7 448.2 436.7 426.2 413.1 398 389.1 393.9 391.7 399 392.7 396.9 391.9 386.7 378.5 372 365.7 388.1 395.9 407.6 422.8 433 448 471.7 499.2 510.4 521 535.8 543.3 557.2 569.3 582.9 596.9 601.8 611.6 603.6 599.6 596 583.7 578.7 568.2 562 564.1 565.8 559 552.7 549.4 543.5 540.8 537.4 554 568.9 576.6 577.7 579 589.8 601.3 613.7 627.9 641.8 652.6 665.8 678.2 688.8 694.4 696.5 700.6 706.3 713.7 709.9 697.6 682.1 674.6 668 683.3 701.3 700.5 697.6 693.6 692.9 690.4 684.5 679.8 674.8 669.6 664.3 655.8 647.1 644.9 637.7 633.8 627.4 624.4 620.6 618.8 616.7 614.8 606.8 580.6 543.1 515.8 493.8 485.2 480.1 479.6 479.4 472.6 464.5 455.7 443.5 436.7 426.6 407.8 399.4 380.5 371.8 356 351.1 331.3 318.4 303 292.7 293.8 288.9 277.9 277.9 271.4 266.3 260.8 259.7 261.4 261.9 261.9 262.3 264.3 264.4 265.4 268.9 268.2 264.9 266.1 267.8 260.9 268.3 274.1 276.3 277.8 280.3 283.6 287.1 288.7 290.7 296.2 299.5 303.5 306 306.5 307.4 308.3 314.1 319.1 321.1 320.3 319.4 316.4 312.5 310.2 313 315.5 317.6 320.2
229.7 244.8 258.4 274.2 272.2 275.9 280.1 287.2 295.9 307.4 318 333.2 346.5 364.1 379.6 399.9 428 457.3 471.6 490.5 510.8 539 547.5 545.3 536.2 520.2 516.7 514.2 504.7 500.8 486.8 458.8 433.7 430.3 417.3 405 405.9 410.1 412.7 400.6 400.3 392.8 385.4 381 381.7 376.8 389.1 399.9 414.7 433.5 442.4 456.8 481.3 510.1 526.8 538.5 551.4 564.7 577 593.2 604.3 613.9 618.1 622.7 622.4 617.2 614.9 606.7 603.3 597.4 600.1 600.4 594.7 582.7 567.8 565.1 557.7 560.2 572.7 588.6 596.5 599.2 599 603.4 612.6 622.7 634 645 656.9 668.2 677.3 686.2 694.9 701.4 708.4 714.2 720.3 723.5 723.4 722 721 717.2 712.4 714.7 712.7 706 700.7 694.6 694.4 692.8 685.8 675.1 668.5 662 655.6 645.4 643.1 638.7 633.6 628.1 624.8 623.3 622.1 620.5 618.7 615 612.5 605.6 576.5 550.1 544.4 535.9 542.4 543.4 547.4 541 528.6 504.4 490.4 481.5 474.8 457.4 435.1 407.4 403.1 378.8 364.5 356.6 346.7 335.6 323.2 314.7 297 291.7 288.6 282.6 273 268 266 265.9 266.8 268.9 270.1 270.9 269.3 267.7 271 270 273.4 274.4 271.4 273 279 283.1 289.3 289.6 292.7 297.8 302.5 301.9 305.7 308.7 312.8 317.4 319.9 320.3 323.5 326.5 333 336.9 334 333.5 331.9 330 325.9 322.4 327.4 329.3 332.3 335.9
251.1 264.4 279.3 296.5 289.7 296.2 294.3 305.5 312.2 322.7 337.6 356.3 376.6 394.9 411.4 436 460.7 487.9 502.8 527.8 561.9 592.9 590.4 585.7 570.5 548.5 542 526.5 514.9 506.2 495.4 479 458 444 430.6 423.9 421.2 416.2 409.1 400.3 394.8 392.3 390.2 385.7 381.1 386.6 397.5 412.7 432.9 441 452.1 468.8 493.6 523.4 542.7 553.6 568.7 583.8 595.2 612 618.5 628.7 636.6 638.5 636.7 638.7 642.2 645 645.7 643.2 637.9 626.3 615.6 601.2 591.5 583.3 581 593.6 607.5 612 612.8 613.9 617.3 623.1 629.7 638.8 647.4 655.9 663.6 670.6 679.3 684.9 690.7 696.1 701.4 708.6 712.6 714.8 716.4 717.1 716.9 717 715 713.4 707.2 702.8 697.6 694 689.5 685.9 678.3 670.1 659.6 654.7 653.2 644.2 637 631.5 629.2 626.1 622.5 619.6 619.2 618.3 617.4 613.4 613.7 610.9 605.5 604 602.5 601.9 598.7 600.7 594.8 587.1 567.4 547.5 544.1 538.4 522.8 488.9 455.9 431.7 415.5 401 370.2 360.8 359.2 345.3 335.9 317.4 306.7 299.4 293.7 289.2 281.5 278.3 271.6 270.3 267.9 269.8 272.7 273.5 271 270.2 276.9 277.2 280.1 282.4 282.7 285.7 287.9 294.2 302.1 300.6 306.3 310.5 315.1 319.2 320.3 320.2 324.4 329.5 332.3 334.7 338.4 343.5 346.2 348.4 346.4 347.2 345.3 343.8 337.6 335.1 338.2 336.1 343.8 349.9
273 282.3 298.5 309.6 304.5 305.6 311.6 321.2 325.5 338.5 356.2 380.5 407.1 430.4 450.6 470.8 493.1 521.2 535.9 566.6 612.5 637.9 629.6 629.3 631.2 603.9 580.1 562.3 549.3 520.6 499.8 481.2 467.6 455 440.4 434.4 418.8 409.5 406.1 397.7 393.8 394.8 392.4 391.5 390.6 406.8 426.2 436.4 442.1 449 462.6 485.2 508.9 539.8 562.9 575.5 590.5 600.3 617 626.4 633.6 640.2 647.6 648.7 649 652.8 657.1 658 656.8 653.7 649.8 646.6 641.8 629.9 617.7 614.8 626.9 622.3 622.3 621.4 623.4 627.9 631.3 637.2 641.4 647.4 653.2 658.1 663.3 668 674 677.7 680.4 683.6 686.5 694.2 697.8 700.7 703.3 705.7 705.3 705 704.1 701.4 694.7 691.5 688 685.3 680.3 677 667.1 661.4 654.7 649 644 637.9 634.6 629.3 627.8 622.8 620.5 615.9 616.3 615.6 613.3 611.1 610.7 609.9 609.9 610.1 608.8 608.4 611.2 609.4 605.1 598.9 590.8 588.3 580.8 569.7 553.7 521 495.2 463.4 456.1 434.4 401.2 366.4 356.9 348.6 334.1 321.5 310 303.1 299.5 291.5 287.1 282.9 277.1 274.9 269.8 270.9 271.7 275.6 274 275.8 284.5 282.3 288.5 290.7 293.7 297.7 299.2 303.4 307.9 310.4 318.7 323.2 325.9 330.6 331.5 335.5 336 339.2 342.8 345.3 352.2 353.3 357.4 359.1 357.2 358.1 357.7 353.4 345.9 344.1 345.3 347 355.3 357.6
288.6 302 312.3 310.9 314.8 318.2 327.1 334.1 345.5 361.6 379.8 411.7 444.1 465.9 484.2 510.8 539.3 553.1 569.4 603 639.1 663.4 665 664.5 660.7 637.6 615.1 587.5 565.3 543.9 528.5 495.8 481.3 464.7 447.8 432 413.2 403.8 398.1 397.2 399.5 404.2 404 406.9 421.2 438.9 440.2 442.7 448.5 459.4 477.4 502.6 525.2 558.7 577.6 592.4 603.3 619.8 628.4 637.6 642.9 654.7 659.1 656.9 658.6 663.2 666.3 664.2 661.9 659.6 657.4 654.5 651.8 647.5 643.4 639.7 637.6 635.9 635.1 634.8 636.2 637.8 639.5 643.6 646 648.3 654.3 654.4 658.7 660.4 662.2 665.1 667.6 666.9 667.4 667.8 670.4 675.6 682.4 689.4 690 689.5 689.4 686 681.9 679.2 677.7 674.4 668.6 663.3 658.7 651.7 646.3 637.8 635.2 635.8 633.1 627.2 625.4 621.1 614.9 609.3 608.3 608.4 608.8 606.7 606.2 607.6 608 608.5 608.8 607.6 608.9 610.2 608.3 605.1 598.8 595.5 590.7 584.6 575.1 556.2 516.3 490.6 465.4 445.1 422.9 398.1 381.6 361.7 348.4 336.4 323.5 313 304.1 303.6 301.2 293.1 285.5 278.9 275.3 279.3 280.9 284.7 287.5 288.6 286.2 290.6 295.3 299.3 303.4 308.2 311 313.3 317.3 321.6 330 333.4 338.2 341.4 342.9 346.4 346.7 349.2 352.2 357.6 359 362.7 364.7 366 366.3 365.6 364 355.9 351.1 351.8 353.4 356.8 359.3 362.1
309.9 314.5 327.5 320.7 326.7 334.5 342.4 353.1 364.5 386.3 413.4 445.1 468 493.3 522.8 551.8 573.1 580.1 597.2 628 668.6 692.1 695.7 698.2 694.5 667.6 623.9 598.9 580.7 552.8 529.6 498.5 475.5 460.5 443.2 425.2 414.1 406.4 407 404.8 411.9 421.6 438.2 437.1 436.6 442.3 446.6 450.8 455 470.8 489.9 512.4 543.9 577.8 593.2 608.2 623.3 636.8 644.1 650.8 655.8 661.7 664.5 663.2 664 666.8 666.2 667 666.2 663.8 661.1 658.4 655 653.5 651.3 649.4 648.5 647.2 643.8 640.6 640 642.5 643.5 643 642.7 642.9 647.8 646.9 649.7 650.2 649.8 652.2 651.7 649.2 641.8 634.9 636.5 639 648.8 662.2 669.5 672.7 672.3 671 669.6 665.7 662.9 659.4 654.6 649.6 644.2 640.8 637.3 632.6 631.7 627.5 623.2 622.1 618 611.7 606.1 599.2 600.8 602 601 600.9 603 603.5 602.8 605.5 605.5 604.9 605.4 606.7 608.6 605.4 600.2 597.7 595 591.2 583.8 573.7 553.8 522.8 485.2 458.6 437.6 421.3 400.8 381.9 371.4 359.7 344 328.9 316.4 317.2 309.5 303.1 308 300.5 297.8 297.4 304.1 302.5 301.5 297 295.4 302.2 307.2 307.9 307.8 314.1 317 321.7 328.5 336.4 338.8 342.8 347.9 350.8 355 357.6 358.3 360.9 362.2 364.4 366.5 369.6 369.3 369.4 374 370.7 365.9 357.7 357.8 356.8 361.1 363.9 364.1 368.1
320.7 324.8 332.3 332.5 343.8 352.4 363.4 378.9 394.8 414.6 442.5 469.6 494.2 526.1 555.6 582.7 596.3 607.2 626.9 663.6 702.7 716.7 718.7 710.1 697.4 679.2 650.5 618 586.5 559.4 534.2 499.5 477.1 464 448.1 440.5 431.1 425.6 417.9 421.7 436.8 446.3 443.9 443 440.6 446.1 450.4 460.2 466.7 480.6 497.7 524.1 559.6 590.6 609.5 624.7 638.1 648.1 652.5 658.2 660.3 662.6 664.1 663.6 665.9 667.6 669.3 669 666.1 664.3 661.2 657 653.4 650.6 649.8 649 647.5 647.3 643.7 639.6 637.5 637.5 637 637.8 636.2 628.9 631.9 636.6 637.4 636.9 638.1 636.5 635.4 630.8 618.3 602.3 596.5 601 612.3 627.1 640.5 649.4 652.1 652.8 653.5 651.9 644.9 640.5 637.3 635.2 630.6 626.4 623.5 620.5 616 613.6 613.9 612.9 608.8 602.7 597 595 594.8 593.7 595.4 597.4 599.5 600.1 602 603.3 602.8 603.6 606.2 606.9 612.4 611.3 604.1 599 594.5 592.8 588.9 579.6 565.4 539 508.3 485.6 454.4 434.1 426.7 412 390.8 381.3 363.2 344.9 334.8 334.1 333 331.7 334.4 328.5 319.2 316.9 316.5 313.1 311.3 306.9 306.4 310.7 315 311.7 315.6 319 321.7 327.3 338 341.3 347.1 352.3 355.7 360.1 363.4 365.9 368.3 369 372.9 372.4 370.9 369.6 371.6 371.8 376.7 369.6 366.2 362.4 362.5 364.3 368 368.5 368.4 373.1
332.3 335.8 340 346.2 356.6 371 388.9 408.2 425 448.1 474.8 500.6 526.5 551.9 586.3 610.2 626 634.8 657.7 691.6 724.1 729.4 726.3 717.9 705.2 690.5 657.5 638 619.7 582.9 553.7 523.3 496.9 482.9 481.4 478.1 464.5 444.9 435.6 441.9 449.6 452.6 450.6 449.9 445.4 455.9 459.9 464.1 474.3 488.8 511 541.2 581.2 606.6 625.9 637.7 648.9 654.7 657.6 660 661.1 662.9 662.5 664.5 667.2 667.2 667.5 664 663.2 657.9 654.2 650.5 645 643.2 641.5 638.7 638.5 639 636.6 631.7 629.2 626.6 621.9 621.5 621.1 615.7 615.1 618.6 619.6 619.9 621.7 620.6 617.9 611.2 593.6 575.1 567 565.2 575.6 592.1 606.3 622.9 631.5 630.9 630.5 629.2 625.1 622.3 620.7 618.2 614.6 610.5 605.2 603.2 601 599.3 599.9 597 592.9 591.2 591.7 587.9 587.1 588.1 590.1 591.4 593.1 595.4 597.7 599.9 598.5 599.3 605.2 608.3 608.2 607.8 608 608.2 600.6 592.8 589.9 586.5 579.6 568.4 540.2 540.2 503.2 476 474.7 455.4 427.4 408.2 402.2 388.8 367.9 364.1 360.1 361.1 356.4 357.4 345.9 337.1 340 332.9 320.7 316.2 315.8 319.5 323.1 319.5 323.1 323.6 329.3 337.1 344.3 351.1 355.7 359.5 364.9 366.3 368.7 371.2 372.7 373.6 375.4 374 372.1 370.3 367.4 366.8 371 369.2 368.4 366.1 368.1 371.1 373.3 373.5 372.4 375
343.5 342.3 352.1 361.9 375.7 390 412.9 431.1 450.8 476.5 502.1 529.4 553.9 584.1 617.7 643.4 651.3 659.5 687.8 713.8 733.9 741.3 733 719.3 706.7 691.1 670.1 650.1 633.8 615.4 581.3 550.3 524.8 508.8 504.5 486.3 465.3 474 470.9 462.4 453.8 457 453.9 458.5 454.6 460.3 465.6 469.9 483.7 504.5 526.5 557.9 599.6 620.9 633.5 640.6 649 652.9 653.9 656.8 657.7 659.6 661 662.7 665 663.3 659.1 659.1 655 650 646.5 640 635.2 631.8 630.4 627 626.1 623.6 621.6 618.2 616.1 613.7 610.9 605.9 600.7 598.9 595.1 598.5 599.8 600.9 601.3 600.8 598.2 590.7 574.2 551.6 536.8 532.9 539 558.5 574.6 592.9 604.6 608.3 607.7 604.1 603.6 601 600.7 598.5 595.9 592.1 589.4 588.9 588.1 585.7 585.3 584.5 583.5 582.3 578.8 575.7 578.3 579.2 582 585.3 587.5 589.4 592.4 592.7 594.5 596.9 602.6 608.4 609.9 603.6 602.3 603.1 596.1 593.2 592.2 592 587.2 578.5 572.6 560.6 548.4 522.3 505.5 482.9 457.7 441.2 431 419.3 400.8 396.7 401.9 391.6 388.1 370.1 369 362.4 364.7 354.4 337.2 329 328.4 330.4 333.3 331.4 334.4 342.9 347.3 349.2 355.2 361.3 365.3 368.4 372.8 374.6 374.4 375.2 374.6 375.1 373.6 373.5 370.3 366.9 365 363.2 361.6 370.6 364.9 365.5 368.1 370.7 370 369.2 370.3 369.8
345.2 351.8 364.1 379.8 396.5 411.3 434.4 454.9 478.7 505.1 531.9 556.3 583.2 618.5 646.1 670.6 680.8 686.3 708.8 736.4 752 740.4 734.5 720.6 710 687.5 666 653 640.9 625.4 610.4 584.9 546.7 526.9 506.8 488.6 489.8 489.1 477.6 471.4 466.5 464.4 460.8 461.6 460.1 466.3 472 480.5 505.5 515.7 542.3 577.6 610.2 622.2 629.9 639.6 646.7 646.7 648.1 652.9 655 655.3 655.5 657.6 655.7 654.8 652.2 650.9 643.1 638.5 633.3 628.4 624.9 619.4 618.6 614.6 612.5 608.9 606.2 602.8 600.5 597.9 593.9 589.6 584.3 579 574.9 575.2 578.7 579.4 578.9 578.6 576.5 569.8 552.5 533 508.4 506.6 508.3 522.4 544.8 561.1 573 580.3 581.8 581.2 579.7 577.2 573.6 572.2 571.9 572.2 571.4 571.1 571.2 571.1 571.2 571 570.3 567.8 565.6 566.6 569 570.3 573.1 576.3 578.7 582.7 584.2 587.1 590 595.3 600.5 601.6 601.5 599.9 595.6 595.3 596.3 596.4 593.7 596.1 593.1 585 574.8 564 557.1 546 529.9 518.6 495.1 473.7 455 435.3 426.7 420.9 417.2 411.8 393.7 387.5 382.1 375.8 375.6 374 349.5 345.2 341.9 341.4 343.5 344 350.7 357.5 363.5 365.6 369.7 373.1 376.3 380.4 382.7 383 383.6 381.7 379.6 376.9 371.3 368 364.2 363.3 362.7 362.3 360.2 359.2 359.8 361.8 367.1 367.9 367.7 367.2 366.9 366.9
350.7 361.5 375.5 397 415.3 437.6 459.5 479.5 506 530.5 558.2 583.9 610.3 646.5 684.3 706.7 710.2 719.5 737.4 751.7 741.2 735.9 731.9 715.9 695.4 679.8 658.9 644.9 633.9 620 607.5 593.8 557.3 534.7 522.7 510.7 509.7 497.5 486.2 481.2 477.3 471.1 466 461.9 462.9 469.6 476.8 488.5 508.3 532.3 563.6 593.3 609.3 620.3 626.5 633.7 637.5 640.4 644.8 647.6 646.9 647.3 648.6 648.6 648 645.1 639.9 634 631.9 626.4 622.9 618.2 614.3 608.3 604.6 602 596.5 592.7 589.3 585.3 582.6 579.7 575.4 570.7 565.6 561.3 546.4 553.1 554.6 554.8 556.3 555.3 552.1 543.3 532.9 512.9 492.4 479.4 480.8 488.9 514.8 530 539.5 549.2 554.2 553.2 552.6 552.7 549 546.7 545.8 547.5 549.8 549.9 550.3 552.6 554.1 553.5 552.5 552 552.3 553.3 556.6 560.3 561.9 566 570.1 574.4 578.1 581.9 585.1 589.4 592 592.6 594.2 593.7 588.9 591.9 594.6 594.4 594.1 596.9 593.1 585.9 575.7 572 563.5 554.9 547 539 523.5 499.9 480.2 462.5 448.6 437.5 438 423.6 415.3 402.5 399.3 398.8 393.4 386.9 375.8 368.1 363.3 365.8 368.3 383.8 391.8 397.5 395 391.6 392.6 390.3 391.3 392.1 394.4 395.1 394.6 392.7 388.8 381 374.1 375.8 369.2 363.9 364.5 368.5 361.3 362.7 356.5 358 360.6 362.7 366.4 365.8 363.5 364
362 375.8 395.9 416.2 436 461.5 482 505.6 529.3 558.3 584.8 612.1 648.1 681.8 717.9 734.4 745.1 754.4 760 756.2 745.7 740 719.5 700 684.6 663.7 642.9 628.1 618.7 607.1 598.6 579.3 564.3 549.1 533.3 526 512.1 504.7 496.3 493.1 485.2 474 468.2 462.7 465.8 474.3 481.5 494.5 516.6 542.6 577.3 594.3 604.4 614.5 621.5 627.7 631.7 634 639.7 640 639.9 637.7 639.6 638.6 637.3 633.5 627.5 623.2 617.7 611.8 610 604.4 600.3 595.1 590.3 585.5 579.8 576.6 571.1 568.1 565.1 561.9 557.5 552.7 547.7 540.6 523.3 530.5 530.8 531.3 532.3 531.3 526.8 518.7 507.5 492.7 469.8 450.1 455.9 461.5 476.6 498.4 510.9 518 524.4 526.6 527.3 525.6 522.3 520.6 519.8 522 525.5 528.3 530.1 528.6 530.7 532.6 533.3 534.5 533 527.9 537.5 545.3 549.5 555.5 561.3 565.7 571.8 576.5 581.3 584.5 584.1 583.9 585.9 583.1 587.1 590.4 593.2 591.6 591.3 594.1 591.8 584.4 574.7 573.1 567.3 559.9 558.5 552.1 544.3 537.2 520.8 496.7 479.8 471.5 457.4 448.3 443.7 438.6 431.9 422.4 416.5 411.7 398.8 396.8 395.9 398.1 409.7 417.1 431.2 433.3 426.9 423 418.3 413.6 413.2 411.6 402.5 403.2 401.8 400 395.6 386.2 379.3 376.8 376.6 372.7 369.3 364.8 360.3 359.4 357.4 356.5 356.1 357.5 356.8 359.9 364 363.3
375.5 394.4 416 435.7 458.8 484 507.4 530.5 555.3 581.3 614 645.7 682.1 716.2 745.1 758.3 767.7 771.2 768 755.4 742.2 724.4 697.9 676.1 657.4 639 625.4 613.3 607.6 598.8 587.9 578.9 567.7 559 551 541.3 528.3 509.7 499.6 495.1 483.4 475.3 469.4 469.2 469.9 478 485.6 498.9 522.2 551.3 573.4 587.6 599.7 608.2 613.5 618.3 619.2 625.9 629.4 628.3 627.6 629 630.2 629.2 625 620.4 617.3 610.8 604.2 598.5 592.6 590.3 587.2 581.6 577.8 570.8 566.5 561.6 555.5 549.3 547.1 542.8 539 534.3 528.4 520 506.4 505.7 506.6 506.8 508.6 507.3 501.2 493.9 482.5 472.1 455 435.6 428.6 435.7 445.1 462.3 480.3 490.5 494.6 499 500 500.2 496.6 493.8 492.9 488.8 493.6 494.6 501.5 502.1 502.8 504.7 506.5 510.6 511.5 495.8 518.9 527.7 534.7 541 547.3 554.6 563.5 568 571.8 576.2 574.1 575.4 575.2 577.2 583.9 588.3 587.5 585.7 582.9 589.6 588.7 580.2 576.5 572.6 564.6 562.8 565.2 564.8 557 550 542.1 532.4 519.7 510.9 495.7 480.8 474.2 463.8 462.3 454.8 447.1 440.5 448.1 435.3 429.7 433.9 445.4 471.2 471.4 464.1 455.9 454 447.7 440.8 433.7 419.3 410.3 406.3 403.1 399.7 392.9 386.5 383.5 381.3 379.6 373.7 368.2 361.4 358.4 358.9 360 358.9 357.3 354.6 354.9 357.5 361.5 359.3
392.5 415 435.2 460.4 485.6 508.1 532.3 555 583.3 610.7 642.1 681.8 711.8 742.5 759.9 773.6 778.8 772.2 753.5 734.1 714.9 696.9 679.7 656.3 642.5 629.6 618.8 606.1 598 592.7 591.7 586.2 586.6 573.1 554.8 545 524.9 510.5 499.1 491.5 484 474.9 473.2 472.5 474.6 480.2 490.9 508.5 535.7 552.3 569.8 581.9 591.3 600.6 604 602.6 605.1 609 611.4 613.2 611.2 616 616.1 615.4 612.3 607.8 602.3 598.3 589.1 583.2 579.9 574.8 571.7 567.8 561.3 555.3 550 545.9 539.6 533 528.4 522.6 516.3 512.2 504.7 497 486 479.7 480.8 479.6 483 480.6 474.5 467.3 460 450.1 435.9 423.5 411.5 411.5 419 435 451 458.6 463.9 468.1 471.3 472.9 469.9 465.9 466 466.7 470.5 473.1 473.8 473 474.4 472.9 479.5 482.6 481.2 466.6 498 508.5 516 522.7 532 541.6 548 552.4 558 562.3 563 567.2 568.6 571.6 577.3 582.5 581.7 575.2 577.3 582.3 582.4 576.7 573.7 570.3 561.3 563 565.4 570.7 565.7 560.3 551.2 544.1 539 531.3 524.3 515.3 506.1 500.1 491.5 486 484.8 488.1 484.1 483.4 483.1 485.1 490.4 490.5 486.5 479.8 474.5 464.7 459.9 454.8 445.7 434.9 426.7 417.4 407.3 397.4 389.9 382.5 380.8 378.8 371 370.3 363.2 357 355.7 356.8 358.1 357.6 355.5 354.2 356 354.8 359.8 353
410.2 434.8 455.1 490.2 510.8 536.6 561.3 580.6 613.9 638.9 674.8 703.8 733.2 760.2 777 784.1 775.8 754.2 733 712.7 695 674.4 657.6 643.5 632.7 618.4 607.7 599.9 596.6 593.3 586.9 584 574.5 555 541.4 532.5 519.9 507.3 497.3 488.7 479 478.1 480.3 479.7 481 488.5 498.2 517.8 534.6 550.5 566.3 574 581.2 586.9 591 589.6 589 588.9 592.8 593.8 593.7 600.9 600.3 599.1 597 593.3 587 580.7 572.2 566 563.7 560.5 555.9 549.5 541.7 536.9 530.4 523.4 519.2 514.7 509.6 501.2 493.6 488.5 482 474.9 464.8 458.6 453.1 448.3 448.5 450 445.5 440.9 429.7 422 417.2 402.9 383.8 375 392.8 404.4 422 430.3 433.7 435.9 440.2 441.7 440.2 438.7 435.8 432.6 433.4 438.9 445.1 448.9 450.6 454 452.7 452.9 451.1 455.1 474.1 487.3 495.8 504 514.3 524.1 531.7 538.2 543.9 544.7 547.7 556 558.5 561.6 569.1 572.5 574.1 567.6 567.9 576.2 575.4 567.8 564.8 561.6 562.2 558.4 565.2 569.4 569.3 565 559 553.8 548.4 541.4 537.6 532.4 526.3 521.9 515.7 513.5 512 510.7 507.8 504 505.4 504.2 504.5 501.3 497.4 493.6 482.5 476.1 471.8 467.2 458.5 446.7 437.7 429.3 414 403.6 388.7 380.2 377.4 372.2 365.7 365.1 357.3 352.9 351.9 354 352.2 350.4 350.7 350.3 354.7 350.9 354.5 349.9
429.3 454 480.4 509.4 531.6 562.3 590 618.1 642.7 679 714.2 736.4 758 780.1 792.1 790.2 766.6 740.4 714 695.7 674 658.1 641.8 628.2 617.8 608.3 604.8 596.4 589.8 582.9 578.5 570.3 558.5 545.8 533.2 523.7 514.8 502.6 489.8 485.5 488.2 489.6 488.4 489 491 500.6 513.4 525.9 535.6 549.6 558.4 563.6 567.3 571.1 574.5 573.4 572.6 575.6 570.6 574.4 575.4 581.2 582.8 578.8 578.6 574 569.7 561.9 556.5 549.1 546.1 543.3 536 529.3 520.9 514.4 509.1 503.2 492.1 489.9 485.5 478.8 472.3 466 458.3 449.2 443.8 436.2 428.7 425.2 419.8 415.7 414.8 409.6 402.1 400.5 392.6 383.2 371.3 361.3 366.6 378 391.4 395.3 400.4 402.3 404.3 405.7 409 405.5 405.4 404.3 407.8 415.8 419.8 421.5 424.6 424.8 426.4 425.8 421.7 429.8 445 452.1 464.6 467.7 483.4 496.9 509.7 515.6 514.6 515.2 529.4 537.1 541.6 547.8 555 557.4 563 558.1 555.6 564.9 562.9 557.5 556.6 556.5 552.6 554.2 559.7 563.8 567.9 564.6 559.4 556.6 554.6 550.8 547.9 545 543.5 536.5 528.6 526.3 523 520.6 518.3 515.7 519 517.7 516.7 512.5 508.8 505.1 493.2 488.8 482.5 472.3 462.1 447.5 435.2 426.1 416.5 405.2 394.2 381.5 370.9 367.3 363.9 363 354.8 347.2 345.4 346.3 344.9 344.1 342.2 345.3 347.8 343.5 346.2 349.1
450.9 473.3 502.9 529.1 554.4 584.2 617.9 644.1 675.6 703 739.8 762.7 788.9 806.9 810.8 791.4 758.6 729.3 709.7 679.9 660.7 642.7 631 618.4 608.8 608.1 601.1 593 583.2 574.6 565.5 555.5 546 536.8 527.2 516.9 507.2 501.7 497.3 495.8 491.8 494.6 498.1 502.3 510.6 517.9 524.2 528.4 538.8 541.7 549.3 553 555.1 555.5 555.7 556.3 555.4 555.4 554.3 554.1 555.7 558.3 560.4 560 555.4 552 547.1 541.9 537.3 529.4 528.1 521.8 515 509.2 501.1 495 488.5 480.2 472.3 461.3 461.9 455.1 445.5 437.8 430.4 422.4 415.5 406.5 403.1 400.7 392.9 391.6 386.6 384.6 376.8 373.2 368.4 363.4 355.8 355.6 337.5 353.9 359.3 363.2 364.9 366.6 369.1 369.6 369 371.4 371.8 370.9 375.1 382.5 381.7 393.4 396 395.9 394 399.2 397.4 401 411.9 422.6 431 439.7 451.9 463.6 476 481.6 481.4 482.4 504.5 513.8 520.7 527.6 530.6 533.1 537.2 538 538.3 543.8 545.5 547.3 546.2 548.7 544.1 549.7 552.8 556.7 557.6 557.1 557.9 557.8 556.8 554.4 551 549.3 545.8 540.1 538.2 532.4 530.8 530.4 528.5 526.5 528.2 526.8 521.3 520.7 517.5 508.6 500.9 494.3 482.5 470.5 455.7 442.6 436.5 426.4 414.2 404.1 394.7 379.5 367.7 363.2 365.4 354 350.8 341.5 339.6 340.2 340.8 336.1 337.1 337.6 341.4 339.6 338.5 340
474.6 498.7 525.7 554 582.2 609.4 641 680.5 707.7 740.2 771.2 793.3 814.3 829 817.3 789.9 756.4 728.1 693.9 668.7 644.5 630.4 614.8 607.1 600 598.3 594.6 585.9 576.6 568 559.1 548.4 534.4 522.3 521.9 517.6 511.4 505.7 506.6 500.6 502 509.5 513.2 518.4 531.2 537.6 537.7 533 533.9 539.4 541 543.4 539.5 534.3 539.9 536.2 538.2 542.2 537.8 533.7 534.2 535.4 535.1 533.6 531.9 526.1 523.5 518.4 514.4 508.1 506.2 498.5 493.3 488.7 479.6 471.7 463.5 458.3 452.3 442 428.3 428.3 418.9 410.3 402.9 398.3 392.1 380.7 376.6 373.1 366.3 364.8 362.7 361.5 354.3 350.1 349.7 344.1 335.4 334.9 318.6 332.7 332.8 332.6 334.2 337.1 336.7 338.9 339.4 338.9 335.7 336.8 341 347.1 350.9 361.1 364.5 362.5 365.5 364.6 350.8 382.7 389.9 395.8 403.2 413 423.8 433.6 439.9 449.6 449.8 467.2 481.2 487.5 495 501.2 504.7 510.6 512.3 518.6 522.7 525.3 527.4 529 531.9 533.5 537 541.4 544.5 548.4 549.9 550.6 554.8 554.7 554.5 553.2 552.2 549.9 546.8 543.5 541.8 539.8 541.6 535.1 534.1 532.7 534 529.8 524.7 523.4 517.8 509.4 500.1 488.8 477.7 465.3 451.5 440 430 418.3 404.9 397.9 386.2 374.9 363.4 357.4 358.6 346.9 343.6 336.9 332.3 333.8 332.9 328.4 330.9 326.3 329.1 330 328.6 327.6
490.7 521.9 555.2 581.7 612.6 649.3 677.8 704.7 740.8 767.5 796.8 817.9 837.7 838.8 814.7 782.8 744.2 714 685.4 660.8 638.6 619.7 604.6 596.7 591.3 584.6 581.3 575.7 569.1 559.1 557 546.7 539.6 533.6 531.2 522.8 518.1 510.4 510.6 512.6 521.8 524.1 530.8 542 545.6 546.1 543.4 534.7 535.8 536.5 533.9 532.3 529.8 527.4 527.1 524.6 526.5 526 521.5 518.9 518.9 517.9 513.7 513 509.1 505.7 499.2 495.3 492.9 488.2 482.8 476.8 469.7 464.8 454.1 443.6 433.9 428 422.9 411.9 406.7 402.8 396.8 386.1 375.5 371.9 367.1 360.6 352.3 349.2 344.8 341.1 335.4 335.7 335.6 331.3 328.5 325.8 319.2 315.3 306.8 313.2 313.2 312.9 310.5 309.4 310.9 311.3 313.1 311.9 307.9 309.4 314.6 316.4 318 323.5 328.8 332 331.5 336.4 327.1 360.4 373.2 373 372.6 379.6 388 396.7 408 413 414.4 444.1 455.3 463.1 470.5 477.1 481.1 486.6 489.2 494.5 499.7 505 509.4 514.2 518.8 523.7 529.7 533.5 535.2 539.4 541.8 545.4 544.9 547.4 547.4 545.9 545.3 547.3 547.3 543.6 541.3 542.7 543.4 541.3 536.8 536.4 535.8 531.4 527 521.4 514.2 510.9 499.9 483.3 469 457.6 446.9 436.7 427.1 403.6 393.4 384 374 365.2 358.8 355.2 352 345 337.8 333 323.9 325.3 324.5 320.4 317.8 314.2 316.7 319.7 317 317.3
507.5 539.1 574.3 604.4 653.3 681 705.1 739.3 765 799.5 821.5 841.3 847.4 836.4 808.7 771.2 733 701.1 678.1 659.3 638.7 619.1 596.9 590.4 585.8 578.7 576.4 574.9 570.2 563.3 559 550.3 551.8 545.7 536.8 533.6 533.5 532.8 531.1 542.3 550.6 547 558 560.8 556.1 548.4 546.4 542.2 537.1 534.2 534.3 528.1 522.9 520.1 518.7 515.6 515.9 512.8 510.3 507.8 503.8 501.1 497 491.2 489.8 485.3 479.1 475.1 471.6 467.4 459 453.9 449.3 439.4 428 419.5 412.3 408.1 398.3 389.3 384.5 378.1 372.6 365.6 354 348.4 346.1 341.3 335.6 327.7 324.7 320.5 316.5 314.9 314.3 312.1 310.2 306.8 302.3 298.2 294.4 292.1 293.3 292 288.9 288.2 286.3 286.7 286.7 287.1 284.9 285.6 286.4 290.1 289.6 292.7 298.1 302.2 302.7 312.4 305 326 338.2 344.5 343.3 346.9 362 370.4 370.8 381.4 389.6 414.1 428 438.9 443.5 447.4 450.7 457.3 462.2 470.7 479.5 483.1 489.8 496.3 505.4 511.8 518.7 524.1 525.1 530.2 533.6 535.7 535.7 536.8 537.7 538.9 538.4 541.9 541.7 542.1 542.3 545.5 547.6 545.5 543.1 537.2 533.6 532.1 527.2 519.5 513.7 507.6 494.4 476.4 462.9 449.9 436.7 424.4 411 399 389 376.6 365.6 360.6 355.2 350 344.1 340.5 327.9 324 315.7 315.2 311.7 308.9 308.5 301.3 301.9 305.1 308 304.1
523.3 555.7 594.2 626.4 670.6 700 735.6 763.8 793.5 819 841.7 854.2 834.1 808.6 783.1 751.2 715.1 693.5 676.6 659.8 643 624.5 606.2 594.5 584.1 583.1 581.3 580.5 576 571.8 560.8 562.2 559.2 555.8 553.1 561.7 561 561.2 556 576.7 578.4 577.5 575.8 570.9 566.5 562.9 552.8 546.1 541 533.9 531.7 527.6 522 517.1 514.8 511.1 503.9 499.6 498 491.8 489.4 486.9 482.3 477.6 474.6 467.9 460.7 455.9 448.8 443.2 434.5 430.2 425.7 415.4 409 401.5 392.1 384.5 376 368.3 362.3 354.5 350.4 342.1 336.1 330.9 324.8 321.4 315.8 309.1 307.5 304.6 298.7 296.3 292.6 290.9 288.2 286.6 283.8 279.5 278.2 273.3 270.5 271.6 268.1 267.2 265.2 265.4 264.2 263.1 266.5 262.1 264 265.9 264.8 266.9 268.9 272 274.6 279 278.3 291.1 297.6 308.4 314.9 322.6 332.2 337.4 340.6 347.5 360.8 380.2 394.7 404.1 417.4 413.8 420.6 430.5 436 444.1 455.5 460.7 466.9 477 486.4 492.5 501 509.1 511.1 518.1 522.9 526.3 528.3 527.9 527.6 529.1 530.7 533.5 534.7 535.8 537.7 542.3 542.5 539.2 538.1 533.7 532.7 528.4 523 517.6 507.9 497.8 483.7 469.1 446.8 438.8 427.7 417.5 403.9 390.8 381.4 373.4 360.9 353.9 346 340.4 333.2 329.7 321.4 318.9 310.5 302 298.7 297.9 295.8 288.9 288.3 289.3 293.1 292.5
541.6 568.9 608.1 649.3 688.6 722.4 760.5 787.1 811.1 831.1 848.1 849.7 815.2 786.9 763.9 730.2 703.9 692.6 674.1 655 637.9 615.6 594.5 590 587 589 589 585.9 578.8 573 572.6 572.2 572.7 575.9 584.4 591 595 587.3 595.4 600.8 601.3 596.3 588.5 580.6 570.6 567.7 561.3 552.1 542.6 536.5 531.4 526.5 521.7 514 509.5 504.1 497.2 489.6 488.9 482.3 479.2 474.4 470.7 464.2 459.5 452.9 446.3 438.8 433.3 424.4 416.5 412.4 405.7 397.6 388.5 380.2 373.5 364 355 348.3 342.4 336.1 331.5 323.4 319.2 311.9 307.8 302.9 297.8 293.9 290.5 285.2 281.7 277.7 273.7 271.3 268.3 268 266 261.1 259.9 256.5 252.4 250.2 249.4 246.2 245.3 245.9 245 243.1 244.7 240.6 242.6 244.1 245.3 246.3 247 247.5 253 250.3 264.2 267.1 268.1 278.4 287.9 292.3 299.2 301.6 311.3 315.4 328.1 344.8 363.5 365.2 368.8 379.8 387 397.3 406.5 415.5 427.8 437 447.4 455.4 463 471.3 477.2 488.5 496.7 504.6 508.7 514.3 516.2 518.1 518.6 521.1 522.4 525.8 527.3 527.8 528.3 530.5 533.8 529.8 530.7 526.7 521.9 520 512.9 508.7 496.9 484.5 468.6 444.5 436.7 427.8 415.9 406.2 394.8 383.2 372.9 362 353.8 346.1 339.1 329 327.1 322.5 314.1 313.8 303 293.9 287 284.9 283.8 277.7 274.1 276.1 277 275.7
562.3 592.6 620 652.3 693.1 732.3 776.1 808.1 828.5 848.6 858.4 826.7 791.6 765.5 739.8 713.6 696.7 682.8 666.9 639.1 618.4 599.9 593.3 594.5 597.8 596.4 590.8 587.9 585.9 587.2 587.6 593.7 601.7 618.6 619.3 619.1 615.8 608.5 616.1 619.3 616 608.7 597.7 585.4 573.5 563.8 559.1 556.9 543.3 536.5 530.7 524.1 518.9 510.7 503.5 497.1 492.6 483.9 477.3 474.5 468.2 464.3 459.5 450.8 446.1 440.5 432 425.8 416.2 410.1 402.4 392.9 386.9 379.8 369 360.9 353.6 343.5 336.6 330.6 324.1 318.3 312.2 305.9 298.8 295.2 291.2 285.6 281.8 278.2 275.7 269.3 264.9 262 256.3 255 250.7 251 248.6 244.6 243.4 242.2 237.9 235.5 230 228.9 227.1 226.5 224.1 223.5 222.5 223.4 224.6 226.5 226.3 226.8 227.6 229.8 230.5 233.9 239.8 243.9 248.3 250.5 261.6 268.7 272 276.9 282.4 292.3 296.9 307.8 317.5 325.5 336 345.6 355.1 368.4 373.4 384.1 397.8 413.9 424.7 434.7 443 448 457.9 468.2 477.2 485.1 491.2 496.9 500.9 504 506.2 508.7 510.7 514.7 516.4 518.8 518.5 515 512.9 514.8 514.7 510.4 504.3 500.7 496.3 490.8 480.7 462.1 441.1 430.2 425.1 411.2 402.3 393.6 383.2 374.6 365.8 357.8 346.5 340.1 330.1 322.4 317.7 311.6 304.4 303.4 293.7 287 278.9 273.6 271.3 268.6 264.7 263 263.7 259.3
584.6 622.6 652.9 684.5 720.2 756.3 794.6 819.3 840.5 857.3 853.7 807.2 775.9 748.2 725.2 703.5 692.7 688 670 638.5 616.9 603 601.4 606.1 610.3 597.6 602.7 601 602.5 612 623.9 636.3 645 649 647.9 645.1 634.8 635.2 637.6 630 620.4 611 602.3 588.2 578.4 567 558.8 555.1 547.1 538.3 531.7 522.9 516.6 506.6 498.4 491.5 486.2 482.2 473.4 465.6 459.6 451.4 444.1 439.4 432.6 426 418.6 413.1 404.4 395.7 386.5 381.5 369.6 360.1 352.4 346.4 335 326.9 320.2 314.9 307.3 303.2 293.8 289.4 283.3 279 274.4 268.5 265.6 263.6 259.8 253.9 251.1 246.4 243.3 240.7 235.8 234.2 232.6 231.1 229.2 227.1 223.6 223.3 218.8 215 212.7 210.5 208.8 208.6 207.1 209 208.9 210.8 211.4 211.1 210.6 213.5 214.8 218 220.7 223.6 226.1 230.3 234.5 248 253 256.1 260 266.4 271.8 280.8 293.2 301.4 310.3 317.2 325.4 334.4 346.1 366.2 376.6 387.3 400.6 411.3 419.4 427 437.3 445.1 455.1 463.2 469 477.1 484.6 488.4 491 494 496.7 499.9 501.4 502.8 500.8 497.9 495.7 492.2 495.4 496.6 486.9 480.4 475.8 465.8 460.8 444.2 420.9 416.8 411.1 399.6 390.7 383.2 374.1 366.8 358.4 345.7 339.7 330.3 322.2 312.2 305.4 302.8 291.6 290.3 282.3 277.8 268.7 263.9 259.1 256.8 254.3 250.7 246.6 244
608.1 641.9 672.2 705.1 748.6 777.5 807.8 831.6 849.2 860 831.9 798 772.1 746.9 722.5 707.8 692 677.4 663.6 628.9 613.3 609.4 614.5 619.7 612.8 614.1 616.6 624.8 636.6 649.3 664 675 671.4 672.4 667.2 662.9 651.9 648 639.9 629.8 621.9 611.2 601.8 592.8 580.3 571.4 562.5 557.7 550 539.8 531.3 523 512.7 506.1 496.1 491.7 481.2 472.5 464.8 457.7 451.1 443 433.2 430.2 421.8 414.6 406.6 399.1 390.3 385 377 366.6 357.4 348.7 339.7 331.1 321.2 311.5 303.7 297.8 291.3 285.1 279.5 275.1 269.6 265.5 261.2 255.8 253 250.8 245.1 241.8 237.2 234.3 231.2 227.8 224.2 223.1 223.3 219.4 217.7 217 212.1 210.9 207.8 203.2 201.9 198.5 197.3 196.8 195.2 196.1 196.2 197.4 198.3 199.1 197.8 200 201.1 201.6 204.8 206.8 208.6 211.3 219.1 228.4 233.4 239.2 239.6 247.3 248.2 257.4 267.2 275.5 284.2 290 301.8 312.9 333.4 344.5 353.1 368.5 376 385.8 397.5 408.2 418.3 428.6 435.3 440.6 443.9 452.4 460.4 464.2 469.3 473.9 476.7 478.9 479.9 479.1 479.7 477.3 475.7 466.6 470.5 472.5 463.6 458.8 455.6 440.5 431.7 421.5 406.7 399.9 395.1 388.5 379.7 373.1 366 357.6 346.4 338.3 328.4 320.4 311.5 298.3 295.3 288.9 284.7 279 270.7 264.3 260.3 257.9 249.5 245.1 241.5 240.4 235.1 230.3
633.9 665.8 698.6 729.1 769.4 797.8 821 844 858.2 859.4 827.3 801.1 776.3 764.2 747.7 719.4 696.6 675.5 661.7 633.5 625.9 636.6 633.8 624.1 625.3 635 663.3 676.1 689.7 687.9 697.2 697.4 691.9 684.1 673.4 666.4 663 649.4 637.8 628.3 623.3 612.2 602.1 592.4 579.2 569.2 560.7 554 547.4 539.3 529.3 521.3 511.9 502.6 494.9 486.6 475.7 466.8 458.2 447.5 442.6 433.1 423.8 418.6 410.4 403.9 394.4 386.1 379.1 372.4 363.4 355.4 347.4 338.8 329.9 319.6 308.9 301.2 293.5 286.1 279.1 273.1 268.1 263.3 258.7 254 248.5 247.6 243.3 239 235.5 231.2 226 224 222.1 215.4 212.8 213.5 209.5 208.8 207.6 206.1 203.3 200.5 197.5 194 192.1 189.5 188.7 191.4 186.6 186.4 187.2 186.5 187.3 187.3 187.9 188 189.4 189.6 191.7 193.2 194.1 196.5 199 207 213.2 220.1 222.4 227.9 231 236.1 248.7 254.5 262.2 273.4 280.8 297.6 309.8 318.3 328.2 345.4 350 361.1 371.3 385.1 395 404 411.5 420.6 425.8 426.7 431.1 440.6 443 444 445.2 449 447.6 447.2 446.7 448.1 443 437.7 434.4 434.9 433.5 429.2 427.5 417.6 411.6 404.7 396.8 385.8 381.1 376.6 367.3 362.6 358.4 350.3 337 326.3 320.6 311 302 289.9 279.1 277.4 273.7 265.8 265 254.5 249.6 241.9 238 232 230.7 226.4 224.9 220.3
655.1 687.6 715.7 756.6 787.9 814 836.2 854.9 865.4 863.9 828.4 807.3 783.4 760.2 734 712.8 704.6 693.2 671.6 665.8 658 652.4 639.9 641.6 651.5 674.9 701.4 711.7 721.7 718 714.9 707.1 696.7 683.1 675.8 668.5 659.2 646.1 633.7 625.6 616.3 605.3 598 588.8 577.1 566.9 557.5 550.9 545.1 535.8 526.6 517.8 508.6 502.6 493.2 483.1 470.4 461.3 449.4 441.3 431.9 420.9 412 406.3 400.2 392.5 386.1 379.1 371.6 361.7 357.6 346.7 338.3 331 319.8 310.3 301.3 293.6 287.8 280.2 271.6 265 257.6 252.9 247.8 242.5 239.1 237.5 233.6 229.3 225.8 220.8 215.6 214.2 210.7 207.4 204 200.9 201.1 201.5 200 198.3 196.5 192.9 191.1 187.9 186 184 182.5 181 180.8 180.5 180.9 179.1 178.7 177.9 177.8 177.9 179.8 180.5 181.8 182.2 183.2 183.3 188.2 194.9 198.4 203.7 206.3 206.7 214.6 219.9 228.5 243.3 245.1 252.8 266.4 275.8 284.6 290.5 301.2 311.7 319.9 332 340.3 353.7 366.4 371.4 382.6 392.8 404.3 403.9 399.8 405.1 407.4 412.5 417.5 420.5 418.7 416.3 413.4 413 414.4 410.9 407 406.1 400.2 399.5 398.3 397.2 390.6 385.6 379.5 372.1 368.4 362.4 356.6 349.1 344.4 338.5 329.7 319.2 309.5 298.9 287.1 279.1 270.3 266 263.3 257.2 254.1 245.4 238.1 232.8 228.6 227.4 217.2 215.5 214.8 206
677.3 712.8 748.6 777.3 805 830.3 849.7 864.7 872.9 858.1 831.2 806.9 775.3 764 736.3 718.3 703.2 694.7 687.7 674.4 672.5 663.8 666.1 678 691.7 717.3 733.7 735.8 731.7 724.3 716.4 704.2 692.4 682.3 675.1 665.1 650.6 637.8 625.3 617.6 609.8 599.3 589.7 580.5 573.3 563.9 554.3 546.9 536.7 533.1 518.5 512.1 502.9 497.3 489.4 476.5 464.7 455.9 446.1 435.8 422.2 412.5 403 395.2 389.9 382.5 375.3 368.2 361.4 355 347.5 345.9 331.9 324.1 312.7 302.8 295.9 290.5 283.6 278 271.1 263 256.2 248.1 240.2 235.1 232.4 228.9 224.8 219.6 216.3 212.7 208.2 205.7 203.4 200.8 197.7 197.4 197.9 197 193.5 191.2 190.1 189.6 188.8 185.4 182.3 181.1 179.2 177.9 177.5 175.2 173.7 173.5 172.4 171.6 171.5 172.4 171.4 172.7 173.3 173.5 173.9 175.7 181.3 185.4 188.1 190.1 191 191.9 200.8 204 209.8 220.8 230.3 237.4 244.2 256.5 258.4 267.2 275.2 282.7 293.9 299.2 310.3 316.7 327.9 336.9 350 359.9 372.8 379.4 369.2 373.6 377.8 384.7 388.8 394.5 393.2 391.4 391 386.9 386.3 383.2 373.3 376 372.7 373.6 374.7 368.8 369.4 363.3 361 352.7 351.9 346.5 342.9 333.9 329.8 325 316.7 307.6 297.1 286.9 276.3 267.4 260.2 254.7 251.5 245.9 239.2 236.3 227.1 221.3 214.5 216.6 209.8 201.3 198.1 192.1
707.7 744.4 773.6 803.1 827.3 850.3 867.7 879.6 887.3 857.9 823.7 796.6 769.6 750.6 733.6 716.9 712.5 705.4 706 696.6 705.1 700.8 712.4 718.4 732.8 745 754.1 741.4 729.4 718.2 707.9 695 687.5 677.2 668.3 657.1 644.3 630.7 619 605.7 599.4 589.3 581.6 574.9 565.4 555.8 547.1 541.1 531.3 521.4 513.3 501.6 493 486.5 479.8 469.8 457.6 446.1 437.6 427.3 418.1 405.8 396.3 386.2 377.3 371.3 364.8 358.1 351.3 342.5 336.3 332.8 325.1 317.4 309.2 298.2 292.8 286.8 281.8 275.5 269.5 262.8 254.3 245.8 239.3 232.6 225.5 220 218.1 214.4 211 208.4 205.4 201.5 197.8 194.5 193.8 193.2 193.2 190.9 189.3 185.3 183 184.1 184.7 180.7 183.6 182.5 182.2 181.4 180.9 178.9 178.1 176.7 173.4 170.3 168.3 166.4 164.1 166.6 167.4 167 169 171.1 171.8 174.7 176.9 178 179.8 180.6 192.4 191 195.6 203.1 212.9 219.1 228.6 234.1 237.2 244.8 250.7 259.7 268.2 274.3 279 283 293.6 303.2 314.8 328.8 330.1 333.5 334.9 342.1 349.5 349.7 352.7 361.7 361.9 359.9 367.3 364.6 362.7 356.4 347.1 349.3 346.3 346 349.3 345 346.6 343.3 336.8 333.7 334.1 333.4 325.6 315.6 313.6 309.8 301 293.5 284.9 274.2 266.9 256.2 251.5 244.4 241.8 239 227.2 229.9 219.1 212.4 208.4 199.2 197.7 191.1 186.8 179.1
732 765.5 792 820.8 847 869.8 885.2 896.7 906 886.3 847.6 815 787.2 761.9 744.4 739.3 727.9 712.6 713.5 720.7 725.1 724.6 742.8 750.7 762.7 773.6 759.3 745.8 729.9 712.9 702.4 689.4 675.8 668.3 659.9 647.9 637.6 622.8 607.1 595.5 587 579.4 572.5 564.3 556.5 548 540.4 532.8 523.3 516.2 499.1 492.7 483.1 474.9 470.2 453.8 445.5 435.5 426.6 416.1 408.5 399 388.5 378.5 372.2 363.7 358.5 349.1 344.3 335.6 326.4 321.5 315.4 306.4 297.7 291.6 286.2 281.1 276.5 270.2 264.9 260.9 249.3 242.4 233.3 228 222.7 217.4 210.4 209.4 207.6 205.6 201.9 197.7 198.9 198.1 197.2 195.4 195.8 193.8 190.7 190.3 188.8 188.4 187.7 190.4 191.6 191.7 192.3 189.7 188.2 184.7 181.9 180 175 172.2 169.3 167.3 166.9 165.4 163.7 162.7 164.9 166.6 166.7 168.7 168 170.1 169.6 171.1 178.8 178.3 185.8 188.7 197.5 206 211.8 215.2 218.4 225.5 228.4 237.5 244.2 248.6 255.3 257.4 267.7 276 280.7 288.5 295.5 299.6 304.6 307.3 313.8 314.2 318.1 321.3 325.2 330.9 336.1 343.1 338.6 332.4 329.1 327.8 324.6 323.2 326.4 323.9 326.4 324.2 316.4 317.1 318.6 313.5 308.7 304.1 298.7 296.3 291.2 279.4 266.3 258.5 257.1 244.2 240.5 237.7 231.7 228.1 224.1 222 210.7 203.5 199.4 195.6 185.8 181.8 174.1 167.7
750.2 779.3 809.1 836.9 869.4 890.5 905.8 917.3 931.2 888.3 851.6 826.3 803.2 794.5 776.5 753.2 741.1 750.9 741.4 759.9 760.3 758.5 780.1 796.5 794.8 779.4 763.1 751.9 738.3 717.6 700.2 685.5 667.1 651.8 641.7 631.2 623.8 611.4 592.8 588.7 576.8 568.9 561 553.6 546.6 540.7 532.4 524.2 512.8 501.9 488.6 484.3 473.2 463.5 453.1 446.9 439.3 431.2 418.1 407.3 398.1 391.1 378.9 369.7 362 357.9 345.3 340.4 332.2 325.5 318.2 313.5 307 297.3 288.6 283.4 278.5 274 267.2 262.9 255.5 249.9 243.7 235.9 229.6 222.8 218 211.9 209.7 205.7 203 202.3 200.7 202.6 202.4 202.6 203.9 203.8 203.7 205.2 203.9 201.7 202.1 202.9 203.8 202.2 201.1 203.9 202.5 200.2 198.3 192.7 190.6 185.9 181 178.1 174 172.8 168.4 166.3 164.8 163.4 160.6 162.5 162.9 163.2 162.4 163.6 162.2 163.4 166.6 170.5 176.2 179 184.3 193.7 198.2 201.2 207.2 210.5 211.6 220.2 224.9 229.2 233.8 238.4 245.9 254.8 254.2 260.1 266 271.6 277.4 278.5 286.6 289.2 293.5 301 305.7 306.8 307.2 307.4 305.1 307.6 306.7 304.8 305.3 305.5 306.9 309.2 308.6 305.4 298.7 301.2 302.4 296.5 292.6 289.8 282.9 278.5 275.1 267.6 261.4 248.5 241.3 236.7 231.7 226.3 224.6 222.2 212.4 212.3 201.2 193.1 189.5 184.4 177.3 171.7 162.4 157.6
760.9 792 820.7 860.6 889.9 910 925.4 943.3 934.8 900.9 871.7 855 838.8 813.9 797.5 786.8 784.5 780.4 782.4 792 806 817.5 816 806.6 794.7 786.2 769.3 750.6 731.8 716.4 697.5 677.1 659 649.7 633.8 618.7 604.4 595.4 585.5 578.8 565.4 559.8 551.3 546.5 541 532.3 521.9 511.6 502.4 489.7 478.6 472.6 468.6 456 442.3 438 429.9 419.7 411.4 401.5 388.5 377.6 366.7 360.3 354.3 346.8 340.9 327.6 320.6 313.1 309.3 303.8 292.1 289 282.2 275.6 270.4 263.7 258.7 255.5 248.7 242.2 236.6 230.8 224.2 218.1 212.7 213.4 209 204.9 205.2 205 205.9 211.5 213.1 215.9 217.2 218.7 219.4 221.5 219.8 219.5 221.1 218.2 218.5 219 216.7 213.8 209.2 206.6 206 202.3 196.4 191.2 188.5 185 180.1 175.9 171.2 171.7 169.7 166.4 162.9 159.9 158.6 160.4 159.6 158.9 158.4 159.3 161.4 163.5 168.1 170.5 174 181.3 184.1 185.4 191.4 195.5 199.5 206.2 210.9 216.2 216.4 220.4 223.3 232.3 234.6 238.2 240.6 246.5 249.7 254.1 257 264 268.1 273.4 273.6 278.2 281.1 280 280.9 280 282.6 287.6 283.3 284 288.5 287.3 288.5 287.3 282.7 281.7 287.4 283.9 277.5 276.6 267.7 266.3 265 258.8 249.8 239.2 227 225 221.5 214.3 211.5 209.8 204.7 192.4 191.5 180.4 177.3 177.2 167.3 163.3 161.1 147.4
777.7 803.6 838.9 884.3 913.3 932.4 955 961.2 957 931.7 909.4 881.6 852.9 834.5 824.7 815.1 809.3 819.3 834.3 838.4 835 824.6 813.2 802.6 793.8 783.5 767.7 748.5 725.1 708.1 687.1 663.3 652.8 639 625.6 613.5 598.6 584.7 573.6 566.1 557.2 545.3 543.6 539.1 532.6 522.9 512.8 499.5 495.4 480 472 466.5 453.3 441.9 433.7 429.5 424.1 409.4 396.6 387.3 374.6 364.8 356.1 351.3 344 334.7 327 318.7 311.1 303.8 296.9 290.4 284.3 279.3 272.9 267.4 261.9 256.1 250.3 247.8 241.2 239.1 231.4 225.9 217.9 214.4 210.9 206.4 208.7 209.7 211.8 215.1 221.1 223.2 225.9 230.3 231.2 233 233.2 235.1 233.2 234.2 234.4 231.6 226.8 228.8 225.8 222.3 220.1 217.6 213.4 208.9 205.6 200.5 197.2 191.7 186.8 183.6 178.9 178.8 174.3 171.7 167.6 165.5 163.5 160.4 158.3 157.1 155.8 155.4 157.2 159.1 161.5 164.3 165.7 171.9 173.1 173.8 178.1 181.7 186.8 193.4 196.9 204.2 208.3 204.7 206.1 206.7 214.5 218.5 225.4 225.7 229.8 232.4 232.4 239 243.7 246.4 247.5 248.6 254.2 254.8 258.7 265.9 262 266.3 268.7 265 265.5 262.8 267.8 273.8 266.1 261.8 264.6 268.1 263.8 263 255.8 251.8 246.8 242.6 233.7 226.2 219.1 211.9 207.4 202.6 195.8 195.1 190.4 184.5 180.8 172 166.2 163.4 158.9 156.5 146.7 142.5
784.5 818.1 862.1 905.1 933.9 960.3 971.1 972.6 966.3 953.2 933 907.3 880.6 860.6 857.5 858.2 855.6 847.8 844.3 835.9 829.5 819.6 808.4 800.4 793.1 781 765.9 746.2 723.1 699.4 676.9 660.1 639.1 624.5 610.3 596.8 588.5 574.3 567.5 551.7 543.6 535.2 530 525.1 519.7 510.5 501.3 490.6 481.9 471.8 461.3 451.8 443.4 429.5 424.1 419.2 407 397.5 388.5 377.5 365.8 357.4 349.2 343.2 337.4 326.2 314.3 308.4 302 295 286.7 281.1 273.8 268 264.9 257.4 255.6 248.3 243.5 240.1 236.2 232.4 228 224.2 215 210.5 211.8 216.9 220 221.6 225.9 230.9 234 237.8 239.1 241.8 243 243.6 245.4 250.1 251.1 247 245.3 242.6 240.4 239.7 238.4 233.8 230.6 223.9 222.3 219.6 217.8 213.2 210.9 202.7 198 195 190.5 186.7 182.1 177.5 174.7 172.3 167.9 165.3 160.7 158.3 157.4 153.9 155.8 156 157 159.8 160.2 162 163.6 167.5 169.8 172.6 179.5 181 183.1 189.2 197.1 192.3 192.3 194.5 203.5 199.6 205.9 208.2 213.2 216.2 217 217.2 218.7 222.7 222.9 221.7 225.8 232.6 238.6 240.2 239.1 242.5 244 245.1 248 248.4 248.7 251.5 251.2 251.5 244.6 247.7 250.4 246.8 241.5 238.3 235.6 231.3 219.8 214.6 207.6 201.4 196.9 192.6 188.5 187.2 182.4 173.3 165.9 164.5 158.7 155.1 150.5 145.2 142.2 133.7
795 835.1 879.2 919.2 951.2 976.8 979.1 968.4 954.5 939.5 918.9 899.7 884.8 872.6 862.7 857.7 849.9 841.1 835.1 828.7 821.4 812.8 802.4 794.1 787.6 772 757.7 738.6 720.6 700.3 681.5 659.6 642.8 623.8 614.1 593.1 579.1 567.1 556.9 551.9 536.6 525.6 511.7 509.6 504.6 499.2 488.2 481.2 470.9 458 445.7 440.1 434.4 424.2 415 403.3 391.9 385.1 378.8 369.5 356.8 347.8 339.7 331.7 324.2 315.6 307 298.6 290.2 283.3 276 268.3 263.4 260.4 254.7 248.2 245.6 239.8 236.6 232.5 231.9 227.7 217.3 215.1 220.5 222.3 226 229.8 232.8 237.2 241.7 250.6 249.1 250.8 251.5 254.1 255.9 255.2 256.7 263.1 258.2 258.4 255.3 253.4 250.3 247 243.6 240.4 236.1 236.6 237.9 237.5 231.9 225.7 222.1 215.9 212.3 213.4 204.8 200.7 200.3 194 189.1 182 176.7 170.6 164 160 157.2 156.3 154.9 154.5 154.9 154.7 155 155.5 157.6 160.8 162.5 163.6 166.2 165.7 168.8 173.9 178.3 177.5 181.5 186.2 184.7 185.7 189 192.7 196.4 199 197.8 200.5 204.4 201.3 200.8 203 205.4 210.7 218.4 221.9 221.5 223.6 227.2 226.9 233.5 231.6 236.8 234.4 235.8 234.9 234.2 234.4 233.1 231.6 230.2 222.6 221.2 214.8 208.5 200.7 193.8 189.7 186.8 182.9 178.3 173.9 172 164.3 155.7 153.7 152.2 148 141.8 136.1 130.9 123.5
808.6 852 893.8 930.7 969.2 982.9 973.6 952.2 933.9 921.4 901.7 878.2 865.2 857.5 849.9 845.1 836.3 830.5 824.7 817.1 808.9 802.2 794.8 785.4 778 768 754.2 732.7 708.8 696.3 674.3 659.9 643.7 623.8 602.1 585.3 572.6 558.5 547.9 533.9 525 523.9 501.5 503.2 493.8 484.1 472.6 461.6 452.6 440.1 433.1 431 424.1 416.9 403.7 391.9 380.9 373.8 365.8 354.4 344.1 337.4 329.9 319.8 313.7 305.1 296.9 286.4 279.2 269.8 266.2 258.7 252.6 249.8 247.1 239.4 236.9 232.2 229.9 223.6 220.4 215.8 223.6 228.8 233.5 238 240 244.1 250.1 255.5 260.1 263.9 265.3 268.8 268.2 268.5 268.3 267.5 265.8 269.7 270 268.9 267.1 262.9 261.8 258 254.5 253 252.5 251.8 250.4 246.7 245.1 242.3 240.7 236.6 231.9 228.6 218.2 216 209.3 203.7 196.3 193.7 183.6 179.8 169.3 164.4 160.2 157.4 154.8 153.6 153.2 152.1 152.4 152.2 151.5 152.9 154.5 156.3 158.6 160.5 158.2 163 163.2 165.5 166.8 170.5 172.4 173.7 176.6 181.8 182.4 182.5 183.7 186.5 187.1 186.8 186.1 186.2 189.3 190 195.6 200.7 202.7 208.4 210.5 213.8 216.7 215.9 222 224.2 221 220.2 220.9 223 218.7 216.7 210.7 207.9 203 201.2 195.3 190 187.7 182.5 177.1 172.4 168.6 164.5 160.5 156.6 146.5 145.2 139.8 138.8 132.9 125.6 120.9 114.8
820.5 861.3 902.7 942.6 971.6 971.7 955.4 931.1 912.6 898.1 877.6 859.8 850.2 842.1 836.7 828.8 824 819.6 812 806.4 798.2 788.4 783.7 776.3 770.9 760.6 747.6 727.3 708.3 691.1 674 656.3 645.5 624.1 593.8 582.2 567.8 550.8 544.4 525.4 513.5 509.7 495.9 489.4 481.4 477.8 465.7 452.8 441.3 431.1 427.5 420.7 411.8 401.2 395.7 383.4 372 362.7 351.7 342.1 334 327.8 316.9 308.2 300.4 294.2 285 281.1 267 260.3 256 249.2 245.1 240.4 241.3 234.9 229.6 225.7 222 224.7 226.3 231.8 238.1 243.7 246.7 250.7 255.5 261 265.4 270.8 275 278.3 280 278.5 278.9 278.5 278.2 282.5 282.9 285.2 281.6 279.5 276.9 275.2 272.8 274.4 271.3 269.9 269.1 263.2 260.4 259 259.4 257 253.3 245.3 239 233.1 223.4 222.5 219.9 211.7 204.3 195.9 190.1 179.2 175.1 170.7 168.1 161.3 156.9 156.1 154.5 152.9 151.5 151.2 150.8 150.6 151.1 153.5 154.6 153.1 154.4 158.5 156.6 156.3 157 160.2 162.5 164.6 166.4 171 171.7 171.4 171.5 171.1 172.3 171.3 172.9 170.6 172.3 173.1 175.1 179.5 190.4 193.2 195.4 199.1 201.1 201.8 206.6 205.9 204.6 204.2 205.8 207 203.3 200.8 196.7 195.3 192.1 191.2 186.2 183.4 178.6 171.8 168.5 164.5 159.3 156.5 150.5 145.8 136.8 131.5 130 125.4 118.3 115.3 109.4 106
824.7 861 903.2 947.9 948.5 941.3 931.4 913 892.2 876.1 857.7 845.4 837.4 830.2 823.7 818 811.5 806.9 801.4 795.6 788.6 782.3 774.8 766.9 763.2 752.5 737.8 718.9 704 688.8 670 650.6 633.4 607.3 596.7 574.1 557.7 543.1 531.3 519.8 507.1 495.2 484.2 487 473 465.3 455.3 446.4 435.5 426.1 415.9 410.3 400.9 390.4 383.1 371.7 363.3 353.7 342.6 333 324.9 315.5 304.9 298.3 289.7 281.3 271.3 268.5 258 252.4 251.8 244.3 237.1 234.9 233.6 228.8 227 223.8 234.4 237.5 240.4 247.3 251.7 258.1 261.5 266.9 273.2 276.5 283.4 290 291.5 293.8 297 300.6 298.2 296.6 297.5 299.4 300.3 298.3 295.5 291.4 290.5 284.6 285.1 284.1 283.4 284 280.4 275.1 274.1 275.5 270.8 267.3 259.1 256.2 249.4 241.3 237.4 232.9 227.5 220.2 212 205.1 198 185.3 180.3 174.4 169.4 165.3 159.9 159.3 156.1 153.6 153.2 150.8 150.2 150.1 150.5 152 152 148.7 147.9 148.1 147.2 149.2 148 154.8 153.6 155.1 158.4 161.5 162.4 162 162.3 160.8 158.4 158 158.3 157.7 159.7 160.5 164.3 164.3 176.4 177.4 181.3 184 187.8 188.7 192.7 191.3 190.8 191.9 192.4 189.7 187.9 187.8 188.2 184.2 180.1 179.3 175.5 173.4 166.3 163.7 158.4 154.7 150.4 147 141.4 132.1 128 120.8 118.7 113.1 108.1 105.2 96.5 86.1
841.2 885.3 925.3 918.6 909.6 902.3 897.5 888.3 867.7 855.5 840.9 831.5 822.2 816.1 811.1 805 798.4 795.3 788.1 785.4 778.6 773.4 764.5 758.9 751.7 740.7 730.2 712.9 697.1 676.2 657.9 637 616.9 595 581.4 565.3 549.9 539.7 523 513.2 499.7 488.4 478.5 473.7 464.3 453.9 438.4 433.5 425 422 412.9 401.7 391.9 381.5 367.8 358.9 352 342.2 332.1 323 316.5 304.7 294.3 285.1 276.4 269.6 262.7 257.4 251.5 244 246.3 240.3 235.7 231.6 229.7 229.5 237 243.8 246.2 252.4 257.4 265.6 270.7 274 279.4 286.5 290.2 296.7 302 304.9 308.6 312.9 313.1 313.7 310.1 316.6 318 319 314.6 315.4 311.5 305.3 296.7 295.5 292.9 292 295.4 292.9 289.3 284.8 280.7 281.3 279.5 275.6 267.4 261.7 255.7 251.7 247.9 244.6 237.3 230.3 223.9 215 203.3 196.6 188 181.4 175.2 167.2 164.3 163.7 160.1 157.2 152.9 151.3 150.4 149 148 149.4 148.2 144.1 141.2 143.5 142.6 143.3 143.9 143.7 145.5 149.4 150.4 152.7 153.7 154.8 154.6 153.5 150.1 148.9 147.6 147.9 150.3 149.1 151.3 153.9 159.3 162.4 168.2 171.7 170.8 179.2 176.8 177.8 178.8 179.5 177.7 174.9 178.3 175.8 172.5 170.7 169.7 165.4 164.6 162.4 156.6 149.9 147.4 144.9 143.3 139.9 135.4 125.6 118.7 112.7 110 107.2 102.9 96.5 100.8 101.4
860.1 903.1 914.1 886.6 873.9 866.6 857.5 852.2 839.9 832.4 823.2 813.8 808.7 802.2 795.1 789.5 787.7 784.9 777.7 772.3 764.3 758.3 754.4 746.7 739.1 728.5 717.5 701.4 684.9 668.5 647.2 627.6 608.6 590.6 575.2 561.7 548 533.1 520.9 507.8 496.2 480.2 467.3 455.5 454.9 445.5 432.9 417.1 407.5 404.8 398.5 390.6 384.1 374 359.4 351 343.5 332.9 324.5 314.8 306.6 296.2 283.9 274.8 266.9 258.6 255.5 250.3 247.5 237.5 233.6 232.8 231.2 240.9 244.8 248.3 251.9 257.2 264.5 270.4 275.6 281.8 286.6 292.7 298.7 303 310 314.9 317.2 322.9 326.2 329.2 331 334.1 335.7 331.7 333.5 332 328.1 328.7 321.4 312.8 311.1 305.2 303.4 306.5 305.8 303.6 302 297.1 293.7 292.5 288.8 285.2 278.5 272.4 264.9 261.9 259.5 255.6 247 240.5 231.9 224.9 213.3 204.8 198.3 188.8 182.1 179.6 174.7 169 164.5 160.2 157 153.4 152.4 150.8 149.7 148 145.3 144.3 143.3 141.2 141 140.8 139.8 139.1 140.4 142.6 143.5 146.2 146.7 146.8 147.1 146.7 144.6 142 142.6 140.1 140 140.6 142.7 145.5 147.1 151.1 154.5 159.6 159.9 164.8 164.2 166.5 165.5 167.5 166.6 163.4 163.5 159.2 161.1 159.1 154.8 153 149.2 145.8 145.2 137.3 140.8 137.8 136.6 130.6 119.7 112.2 110.3 108.7 107.3 105.4 101 103.4 103.7 103.7
878.9 910.2 887.8 862.1 839.3 830 822.4 810.9 806.6 806.2 799.6 795.2 792.2 788.2 782.8 774.4 774.7 771 766.1 760.2 753.9 745.7 741.8 733.7 724.3 714 702 686.7 672.7 657.5 639.6 621.9 605.1 586.5 570.1 557.2 540.6 526.4 515.3 499.1 488.1 477.1 463.8 449.2 439.1 433.8 425.8 413.1 399.7 384.8 383.8 377.8 370.4 362.2 356.5 343.3 333.9 324.2 314.3 305.8 293.2 284.9 272.8 265.4 260.4 253.1 250.8 246.9 241 238.3 240 243.4 247.2 251.3 253.7 261.5 268.3 275.3 281.6 287.1 293.5 300.4 303.6 310.4 316.4 325 329.3 331.9 336.3 341.4 347.8 349.6 351.3 357.9 353.8 350.1 350.2 345.5 340.6 333.9 327.3 322.7 317.1 318.2 320.4 318 319.8 321 318.4 316.4 311.1 304.1 301.3 299.6 290.1 283 277 272.9 268.4 263.8 260.4 252.3 243.5 235.8 227.6 215.6 207.3 200.9 193 186.3 180 175.5 168.7 163.1 160.3 157.7 155.7 152.8 152.6 150 146.9 144.7 143.2 141.7 140.3 140.5 139.4 138.5 134.6 137.8 137.5 138.4 139.8 140.3 140.3 139.8 138.6 136.9 138.5 133.9 138.3 134.9 137.5 136.1 138.4 140.1 144.6 147.5 150.5 153.1 155.2 156.2 158 156.8 154.6 152.2 147.5 148.7 150.1 147.3 144.6 142.5 142.4 140.6 133.4 127.5 129 128.2 126.9 119.3 111.4 108.6 107.1 106.9 104.8 103.3 103.6 105.5 107.6 110.5
894.7 888.2 857.5 834.1 811.4 799.6 789.6 780.7 778.9 777.7 778.7 776.7 776.4 772.7 767.8 761.7 760.9 758.7 753.9 748.6 743 733.7 725.9 717.7 703.8 695.6 684 672.8 659.5 644.3 628.8 611.7 596.4 579.3 564 549.4 534.7 520.8 502.7 489.6 478.4 463.6 450.1 442.2 430.4 417.4 413.4 405 393.3 382.5 367.2 364.6 355.8 350.2 344.4 332.6 321.4 312.5 302.5 294.1 283.9 275.3 265.6 261.1 254.2 247.2 240.8 238.9 243.6 247.8 253.2 255 260.4 265.4 271.9 280.1 283.9 291.7 298.6 307.4 309.7 317.5 324.9 328.3 337.9 344.1 350.1 353.5 359.5 360.9 363 370.5 370 370.9 370.6 368.5 367.8 365.6 359.9 352.8 343.1 338 333.3 333.8 333.4 333.2 334.1 333.4 333.2 331.6 328 324.5 319.7 309.6 303.8 293.7 288.2 285.2 276.3 271 266.2 258.1 253.7 247 240.8 227.6 219.7 213.3 202.7 194.6 185.5 181 173.7 168.1 165 163.1 158.9 156.9 154.9 150.9 148.5 146.2 143.6 143.7 143.7 142.4 140.7 136.7 135.3 133.4 133.9 134.3 135.7 135.4 133 131.7 130.8 132.2 135.1 130.4 129.9 130.9 132 132.2 131.9 134.1 135.2 137.9 139.9 144.1 144.3 146.6 145.7 148.1 144.4 142.6 139.3 140.8 139.5 138.1 134.1 132.4 133.8 131.6 124.5 118.1 114.3 112.6 111.1 110.3 107.1 104 105.9 105.8 105.6 101.2 107 109.5 113.8 119
883.8 868.6 837.5 807.5 789.3 774.4 766.5 761.8 760.5 754.8 752.7 756.8 756 755 753.8 748.3 746 743.2 739.2 735.1 728.2 719.2 708.3 701.1 688.9 675.3 667.9 657.7 644.9 629.5 613.8 599.2 585.3 570.7 556.9 537.9 521.4 504.8 489.8 475.5 465.5 452.8 439.8 429.1 423.1 408.1 398.5 389.7 380.6 371.3 361.2 353.6 346.6 341.8 328.2 321.6 313.3 302.3 291 281.1 273.9 266.4 259.2 253.9 242.5 248.8 253.3 254.3 255.4 258.1 264.7 270.3 277.8 284.5 288.1 296.1 303.6 310.5 318.9 325.5 332.3 335.7 342.5 351.6 357.1 360.3 367.8 375.6 374.2 379.9 389.2 384.6 386 391.4 394.5 386.7 388.3 389.6 386.8 377.2 365.4 353.1 349.1 350.2 346.2 347.1 346.6 342.8 344.9 346 340.5 333.3 325.1 316.6 315.4 312.3 306.3 301.8 289.8 278.7 272.8 267 261.4 252.8 246.5 237.7 227.8 222.1 213.6 203.1 194.7 189.6 179.2 173.7 171.9 168 165.1 160.7 158.1 152.3 149.3 147.5 145 146.2 143 138.4 137.9 141.1 139.9 137.8 137.2 136.1 131.5 129 128.4 129.2 129 129.2 128.1 127.4 126.5 126.4 128.5 126.5 127.4 128.6 130.4 131.2 131.4 132.8 134.8 135.9 134.7 136.7 134.9 134.2 133.6 132.1 131.6 129.1 126.5 123.4 124.1 120.4 115.7 112.8 108.7 109.9 108.8 107.8 106.5 105.5 103.6 102.9 104.2 107.2 112.1 116.7 121.9 128.7
873.8 845 811.7 790.4 773.6 761.4 755.7 747.5 741.3 738.1 736.6 735.4 735.7 736.3 733.1 730.2 730.2 726.9 723.9 719 711.5 703.7 694.7 684.7 673.7 661.9 651 641.6 628.7 613.3 599.2 583.9 572.1 558.9 538.8 519.9 502.8 492.3 480.3 463.8 450.4 440.2 428 420.6 408.8 399.3 385.4 376.3 368.5 362.6 353.7 343.7 335.2 327.9 319.7 310.3 300.2 291.9 288.2 278.9 270.2 260.6 254.9 249.6 252.7 257.6 261.3 264 269 276.5 282.1 285.8 293.6 300.4 306.6 314.3 320.7 329.3 338.8 343.3 352.7 359.7 366.1 372.5 377.8 383.9 389 394.6 401.3 403.7 405.1 405.7 407 410.8 410.7 415.2 412.4 409.1 405.8 395.6 381.5 375.7 370.8 367.4 361.2 360.8 359.1 358.5 354.9 353.5 348.5 340.2 329.2 325.4 321.7 317.6 311.8 303.9 292.4 284.6 277.7 272.7 275 257.8 252.3 243 235.1 225.7 215.8 207 200.5 191.5 186.3 181.6 177.7 174.6 170.6 163.9 157.7 154.4 156.3 148.7 147.5 141.8 142.7 144.3 144.1 144.6 142.4 141.2 139.2 137 135.7 132 131.5 130 128.4 127.6 126.2 127.1 125.9 125.3 124.9 123.2 123.2 126.5 126.9 126.1 127.6 125.8 126.5 126.8 127.8 127.9 125.4 126 126.9 127.1 123.2 123 121 117.9 116.3 115.3 111.2 108.9 107.8 108 107.6 108.4 108.9 108.9 110 110.7 111.9 115.3 121.7 126.9 133.4 142.1
858.5 824.3 798.9 781.9 769.3 756.3 736.7 731.2 724.1 722.9 715.8 718.2 716.9 720.4 718.5 716.4 714.5 711.3 706.7 701.1 693.7 685.8 677.1 667.7 658.7 646.9 627 624.8 611.4 594.2 579.1 561.9 550.7 536.9 517.1 500.7 486.9 478.3 464.4 450.8 438.1 425.2 415.5 405.8 398.5 389.8 377.4 365.4 359.3 352.1 345.8 336.1 328 317.5 310.4 300.9 290.1 282.4 277.7 267.8 261.1 255 253.5 259.8 258.1 268 270.8 275.7 282 290.5 295 302.3 312.2 318.5 323.5 328.9 338.3 348.4 357.3 364.9 371.9 379.6 386.6 393.2 399.8 408.6 415.2 421.7 427.2 430.9 429.3 429.3 431 435.7 436 437.8 432.6 430.1 423.2 414.3 411 397.1 388.4 378.2 375.4 373.6 374.4 372.3 368.7 361.6 357.5 346.5 336.5 328.3 323 318.6 314.4 310.5 302.5 290.9 283.1 276.9 269.1 263.5 258.6 253.6 243.1 233.1 222.7 212.3 204.6 198.5 192.7 185.9 180.2 174.9 169.4 164.7 162.9 158.7 156.3 150.8 147.8 149.7 147.2 146.1 146.6 148.4 144.8 142.1 140.9 138 134.9 135.4 133.9 130.9 129.4 128.3 127.3 126.2 124.9 124.8 125.3 125.2 124 123.5 123.7 124.3 123.7 123.3 123.3 122.8 122.5 121.1 120.3 121.4 121.3 119 118.7 116.9 115.4 114.7 113 111.1 109.6 108.5 108.3 107.5 107.7 110.6 110.4 111.5 114.4 117.3 120.1 124.4 132.6 141.5 149.7 156.4
835.3 807.2 791.8 774.8 755.7 739.2 725.5 717.5 711 707.1 705.6 698.2 698.8 705 704.4 701.2 698.7 692.9 688.3 680.7 673.9 666.9 659.8 651.5 641.4 629.7 615.6 603.1 584 571.7 556 543.2 529 514.9 498.3 482.5 475.3 463.8 447.8 437.2 426.3 413.1 403.7 395 383.7 375.6 367.5 361 349.4 343.7 335.3 328.6 323.1 314.4 301.5 292.8 285.8 278.3 271.2 263.5 258.7 263.8 267.9 264.3 271.8 278.4 285.8 293.2 297.2 308.3 312.2 321.9 327 335.2 344.6 350.2 362.5 367.7 374.3 384.5 390.9 400 407.4 417.6 427.1 435.2 441.6 450.4 456.8 460.9 460.6 462.2 467 469.1 465.5 464.8 460.6 453.6 440.3 436.2 423.1 412.3 406.2 397.4 390.4 386.3 382.3 378 377.2 373.6 370.3 357 347.7 340 329.6 318.4 314.8 309.6 300.9 296.8 288.2 282 273.8 267.7 261.1 254.6 246 235.1 224.4 221.5 217.9 207.4 196.9 189.4 184.2 177.8 173.1 169.7 165.8 160.1 156.2 152 151.8 150.8 150.9 147.2 147.4 145.4 143.4 144.2 140.7 138.3 136.4 138.1 134 132.7 130.5 128.9 128.3 127.4 126.8 126 127.6 125.8 124.9 123.7 122.9 121.6 122 121.8 121.6 120.9 118.3 118.7 117.1 117.8 117.2 117 115.2 113.5 112 111.4 110.5 109.5 109.4 108.1 107.4 110.2 111.8 114.4 117 116.8 120.7 125.7 132.4 136.9 150.3 159 169.2 174
831 806.8 784.4 769 753 740 725.1 710.6 702.5 701 691.5 683.5 682.4 682.9 681.9 682.8 678 670.3 667.6 661.7 654.4 647.3 639.8 630.9 621 601.1 598 573.5 564.7 551.6 538 521.5 510 494.4 479.4 467.5 457.7 451.9 433.9 421.9 410.9 402 392.3 382.4 377.7 367.3 358.9 350.6 345.7 337.6 327.8 317.6 313.6 308.1 299.7 293.1 282.8 274 266.8 265.4 268.3 272.2 275.2 280.2 286.5 292.9 300.3 308.1 313.9 323.7 332.7 339.2 347.1 354.5 362.2 370.3 377.4 386.4 394 404.1 413.6 423 432.9 441.4 452.7 465.8 474.1 481.1 484.9 489.1 488.4 487.6 488.9 489.3 482.3 477 470.6 466.8 458.9 448.2 438.3 425.6 416 413.3 401.9 397.6 389.9 387.3 384.8 383.6 377.4 367.2 355.5 345.5 335 320.8 313.8 307.9 304.2 296.7 289.3 282.1 273.4 268 264.3 255.8 246.4 235.7 228.1 222.8 217.1 207.2 198.8 190.1 186.3 179.2 174.8 168.8 168.4 160.9 154.9 154.4 153.4 151.6 151.4 149.6 148.3 145.9 144.9 142.9 140.2 141.7 139.9 137.5 134.6 133 131.2 130 128.6 127.6 126.9 128.1 128.5 125.6 124.3 124.4 124 122.2 119.8 120.5 120.2 116.7 117.6 116.2 115 113.8 113.6 113.5 113.1 112.5 111 111.4 110.9 110.3 109 109.5 112.7 116.6 118.4 120.4 124.2 127.9 130.6 136.4 145.1 152.8 163.4 175.6 187.5 194.7
828.6 807.6 784.1 757.1 750.1 740.8 728.6 705.6 694.6 685.5 679.3 671.1 666.8 661.9 660.2 659.2 651.8 642.3 642.4 638 632.3 626.2 620 610.6 600.2 589.3 569.7 561.7 537 522.2 516.3 502.3 493.6 480.2 466.5 457.3 446.9 429.3 422.3 411.1 401.8 391.2 383.1 373.2 364.6 355.6 349.1 342.7 336 329.5 321.1 312.6 304.9 298 294.3 285.6 277.2 271.4 268.8 275.3 282.2 288.2 287.6 295.9 307 311.2 316.3 328.1 330.5 342 347.6 356 364.5 370.2 378.9 385 394.6 405.1 415.1 424.3 434.9 445.2 455 465.8 480.8 489.6 496.4 501.8 505.1 506.9 506.2 505.1 505.8 502.3 493.6 487.5 480.5 476 470.6 463.5 451 445.9 428.4 420.6 415.4 408.1 401.9 395.6 388.3 383.6 375.8 365 354.4 341.3 331 316.8 311.7 308.6 303.5 293.6 285.1 276.3 270.4 267.4 262.1 255.2 246.6 236.7 230.7 225 213.9 206 195.4 189 183.1 177.4 174 169.9 165.5 159.5 159.7 163 156 156.9 154 152.6 150.4 148.5 147.9 146.9 142.4 142.6 141.9 140.1 136.6 136.4 133.6 132.8 132 129.6 128.6 130.7 129.4 128.3 129.4 127.1 125 123.5 122.7 120.9 119.9 119.2 119.8 118.4 116.7 115.7 115.1 113.8 113.5 112.7 110.8 109.9 110.2 109.5 112.6 115.3 118.4 122.3 125.4 129.8 133.6 139 142.5 150.5 159.1 169.2 179.4 192 205.2 216.5
823.7 798.7 773.7 762.9 739 734.5 731.1 703.6 685.5 671.1 662.5 655.9 649 644.4 639 636 627.9 620.1 616.6 612.4 605.6 596.9 594.5 588.1 577.4 563.4 552.8 537.2 528 504.7 493.8 484.2 470.4 459.2 451.5 447.9 429.4 416.7 406.7 396.7 389.6 379 372.5 362.5 353.9 348 340.2 333.5 327.3 318.8 312.5 308.8 300.4 295.1 285.5 280.6 273.3 270.3 280 284.4 295.4 301.2 304.9 310.6 317.6 324.5 332 341.2 350.5 357.9 363.2 372 378.3 386.7 395.6 404.5 414.6 423.5 432.1 443.6 454.3 463.7 472.4 485.1 495.2 503 512.9 518.6 519.1 516.1 513.1 512.5 509.3 504.3 496.3 490.6 489.2 482 468.9 461.7 452.6 439.1 432.1 427.1 418.8 412 407.6 392.4 385 383.7 373.5 360.1 344.9 334.8 324.4 312.6 307.2 304.1 300.2 291.5 282.9 273.1 264.3 262.6 256.2 250.5 240.3 233.4 223.4 217.1 210 203.1 193.7 186.1 181.8 176.8 173 166.4 163.8 166.4 163.9 164.6 159.7 158.8 160.3 157.1 154.4 152.4 151.5 150.4 148.2 146.6 146.3 147.9 143.7 142.5 140.7 137.3 138.3 132.2 133.6 133.9 134.4 130.9 130.9 129.7 127.7 124.9 124.2 122.9 122 122 121.4 119.8 118.1 117.1 116.4 115.7 114.3 113.7 113.2 113.6 112.8 112.4 117.5 121.4 123.2 129.6 136.7 141.3 145.9 150.6 158.8 165.5 176.2 185 200.7 209.9 225.5 235.9
815.6 791.2 770.9 754.6 735.8 724.4 717.3 698.9 679.7 659.1 647.7 640.3 637.1 627.3 619.2 612.3 599.7 594 591.1 586.7 583.3 573.7 567.6 561.9 553.3 542 532.2 518.1 505.1 492.2 472.6 464.6 449.9 441.3 435.2 430.2 414.7 404.7 394.3 384.9 374.9 368.3 357.6 349.9 341.6 337.1 330.6 324.5 318.7 313.4 305.7 301.2 294.7 288.2 282.9 278.6 274.6 282.8 287.7 300.1 303.8 311.9 318.8 326 331.5 342.1 348.6 355.9 364.1 371.7 379.1 384.6 394.2 403.1 411.9 421.1 431 439.6 449.5 459.5 467.6 477.3 489.6 498.4 506.9 513.5 522.3 525.3 521.7 518.2 515.8 513.8 508.6 502.7 496.4 491 486.4 471.8 462.3 458.4 450.2 436.3 432.4 425.8 420.1 412.6 402 392.4 376.4 363.4 353.6 346.7 329.9 320.3 310.6 305.8 301.1 299.9 296 284.1 275.8 270.9 260.8 255.1 249 242.7 234.8 225.6 217.6 212.2 207.1 198.8 192.9 185.3 181.8 176.5 165.5 170.1 172.7 169.1 168 166.4 164.5 164.1 163.5 162.9 160.1 158.3 159.5 159.2 155.9 153.2 155.8 154.6 156.5 152.4 150.1 143.9 145.5 141.9 141.9 139.8 138.9 136.2 134.8 132.4 132.2 129.8 127.5 126.1 124.7 124.4 122.7 120.9 119.6 118.4 118.6 118.6 117.4 116.1 115.3 116.7 116.2 121.3 124.9 131.2 133.2 140 148.1 154 160.3 165.5 174.1 184.8 197.1 205.5 214.8 233.7 245.6 257.2
810.6 788.8 770.1 752.3 731 716.7 702.8 694 672.9 647.1 633.2 620.2 618.7 609.7 602.8 589.9 582 577 572.3 565.8 557.2 549.6 547 536.6 532.8 518.7 507.4 494 483.1 472.8 461 452.2 437.7 431.1 420.1 410.5 402.9 391.9 380.8 373.1 362.4 354.9 347 340.1 331.3 329.2 322.8 316.1 312.8 308.3 301.3 294.3 289 284.7 280 277.8 289.3 287 300.4 303.1 312.9 323.6 329.7 337.4 343.1 353.9 361.1 369.4 377.4 384.9 393.4 399.4 410.2 417.3 428.1 437.5 445.7 453.6 462.1 469.8 479.9 491.6 500.9 509.5 517.9 523.2 522.7 521.5 520.5 518 514.6 511.7 505.4 497.6 491.2 481 477.6 463.9 455.9 450.7 444.2 431.7 424.3 417.2 407.6 395.2 384.7 378 361.1 347.6 336.9 327 317.7 308.9 303.2 297.6 291.5 288.3 282.9 277.8 267.9 258.3 251.4 244.3 239.4 230 225 216.9 212.7 207.1 200.1 193.9 192.2 183.2 174.5 167.8 179.1 176.8 175.4 174.3 173.3 173.3 172.7 170.8 171.7 168.8 167.1 167.3 167.1 166.1 167.9 166.7 169.7 166.6 166.9 163.5 159.6 157.9 154.1 151.4 151.8 148.5 147.5 144.6 140.6 142.5 138.1 136.5 134.2 131.5 128.5 127.1 124.9 123.6 121.7 121.1 121.9 122.4 122.3 122.1 121.4 122.8 122.4 129.5 132.2 141.6 142.9 151.3 158.5 165.5 174.2 184.2 195.3 206.9 215.9 225.1 236.9 253.7 267.6 280.3
815.1 788.1 768.1 749.8 725.2 716.3 698.4 687.2 661.5 639 618.9 611.5 603.6 594.4 586.8 573.7 565.6 555.9 549.4 542.8 536.9 530.5 523 519.8 506.1 498.1 488.9 477.8 465.2 455.8 444.1 435.7 427.3 418.6 407.6 397.6 388.4 381.8 369.6 359.1 352.2 343.3 337.3 331.8 326.1 321.5 319.9 313.4 304.9 299.6 295.4 288.8 288.3 284.6 279.7 284.2 295.4 299.3 306.8 315.8 323.3 335.7 339.4 350.4 357.1 366.2 375.2 384 392.7 400.9 409.1 416.4 423 431.8 440.4 448.5 458.1 466.8 475.6 482.6 491.2 499.5 506.4 512 519.2 525.3 520.9 518.7 514.6 510.6 507.9 502.1 495.8 487.5 483.3 476.7 467.7 452.4 445.6 440.1 429.7 417.5 410 397.3 388.2 375.7 365.1 355.5 345.2 330.5 322.2 311.7 305.6 296.2 289.4 288.3 278.5 276.7 272.9 262.8 255.4 247.8 237.9 233.4 228.1 220.4 213.2 207.2 201 197.1 193.1 189.4 181.1 172 181.4 181.1 181.8 182.2 180.6 183 184.1 182.8 183.3 181.8 179.2 181.2 177.8 180 180.1 180.8 182.5 180.5 181.5 181.6 179.9 175.2 169.3 168.9 164.8 164.2 165.4 159 158.5 152.6 148.3 149.7 149.5 148.3 143.5 139.2 134.3 131.1 129.8 127.7 126.1 125.2 125.1 126.4 131.2 132.8 133.2 133 128.1 136.8 142.5 149.9 156.5 162.2 168.6 177.4 189.4 202.6 212.3 222.4 231.4 243.1 258.1 269.5 286.5 301.2
807 778.9 759.7 745.5 720.7 698.3 684.9 675 655.1 633.1 612.5 599 594.5 578.9 569.1 561.9 550.4 540.2 534.7 528.2 521.5 514.6 509.6 498.2 489.5 480 472.2 460.8 450.7 439.9 429.6 423.6 413.3 402.9 397.2 387.5 374.3 369.3 362.6 351.6 342.3 333.4 328.3 322 317.7 312.5 312.2 307.5 302.1 294 291.7 288 284.5 282.3 283.4 292 303.3 308.5 316.6 325.5 332.2 338 351.1 361.9 369.7 377.8 387.1 396.2 404.9 412.5 421.7 428.9 435.9 443.9 450.1 459.2 470 479 488.6 493.6 499.9 505.8 509.6 510.8 513.9 515.7 514.1 512.6 509.6 500.4 498.2 489 486.5 474.1 467.9 458.5 443.8 440.3 430.1 419.8 411.2 399.8 389.6 380 366.9 349.6 342.5 331.6 321 314.3 305.3 296.5 289.2 282.7 277.7 273.2 267.1 262.5 253.6 245 239.4 232.9 225.8 218.5 218.3 212.3 202.6 197.4 185.8 180.8 185.5 187 190.1 190.6 189.3 191.1 191.4 190.6 190.7 194.5 192.8 195.5 193 192.3 189.5 197.2 192.3 192.8 193.7 195 194.5 194.3 196.1 196.1 193.6 188.3 183.2 183.8 182.2 180.2 177.1 172.1 169.5 164.1 156.6 158.2 157.2 161.9 158.4 149.7 142.8 140.1 139.5 135.2 132.6 132.3 131.5 131 137.2 147.9 152.5 147.5 137.6 146.7 155 163.1 172.8 177.2 183 190.6 201.4 213.9 226.8 237 248.9 265 280.3 293.6 306.3 318.2
805.8 771.6 754.3 734.8 714.1 698.5 683.8 666 649.1 634 613.6 598.6 582.7 574.2 561.2 548.5 538 524.5 522.1 517 508.2 499.5 492.1 483.4 477 467.3 460.7 445.7 435.6 424.3 416.3 407.9 401 393.9 380.5 375.3 364.8 356.9 353.8 341.1 334.1 328.3 321.2 315.2 315.5 311.4 304.9 299.5 293.5 290.6 288.6 285.8 282.8 286 293.7 301.9 308.9 317.9 327.8 336.1 343.4 354.4 361.3 372.2 382 388.8 399.9 409.7 418.1 425.4 432.1 439.7 447.4 455 460.9 470 478.4 488.1 494.2 501.5 505 509.4 508 505.5 506 506.6 505.4 503.3 497.3 489 480.7 474 466.9 459.5 449.6 437.8 425.4 418.1 408.9 400 389.3 378.3 367 356.9 345 333.1 322.1 314.4 306.6 298.8 288.6 280.3 272.5 263.8 263.8 254.7 251.2 245 236.5 230.2 225.9 216.2 211.4 200.1 199.7 194.3 197.3 194.4 199.5 200.5 197.3 198.2 199 202 198.7 198.9 201.9 202.8 201.6 203.5 205.3 207 204.9 204.8 204.8 206.3 207.8 210.3 212.4 212.4 206.9 208.4 211.9 210.5 206.5 198.7 200 196.3 194.8 195.2 191.8 189.1 182.7 170.7 171.9 166.5 164.1 164.7 163.6 157 154.3 148.9 145.7 144.4 139.8 139.2 139.5 140.1 141.2 153.7 161.9 158.9 150.5 163.9 168.9 179.7 192.7 193.2 198.7 204.8 210.8 225.5 241.1 256.8 270 288.3 303.9 316.4 324.6 336.3
806.5 774 748.5 723.9 703.6 688 674.3 662 641.4 627.9 615.1 598.7 582.1 568.8 554 539.8 520.6 515.2 509 501.1 494.8 485.5 475.2 468.4 464 458 444.1 434.7 419.4 413.1 398.7 393.6 388.7 382.7 374.7 366.2 354.7 349.2 341.1 331.8 325.6 320.2 315.2 309.7 306.5 302 298.1 295.6 293.4 290.5 290.1 287.6 284.4 292.7 302.6 310.8 319.7 329.2 337.9 347.6 358.2 366.8 375.7 384.2 393.7 405.5 412.5 419.8 428.4 436.8 444.4 451.9 457.1 463.7 468.3 476.1 484 492.9 501.3 506.7 512.1 514.3 511.7 503.3 500.7 497 495.9 491.5 483.3 474.7 470.1 456.4 446.8 438.4 431.2 416.4 409.4 400.8 391.9 376.9 372.9 360.6 351.6 340.2 328.9 317.6 307.4 298.1 292.2 282.3 271.5 266.3 257.8 253.5 244.8 239.2 235.5 227.6 221.1 214.6 210.8 208.9 207.9 208.5 211.3 208.7 207.9 213.5 213 210 208.3 208.2 211.4 209.3 210.9 212.3 213.3 216.1 217.3 218.7 218 220.9 217.1 220.2 223.5 224.1 222.8 226.4 228.2 222.5 227.4 222.3 222.1 220.1 214.9 215.9 213.1 211.2 211.6 212.6 203.8 202.1 197.3 187.4 184.7 179.8 175.8 170.1 166.8 171.9 169.1 162 156.1 153.6 151.8 148.8 147.8 151 153.2 156.3 163.3 168.5 162.9 174.1 189.5 200.7 211.7 212.4 217.8 225.8 230.8 238.2 258.5 275.4 291.9 311.4 320.9 329.1 337.6 343.4
814 788.2 763.7 738.6 712.9 687.9 669.3 656.3 635.9 618.8 601.8 587.1 573 560.7 544 530.3 518.4 506.1 493.2 489.3 483.5 469 464.4 458.5 451.6 441.8 431.7 422 409.6 399.9 390.5 380.2 375.8 371 365.7 354 350.3 339.3 330.8 325.6 319.6 314.6 310.3 307.1 300.5 297.4 295.2 293.7 292.7 289.3 288.2 286.6 291 300.8 311.1 318.6 333.7 339.5 349.5 359.1 370.1 381.3 389.9 400.1 407.4 416.9 425.7 430 438.5 446.9 453.8 460.3 466.4 471.9 476.1 480.9 489.1 497.5 503 502 502.7 507.6 508.5 497.3 492.6 489.1 480.5 474.7 470.5 454.5 448.5 440.5 423.7 418.3 408.7 399.4 390.3 379.4 375.7 363.8 355.5 345.6 338.2 324.8 314.8 306.4 296.8 291.8 280.8 269.8 259.7 253 245.5 239.8 231.3 227.9 220.6 217.7 211.4 220.9 222 220.6 224.7 222.3 221.1 220.8 222.6 223.9 224.1 222.3 221.2 222.2 223.4 220.2 225.7 224 226.6 228.8 229.6 230.7 230.4 232.4 230.5 237.1 239 237.6 238.9 240.3 240.5 241.2 239.3 236.5 236.5 233.1 231.8 237.8 232.5 228.4 227.8 221.3 215.7 218.3 214.2 206.6 199.3 195.3 190.5 187.8 176.4 177.8 176.6 172.8 168.1 166.7 165.2 162.9 163.1 164 168.5 168.3 174.2 176.4 175 182.4 201.9 217.4 226.1 240.6 247.5 258 262 267 267.6 292.4 307.4 318.2 327.9 336.8 341.8 350.6
799.4 783.5 763.9 744.5 711.5 697 674.2 645.4 629.8 610.8 597.7 579.3 564.1 547.4 533.7 524.4 515.6 506 493.8 476.8 468.4 461.6 450.9 447.4 441.9 428.5 419.5 409.8 399.8 387.8 382.1 372.8 363.7 361.5 353.7 349 338 330.4 324 318.8 313.6 309.5 306.5 301.4 298.5 295.5 293.3 290.7 290 288.2 287.1 290.5 299.2 310.4 317.2 328.4 338.1 350.5 361.7 371.8 386.3 396.8 405.9 412.4 420.1 427.8 435.7 442.4 446.9 452.8 460.1 466.7 471.5 477.9 482.3 488.9 494.3 495.8 496.1 490.6 491.9 493.6 490.4 484.7 476.4 470.7 462.1 453.2 446.4 436.2 432.7 422.7 411.8 405.9 392.1 385 368 363.5 356.1 348.4 335.4 330.8 321 308.9 300 293.3 284.1 280 269.4 258 247.1 238.6 234.4 225.5 227.6 225.7 226.9 232.7 233.4 236.7 236.1 237 235.6 233.7 230.8 233.3 235.9 238.3 238.8 238.5 236.1 237.7 238.5 235.5 240.9 237.4 237.9 239.8 239.3 240.7 245.3 247.8 241.1 249.2 250.5 252.7 253.3 255.4 259.6 255.6 249.7 248.1 246.3 245.7 248.3 250.1 245.8 241.1 234.2 238.1 235.5 230.5 226 219.8 214.5 210.6 205.1 199.8 191.3 188 184.8 184.7 183.4 180.6 183.9 185 189.3 188.1 188.9 183 188.6 187.2 187.1 188.1 210.9 230 244.8 258.4 273.2 288.5 287.2 293 297.4 297.2 314.7 323.3 335.2 341.8 347.2 355
793.6 777.2 760.6 734.8 707 685.5 660.6 638.7 623.9 606.5 588.8 568.2 550.2 540.9 527.3 520.4 512.2 500.9 485.9 474.1 462.6 445.8 433.3 434.5 427 418.4 409.4 397.5 388.5 378.4 370.8 360.7 355.1 350.6 346.2 340 331 325.2 318.9 314.4 311.1 306.1 302.4 298.4 296.2 294.1 292.6 290.2 291.1 288.7 289.9 300.7 308.9 318.3 327.4 338.7 352.5 363.2 376.7 389 401.5 413 418.8 426.1 430.7 437.4 443.6 451.5 454.9 460.4 466.8 472.5 478.2 484.2 487.1 488.4 491.1 489.6 485 479.8 474.1 478.5 477.5 463.5 456.2 447.8 444.1 434.1 428.1 424.4 410.1 407.7 394.4 388.9 379 368.4 356.9 348.2 339.9 330.7 320.9 315 304.5 293.2 285 278.5 275.7 266.4 257.7 243.3 232.6 233 232.6 238.9 242.2 241.4 242.2 243.7 246.6 245.9 248.4 248.6 248.1 249.7 245.6 248.5 252.4 254.7 252.2 253.9 252.4 252.4 251.1 248.2 251.6 253.2 251.4 252.7 253.9 254 256 258.6 251.1 259.3 263.3 263.5 267.2 271.1 268.6 266.8 264 262.5 264.5 264 258.8 257.6 257.4 252.3 252.3 253.3 254.4 247.2 237.9 229.1 230.1 228.3 221.8 212.1 209.2 203 197 197 199.1 197.8 204.7 209.2 215.5 210.5 205.5 201.1 201 206.5 204.3 201.4 216.9 245.7 264.6 282.6 291 298.6 300.2 304.5 314 319.7 316.3 321.1 335 343.1 345.7 354.2
787.9 772.8 749.2 718.2 699 677.8 661.7 644.2 622.5 608.1 587.3 566.4 549.1 537.8 527.3 517 505.6 493.3 485.9 474.2 460.6 444.2 427.3 412 416.3 405.6 396.8 389.1 381.1 370.2 360.2 354 348.8 342.1 340 336.7 328.7 322.3 317 312.3 308.3 303.2 298.9 297 295.1 294.3 292.2 291 290.2 291.9 298.6 306.1 317.9 328.5 336.9 351.9 365.4 377.5 390.4 405.9 416.3 424.2 431.1 435.6 443.3 447.4 452.9 458.8 465.2 470.4 473.9 479.2 482.2 485.1 486.1 486 483.9 478.4 475.2 471.8 464.4 464.2 459.3 446.6 438 430.9 428.1 417.1 411.2 403.6 393.7 388.8 382 368.6 359.2 349.2 339.5 331.3 321.1 314.5 305.7 295.7 288 278 270.2 264 256.9 250.4 242.5 237.7 242.8 246.2 248.4 253.1 253.2 251.2 253 253.6 255.5 256.7 257 260.4 261.2 262.3 262.8 263.6 266.3 268.3 266.4 268 264.9 268 266.6 264.5 267 266.4 265.4 266.9 264.9 267.7 269.4 269 266.6 271.3 276.5 276.1 279.9 281.4 279.5 276.8 273 268.3 272.8 269.6 266.8 272.4 273.1 265 269.6 271.2 271.6 267 256.7 246.5 245.8 242.3 235.8 229.1 221.5 220.5 216.7 217.9 222.7 223.6 228.5 231.8 232.7 231.7 231.7 221.6 218.9 223.8 215.3 222.2 236.8 245.8 269.8 288 304.5 316.9 308.1 315.2 326.3 330.7 330.7 325.6 335.5 343.7 346.2 353.6
780 763.1 735.6 710.2 692 676.4 657.5 637 621.3 609.8 585.2 563.4 545.1 533.6 526.4 518.2 508.3 498.1 483.3 467.4 452.1 442.3 425.8 414.5 400.1 386.6 391.9 383.8 372.6 364.6 353.3 352 347.7 340.2 332.8 328.6 322.5 318.3 314.4 310.6 306.3 302.1 299.1 296 294.5 292.6 291.4 290.3 292.8 297.9 304.9 315.7 327 336.4 349.4 367.5 379.9 392.3 408 418.1 428.1 435 443 449.5 453.8 457.6 460.8 466.4 472.1 476.1 480 484.2 487 486.5 482.3 480.8 474.9 476.1 466.9 453.2 448.9 448.2 447.1 433.8 419.1 415 405.8 398.1 398.1 383.6 377.6 370.3 359.6 347.5 341.9 329.8 323.2 314.2 305.4 297.5 289.4 282.7 273.6 264.6 258.4 251 248.4 249.1 253.8 253.1 254.9 261.4 263.5 264.1 266.4 264.5 264.4 267.6 268.4 271.5 273.2 274.6 278.4 278.2 278.5 279.6 280.7 281.8 280.1 282.3 279.8 280.4 280.3 281 280.5 279.6 278.7 279.7 280.6 282.6 282.8 285.2 279.2 284.8 286.9 289.7 294.4 292.5 292.2 289.7 283.5 278.2 277.5 277.6 276.9 281.7 281.2 278 280.9 285.9 284.1 276.8 269.3 263.7 259.9 254.7 242.9 239.9 237.7 237.3 237.9 237.8 240.6 248.1 254.6 258.4 266 257.6 251.2 243.4 245.8 247.1 234.8 244.3 257.2 268.5 273.8 287.3 306 321.3 322.5 319.2 332.1 336 335.8 334.1 333.4 337.6 345.3 354.4
775.2 750.9 726.3 707.1 686.3 671.7 655 636.3 620.4 600.7 575.5 557.8 543.6 533.7 524.5 512.9 508.4 498 486.3 471.8 457.4 442 428.7 412.9 397.5 384.8 367 375.1 363.4 357.4 353.1 347.2 340.2 336 328.2 322.5 318.5 314.9 311 307.5 304.6 302.6 298.6 296.2 294.8 294.8 291.4 294.1 299.3 304.5 313.4 326 336.2 350.8 365.2 383 395.3 409 422 431.6 441.1 450.1 455.3 459 462 465.1 469.7 474 477.9 486.1 489.4 491.5 489.5 483.9 479 478.4 470.3 466.5 457.3 443.7 431.7 436.2 427.9 417.4 400.9 390.3 385.6 381.9 375.4 367.1 357.8 349.8 342.5 333.2 321.8 312.6 304.1 297.7 291.7 284.2 276 261.1 264 263.1 263.2 265.2 265.8 266.1 268.9 270.3 275.5 276.3 279.6 280.6 279.8 278.9 278.6 282.5 284.7 286.7 291.2 291.5 295.1 294.1 292.9 292.6 292.7 295.4 297.1 297.8 295.8 296.8 294.6 294 295 295.2 297.5 296.7 300.5 297.9 297.8 298.5 292 298.5 302.3 304.4 306.8 307.4 306.1 299.5 292.9 291.9 287.3 293.8 288.2 289 290.6 288.6 288.9 289.8 290.8 287.6 284.1 281.4 276.9 263.9 259.1 259.6 257.1 258.3 258.2 263.4 265.6 267.5 264 267.9 270.7 269.1 266.7 263.5 260.6 263.9 260.5 267.1 276 280.8 290.2 288.6 303.6 322.1 328.5 323.5 330.8 340 340.7 336.2 335.6 338.3 343.3 352.9
757.5 733.3 715.8 697.9 681.9 666.9 651.9 632.6 618.2 599.1 582.9 562 550.7 539.6 529.3 521.5 511.2 501.7 488.8 471.6 458.3 439 424.2 409.1 394.9 384.7 372.3 361.2 353.4 349.3 343.9 341.2 332.7 329.9 325.2 320.1 317.6 313.6 310.4 306.9 303.7 301 299.2 297.1 294.9 292.8 295 298 306.3 315.1 327.3 337.3 350.9 366.5 382 398.7 412.1 424.5 436.4 444.6 453.2 461.8 466.1 470.3 472.9 475.2 479.8 483.7 487 491.5 495.8 493 492.1 489.8 477.4 470.2 461.7 456.2 449.7 429.8 419.4 417.8 407.9 392.8 381.2 371.3 364.2 362.2 354.7 350.7 335.7 327.7 320.3 314.1 305.6 297.1 289.6 281.2 278.1 273.2 273.9 273 277 277.2 278.1 278.4 281.1 284.5 289.2 292.3 294.8 292.3 294.9 296.5 293.9 296.3 296.3 299.6 301.1 305.3 306.9 309.4 312.1 309.1 309.7 307.6 308.6 310.3 313.2 312.3 314.1 312.8 310.9 310.2 312 310.7 310 311.7 312.9 316.9 313.9 314 307.9 312.4 314.9 316.5 320.4 320.2 314.6 313.1 307.3 301.9 299.1 299.5 303 302.2 305.2 300.9 299.4 301.4 298.9 297.6 296.3 287.7 283.2 280.4 279.6 279.3 279.2 284 284.1 282.6 285.2 283.7 278.2 280.1 285 275.5 278.6 276.5 271.5 273.7 273.2 281.6 291.9 301 310.8 307.3 298.3 317.4 330.2 326.7 332 335.2 338.3 338.2 337.4 337.3 343.9 351.4
734.8 719.3 709.3 695.2 676.3 660.7 648.1 633 620.7 601.9 591 581.5 557.2 546 536 525.9 514.2 500.5 482.7 465.4 448 432.1 417.5 405.1 390.8 379.8 369.5 355.2 349.1 341 334.2 330.7 330.6 324.7 321.5 317.8 315.5 309.6 307.9 306.1 303 301.3 298.8 295.8 294.4 297.7 300.2 305.7 317.3 327.6 341.5 352.5 367.1 384 398.3 413.2 427.8 439.8 449.4 458 465.6 471.5 475.2 480 480.5 481.8 484.7 490.5 494.1 495.4 497 495.5 493.9 490.5 481.1 469.8 455.3 443.9 433.3 419 407.6 396.3 383.2 372.3 360.6 348.1 346.2 339.3 331.8 326.5 316.3 308.8 304.8 297.9 298 295.1 294.6 292.8 290.4 290.4 288.4 287.2 291.6 292 295.1 298.3 303 305.9 308.2 308.4 309.3 310 312.7 312.1 311.7 311.8 312.7 317.4 320.4 324.3 323 325 326.6 324 327.5 327.1 326.2 328.5 328.4 330 330.6 332.7 329.5 326.6 326.6 326.2 325.5 325 326.2 331.3 331.1 326 324.4 326.5 329.5 329.8 331.6 329.8 332.6 323.7 316.8 313.6 312.5 313.8 315.4 317.1 313.2 315.2 314.1 311.5 310.2 308.9 307.3 305.1 300.6 303.2 299 300.8 295.2 299.2 301.6 296.4 300.4 297.6 295.8 298.4 293.3 289.5 290.4 285.7 280.8 275.1 273.2 280.1 286.7 294.7 307.3 320.7 323.1 311.8 317.2 324.4 323.7 331 334.9 336.6 336.2 334.8 338.4 345
724.3 714.3 704.7 694.3 681.2 664 645.7 633.2 618.6 605 593.2 580.8 566.5 553.3 537.9 525.4 513.4 498.2 481.9 463.2 447.8 432.3 415.6 400.6 386.8 374.1 365 352.2 340.5 334.3 331.6 326 326.4 323.8 322.3 315.2 310 307.5 305.6 303.8 301.8 301 298.9 294.9 296.8 302.7 308.1 316.4 327.8 340.9 353.8 368.9 383.7 400.3 416.6 429.1 443.3 455 465.9 470.7 477.3 481 481.6 486.2 488.2 489.6 492.3 498.2 500.3 499.1 501.1 499.6 494.4 490.7 484.2 470.2 456.7 435.4 421.9 414.7 408.5 402 390.9 376.9 373 364.8 355.8 348.1 341.1 334.9 329.5 323 319.5 317.3 317.7 312.4 309.9 309 307.8 307.5 304.8 303.4 308.7 311.3 313.6 316.2 320.1 322.4 322.5 324.9 327.9 327.2 327.7 328.2 330 331.6 331 335.6 336.6 342.6 340.1 341.4 340.5 345.4 347.6 344.8 351.4 348.8 349.1 350.4 350.8 347.6 345.6 344.2 345.1 344.2 342.6 342.8 337.5 334.7 340.8 341.4 339.3 340.3 348.4 341.8 340.9 342.6 346.5 337 331.5 330 332.6 331.5 333.4 331.3 326.1 329.3 327.5 325.8 323.7 322.8 323.3 319.6 318.9 316.5 315.8 318.4 319.4 316.9 313.1 309.8 310.8 309.5 312.2 311.6 302.2 296.9 289.9 285.2 280.6 275.9 274.5 280.6 281.8 286.3 299.2 309.8 329.7 329.2 332 323.2 320.9 325.6 331.4 336.5 333.9 334.6 349.4 357.5
719.5 710.2 702.6 692.8 680.4 669.8 652.6 637.4 623.1 609.1 596.1 582.3 568 550.6 533.4 516.3 504.1 487.5 476.2 457.3 445.9 427.9 414.5 397.4 384.5 373.6 358.3 346.8 338.3 333.1 327.4 323.8 322.4 320.5 318.4 311.8 308.9 306.9 303.8 302.5 300.3 299.6 296.3 298.2 303.1 309.6 314.8 326.5 341.7 351.3 369 384.7 401.8 417.8 432.4 446.6 462.2 472.8 480.1 485.2 486.7 487.8 490.7 493.4 497.8 500.8 496.9 500.7 500.5 502.6 503 500.3 501.4 485.1 478.8 477.5 465.1 454.8 446.1 433.1 429 415.9 407.4 400.2 391.4 382.6 372.8 363.5 357.2 353.3 348.5 345.7 338.8 336.8 333.2 330.4 326.8 325.8 324.5 324.5 321.4 320.6 328.3 331.5 332.8 334.7 336.6 340 341.1 340.6 340.3 343.3 343.8 346.6 349.4 355.2 352.5 359.7 355.4 357.8 355.6 358.9 360.6 367.2 367.1 368.8 371.3 374.8 370.9 369.5 367.3 367.3 367.4 368.4 367.6 369.2 366.7 362.3 357.2 349.7 350.7 346.7 350 353.8 358.5 352.8 356.4 358.5 356 352.6 350.9 353.2 347.4 343.1 344.6 348.2 343.1 339.2 337.2 334.4 335.9 340.6 338.4 335.1 329.2 328 334 336.7 332.9 332.7 334.1 328.9 328.4 327.8 325.6 325 315.2 311.9 301.4 294 287.5 279.4 277.2 276 276.8 282.4 290.1 301.8 321.1 333.7 338.7 343.5 340.5 332.3 327.8 331.1 332.6 335.9 348 358.7
719.4 707.1 695.9 687.8 675.6 660.9 646.8 633.8 621.5 607.6 590.9 573.1 562.7 550.7 534.9 514.9 496.8 483.5 472.9 457.5 438.5 423.2 412 396.9 382.4 370.1 360 345.1 336.1 329.1 323.5 318.8 314.1 317.2 315.1 311.1 306.9 307.3 302.8 299.8 298.6 296.9 298.4 302.6 307.4 315.6 325.9 338.7 352.4 367.1 387.3 403.4 419.7 435.8 451.3 467.2 481.1 492.7 501.1 502.5 501.3 501.2 502.2 502.9 503.2 500.9 501.7 503.2 507.8 506.5 503 506.6 505.6 502.4 500.6 494 483.7 469.9 457.1 450.8 442.3 438.4 430.7 424 415.2 401.7 392 383.9 379.2 373.9 369.9 364.6 358.1 354.4 348.3 347.2 344.6 344.7 343.2 343.6 341.6 340.2 346.2 348.6 352.4 355.1 355.4 356.3 357.7 357.6 360.7 363 363.4 370.4 370.7 372.2 373.9 374.3 375.1 373.7 372.6 378.1 379.8 382.7 389.6 394.8 394.9 393.3 393.9 389.8 396 397.1 397.5 405.6 401.4 397 396.3 394.6 390.6 379.8 369.1 365.7 360.5 361.7 368.1 368.5 368.5 372.6 371.7 369.5 368.5 365.6 364.5 364.1 363.3 360.3 357.5 353.4 352 346.4 350.1 350.1 348.8 343.9 342 340.6 345.1 344.3 343.2 348.2 356.9 354.5 347.8 351.3 353.8 348.3 332.6 315.9 308 305.9 299.8 285.2 279 277.5 279.8 285.2 295.8 306.6 322.6 332.6 338 348.1 347.9 346.2 334.2 327.7 331.4 344.5 355.3 357.8
716.3 702.4 695.4 683.9 672.9 657.8 642.8 631.9 618.9 604.7 585.3 570.1 552.7 537.5 523.9 508.1 490.9 475.7 460.8 446.4 433.7 422.3 410.8 393.5 381 368.7 356.3 341.8 339.1 328.9 325.8 318.3 308 311.5 310.7 305.7 302.5 300.2 300.4 299 297.5 297.4 301.4 306 315 326.4 340.4 353.1 370.4 386.1 404 422.8 438.3 454.5 471.4 486.3 500.2 512.5 518.7 517.6 515.2 514.4 510.9 509.3 507.2 504.1 503.6 505.5 506.4 510.4 509.7 512.2 513.2 511.7 513.9 507.1 500.3 493 476.7 468.7 460.7 454.2 451.2 441.9 435.1 421.3 409 403.3 399.5 396.1 391.5 386.3 380 376.7 371.1 367.8 366.6 366.8 367.4 365.1 361.7 359.6 363.9 368.2 372.5 373.8 376.3 379.5 376 378.8 379.2 384 388 390.4 390.6 394.5 391.6 391.2 391.8 397.5 391.1 397.5 398.7 406.2 416.1 417.9 408.1 410.4 410.2 412 415.7 421.5 427 425.8 428.3 427.5 424.1 422.4 411.9 408.2 393.4 380.5 371.8 370.3 376.2 384.8 383.3 381.8 383.6 388 387.8 392.4 391 384.9 375.6 371 372.1 368.8 366 361.5 363.5 362.1 359.9 353.8 359.2 360.2 358.6 359.4 359.1 361.2 362.7 363.7 365.2 365.6 365.1 356.4 345.9 327.1 317.1 302 298.5 293.7 283.1 283 284.4 287.2 297.5 305.2 320 330 334.1 345.3 350.4 350 342.1 329.5 333.2 344.5 356.8 361.9
732.8 705.1 687.7 683 659.4 652.8 637 632.2 619.3 599.8 579.7 568.1 548.1 534.5 519.2 500.6 490.8 473.3 454.6 443.2 432.4 419.2 403.6 389 375.7 365.1 352.1 341.1 332.4 325.8 321.3 316.8 306.2 307.7 307.8 304 301.8 299.8 297.5 297.1 297.6 299.9 306.3 315.7 325.8 337.9 354.1 370.1 386.9 402.4 423.3 441.4 457.1 474.8 491.8 507.6 519.9 529.7 537.5 538.6 530.5 526.5 520.2 516 511.4 511.3 509.8 514.3 514.8 515.8 517.5 519.5 522 523.9 525.3 519.8 516.5 510 498.7 490.8 486.1 479.5 469.3 459.8 446.9 438.8 430.2 424.5 423.8 421.4 412.6 409.3 404.8 400.9 397.1 391.6 388.8 389.2 388.5 384 381 380.4 383.3 387.7 390.6 391 394.5 396.8 395.6 399.2 397.2 404.1 410 411.7 406.3 405.7 410.2 407.4 411.7 408.1 409.3 414.6 416.6 420.3 424.7 425.8 418.5 416.3 419.1 424.4 430.5 435.6 444.7 451.4 451.5 446 437 428.3 421.4 405.5 396 388.1 383.7 381.1 383.5 394.7 390.8 395.9 401.4 405 410.6 420.3 420.4 412.7 398.8 389.1 385.8 383.4 373.9 373.1 372.8 375.5 371.9 369.7 369.1 371.6 373.8 369.2 369.8 370.4 371.4 370.2 370.1 372.2 369.9 358.5 344.7 335.1 322.2 311.4 296 290.5 288.3 286.2 287.7 289.7 295.4 305.7 314.4 329 336.6 345.9 348.9 350.2 347.8 342.2 341.1 343.4 358.9 367.1
730.9 712.3 696.6 686.1 669.9 649.9 634.2 614.3 605 588.6 570.9 558.1 539.5 523.2 511.6 496.2 483.2 466.8 453.8 435.7 428.1 413.9 401.5 385.1 373.6 359.7 349.9 340.7 330.5 326.2 319.1 310.7 301.9 301.1 303 302.5 301.2 299.7 298.8 298.7 301.6 307.9 318.4 327.6 338.8 351 368.1 386.9 403.2 422 441.5 459.6 477.4 495.8 513.9 527.9 540.6 550.8 557.5 556.7 549.4 549.4 538.6 534 532.3 528.9 529.9 529.6 529.6 531.5 529.9 533.7 533.4 532.7 535.9 536 543.3 538.1 518.9 510.6 505.6 504 492.6 470.6 464.1 460.1 455.3 450.1 445.4 439.2 435.5 429.6 426.7 423 419.8 414.1 410.3 408.3 406.5 402.1 400.3 398.1 403.6 406.7 405.7 405.9 410 411.8 412.6 417.1 419.9 423.9 427.4 425.4 425.3 426 423.9 421.7 422.3 420 425.5 423.8 427.8 428.7 433.1 434.6 438.9 433.2 434 440.8 446.2 452 457.2 465.7 470.6 461.3 457.3 446 436.4 417.6 400.1 389.9 391.3 393.2 397 401.8 407.7 414.3 416.5 419 423.8 427.5 424.8 421.9 412.3 403.2 395 390.6 383.4 385.9 386.2 385.1 381.7 379.7 376.6 380.3 378.1 374.3 374.5 376.2 375.9 373.6 371.6 370.4 365.7 351.3 337.4 335.2 328.6 318.4 303.5 299.5 301.1 298.5 295 300.2 302.1 309.8 316.6 334.3 349.7 357.2 360.7 359.3 361.9 363 358.4 359.3 363.7 372.8
733.6 718.8 707.8 696.2 679.4 654 640 628 609.5 596 583.7 565 546 530.8 518.8 502.6 484.1 468.5 450.3 431.9 408.6 403.7 391.1 377.1 362.8 354.4 341.5 334.9 327 321 316.1 310.3 300.7 294.9 298.5 299.9 298.6 297.5 298.5 299.7 307.1 316.5 326.3 339.7 354.2 369.1 386.5 403.2 421.9 443.3 461.9 481.2 497.8 516.1 532.7 550.9 564.4 574 581.6 584.2 582.3 581 580 578.1 569.2 564 559.3 557.8 549.7 542.3 539.7 542.8 547.1 548.5 554.5 562.2 563 557.2 545.6 533.4 524.1 518 508.6 489.9 485.9 483.1 477.7 472.2 466 461.4 455.5 452.3 446.9 439.9 437.7 433.2 428 421.9 419.9 417.1 416.7 414.1 420 419.1 420 424 426.5 426.6 432.4 433.4 434.1 437.6 439.1 436.9 439.4 436.6 443.3 436.9 434.6 432.8 436.9 435.8 439.5 448.8 456.1 457.2 457.5 453.5 449.2 456.5 460.6 467 473.3 470.6 466.3 462.8 463 449.5 438.9 431.1 401.5 391.9 400.9 402.1 407.7 417.1 425.5 428.8 430.2 432.2 431.8 440.7 438.6 431.3 420.7 409.6 402 393.4 391.4 394.1 394.9 390 388.6 385.8 387.8 383.3 381 380.3 380.1 379.8 377.1 373.9 369 373.1 360.2 346.8 335.4 335.1 327.3 315.3 309.3 304.3 304.2 304.7 302.7 302.9 308.9 315 321.1 329.9 343 355.9 364.7 370 371.5 366 367.1 368.5 371.9 371.2
750.3 736.4 717.8 706.3 697.8 668.9 642.2 631.3 610.2 595.8 577.6 562.2 543.1 531.6 518.4 499.6 482.4 465.3 447.8 432.6 417.6 401.2 388.8 374.6 362.4 350.7 339.7 329.3 318.2 312.9 308.7 305 296.7 291.9 295 295.7 295.5 295.7 298.1 303.2 315.3 325 338.1 354.3 369.5 385.7 401.7 418.4 439.9 461.4 480.5 498.6 518.1 537.8 554.4 572.2 586.8 600.2 611.5 619.2 623 613.9 618.4 616 617.1 616.5 614.8 601.7 581.1 568.9 561.6 560.8 562.5 566 573.7 579.4 579.4 574.8 564 550.8 540.8 532.8 522.8 517.5 510 502.8 499.6 497.7 485.8 479.1 472.4 467.8 461.6 456.2 449 443.8 444.1 437 435.6 429.2 430.2 429.2 429.7 432 436.3 435.9 440.7 439.9 443.7 445.4 448.8 447.2 452 449.2 451.8 455.3 455.7 447.8 447 448.4 452.3 455.9 460.2 462.3 470.3 471.7 481.4 475.6 469.4 467 475.7 480.4 483.1 483.5 477.7 474.3 469.5 457.9 446.3 438.2 419.9 405.5 406.3 414.7 422.1 431.3 437.7 443.1 446.9 447.3 441.3 450.4 447 437.6 431.1 417 406.2 399.3 399.3 399.5 398.9 394.9 389.5 391.3 394.4 395.4 386.1 382.5 382.5 381.5 378.3 375 366.5 357.8 350.8 336 332.5 332.7 322.1 310.3 307.4 304.5 301.9 300.9 299.8 301.7 307.9 317.3 322.2 323.8 336.9 353.9 366.3 368.7 368.1 372.5 369.6 377.8 379.3 380.9
768.7 757.6 741.2 723.2 703.4 688.3 663.2 631.9 612.1 598.3 582.4 563.1 542.1 526.7 509.8 490.6 473.4 460.3 443.1 427.1 410.9 394.7 382.4 370.6 359.3 346.7 334.1 327.6 316.3 309.1 302.2 300.1 288.3 291.4 293 292.1 291.5 293.8 301.4 312.7 325.3 335.5 349.7 365.2 382.2 398.9 417.7 437.5 461.4 479.3 497.2 519.7 541.2 560.1 579 597.7 613.7 628.4 640.9 652 660.2 669.2 674.4 669.4 672.5 673.9 656.7 636.3 623.9 605.5 597.8 594.4 590.7 590.8 600.6 602.7 597.5 583.4 576.5 570.7 561.2 553.9 546.7 538.6 532.6 520.5 515.5 509.9 505.5 494.4 488.5 480.1 474.9 465.6 459.6 457.2 454.3 450.9 445 441.7 437.6 441.1 444.3 445.4 446.9 448.6 450.1 452.5 456.7 458.7 459.5 459.4 462 462.4 467.7 467.8 469.6 458.2 464.6 464.3 473.3 478.6 475.7 484.8 486.4 493.4 491.4 490 487.5 485.3 491 497.6 498.6 495.9 490.9 486.3 474 467.6 460.9 446.2 430.6 422.6 420.3 428.6 436.2 445.1 451.1 459.7 467.5 468.8 454.7 450.9 450.4 445.4 436.1 423.7 412.3 406.3 404.6 402.6 397.5 397 395.4 394.6 396.9 400.4 391.8 382.4 381.9 378 373.2 373 362.3 350.5 332 326.4 324 323.7 314.3 302.3 301.9 300 297.5 295.3 294.5 300 309.5 315.4 319.1 320.1 330.6 343.9 359.1 366.3 366.5 373.2 374.1 378.6 384.2 384.9
765.8 755.2 740.2 721.1 700.5 684.4 667.4 646.7 615.4 598.7 579.7 559.7 541.3 524.5 508.1 494 475.5 455.4 437.1 421.8 402.7 385.6 373.1 362.3 351.7 340.3 329 320.8 311.7 305.1 298.7 290 283.8 289.3 291.1 290.1 291.5 296.4 309.2 322.7 335 347.8 362.2 378.5 394.8 415 432.9 458 478.1 498.1 520 540.9 562.7 585.2 603.5 623.5 640.2 655.8 672.1 685.2 695.3 705.5 709.2 706.5 701.7 697.9 691.6 677 668.1 652 641.3 630.1 631.2 630.8 627.5 624.3 614.3 603.4 594.5 584.2 584 571.2 563.2 554.6 543.7 536 530.6 525.9 516.3 507.7 500.2 493.2 486.9 481.3 475 471.8 462.9 458.8 453.6 455.1 449.6 454.3 453.3 455.7 459.6 459.9 463 464.6 466.3 469 473 476.6 476.7 478.5 482.9 484.8 480.6 474.2 472.5 479 483.4 490.4 496.2 499.5 499.3 505.5 509 509.1 500.7 502 511.8 517.6 518.4 513.5 509.8 510.9 487.4 474.8 472 454.2 449.3 442.8 439.2 440.1 449 464.7 475.6 477.5 487.9 489.1 471.1 458.1 461.1 452 443 433 425.1 416.7 412.8 411.2 401.9 401.8 399.2 397 395.4 399.4 394.8 384.2 380.3 375.9 371.3 366.9 347.8 333.7 327.6 326.6 321.7 313.2 305.8 299.1 295.7 293.6 289.6 288.4 289.3 294.4 301.5 306.9 313.6 316.2 322.3 335 339.7 346.7 361.7 371.4 374.2 378.6 384.7 387.4
757.4 745.4 731.1 708.7 688.2 671.2 653.7 632.7 610.8 588.7 568 546.7 529.6 514 500.8 485.3 468.4 448 429.5 411.3 391.8 375.4 367.8 355 343 332.4 322 314 306.5 302 297.5 293.6 285.1 289.2 288.4 289.6 295.8 304.7 317.7 334.1 347.8 360.3 375.9 392.5 409.8 428.8 452.1 473.7 496.8 519.9 541.2 560.8 585.1 608.1 629.1 648.9 668 686.7 700.7 710.7 724.8 725.8 729 724.4 719.9 712.4 704.7 696.3 685.2 669.9 656.1 648.1 644.6 642.5 640.2 638.8 628.2 618.8 609.2 604.4 596.5 589.8 582.6 574.4 560 550.2 541.9 535.8 531.2 522 515.3 512.6 508.9 499.5 492.4 485.6 475.8 471.7 465.6 463.5 459.9 460.7 463.8 467.4 466.3 469.4 472 475.5 477.8 477.8 481.6 482.9 489.2 493 497 499.5 489.7 489.6 489.3 496 493.8 500.5 506.2 506.5 511.9 521.5 523.6 517.7 514 521.7 527.6 533.6 537.3 536.7 527.2 522.6 506.9 494.7 485.4 472.4 465.9 463.1 460.2 461.1 473.3 486.5 496.3 500.4 501.6 499.5 482.9 475.9 462.4 451.3 446.1 436.6 433.6 429.4 422.2 411.8 410.4 403.7 402.2 394.4 392.8 390.6 387.3 381.2 368.2 366 365.1 351.7 332 328.1 326 327.7 322.6 311.8 304.6 295.3 286.2 284.9 278.3 276.9 281.8 286.8 294.1 300.9 307.2 311.5 316.3 328.8 334.3 339.4 360.3 365.9 370.6 376 380.6 384.4
743 725.3 704.5 687.1 670.5 650 633.2 614.5 593.8 572.2 552.6 532.7 517.3 501.8 488.3 470.7 450.9 435.4 416.9 396.9 381.2 372.5 353.7 338.7 328.8 320.4 313.4 308.7 301.4 297.7 294.7 290.7 282 284.1 288.4 292.9 301.6 314.1 329 343.7 358.3 372.8 388.7 405.7 425.9 448.1 468 490.3 513.7 536.9 560.9 584.5 609.7 630.7 652.4 674.2 697.5 716.6 731.7 742.3 749.1 746.3 740.9 735.6 728.7 718.5 710.5 694.6 685 666.2 657 651.3 646.5 646 649.9 652.5 650.3 647.6 638.3 625.6 616.5 609.8 605.6 603.6 592.4 571.4 562.2 556.8 546.5 540.9 534.1 526.4 523.8 513.6 504.9 492.4 486.4 475.3 470.7 465.8 465.4 468.9 471.7 473.3 475.7 479.3 481.4 483 486.2 488.9 489.3 492.2 497.2 501.2 505.5 502.8 501.9 503.1 503.4 506.3 514.1 515.3 521.7 535.4 537.6 536 534 533.1 536.8 537.6 547.4 555 561.2 559.2 549.2 548.8 535.8 526 520.3 516 504.3 493.8 495 496.7 502 510.5 518.6 519.2 511.6 502.6 485.9 478.7 467.9 462.1 448.7 439.9 431.2 429.2 422.4 415.9 411.9 407 397.2 393.7 393.3 383.5 378.5 375 365.8 357.9 357.8 344 324.1 318.8 319.4 319.5 313 309.9 302.1 293.9 283.6 274 266.9 271.5 276.7 281.5 288.5 296.7 302.3 307.8 310.6 316.8 327.3 332.6 347.2 370.7 372.2 379.4 382.3 380.1
718.6 698.3 679.9 664.3 647.6 628.1 610.7 589.3 569.8 550.7 532.7 514.4 500.2 482.8 466.7 452 437.3 415.5 398.6 382.3 374.2 351.8 340.7 332.9 323.3 314.2 305.8 299.3 296.9 292 286.6 284.4 279.4 283 288.4 299.3 309.3 324.5 337.2 354.2 370.6 387.3 401.5 418.9 439.6 462.5 483.2 507.4 528.9 554.8 581.7 606.8 631.8 652.8 675.8 700.2 722.6 738.9 751.8 760.6 761.3 753.1 745.8 739 730.8 718.3 705 690.6 672.8 662.9 653.6 647.4 645.4 649.5 649.8 658.6 666.4 669.8 670.6 662.5 654.9 651 646 636.6 621.8 598.6 579.1 574.6 562.7 556.5 547.8 537.6 531.7 518.9 508.7 499.5 486.8 474.1 471.1 466.2 468.6 469.7 472.4 476 480.9 484.9 488.3 489.5 491.9 495.7 496.2 501.6 505 511.1 516 524 519.2 528.4 531 537.3 542.6 544.6 555.6 566.2 565.8 564.5 567.9 571.7 571.9 577 579 585.1 594.7 594.2 586.1 578.7 568.9 565.2 578.3 596.2 587.8 565.7 550.9 546.2 544.1 546.5 546.7 543.3 525 509.9 496.3 486.1 475.9 474.1 460.8 449.1 441.5 435.3 431.5 424.8 414.8 410.6 396.4 391.2 385.9 375.8 366.5 361.1 359.2 346.6 337.9 331 316 310.8 306.8 303.5 299.4 295.7 291.1 284 274.3 264.3 260.9 265.5 270.5 275.5 282.8 290.4 296.9 302.6 306.1 313.7 320 318.2 340.4 367.6 372.9 379.3 384.6 381.7
693.4 675.5 660.1 642.6 624 603.5 587.9 569 549.5 530.8 513.5 494.8 477.2 462.5 450.3 431.5 413.4 397.2 385.4 368.9 352.3 337.3 329.7 322.4 314.1 305.9 299.5 292.8 289.2 288.6 285.1 280 276.5 286.6 293.4 307.6 320 332.4 346.9 364 380.7 398.5 413.6 434.3 456.3 476.4 497.2 519.8 545.7 573.9 599.6 627.1 652.9 679.5 705 727.9 744.6 756.7 765.5 769.8 765.7 756.7 749.6 736.9 725.2 709.3 690.8 680.9 666.7 653.9 643.5 644.3 644.3 642.7 644.6 649 661 673 694 700.5 698.1 690.5 685.1 676.4 658.5 626.9 599 580.8 569.3 563.5 552.8 544 535.3 521.1 511.8 502.9 492.8 479.2 467.8 465.6 465.4 470.2 473.1 477.3 481.9 485.6 488.1 491.7 493.9 500.6 504.6 508.2 514.6 524.5 533.6 534.8 536.9 548.2 554.8 560.7 574 589.3 601.7 602.6 601.1 593.3 596.6 603.6 606.3 614.7 615.2 618.5 629.1 629.2 624.4 611.8 608.6 618 618.2 614.3 612.3 606.1 599.1 588.7 584.7 567.7 557.6 548.2 539.1 519.5 512.6 504 487.5 482 471.9 460.2 453 444.2 440.8 436.6 418.7 403.5 388.8 385.6 377.8 366.6 360.2 346 341.1 332.3 327 313.8 306.2 300 294.4 287 283.9 281.8 275.5 269.2 261.8 254.1 255 260.1 265.3 269.7 276.4 283.8 290.3 297 300.6 307.9 315.5 315.5 328.9 357.5 365.6 377.6 381 379.5
669.6 655.7 639.9 621.8 602.8 581.8 565.1 547.7 529.4 510.3 493.9 476.8 458.9 437.7 424.7 407.7 391.5 380.1 364 351.5 338.6 326.4 318.4 312.6 304.6 297.2 291.9 286.8 285.1 283.4 282.3 276.3 278 292.4 302.2 315.7 328.3 344 357.2 374.8 390.7 407.8 428.1 450.1 469.2 490.2 509.1 533.5 561.8 588.4 620.4 643.9 672.1 701.8 726.9 744.5 756.6 766.1 769.7 770.7 765.5 757.9 749.4 735.2 717.1 694.9 680.1 669 655.5 645.3 637.7 637.4 640.5 638.9 635.1 635.6 647.3 662.4 684.7 712.2 725.4 730.1 723.6 714.1 702.7 665.7 625.9 598.2 584.1 570.4 558.3 549.7 538.1 528 518.3 509.9 503.5 494.8 479.7 468.8 467 469.7 474.6 479.5 482.9 486.3 488.5 493.5 499.8 504.7 512 519.2 529.6 538.9 546.2 549 559.1 574.1 586.9 601 619.9 634.5 648.8 635.1 631.5 630.3 624.5 633.3 644.6 649.1 645.4 639.3 638.9 637.9 635.9 635.7 633.3 629.4 626.3 625.3 618.8 615 614 607.4 592.7 582 565.8 551 547.1 533.2 519.5 510.4 490 480.2 475.4 464.9 456.7 453.4 447 435.4 412.9 397.9 384.7 369.7 365.1 359.6 348.1 336.8 324.9 311.6 308.7 303.1 296 288 280.9 274.5 270.5 265.6 259.2 253.7 247.2 244.3 249.8 254.5 257.8 265 272 278.7 282.1 287.9 294.5 301.7 307.8 308.6 309 327.7 350.1 364.9 372.3 369.4
647.9 632.7 620.1 602.7 581.3 560.2 542.1 526.3 508.2 490.4 473.5 455 437.2 422 403.6 386.4 374.2 361.2 342.2 331 328.1 317.8 304.5 296.9 294.3 288.2 283.1 281.8 281 278.1 276.2 268.2 280.3 297.5 309.2 321.6 337.4 352.4 369.4 386.5 403.5 420.6 441.3 459.4 480.2 499.5 519.7 542.1 568.5 602.8 629.3 658.1 688.2 715.7 736.8 750.7 761.2 768.8 772 770.7 764.1 755 743.8 729.1 711.2 688.8 672.7 654.7 647.1 641.6 635.8 630.9 629.5 625.9 627.5 627.7 632.5 652.5 676.8 700.8 723.8 738.1 744.8 732 707 674.9 643.9 611.9 594.4 576.1 567.3 561.2 551.9 543.6 534.4 527.3 518.4 513.8 509.8 500.6 488.5 477.9 478.1 483.6 485.4 488.2 492.7 501.7 510.4 515.4 528.2 540.2 553.5 557.7 560.2 566.6 581.5 601 620.8 636.6 653.5 669 681.6 681.7 681.6 671.6 664.5 663.5 659 655.6 647.2 639.7 636.2 632.2 632.8 631.1 632.3 631.6 629.8 626.4 620.5 616.9 614.3 609.6 598.5 586.7 570.5 557.6 549.5 534.9 520.9 507.7 491.5 488.5 477.9 472.3 464.1 457.4 442.5 427.1 410.6 394.4 371.1 361.6 351.6 339.6 330.7 320.9 304.7 292.1 291.5 289.9 283 274.6 268.1 262.2 256.4 249.6 243.4 240.5 236.3 236 242.8 246.6 249.1 255.3 263.8 269.2 272 277.4 285.5 292.7 298.4 301.8 305.1 296.4 306.1 325.3 347.4 349.8
623.2 607.7 595.3 578.5 559 537 521 504.7 489.1 470 454.8 438 421 403.2 386 371.9 357.5 344.5 332.7 320.2 310.3 300.5 292.6 286.1 283.1 276.8 275.4 275.4 275.8 262.4 269.2 282.4 289.4 304.3 315.2 330.2 347.1 363.7 378.8 394 416.2 435.2 450.6 469.8 487.2 507.4 525.5 545.7 567.9 601.8 628.1 663.4 693.7 723.3 742.9 751.8 763.6 769.2 769.3 766 758 747.6 736.5 720.1 698.5 678.4 660.3 646 638.4 629.1 632.5 628.6 615.3 607.2 606 606.1 620.5 634.8 664 690.4 714.2 729.7 745.1 734.5 698.1 665.8 639.4 620 606.5 589.7 582.2 575 566.9 562.9 555.4 548 543.6 537.3 531.2 519.6 506.3 499.9 497.6 495.7 498.4 502.5 509.5 524.5 526.1 532 545 559.3 570 577.8 581.5 592.1 605.3 627.2 646.4 663.2 677.2 685.5 690.4 693 691.7 683.7 673.4 662.5 654.9 647.8 637.1 631 627.3 621.8 616.8 614.4 617.8 623.2 624.3 624.4 619.6 616 609.8 604.6 597.5 581.4 570.9 559.8 543.8 531.5 516.6 501.4 492.8 487.6 478.2 473.3 459 440.8 427 409.3 389.9 373.8 356.4 342.8 342.2 334.5 318.2 305.6 288 280 279.5 277 268.8 261.3 255.1 247.9 242.3 235.2 233.3 230.2 227 228.2 231.9 235.9 238.1 242.1 253.5 258.8 263.5 268.1 273.9 282.6 291.1 299 300.8 294.5 281.6 286.2 299.7 311.4
595.6 584.5 568.5 551.6 533.6 513 493.9 484.4 468.8 447.1 433 413.1 393.5 380.1 363 347.9 339.6 326.2 315.9 307.5 301.2 292.9 283.1 278.3 272.2 269.3 266.4 264.8 260 262.7 272.2 286.2 297.8 311 323.9 338 351.9 370.5 390.6 407.2 414.5 437.5 454.2 473.8 487.4 508.2 521.9 541.4 558.4 585.2 620.3 655 690.8 720.4 738.6 751 760.6 762.3 761.8 756 746.7 739.2 726.6 712.1 686.7 667.6 652.2 639.3 628 624.3 619.2 615.7 602.7 590.3 593.2 589.3 599.7 619.6 645.9 675.5 704.9 724.3 737.2 734.7 703.5 673.2 654.8 642.7 636.7 619.1 615.9 611.8 606.1 596.7 588.5 589.4 578.1 574.8 569.3 558.1 549.7 544.4 549.8 540.4 529.9 529 541.8 549.5 554.3 562.1 578.7 589.1 600.1 605.3 612.9 622.2 635.4 654.8 672.8 681.9 689.4 692.8 694.5 695.8 689.6 678.2 664.7 653.9 644 629.2 615.8 608.4 606.9 603.5 601.7 596.9 592.4 593.9 602.1 609.9 609.6 606.7 598.3 596.3 586.5 577 565.4 554.6 540.6 523.9 511.9 499 490.1 482.3 466.7 453.6 441 433.1 424.8 412.5 390.8 376.9 351.6 330.9 321.8 311.2 302.1 287.8 278.6 271.6 267.2 263.8 257.4 249.7 242.5 236.4 231.1 227.2 223.8 220.9 219 218.7 221.4 223.1 225.6 228.7 234.5 240 247.6 251.2 257.5 266.6 276.3 281.6 285.5 286.7 276.2 261.2 269.3 279.4
568.8 554.1 534.1 519.4 505.7 487.1 470.9 454 444.8 425.7 410.8 390.6 373.1 358 347.8 332.6 313.7 307.8 299.5 292.8 286.2 280 272.6 268.6 257.4 252.3 254 258.4 266 270 279.4 292.9 305.8 319.1 333.4 348.5 363.4 376.8 392 408 415.5 426.8 449.9 468.4 482.1 498.1 517.2 534.4 551.7 576.9 603.5 639 674 699 717.4 733.9 745.6 750.4 748.4 743.3 737 730.4 718.5 698.5 678.6 659.6 642.7 626.8 617.8 605.6 596.2 593.6 588.7 579.3 573.8 571.7 585.1 611.6 633.6 664.3 693.9 715 729.8 735.3 720.8 701.6 689 681.7 680.2 654.3 653.5 653.2 650.6 641.9 642.4 638.3 629.6 619.5 609.2 596.7 590.6 592.2 584.2 574.6 583.4 584.8 583.2 588.6 594.7 606.1 618 629.3 636.9 639.5 645.4 652.4 662.2 671.8 679.2 688.1 693.1 694.7 690.8 687.8 679.6 664.7 651.2 635.8 623.1 603.4 591.2 585.8 581.7 580.8 576.9 574.4 572.4 569.3 571.6 572.3 576.5 576.8 572.6 573.7 569 558 548.8 538.3 522 508.8 501.9 491.3 478.8 464.9 450.6 441 436 427.4 413.8 397.7 381 355.9 342.6 321.4 302.1 294.1 284.8 275.9 267.6 260.8 255.7 251.3 245.8 239 230.1 223.9 221.9 218.5 214.9 212 208.9 208.7 209.4 210.7 213 216.3 216.4 220.1 223.6 228.4 235 245.3 257 264.7 268.9 267.5 262 253.6 244.5 252.3
535.3 517.4 502.4 489.1 473.9 458.2 440.8 422.4 414.6 397 375.6 364.4 349.6 335 322.8 309.7 300.1 288 284.6 280.5 273.4 262.8 253.3 245 246.9 255.3 258.9 263 270.2 281.6 289 298.5 311.7 330.2 346.2 356.8 369.1 380.1 386.6 400.9 410.4 428 437.9 457.6 474.6 492.5 511.8 532.3 548.2 563.2 586.9 616.8 652.3 672.7 677.9 697.9 720.8 734.3 733.6 730 726.4 721.2 710.1 689.8 669.2 652 624.7 610.3 600.3 596.6 588.1 581.3 583 572.4 562.1 558.9 570.1 600.1 621.6 648.3 679.7 702.9 720.7 728.5 731.4 732.4 734.2 730.3 721.6 691.2 694.1 699.9 700 690.7 684.9 677.9 668.6 662 644.2 634.1 630.5 633.8 639.5 640.5 629.7 629.5 628.5 630.7 633.7 636 640.7 645.9 651.6 651.7 652.9 660 668.5 672.7 679.4 686.3 690.2 688.3 682.7 677 665.9 651.3 633.9 615.8 600.2 581.8 574.1 567.3 559.4 556.3 553.1 547.9 555.5 555.2 552.6 550 547.7 549.4 546.7 536.7 534.1 528.8 522.7 509.2 498.6 487.1 481.1 468.6 461.9 452.9 441.1 427.9 418.7 405.8 393.1 376.9 360.9 346.7 330.4 314.9 295.5 278.9 271.1 263.9 256.7 249.4 241.9 238.7 233.3 227 219.9 217.3 212.5 208.8 205.4 202.1 199 197.3 198 198.6 201.2 204.2 205.3 205.9 206.3 208.3 215.2 225.1 235.7 242.8 246.7 249.6 246.2 238.6 230.6 229.7
502.4 487.5 470.4 458.6 443.7 428.3 413.9 399 387.6 369.4 353.5 339.4 328.4 308.5 298.7 294.1 283 277.5 270.2 261.4 244.8 240.7 241.8 250.2 256.6 261.5 265.9 271.6 279.4 289.6 299.2 308.5 328.4 341.3 355.7 366.4 373.2 380.9 387.4 395.9 406.4 422.3 430.4 446.1 468.2 483.7 498.5 520.4 538.6 544.8 566.1 584.4 603 623.6 646.2 668.6 696.4 714.2 716.4 715.7 715.6 712 701.2 683.3 660.9 643.8 614.5 595.1 580.9 573.8 567.8 565.8 568.3 560.4 554.8 548.6 557.6 578.2 607.9 630.8 659 686.8 707.7 721 724.4 731.2 731.1 725.5 724.2 722.6 718.7 717 715.6 705 699.5 687.6 682.5 679.2 672.2 666 662.5 661.4 660.8 658.2 648.4 649.8 648.1 649.5 646.1 644.9 646.1 648.9 652 652.4 656.2 660.2 667.7 670.6 674.9 679.3 682.3 679.1 670.3 661.8 651.2 635.3 610.8 593.9 578.6 566 556.6 546.9 540.5 535.9 528.8 523.1 529.3 531.2 526.6 525.6 526.3 520.8 513.8 506.2 497.6 490.7 488.4 478.2 469.2 453 448.3 439.4 433.5 426.2 420.7 407.1 396.6 386.7 376.2 362.8 354.5 346.1 326.1 308.1 290.7 270.6 258.6 251.8 244.4 236.6 230.1 224.8 220.4 214.9 211.2 207.3 203.4 199.2 194.4 190.9 187.5 185.5 184.8 186.9 189.8 192.8 195 195.5 196 196.7 200.7 205.7 210.6 217.2 221.9 229.2 226.6 220.7 217.1 212.2
472.2 455.8 440.3 428.2 417.1 402.5 394.7 375.6 360.5 350 335.6 318.2 305.8 298.5 287.9 280.7 266.4 261.7 252.7 245.7 238.6 246.5 253.1 257.8 262.1 270.1 277.2 284.8 292.2 303.3 310.4 322.4 336.3 349.6 361.1 365.5 375 384.1 392.4 401 408.3 414.6 421.7 428.7 456.8 471.8 486.9 502.3 516.1 515.4 530 551.2 572.7 595.3 621.1 644.4 670.4 697.4 706.9 705.8 702.4 699.9 691.6 675.4 651.8 632.3 599.8 581.5 571 559.1 547.7 544.6 550.8 544.6 531.5 530.6 538.2 557.2 591.2 612.6 638.8 665.9 692.7 708 719.8 719.6 719.7 720.4 721.4 722.5 723.1 718 706.9 696.8 691.6 685.1 680.5 676.5 672 668.6 661.1 663.4 663.1 659.9 652.5 652.4 650 646.9 648 644.2 646.1 647.7 648.6 649.2 650.8 655.3 661 665.7 667.2 670.7 670.1 664.9 653.1 643.1 625.6 606.1 589.9 574.9 561.7 550.3 538.6 528.3 524.3 514.2 509.2 502.4 497.8 502.3 498.9 497.6 492.8 489.6 485.5 479 472.1 463.1 453.5 445.2 433.4 421.6 412 404.8 397 391 380.7 371.8 361.5 351.9 338.3 330.9 317.4 308.3 294.4 283 268.3 254.5 242.9 237.4 231.3 224.9 218.7 213 207.7 204 200.3 196.1 192.3 188.3 183.2 180.3 176.2 172.7 172.7 174.4 177.3 180.5 183.8 185.1 185.6 186.2 187.3 187.8 187 190.2 198 207 210.6 208.7 204.8 200.3
443.3 426 411.5 399.6 385.2 374.1 363.6 354.3 338.5 330.9 323.4 307.3 293.1 283.7 269.7 261.4 255.7 247 239.5 240.4 247.9 251.7 255.6 262.5 268.4 276.4 288 296.5 303.7 315.1 326.4 337.3 353.3 360.3 373.9 376.9 378.8 387.5 387.8 391.3 402.1 409.2 410.9 414.8 435.9 452.2 469.6 483.8 487.6 493.2 510.2 528.8 547.6 567.9 596 620.5 650.2 674.8 695.1 695.8 695.2 692.1 683.4 669 646.4 622.7 594.3 571.9 557.6 545.3 531.8 520 521.9 521.8 512.1 507.4 519.3 536.6 562.4 587.9 614.8 642.3 673.7 694.2 704.6 706.9 707.9 709.9 711.7 717.1 716.4 711.2 696.6 690.4 685.4 681.4 677.7 671.1 667.5 663.3 658.9 657.8 660.3 657.1 652.6 651 646.2 644.3 643.3 642.9 642.6 641.4 642.6 640 640.2 643.8 650.7 655.4 656.9 658.3 656.6 647.9 637.1 625.5 605.8 586.6 573.4 558.4 546.3 534.5 523.8 513.1 505.3 496.8 489.3 481.3 468.5 467.5 465.9 464.9 463.2 459.4 453.7 447.9 439.6 430.8 423.6 409.8 401.4 388.2 377 370.6 363.2 357.3 350.1 341 331.2 322.3 312.9 300 287 285.3 274.4 266.6 250.1 246.1 235.2 222.7 217 212.5 206.8 201.8 197.4 193.3 189.3 185.1 181 176.8 171.5 167.9 164.8 162.6 161.7 162.6 165.4 168.2 170.5 173.8 174.9 173.5 173.5 173.8 173 172.5 178.1 187.8 193.2 195.4 194 190.1
415.5 401.8 387.5 372.5 361.1 350.4 339 332.3 322.9 310.4 303.3 293.1 276.5 262.6 253.4 248.5 234.8 232 240 246.9 252.3 258.6 264.5 270.8 280.2 290.4 300.8 308 318.8 333.3 343 354.8 364.7 375.9 373.7 377.8 381.2 381.8 384.3 391.1 398.3 400.2 402.7 410.3 422.6 436.1 448.2 464.5 474.7 480.3 495.1 509.5 528.1 547.3 570.9 599.9 626.7 651 674.4 683.1 684.1 680.5 671.3 660.3 640.2 620.6 599.7 572.6 551.2 540.9 521.9 509.2 509.1 501 490.1 481.2 498 517.5 539.5 566.8 592.1 620.2 653.2 676.7 685.3 692 693.4 697 696.4 698.6 701.3 699.3 688.5 683 679.4 672.5 670.4 666 661.7 659.2 657.4 653.8 654 651.3 648 646 641.6 638.6 634.3 631.6 631.9 630.4 629.6 624 623.4 627.5 633.2 638.9 642.8 644 641.4 628.8 616.8 602.5 585.3 569.7 554.8 541.7 527.8 515.9 510.4 499.6 488.1 476.3 469.5 462.4 451.1 443.5 435.6 436.2 432.9 427 420.5 415.7 404.6 399.8 390.4 380.3 371.9 360 348.6 344.9 337.8 326.6 320.4 312.7 303.7 293.5 287.1 276.4 266.7 262.6 256.4 246.1 234.5 225 217.3 205.8 200.9 198.7 194.3 190.5 186.2 182.4 177.3 172.7 169.1 165 158.5 155.2 152.9 152.7 151.5 152 153.6 156.4 158.2 159.7 160.2 160.4 160.2 160 161 161 163.4 168 174.9 179.9 179.3 180.8
389.1 374.8 362.1 353.5 342.7 329.8 318.5 310.4 301.2 290 281.2 273.9 263.5 252.5 236.1 229.1 226.2 237.6 242.9 250.1 258.1 267.8 278.4 286.3 294.7 304.3 317.3 327.7 338.9 345.8 359.2 373.2 372.7 375.9 376.2 381.2 381.6 380.5 385.6 389.9 400.2 396.3 398.4 406.5 417.2 426.9 437.4 448.9 458.7 471.9 476.6 488 508.7 523.9 550.4 577.8 601.3 627.5 652.7 665.3 669.2 667.3 659 644.2 628.3 609.9 586.1 563.5 545.9 531.1 512.3 499.2 494.8 482.1 471.2 461.4 479 500 521.6 543.4 570.4 600.8 630.7 655.3 666.7 674.3 675 673.7 672.8 673 675.9 677.8 678.9 674.2 670.9 666.8 663.6 660.2 654.9 649.8 648.1 645.6 641.2 638.2 638.4 636.2 633.1 627.4 622.3 617.9 613.6 610.5 606.7 599.8 602.1 608.5 613.7 617.9 622.2 622.4 614 603.3 594.3 581.2 560.9 548.1 534.7 523.6 508 497 487.4 482.1 470.1 461.9 448.5 441.1 433.7 420.9 414.9 406.9 403.5 395.2 388.9 384.1 375 364.4 359.9 351.3 339.8 333.1 327.7 321.6 316.5 307.8 304.7 295.5 284.5 274.9 266.4 259.3 249 241.4 235 230.4 218.9 208.3 201.9 191.8 182.4 182.8 181.4 178.1 174.4 170.1 163.2 157.5 158.3 152.6 146.4 141.4 141.9 142.4 141.6 140.6 142.4 144.3 145.9 146.4 143.5 145.1 146.1 147.4 150.1 149.9 148.1 150.3 154.5 160.8 165.9 168.3
369.3 351.5 341.1 330 317.6 307 297.9 289.3 286.9 278 265 260.3 249.1 239.9 224.7 225.3 235.8 244.3 254.1 262.6 271.8 284.9 294.6 306.2 314.9 323.5 333.3 345.4 354.5 361.7 371.4 375.5 379.4 381.4 384.3 389 381.8 380.5 384.4 387.3 394 389 392.8 402.6 412.7 424.6 426.1 431.9 439.9 450.4 458.6 470 486.5 507.5 525.8 552 575.6 598.5 621.9 634.6 644.4 644.1 634 615 598.4 584.1 566.3 548.7 535.8 522.9 509.2 490.6 471.7 472 461.6 446.3 461.7 482.8 503.6 525.4 548.5 583.1 608.5 631.6 643.1 653.4 659.9 664.1 660.5 654.1 650 658.2 658.8 658.6 657 657.1 652.4 649.2 643.4 641.4 637.5 634 628.2 624.9 621.8 621.5 618.2 611.9 605.1 596.3 590.5 584.3 580.5 576 578 583.1 590.2 593.9 594.9 593.8 588.2 578.6 570.5 556.9 542.8 530.1 514.6 502.5 489.9 477.1 470.9 461 452.8 440.1 427.8 418.2 409.1 398.8 388 378.8 369.1 359.4 355.4 350.1 343.7 334.3 327.8 321.5 312.6 306.6 303.4 304.2 289.9 286.2 277.3 270.6 267.7 257.7 249.5 243.7 235.1 226.7 215.3 207.4 200.4 191.2 185 177 172 166.9 168.4 167.1 164 159.1 149.9 145 143 142.6 140.6 131.9 133.3 133.8 132 131.1 130.7 133.7 134.1 133 131.5 130.8 131.8 135.5 138.9 138.2 137.8 138.7 140.9 146.1 151 154
346.7 332.9 320.2 314 300.7 291.2 279.6 268.1 262.7 254 246.5 240.7 238.8 222.3 227.6 236.6 243.3 254.8 268.7 279.8 291.5 302.2 315.8 324.9 332 335.3 354 366.3 369.6 377.2 386.7 389.2 388.6 385.3 387.7 384.8 380.8 379.5 379.7 382.5 382.7 384.9 389.6 395.7 402.9 407.3 416.9 425.6 433.9 437.1 445.6 457.5 472 487.7 506.2 528.2 548.9 571.7 591.2 604.5 614.4 616.2 608.7 591.9 582.4 570 551.9 542.8 530.2 512.2 498.8 483.9 465.2 455.2 445.4 431.5 451.3 466.5 487.7 510.4 528.9 555.8 581.7 605.4 620.7 632.3 640.4 640.6 639.7 637.5 634.7 633 632.2 634.7 639 643.2 639.1 633.6 631 626.6 623.9 620.2 616.2 610.6 607.6 602.8 594.8 588.5 578.2 571 564.1 560.1 552.4 552.5 554.9 559.8 566.1 566.7 564.7 563.4 561.3 550.8 543.4 533.9 520.7 504.7 489.7 479.9 470.5 459.8 451.9 442.2 433.3 418.5 406.3 393.9 379.8 367.3 356.7 349.6 339.6 331.2 323.5 322.6 314.6 305.6 300.2 292.5 284.5 283.7 277.1 277.6 271.6 260.7 258.5 253.6 253.7 244.5 233.8 223.6 218.3 209.2 202.6 191.9 183.8 176.8 169.3 162.9 157.7 153.1 154.9 155.2 152.9 147.1 138.9 132.8 134.7 128.2 127 125.7 125.7 125.4 124.1 121.5 122 123.7 124 124.1 122.2 121.4 121 123.5 127.3 127.9 130 131.2 130.9 131.9 136.8 144.4
319.7 311 302.7 293.8 287.5 272.5 260.8 249.4 242 237.9 231.1 226.6 218.6 222.2 235.5 244.5 260.3 275.4 291.6 301.9 315.5 325.9 336.4 345.2 349.7 362.5 376.4 380.4 382.1 386.5 389.8 394.2 395.1 391.3 391.9 386.8 383.9 380.7 378.9 376.1 377.2 381.1 389.3 389.5 392.6 398.3 401.4 412.7 419.9 427.8 434.8 446.5 460.1 473.2 489.7 504.6 524.6 545.7 563 576.1 587.1 585.4 579.9 567.8 557.8 552.1 539.6 529.9 520.3 505.1 490.4 480 463.9 449.6 434.5 419.3 437.7 452.8 471.6 491.9 512.6 536.6 558.9 579.6 596.8 603.4 608.4 611.8 614.9 610.2 608.3 621.6 624.1 622.1 621.2 620.1 615.9 611.8 609.7 605.1 603.7 600.7 597.6 593.6 591.1 578 569.2 559.7 552.9 545.4 539.9 534.9 528.1 530 532.6 536 536.8 539 535.9 532.5 529.5 524 518.4 506 489.3 477.1 467.5 458 449.8 439.7 430.9 418.3 404.8 391.4 377.4 363.7 350.7 337 329.7 322.8 314.7 302.5 296.1 293.3 288.4 281.9 274 271.7 261.3 262.2 258.4 255.4 249.9 243.6 240.1 238.9 236.4 226.8 217 209.8 204 199.4 191 183.3 173.6 164.8 159 152.2 146.3 145.5 145.1 145.7 143.2 137.5 130.7 128 124.2 126 119.7 122.2 118.5 116.9 115.9 116 114.4 115.3 118.1 117.3 113.5 113.2 112.8 112.7 114.3 117.6 120.1 122.5 121.2 120.9 126.3 128
302.4 294.5 286.8 271.5 267.7 256.6 244.2 234.2 227.5 220.1 216.8 216.1 223.8 237.9 250 266.1 283.4 298.5 315.2 330.3 340.6 347.2 356.6 364.2 371.6 385.7 388.2 390.9 393.1 395.4 397.2 399.1 398.1 399.8 392.3 393.6 388.3 382.9 375.8 375.1 375.2 376.5 387.1 387 388.7 389.3 389.7 396.4 411.8 416 421.4 437.1 449.4 459 471.8 487.7 501.8 521.8 538.5 550.7 557.1 558.9 552.8 546.5 536.3 530.8 519.9 510.9 501.5 493.1 481.5 469.1 455.5 443.7 428.4 407.6 422.7 442.7 458.6 476.3 498 515.4 535.5 550 568.7 575.3 577.7 579.8 582.3 575.1 576.8 588.3 601.4 604.9 600.3 594.1 590.6 587.3 586.2 584 580.5 578.1 577 572.2 565.7 553.7 542.2 534.5 530.2 521.8 516.8 508.6 504 507.5 510.4 513.7 514.9 511.6 506.2 502.4 498.8 492.6 485.4 474 461.5 451.7 441.5 432.9 422.8 413.6 404.2 389.5 374.5 364.2 353.5 336.2 323.6 313.7 303.3 299.4 286.9 281.3 274.2 268.7 263.9 259.3 252.3 248.2 244.6 241.2 236.6 233.2 230.3 228.4 226.7 218.3 214.9 217.6 205.7 197.1 190.9 186.4 179.7 174.3 166.9 159.3 151.9 147.6 141.6 139.8 137.8 135.1 134.3 130.9 127.3 124.5 120.9 118.9 117.2 115.8 114.9 112.3 112 111.4 110.6 115.6 112.5 109 107.9 108.2 106 107 107.8 108.5 111.3 114.9 117.1 111.9 115.4 118.7
288.7 281.5 269.8 258.2 250.8 239.1 231.5 222.5 212.9 211.4 217.9 229.2 241.1 255.6 271.1 288.1 306.9 334 344.1 357.5 365.2 373.9 380 387.5 400.5 404.1 401 400.9 403 404.5 404.4 406.6 406.3 402.1 399.2 398.4 392.4 385.9 377.7 374.9 374.6 374.5 374.6 378.9 378 379.2 380.8 385.8 397.6 407.8 411 424 435.1 444.4 458.1 472.5 486.2 499.6 514.1 527.9 532.5 530.9 529.5 525.1 518.9 514 506.9 495.4 490.9 483.1 471.5 461.9 450.3 436.1 418.8 397.3 411.8 429.6 442.7 460.7 482.4 498 513 523.4 540.7 548 547 549.9 550.3 547 547.8 552.3 559.5 565 568.2 565.9 564.3 563.9 561.2 559.3 555.5 552 550.1 546.1 537.8 527.4 518.5 510.5 505.5 499.2 493.2 487.9 484 486.3 488.4 487.5 485.9 484.4 480.9 476.3 469.5 459.4 451.4 441.3 433.4 425 415.4 407.5 396.2 387.1 371.7 359 350.5 338.8 329.1 312.1 299.6 292.5 283.5 278.7 266.6 260.7 255 248.8 242.8 240.7 235.2 228.9 227.9 223.5 219.5 217 211.1 210.9 209.2 203.1 201.1 196.4 193.3 184.3 179.4 175.6 170.1 167.2 159.7 156.9 146.4 143.2 137.6 135.2 132.9 131.5 129.6 128.3 127 126.5 121.8 115.3 114.7 113.4 109.5 110.3 108.3 108.5 107 106.4 106.1 105.3 102.9 104 101.7 104.2 104.9 105.7 107.6 108.7 110.8 106.6 107 108.7
268.1 264.2 254.6 245.2 236.9 227.8 221.4 209.1 211.8 223.7 234.7 247.4 262.2 278.7 298 316.5 339.2 358.7 374.8 384.8 393.8 403.2 410.2 419.6 421.1 413.3 409.6 411.3 413.4 411.5 414.8 419.4 414.1 416.8 410.7 401.1 393.9 388.6 381.6 377 375.5 375.2 375.7 374.3 378.9 376.4 375.7 379 385.7 395.1 402.8 410.8 425 434.1 443.8 457.7 471.7 482.8 493.7 503.4 509.5 512.5 511.2 506.5 500.3 494.1 487.7 484.5 474.6 469.8 459 452.3 442.6 429 411.3 389.4 395.9 415.1 430.1 444.4 464.6 479.8 493.9 500.7 507.7 517.6 524.5 522.3 520.6 529 535.4 527.6 523.4 525.9 522.3 530.8 536.4 535.3 532.2 530.5 527.4 525.4 521.6 517.3 510.6 500.7 492.3 486.7 480.4 474.1 470.2 468.1 467.5 467.5 467.5 463.8 460.1 456 449.2 443.7 435.1 431 419.9 412.8 405.8 397.8 389.7 379.9 367.7 356.3 340.9 330.5 322.5 310.4 300.9 286.5 278.6 272 265 259 250.6 246.5 239.9 237.4 229.1 225 221.1 215.7 213.9 210.8 206 203 200.3 197.1 194.8 192 188.9 185.9 182.6 175 171.4 168.8 163.2 158.3 151.6 150.4 141.7 138.5 136 132.6 129.6 128.3 126.7 124.6 125.3 122.9 121.8 117.1 114.6 109.6 110.3 110 110.3 108.5 106.3 110 108.8 105.9 104.3 104.1 103.3 102.1 103 102.1 103.3 105.1 103.2 103.5 101.2 104.6
249.5 245.6 240 232.7 224 216.4 204.9 205.7 224.3 238.5 252.4 268.8 286.7 307.2 324.3 343.8 365.9 385.9 405.5 415.8 431.6 436.7 439 436.3 431 424.6 417.2 418.3 420.3 417.1 422.3 425.2 421.1 416.5 413 406 400.5 392.1 388.9 383.7 376.6 375.2 373.8 372.4 372.3 373.9 370.1 373.7 378 383.7 393.7 398.3 413 422.8 432.9 444.8 457.1 466.1 477.8 484.8 489.9 491.9 492.7 489.6 487.4 482.3 479.9 475.6 466 459.7 447.9 443.2 433.7 420.4 406.7 385.1 374.3 391.2 416.6 431.4 446.6 459 468.5 473.1 480.8 485 489.2 490 491.3 499.1 506.1 498.8 493.5 491.9 488.4 498.4 506.8 504.1 502.2 500.1 498.1 493.3 490.1 484.5 478.5 473.4 465.6 459.9 455.6 451.4 452.3 446.8 444.1 445.7 444.5 436.8 433 429.5 422.5 415.6 409.9 401 390.9 384.2 379.5 370.7 360.2 351.1 338.4 327 316.4 306.6 296.6 284.7 274.2 268.1 261.7 255.9 248 239.5 234.9 230 225.6 222.8 216.6 213.8 212 204.6 199.7 197.5 195.6 191.7 189.4 187 185 182 178.4 176 174.8 166.9 163.5 160.4 156.2 153.4 148 140.8 138.3 134.8 135.5 133.1 131.8 131.8 131.4 130.3 129.7 126.7 122 119.6 115.8 113.8 111.7 109.8 109.6 108.5 107.7 112.5 109.2 105.7 104.8 104.4 101.1 101.2 101.8 99.1 101.1 104.2 99.9 99.5 97.6 96.7
237.4 225.8 222.4 217.9 209.2 201.7 206.8 225.3 239.6 257.3 276.6 299.7 313.8 330.6 351.2 376.2 396.6 419.2 437.2 453.6 464.2 467.2 466.3 459.4 446.8 437.5 433.1 429.5 427.4 428.6 435.5 433.6 421.2 417.6 414.4 409.1 407.6 399.7 390.4 385.1 381.9 376.2 372.9 372.2 369.4 368.3 367.1 368.4 371.2 375.8 381.6 387.1 401.8 410.4 422.9 431.3 441.6 449.5 461.8 469 471.5 476.4 475 474.6 474.6 471.9 469.7 461.1 454.3 443 435.1 428.9 422.7 409.2 396.8 380.2 361.8 387.6 402.1 415.1 425.2 434.5 441.5 447.9 449.4 458.1 458.9 456.6 455.3 467.9 473.2 470 475.7 470.5 460.8 463.8 477.2 475.3 472 470.4 468.8 465.3 462.7 458 452.5 447.5 440.5 433.4 434.7 429.4 428.6 425.2 422.4 421.6 418.1 411.4 403.3 402.7 395.2 388.9 384.7 374 367.7 357.1 351.7 341 331.4 322 311.3 301.6 294.8 284.8 277.1 265.1 256.4 248.8 241.4 234 233.1 226 222.2 217 209.8 206.1 201.4 200.2 197.7 195 190 188.2 185.4 182.2 179.2 178.1 174.7 172.8 170.7 168.3 166.7 160.6 158 155.9 153.1 149.2 147.6 146.8 142.1 140.6 138.5 136.5 136.6 140.6 137.5 136.3 133.1 130 123.3 121.1 118.5 115 112.9 111.6 109.9 107.8 109.7 110.1 108.8 106 106.1 106.7 101.4 100.7 98 96.7 97.2 100.4 98.1 97 95.8 94.8
222.5 215.7 209.2 199.3 195.9 204.7 228.3 245.2 260.5 279.4 298.2 319.3 340 360 382.4 407.6 436.3 454.5 474.4 493 501 500.7 490.5 481.6 460.8 451.1 442 438.9 439.7 441.6 443.2 434.3 430.5 430.8 420.5 413.2 405.7 399.9 391.1 387.2 382 378.8 382 370.8 368.1 363.8 363.3 362 364 367 368.5 376.3 390.3 400.5 409.9 419.6 426.5 434.8 443.7 452.7 459.6 463.3 465.7 462.9 458.8 453.8 450.8 443.9 438.1 430.2 421.1 412.9 406.4 400.4 383.9 369.2 351.8 373.8 387.5 397.6 403.4 409.4 413.8 422 426.5 431.5 433.8 430.9 430 436.6 443.8 453.2 450.6 446.8 440.5 433.8 442.2 440 437.1 434.4 435.6 434.1 428.7 427.8 425.2 417.8 408.8 403.6 405.8 402.4 399.5 394.7 392.1 395.5 387.4 380.3 375.4 372.7 371.4 364.5 357.8 350.7 343.1 332.3 326.3 317.7 308.9 301.4 289.7 281.8 276.8 267.4 259.5 249 242.4 234.9 226.8 221 216.4 213.1 208 205.6 199.8 196.1 192.4 188.5 187.5 185.4 182.2 179.4 178.1 176.5 173.9 172.4 169.6 169.1 166.7 164.2 161.5 158 155 155.1 155 153.8 151.3 149.6 145.9 146 141.2 142.6 141.2 148.1 143.1 142.6 136.8 134.7 128.9 125.1 120.1 117.8 114.8 114.3 114.1 114.1 114.5 112.5 111.5 109.3 109.3 110.1 107.3 104.4 103.1 101.8 100.1 97.9 95.7 92.9 93.2 94.2
208.9 204.5 193.8 193.7 210.2 228.1 245.5 266.4 285.3 305.6 325.9 344.7 364 392 419 446.9 473.8 487.4 512.2 525.2 529.3 520.2 505.1 491.3 477.8 467.2 453.3 449.9 450.1 449.5 441.6 435.6 434.9 430.1 423.1 412.9 406.6 402.4 396.1 391.6 385.2 386 386.7 378.4 369.7 366 361.6 360.8 361.6 361.5 363.1 368.3 382.1 393.2 398.2 407.9 416.3 423.7 431.9 440.3 444.2 452.1 450.1 448.3 443.9 441.8 438.2 428 421.4 416.9 406.6 398.4 391.3 381.3 369.6 361.8 348.6 361.7 372.7 382.1 384.4 387.2 390.7 395.2 400.8 406.4 406.1 407.4 409.4 410.4 418.3 425.2 425.8 422.2 422.5 411.5 410.3 406.2 403.7 403.4 404 403.6 400.7 396 389.3 383.7 379.4 372.1 375 374.6 369.3 360.6 361.3 363.6 366.9 357 353.8 351.2 346.5 342.7 338.2 331.9 323.4 313 302.8 293.6 287.8 280.6 273.6 265.8 258.5 252.6 244.1 235.4 228.1 220.7 214.4 209.4 206.2 202.7 199.1 197 192.8 189.1 186 183.3 181.9 179 177 174 172.3 170.3 169 168.9 167.7 165.5 163.5 161.9 162.4 161.7 159.9 157.9 161.5 159.4 157.2 159.9 151.3 152.5 149.8 151.3 147.7 152.6 152.3 146 143.2 140.4 134 129.6 124 122.1 118.4 118.3 117.4 118.9 119.2 122.3 117.3 115.4 114.5 113.5 111.6 109.7 107 105.4 103.3 101 99.8 97.8 95.9 95.8
192.5 187.4 197.5 213.5 229.8 245.9 264.7 286.7 310.1 331.2 352.6 369.2 400.9 430.1 457.8 483.5 503.2 528.7 544.2 552.1 553.5 545.5 529.1 517.1 508 495.7 479.4 472.5 460.6 453.8 450.8 446.1 443.9 440.8 430.5 419.9 413.7 407.1 405.3 400 390.5 395.1 388.5 381.1 374.9 367.3 364.2 361.9 359.6 359.3 361.4 362.7 373.4 382.9 390.7 393.4 404 410.5 416.6 425.2 434.6 437.8 438.2 435.6 431.7 426.2 420.7 414.8 408.3 395.9 390 384.5 374.6 364.9 358 352.9 338.6 346.7 359.2 364.6 365.8 371.6 372.1 376.6 378.1 383.1 380.3 380.1 384.7 388.2 387.1 393.8 398.1 397.9 396.8 391 376.7 371.5 368.7 372 369.2 369.7 358.7 358 356.9 352.8 349.5 351.1 351 345.6 343 338.6 336 336.8 335.6 332.5 330.6 328.6 325.5 322.2 318.5 313.8 308.3 299.6 284.1 276.2 268.1 264.3 258.2 252 244.2 238.6 230.1 222.3 216.7 209.2 205.2 201.4 197.6 196.3 192.5 190.7 188.1 185.6 181.1 179.1 176.6 173.5 172.2 170.8 169.8 168.7 168.1 166.8 166.1 165.2 163.9 166.8 166.8 165.5 164.9 166.3 172.6 168.9 167.2 166 160.7 159.4 159.6 158.4 155.3 159.2 156.2 154 150.6 145.5 140 135.9 130.2 126.4 123.8 121.3 123.2 122.7 124.8 127.2 124.2 121.5 120.2 118.5 116.5 114.7 112.1 109.3 107.4 105.8 104.3 101.6 98.4 97.7
187.8 202.7 217.2 232.7 250.6 267 288.9 312.1 334.5 359.1 384.8 417 437.7 463.5 487.4 517.7 546.4 564.7 574.9 583.7 581.9 575.7 558.5 549.7 533.1 520.8 502.1 487 478.6 465.3 459.3 454.5 446.4 444.6 437 427.5 417.8 413 412.9 404.4 397.7 397.9 391.9 388.5 378.5 373.4 369 366.9 363.4 360.7 359.4 359.6 364.6 371.6 379.9 381.9 389.9 399.9 404.3 411.3 421.5 425.7 425.9 423.1 419.9 413.8 405.2 395.7 390.2 382.1 374.5 365.7 358.2 352.1 345.1 338.2 330.9 333.8 342.8 346.8 351.3 352 354 356.4 358.3 360 358.6 358.7 362 363.8 363.6 366.1 368.3 366.4 364.4 362.1 351.7 345.8 343 342.2 337.8 331.6 327.3 326.2 330.9 323.4 326.9 328.9 327.5 327.2 326.8 323.3 318.2 316.1 314.4 313.7 311 308.4 304.1 301.7 299 296.4 288.9 282.5 271.1 260.1 254.9 248.6 242.5 235 229.5 222.1 217.5 212.7 206.4 202 197.8 194.5 192.3 192.7 188 185.8 183.2 183.4 178.8 175.3 173.3 172.4 173.2 172.5 171.2 169.5 168.6 168.2 168.4 167.7 170 173.2 174.9 173.5 173.8 175.2 179.4 176.3 174.2 171 168.4 167.1 167.3 166.1 163.1 164.9 163.1 162.7 157 153.5 147.9 141.7 136.1 133.8 127.9 126.4 133.3 136.2 132.9 133.4 131.2 128.4 125.9 124.8 123.6 122.8 120.7 117.1 113.3 111.1 109.5 107.9 104 101.4
206.2 220 236.1 256 276.5 294.3 317.2 341.4 364.3 391.6 420.8 448.9 472.6 496.3 523.2 559.3 582.6 598 606.6 612.4 608.2 603.1 589.7 571.1 546.7 525.9 509.2 493.1 479.1 472.1 466.7 460.2 456.7 451.2 442.1 432.8 427.6 422.4 424.2 412.6 409.3 402.6 402.6 393.4 393.2 379.2 377.2 373.9 370 364.3 361 358.7 360.3 362.2 365.6 371.2 376.8 383.4 395.2 400.2 404.6 412.6 412.3 408.6 407.6 398.7 390.2 380.4 371 366.3 359.9 352.4 346.4 333.8 328.6 325.5 319.3 320.5 329.7 335.7 339.1 336.8 338.4 337.2 336.6 340.7 333.7 338.7 335.5 337.8 339.3 339.7 336.1 342 333.9 335 332 329.1 326.8 323.9 318.6 314.8 310 309.4 310.2 303.6 307.3 308.7 307.6 307.8 308.4 305.9 302.1 298 296.4 290.9 289.8 285.5 284.5 278.7 276 270.8 267.5 261.8 255.1 245.1 240 237.1 230.8 224.1 220.2 215.2 210.5 207.5 205.5 198.9 193.7 189.8 189 188.5 185.2 183.4 182.1 179 177.3 175.4 175.4 174.8 176 174.5 173.5 173.6 169.2 169.7 172.2 174.8 177.6 181.2 182.1 185.7 183.2 183.2 190.6 183.4 183.5 179.3 175.2 176.1 176.4 174.1 169.1 174.5 171 171.6 167.6 163 157 150.6 146.9 140.4 135.5 134.9 144.7 140.5 141.7 142.7 139.3 135.8 133.5 133.1 132.1 131.2 129.4 126.5 123.2 120.7 118.1 115 112.4 109.1
224 242.4 262.1 283.5 302 321.7 343.9 368.3 395.5 423.8 465.9 494 515.4 535.8 561.1 597.7 611.9 629.5 638.3 636.8 632.6 623.3 610.9 596.3 572.8 544.8 524.5 509.7 495.6 483.1 474.8 470.4 460.6 455.6 444.9 439.6 433.8 428 424.3 421.7 417.6 413.8 407.1 400.7 389 385.4 380.4 380 377 371.8 366 359.2 358.8 357.8 362.5 357.2 364.9 374.8 380.2 387.1 391.8 396.5 398.2 394.6 387.5 384.4 376.1 367.2 356.4 350.1 338.6 332.9 326.2 319 318.3 312.8 308.8 308 316.8 322.2 324.6 323.8 321.8 317.7 320.7 316.5 314.1 318.1 315.7 314.6 317.1 318.2 311.7 316.8 311.2 307.5 309.2 307.3 303.8 297.8 293.7 292.2 289.1 290 287.3 291 294 291 290 291.5 289.2 286.4 284.7 282.3 281.4 278.2 272.2 271.9 269.1 262.7 259.7 253.9 249.6 245 239.1 231.7 227.6 224.5 218.4 217.6 214.4 209.9 205.6 202.2 202.2 197 192.2 188.6 186.8 187.4 183.9 182.6 181 179 177.9 178.8 178 175.8 177.7 176.9 176.1 174.1 172.7 173.6 179.5 182.5 185.1 189.6 191.3 194.1 193.4 195.2 196.1 194.1 188.9 188.3 185.8 185.8 185.4 182.6 179.4 184 181.7 180.8 179.3 176 168.9 164 154.4 147.5 144.5 144 153.2 147.8 151.7 153.7 150.7 144.4 141.9 141.8 141 139.7 138 136.2 133.2 130.9 128.9 123.6 125.8 123
248.2 268.6 289.4 308.5 327.9 350.9 377.9 405.5 433.7 471.5 505.6 534.8 556.1 574.5 605.3 627.5 641.9 650.2 652.8 651.3 645.4 638.2 625.2 605.9 589.7 559.9 543 525.2 506.9 490.9 480.2 472.9 464.5 461.1 453.9 450.5 440.1 439.5 437.9 426.4 426.4 422.9 412.5 400.5 396.2 391.7 385.1 383.3 383.8 379.2 372.7 364.5 354.2 353 350.4 350.6 354.2 362.3 373.2 378.2 378.9 381.4 378.5 373.2 366.8 363.4 357.7 350.5 339.2 328.8 323.2 315.6 309 303.7 301.7 300.3 296.9 300.6 305.7 308.2 309.3 308.3 306.4 304.4 305.5 300.8 300.9 298.8 301.1 298.6 295.2 291.6 290.7 295.8 292.5 291.6 291.1 289.7 284.6 281.3 276.4 275.4 274.9 277.1 276.5 275.6 273.9 273.8 273.5 270.6 267.7 269 267.8 267.8 265.2 261.7 255.4 253.6 250.9 248.8 242.4 237.9 234.7 232.6 227.9 220.3 217.4 214.4 209.3 209.6 208.9 205.7 201.8 197.7 197.1 196.5 189.3 187.2 187.3 184.6 184 182.6 179.5 181.9 180.6 181.2 183.4 181.9 179.6 179.8 179.1 178.3 177 185.5 187.8 187.6 193.4 197.7 200 199.2 202.1 201.8 207.2 201.8 197.5 200.1 197.6 195.7 197.1 195.6 194.6 195.9 196.9 194.2 188.7 185.6 179.8 171.6 164 157.4 152.6 157.5 160.2 158.4 161.5 164.3 159.6 155.1 152.1 152.5 152.2 150.3 148.9 147.6 145.2 143.5 139.1 136.8 142.8 135
272.4 302.6 318.7 334.8 355.4 392.4 416 443.6 475.1 505.3 535.9 566.5 586.6 608.3 631 643.4 653.5 658.3 661.8 660.7 657.1 653.7 638.6 616.5 599.4 574.7 549.8 532.4 520.4 508.6 492.3 480 476.3 469.1 468.2 463 452 446.6 441.3 439.4 431.6 419.7 411 408 402.7 396.8 391.5 386.1 387.6 382.5 376.1 366.8 360.3 352.2 351.3 346.8 345.6 352.1 359 361.9 361.2 363.8 361.9 357.1 347.9 343.1 338.4 329.9 319.1 312.9 310.3 304.4 298.4 293.7 293.6 289.7 283.2 290.8 294.3 295.8 293.6 294.2 292 292.7 293.6 287.9 286.7 283.5 282.1 283.8 279.1 275.4 274.9 277.5 277 271.8 271.9 270.8 265.6 265.5 265 261.6 260.7 263.5 259.2 256.2 257.9 259.1 257.8 256 255.8 258.1 255.6 255.2 250.3 247.3 242.4 239.1 236.6 233.4 229.9 226.7 222.6 221.7 216.9 212.3 210.1 207.4 205.7 206.7 204.8 200.1 196.8 192.7 192.3 190.2 186 185.5 184.1 184 182.4 184.8 184.8 184.8 187.2 184 184.9 182.5 181.3 183.5 182.5 183.7 188 189.4 193.8 197.5 201.2 207.6 209.1 209.2 210.9 211.8 213.2 211.6 203.1 207.8 208.3 205.9 207.2 204.7 202.7 205.5 205.9 203.3 196.1 194.1 187.2 181.2 178.1 170.8 161.9 165.9 167.3 169.7 172.6 174.3 169.2 164.8 163 163.8 163.5 163.5 161.7 160.9 157.6 155.2 151.6 150.6 154.4 145.3
304.2 338.3 349.5 367.2 388.8 420.7 449.3 474.8 497.5 526.8 550.4 568.7 597 621.9 637.2 650.7 660.6 663.9 668 668.7 671.5 668.3 656.6 627.8 600.5 583.7 566.6 539.6 528.5 515.9 505.8 492.4 483.1 481.2 477.5 469.7 463.3 456.8 447.9 441.2 428.7 428.3 425.7 419.3 411.2 403.3 395.3 392 388.7 382.7 378.8 371.7 364.1 354.1 351.1 347.8 341.9 340.8 346 350.2 345.7 348.7 346.3 342.8 335.1 326.1 317.9 312.6 304 299.6 293.2 287.7 283.6 283.1 284.4 278.7 273.5 281 282.7 281.2 280.5 277.9 278.8 280.6 282.5 278.1 274.3 272.2 269.9 269.5 267.5 260.3 264.3 265.1 259.9 257.1 257.6 257.8 253.3 256.1 250.7 250.1 249.6 249.9 247.8 245.7 245.6 248.4 246.4 246.9 245.9 246.2 244.6 244.3 240.3 235.9 232.2 228.6 224.9 225.8 221 216.7 212.8 210.4 207.8 207.4 205.7 202.2 200.7 199.1 199.1 198.3 197.6 195 194.4 193.1 191.4 190.9 188.6 190 189 189.6 188.6 188.7 189.8 187.6 187.1 185.6 184.6 189.7 185.5 189.4 197.2 198.6 203.3 203.5 207.5 217.3 217.4 215.5 220.6 221.4 224 221.3 211.3 222.7 224.1 225.6 218 216.5 212.5 212 210.9 207.6 201.7 199.8 196.7 189.1 184.8 176.9 175.9 177.8 179.2 181.4 183.8 182.9 180.1 175.7 175.9 175 175.7 176.2 175.6 175.3 173 168.1 164.6 165.5 166 159.3
333.6 364.2 383.3 402.2 430 449.4 470 479.3 495.9 516.1 536.8 560.3 592.8 617.9 634.6 651.6 662.6 665.8 668.8 674 677.6 672.9 663.3 636.2 609.7 594.1 575.2 559.5 543.7 523.3 514.3 501 492.4 485.4 484.6 476.8 469.4 461.6 451.7 445.2 443.9 438.3 435.4 431.2 421.6 412 402.3 394.3 391.8 386.4 381.7 377.6 371 357.6 350.7 347.6 341.8 332.9 337.1 334.7 331.3 329.2 325.1 326.5 318.1 313 303.1 296.8 289.8 285.7 279.5 275 271.9 273 271.5 269.5 267.5 270.2 269.7 268 268.2 266.4 263.8 268.6 269.1 266.9 265.2 264 262.7 259 254.5 252.9 255.3 254.3 250.1 247.4 244 243.4 244.8 242.5 242.7 239.4 241.1 242.5 239.4 236.9 238.1 239 239.2 238.7 237 237 234.5 235.1 232.7 229.3 225.4 221.7 218.3 217.3 215.6 213.2 211.5 209.5 209.5 205.1 203.6 204.7 205.3 202.2 201.9 200.5 199.6 200 199.3 196.3 195.4 194.2 193.6 193.8 194.5 194.3 191.1 193.3 193.6 193.8 193.9 189.7 193.7 192.3 192.3 201.9 204 205.5 209.6 213.5 223.1 225.1 228.2 228.9 230.7 229.1 229.9 230.8 221.4 230.8 232.7 232 228.5 224.1 217.6 218.4 219.8 216.7 210.5 207.1 205.9 200.9 193.8 190.2 189.2 193.4 193.8 195.8 197.3 196.3 192.7 189 190.6 188 188 189.4 189.4 188.7 188.5 182.1 180.3 179.9 176 169.2
363.5 397 401.5 420.1 437.5 453.5 462.1 475.2 491.2 515.2 528.3 548.2 579.7 598.6 618.6 641.6 655.4 659 672.1 675.1 677.4 674.8 666.8 647 621.7 599.7 582.8 570.6 549.6 535.1 526.6 511.8 503 495.7 488.8 481.1 471.6 467.7 460.8 454.7 449.1 443.6 438.9 430.9 415.5 410.5 407.8 399.9 391.5 389.3 387.2 384.2 369.8 358.8 351.5 346.4 338 323.3 322.7 318.7 316.6 312.8 306.1 307.4 300.7 293.7 287.3 279.4 276 269.7 264 263.6 262.3 261.9 260.1 254.8 257.8 259 260.6 258.3 255.3 256.3 254.3 252.9 258.7 259 258 254.2 252.9 247.4 244.9 242.2 243.7 245.3 241.8 238.9 233.6 236.9 236.9 237.4 237 233.4 236.8 234.3 231.1 231.6 231.3 234.5 231.8 233 230.5 229.8 227.8 227.9 225.6 222 218.7 217.6 215.6 214.9 215.4 211.7 208.7 206 205.7 207.4 207.5 206.9 206.7 205.1 205.5 205 203.9 204.3 204.2 201.9 200.5 199.3 194 198 197.3 198.7 197.2 197.4 198.2 203.1 198.1 198.4 197 201.2 204.2 212.5 213.6 216.3 221.9 223.7 229.7 234 236.7 237.1 236.1 234.9 237.8 237.6 228.9 237.4 237.9 240.4 242.5 238.9 230.2 237.6 233.5 225.3 219.9 217.4 217 210.2 209.3 208.3 207 209.2 209.5 210.8 212.5 212.8 210.9 206.7 207.3 203.5 201.9 203.9 202.8 202.8 201.3 197.3 196.7 193.3 189 185.1
379.8 398 405.8 419.7 431.8 443.4 452.6 467.4 486.1 509.2 517 530.8 558.6 577.1 593 616.8 638.9 649.8 661.6 672.2 672.9 673.5 669.3 658.9 636.3 616 597.3 579.7 557.9 547.7 536.7 524.8 517.6 503.9 497.7 490.9 486.4 478.2 469.6 461.7 454.4 448.2 443.7 430.6 423.7 415 408.7 398.8 393.9 393.2 389.7 381.9 365.3 357.4 350.9 342 335.7 325.7 308.9 305.8 300.8 296 291.8 293 280.8 272.3 267.7 262.2 259 255.6 252.3 253.3 249.2 249.2 250.4 247.4 249.1 250.9 251.1 247.8 245.1 244.5 244.7 243.7 241.6 243.5 246.5 244.6 247.8 241.3 238.9 235.3 235.2 240.4 238.9 236.9 227.2 228.9 229.1 231.9 235.7 232.2 230.9 226.4 225.2 226.4 225.8 228 226.4 226 226.7 225.8 224 222.9 221.1 219.1 215.7 215.2 214.5 214.6 213.4 208.1 206.5 207.2 208 210.5 209.4 209 210.3 209.6 210.4 211.1 212 210.1 210.6 206.8 205.4 204.4 200.5 204.4 206 206.6 207.2 204.7 206 207.1 203.2 204.3 206.4 212.2 218.8 222 222.5 226.6 229 234 238.9 239.7 244.6 244.7 242.2 241.1 245 242.1 234.8 251 249.3 247.5 247.8 249.4 245.1 242.7 239.3 235.1 233.1 231.4 228.1 224.8 225.8 226.5 223.7 224.3 225.4 226.1 227.4 228.2 226.5 216.3 220.5 219.5 219.2 219.9 220.1 218.8 223.3 222.9 214.5 208.3 205 199.4
377.6 389.1 401.9 415.7 418.7 429.6 444.7 454 461.7 487.7 497.1 513.1 532.9 549.6 568.7 589.3 609.8 627.7 643.5 658.3 664 668.2 667.8 659.6 646 632.6 615.1 596.8 573.6 564 546.1 535.9 523.4 513 506.3 503.7 497 489.2 482.2 472.8 463.6 457.5 452.3 440.2 424.4 416.9 410.8 398.7 396.5 394.7 384.6 374.2 362.6 355.5 346.5 339 332.8 318.3 302.6 288.5 283.8 278.6 273.1 273.3 263.4 255.4 245.9 245 244.5 241.9 241.1 239.4 236.9 238.6 240.7 239.5 240.7 242.4 244.6 240.5 233.2 234.2 233.2 235.2 233.5 231.7 231.4 232.2 241 238.1 235.4 230.1 228.6 226.8 232.4 228.2 225.7 225.9 227.7 227.3 228 234.6 233.7 232.9 229.2 223.6 223.3 222.9 223.1 222.8 224.8 224.1 227 221.1 217.9 216.4 215.4 213.4 212.4 211.9 211.7 209.8 212.6 211.1 212.5 213.2 211.8 212.9 215.2 216.7 216.6 217.4 216.7 218.7 216.5 213.3 210.9 209.8 206.4 208.9 212.8 213.7 214.7 213.4 210.2 213.5 212.3 214.4 217.2 226.9 227.8 233 232.9 238.6 238.8 246.8 247.7 247.3 250.9 255.3 248.8 252.6 248.3 255.8 241.8 262.4 260.5 258 254.9 254.4 252.8 252.7 250.3 247.9 249.5 245 242.3 241.5 243.9 244.2 237.1 241.8 244.5 240.9 241.3 244.3 244.4 231.9 235.6 235.2 234.3 235.7 236.6 236.2 237.4 237.9 231.1 224.5 222.7 216.6
366.7 385.3 395.1 407 409.1 416.2 427.9 439.4 444 464.5 481.8 490.9 509.2 524.1 543.6 560.9 582 602 621.4 639.4 656 658.5 657.1 654.6 646.5 639.7 625.1 607.4 593.9 573.7 560.3 545 536.2 528.1 518.9 512.9 509.3 504.1 496.6 484.3 473.9 463.6 449.4 437.4 420 413 407.8 396.5 394.8 392.3 380.9 372.9 360.3 345.9 338 332.5 319.6 302.1 293.8 278.2 265.3 261.6 260.7 259 247.5 240 234.5 235.4 232.7 232 232.3 230.7 227.2 231.1 233.9 232.8 233.7 235.4 235.1 230.3 229 226.9 227.2 227.3 225.1 224.9 226.5 226.7 229.4 228.7 228.1 226.5 225.5 223.9 224.3 224.3 225.8 226.4 226.8 226.9 226.2 226.5 226.4 226.7 226.6 224.9 222.6 223.9 222 223.3 226.7 223.7 226.3 218.6 216.1 214.7 213.8 212.9 211.4 212.2 218.6 216.7 218.6 218 217.9 218.5 216.7 218.2 218.6 220.4 222.1 221.8 221.8 222.4 221.4 220 219.2 214 217.7 216.3 221.7 221.1 222.8 221.3 220.7 222.7 224.8 229.2 231.4 239.6 240.6 243.1 244.8 253.5 252 255 256.1 260.4 261.8 261.9 258.1 260.7 258.1 262.7 250.9 266.3 272.8 265.8 265.7 262.5 262.1 262.4 266.1 264.5 260.4 261.1 258.3 258.4 257.9 258 252.6 258.3 260.1 256.1 256.6 259.8 261.1 250 253 249.1 249.9 250.9 253.7 253.9 255.6 255.3 246.2 239.6 235.3 230.1
368.7 386.5 387.5 393.8 393.7 402.1 416.1 420.5 430.9 445 468.7 471.9 487.3 499.9 519.4 535.3 552.5 575.6 592.3 612.5 631.5 643.8 642.4 644.3 638.2 635.3 625.3 615.2 601.8 591.7 576 564.5 558.7 552.3 540.7 530 531.6 523.6 506.6 489.5 476.9 458.9 449.7 430.8 406.1 403.2 398.3 393.4 393.5 386.6 377.6 367.3 356.6 340.9 328.6 321.9 305.9 289.3 275.2 262.9 247.8 247.3 247 241.1 235.7 227.2 227.7 225.4 223.5 223.1 222.2 221.1 219.4 224.3 224.9 225.7 225.4 229.5 225 224.1 222.5 222.1 225 223 221 221.2 222.3 223.5 224.3 223.2 222.5 223.5 225.3 223.8 224.4 230.3 231.4 227.6 227.4 227.4 226.8 226.5 225.3 224.1 223.4 222 221.5 222 221.2 220.5 222 220.9 219.2 223.2 218.4 218.4 214.8 214.7 216.9 217.5 225.6 225.9 226.1 224.5 224.8 223.9 223.9 225.3 225.9 226.4 227.1 229 227.5 229.9 229.6 227.5 227.2 222.1 226.7 229.6 231 231.9 231.2 231.6 232.4 236.7 245.2 245.9 247 257 257.4 257.4 258.6 260.7 262.8 267 268.3 266.5 269.6 272.6 270.9 267 269.5 274.5 262.1 267.7 282.6 274.6 276.9 271.6 274.1 277 278.8 277.9 276.1 273.2 276.1 274.4 276 274.3 271.4 274.6 274.7 272.5 271.7 277.4 270.8 270.9 271.6 264 266.3 266.4 267.4 268.4 269.3 267 262.3 254.6 247 240.3
368.7 375.3 375.5 379.7 385.5 395.9 398.1 404.1 416.3 427.6 441.1 451.9 466.1 475.2 492.6 507 521.9 541.6 562.6 584.1 600.5 615.9 621.6 629 628 626.1 620.8 620.3 610.9 602.8 597.3 591.1 576 566.4 558.2 547.2 536.6 518.5 500.5 484.4 470.1 446.9 436.5 419.4 398.8 393 391.4 389.1 386.8 382.5 363.5 350.4 337.3 330.4 312.5 298.6 287.6 273.2 258.3 247.9 240.3 232.5 233.8 226.2 221.4 217.5 214.2 213.2 213.9 214.9 213.1 212.9 212.6 216.8 216.9 219.3 219.5 220.8 220.4 217.2 219.9 222.1 223.6 222.5 220.3 222.1 220.7 221.8 221.4 223.1 224 228.4 228.5 225 229.7 230.4 229.9 228.3 228.7 229.2 227.4 227.1 227 227.8 225.6 226 225.6 223.5 224.9 222.1 220.9 220.5 226.7 225.1 223 220.5 219.7 221.1 225.6 227.8 228.6 231.8 230.1 230.6 230.5 230 230.3 231.3 231.6 235.2 237 233.4 238.9 238.6 237.7 239.9 239.4 232.8 243.4 239.9 239.3 240.8 242.2 245.7 246.2 249.2 257.1 260.5 261 267.4 269.1 271.1 272.9 274.6 279.5 276.3 277.5 278.2 279.9 282.5 281.1 278 282.4 283.5 270.2 274.6 282.7 281.2 281 285.7 289.9 292.7 293.4 290.9 291.2 291.3 291.5 292.9 291.7 290.9 288.3 289.8 288.2 286.3 288.2 290.1 284.9 292.6 289.3 285.9 282.8 281 281.3 281.9 283.6 283.3 280.7 273.2 261 249
361.5 366.7 366.8 366.8 367.7 375.3 382.9 388 400.3 409.4 423.8 433.3 447 453.7 465.5 479 493.6 513.3 533.7 557.4 574.1 588.4 600.5 611.9 617.7 618.3 617 618.1 617.6 607.8 607.3 596.4 584.3 575.5 575.5 569 550.5 505.2 486.9 472.3 452.6 428.8 417.4 401.9 395.1 387.9 389.1 388.1 380.9 370 346.7 344.5 325.6 307.5 291.5 276.8 264.1 252.6 242.7 235 230 222.3 217.2 211 210 207 206.1 205 206.7 206.9 206.7 206.9 209.3 211.5 211.7 212.7 216.8 215.7 213.3 214.8 219.2 217.9 218.3 219.9 218.9 223.6 222.4 220.9 224.2 227.3 227.1 228.5 229.7 226.6 230.7 230.9 230 230.5 230.8 230.2 229.3 229.5 228.9 228.8 228 228.2 227.5 225.5 226.5 227.1 227 227.2 229.1 226.1 225.7 227 227.7 229.1 229.4 231.4 233.2 236 236.2 237.6 237.4 240.5 240.9 239.7 242 243 244 242.5 243.7 247.3 249.9 249.8 248.5 244.9 246.5 247.9 250.5 253.2 255.4 259.2 261.5 265 271.1 274.7 280.1 279 284.6 286.1 288.6 291.2 292.6 290.2 290.9 291.3 289.6 292.7 295.1 289.7 286.2 287 286.6 275.3 285.8 288.1 291.7 297.8 301 305.2 306.5 304.7 304.9 307.1 308.9 309 307.4 303.9 301.8 299.7 300.5 298.8 302.4 302.3 302 308.8 303.2 300 296.5 295.7 297.7 296.7 296.9 298.7 293.6 284.6 273.5 263
357.1 357.2 356.8 360.1 359.9 361.2 374.1 372.1 380 390.9 404.2 416.5 426.7 436 446.1 455.9 472.2 485.7 505.8 526.2 544.2 559.7 571.1 585.7 601.7 606.5 607.4 608.8 610.9 605.8 604.4 598.7 591.4 587.9 585.7 571.4 548 497.1 470.1 450.6 428.7 415.6 402 394 392.4 380.2 378 377.3 367.9 349.8 332.8 315.6 301 286.7 273.1 257.6 245.5 237.2 230.7 222 217.5 211.8 204.3 206.1 204.2 201.9 199.6 197.8 200.4 200.3 200.6 201.3 204.8 208.2 205.3 211.6 211.3 210.3 214.8 216.4 218.2 218.6 221 223.3 223.6 227.6 226.1 226.4 228.1 229.6 229.1 230.7 230.1 230.6 231.6 232.1 233.1 232.8 232.8 232.2 231.2 231.7 231.2 231 231.4 230.7 231.4 230 230.2 230.4 230.3 233 233.8 232.3 232.4 234.4 235.3 234 234.6 238.2 241.2 243.6 245.1 245.7 247.6 249.1 250.2 251.3 251.2 250.8 250.5 252.2 252.1 256.2 257.7 255.6 254.7 248.8 255 256.9 262.1 263.3 269.8 274.8 278 283.1 291.8 289.5 291.3 299.4 303.2 303.4 302.9 307.3 305.5 304.3 307.8 304.3 301.2 303.4 304.1 298.4 294.5 293.5 287.1 284.3 293.5 299.3 301.9 307.5 312.4 318.6 321.6 320.2 320.4 318.7 321.5 322.3 320.2 318.1 316 315.9 312.3 311 314.3 314.8 319.2 318.9 316.2 314.4 311.3 311.9 316.9 309.9 305.9 306.3 300.8 293.3 283.2 275.5
347.1 350.8 349.1 347 350.7 353.1 354.6 358.6 364.8 372.7 381.5 395.4 404.3 416.5 423 431.8 442.1 458.5 479.2 498.2 515.3 529.7 543.4 559.9 581.3 593.4 596.4 598.5 597.5 595.1 595.1 594.4 591 586.4 578.7 560 528.7 492 456.9 438.8 420.7 408 390.5 380.2 372.6 363.7 347.7 338.4 328.2 321.6 307.1 288.8 275.6 263.2 251.6 243.4 235.7 226 218.9 210.5 206.6 203.9 199.1 203.4 200.5 197.9 196.7 196 196.7 196.6 197.4 198.3 196.3 201.6 205.9 206.6 208.8 214.8 220.6 222.7 223.5 223.6 226.4 229.2 232.6 234.3 234.4 235.3 232.1 234.3 233.5 234 237.1 238.3 235.6 235.2 235.6 235.6 235.7 235.8 234.2 235.8 236.4 234.6 235.1 236.2 234.9 235 234.4 234.7 236.7 238.4 242.8 241.1 240.6 241.2 242.4 245.1 244.9 250 252.2 250.8 254.3 254.3 260.5 263.4 261.7 261.7 261.5 261.6 262.8 264.7 264.3 263.3 265.3 264.3 262.1 256.5 267.4 273.1 273 277.7 283 288.2 293.2 300.2 305.4 305.3 311.9 320 317.1 316.3 323.3 323.7 322 320.5 320.3 315.8 315 313.7 309.6 306.7 305 302.2 293.5 292.6 299.8 307.4 313.9 320 326.1 330.1 331.4 331.7 332.7 331.3 333.6 332.9 335.3 332 329.6 328.5 323.6 324.4 326 326.7 326.9 329.6 328.5 330 325.7 324.8 324.9 322.8 319.1 319.1 309.2 299.2 297 287.7
344.4 347.1 348.5 348 347 347.3 344.2 345.2 348.9 354.3 362.8 369.8 385 395.8 404.7 412 422.2 436 453 472.7 489.5 500.9 516.2 532.2 554.6 570.3 579.3 587.5 585.7 583.6 585.6 587.9 585.9 583.7 570.4 552 507.9 474 448 428.6 406.7 392.6 373.4 360.8 353 342.2 323.3 306.7 299.9 292.8 282 271.1 254.6 246.2 237.1 229.2 218.1 211 205.4 200.9 198.9 195.5 190 194.4 192.9 192.9 189.8 190.5 193.7 189.6 193 197.6 202.4 207.3 210.6 213.6 217.8 221.8 226.3 230.6 229.5 232.7 235.7 238.1 240.3 242.1 240.5 241.9 239 239.4 239.7 238.9 241.5 242.3 243.6 242.9 241.7 246.1 246.4 242 243 238.4 242.5 242.7 241.3 242.7 242.9 242.4 243.3 243.2 244.6 248 252 249.5 248.9 250.7 257.5 260.4 263.6 263.6 261.9 264.4 266.7 270 275.6 275 275.9 274.4 277.2 274.2 275.1 276.1 274.5 276.2 275.5 273.5 270.5 268.4 282 287 286.5 293.2 299.2 302.5 307.8 313.9 322.7 327.7 333.2 335.5 335.6 335.3 338.1 337 334.5 332.4 331 330.3 326.6 329.7 323.2 319 318.6 310.6 305.9 298.7 309.3 315.5 325.3 333.3 334.8 340.8 341.3 346.3 346.8 343.8 349.4 347.6 346.4 342.6 343.9 339.8 337 337.9 339.8 339.7 339.9 340 342 345.5 341 340.9 342 341.4 332.6 325.4 316.2 311.8 306.6 298.6
350.5 349.1 347.7 351 346 345.1 344.7 340.8 339.6 342.8 345.8 351.8 367.2 375.1 384.3 397.4 402.6 414.6 430 447.3 458.9 471.9 491.9 506.6 525.3 541.2 552.2 564.3 570.5 571 575.6 581 581.2 576 556.7 527.9 489.9 459.2 438.5 419.7 396.4 374.2 351.5 347 326.6 314.6 302.1 292.9 285.4 276.4 266.1 255.2 241.9 231.2 224.5 216.8 210.1 201 195 191.8 189.3 185 183.8 185.4 186.2 184.9 183.9 184.5 186.8 191.1 195.8 201.7 207.2 215.3 220.8 228.4 230 232.8 238.4 241.9 241.2 244.5 247 248 247.6 249.1 249.3 249.3 247 246.7 246.3 247 249 248.1 247.5 247.9 246.7 245.7 250.2 252.5 250.6 243.4 249.5 252.5 249.7 250.1 251 251.3 253.3 253.5 258.3 260.3 263.4 261.8 263 266.5 271.4 272.5 275.2 275.9 277.2 280.9 284.1 289.7 288.4 288.8 290.5 290.3 295 291.5 291.8 290.5 291.6 293.3 290.4 285.8 278.9 278.4 284.3 291 295.8 304.1 310.6 317 320.1 328.7 340.2 342.4 345.7 351.2 350.7 352.5 352.1 354.5 350.8 349.1 344.8 344.7 339.5 339.6 334.8 329.4 327 323.3 319.4 299.3 315.8 325.5 335 340 346.8 350.6 353.3 356.8 358.2 357.1 361.3 358.9 358.9 353.5 353 355.7 351.6 351.2 352.4 348.7 350 350.1 359.1 359.6 358.1 357.9 355.3 347.1 341.9 331.8 329.6 325.5 320.8 307.9
362.3 358.4 354.1 353.9 351.7 345.1 340.6 340.2 335.4 333.7 334.2 337 348 358 364.5 377.8 383.9 397.6 407 421.4 438.4 447.9 463.8 477 491 511.2 524.1 534 542.6 550 560.1 563.2 562.5 555.9 539.5 514.6 471.6 447.7 426.1 411.4 377.2 353.3 335 321.6 307.2 290.7 285.5 282.8 274.8 261.4 247.3 230.8 222.5 215.5 212.5 208.9 202.9 193.5 187.7 186.2 180.7 177.7 179.7 180.5 180.4 181.1 182.1 186.3 191 195.3 202.7 210.1 219.2 228.2 236 239 242.6 248.1 251.8 255.2 258 257.7 261.1 260.6 260.6 261.5 261.3 260.5 258.7 256.3 254.2 255.2 255.6 254.6 254.6 253.9 250.9 253 262.6 262.4 255.8 251.5 254.4 257.6 260 260.7 259.8 261.2 263.5 266 271.1 274.8 276.3 277.8 277.9 282 282.1 286.6 291 291.6 294.5 295 298.9 301.5 304.2 306.2 305.3 309.9 316 312 310.7 315.9 315.6 306.4 303.5 296.7 296 289.5 292.8 304.6 308.4 316.9 323.2 331.5 336.8 343.3 356.3 358.2 363.3 365.1 366 369.9 372.8 370.8 371.1 368 365.6 363.6 360.4 354.2 346 344.8 340.3 334.5 327.5 310.9 322.9 334.2 346.9 351 356.2 359.8 364.4 371.7 371.6 371.9 372.7 375.9 371.6 371.6 372.7 369.8 364.4 364.1 363.1 355.8 363.6 365.1 368.9 370.6 369.3 370.6 369 358.3 351.1 343.9 342.1 339.2 333.7 328
373 370 364.5 357.3 350.9 345.6 337.3 332.1 334.9 326.7 325 323.7 333.5 342.9 348.9 356.1 363 376.2 387.1 399.6 413.4 427.5 438.8 450.9 465.6 478 493.9 505.6 515.9 521.9 534.3 539.9 532.6 522.1 512.1 497.1 450.3 427.7 411.8 393.3 359 339.2 323.2 304.5 289.6 276.7 274.8 274.1 256 237.9 225.1 217.6 209.2 206.8 205.2 198 191.9 188.1 180.7 178.2 175.1 175 175.9 175.2 176.8 179.8 185.4 190 193.9 202.4 215.1 223.9 231.6 239.3 245.9 252.6 258.1 265.5 271.3 273.1 273.9 272.2 275 276.3 274.9 274.4 272.6 271.5 269 268.3 265.5 264.1 263.4 261.6 264.5 256 258.7 261.2 268.7 267.1 263.3 261.1 264.2 266.7 269 268.7 269.3 274.3 278.4 281.6 283 285.5 290.3 293.2 294.6 295.9 300.5 301.8 304.1 306.2 308.3 311.4 313.8 317 320.3 320.5 323 325.5 329 328.7 333.8 335 330.5 324.1 321.6 314.1 309.1 300.3 306.1 313.3 320 326.9 333.9 343.5 352.3 357.2 366.1 372.8 380.6 380.7 385.6 391.7 395.2 395.6 395.7 392.2 389.1 387.2 380.9 370.5 361.5 350.8 350.5 345.4 337.4 321.8 331.6 347.3 353.9 364.9 376.3 371.6 373.1 382.9 390.3 385.4 388.6 390.4 385.3 383.2 383.6 384.9 379.1 379.3 378.5 368.4 376.1 375 378.2 378.4 380.8 381.8 378.9 369.3 359.9 359.5 355.1 349.9 342.9 339.7
394.7 385.8 377.7 367.8 354.7 347.6 336.3 326.1 323.6 319.5 313.5 312.5 323.3 328.4 330.9 338.4 344.4 354.8 368.2 381.2 391.7 402 413.3 427.4 442.5 452.9 465.9 476.4 487.1 493.7 500.2 507 494.3 480.7 471.2 455 427.6 410.7 388.3 377.5 344.2 317 304.9 287.6 274.4 267.1 258.4 250.9 233.4 220.4 212.7 206.9 203.7 198.7 195.4 189.1 185.3 178 173.4 173 171.8 172.9 173.2 175.3 178.4 181.7 187.8 195.3 205.6 218.2 226.2 235.8 245.5 253.3 260.8 271.7 278.6 286.9 294.9 291.9 290 290.4 292.3 288.2 288.2 286.6 284.5 282.8 279.4 277.2 276.8 275.8 275.7 269.9 268.8 266.2 268.2 271 273.7 273.1 269.7 274.7 275.4 277 280.5 277.9 281.2 287.1 291.7 293.1 296.5 299.7 302.9 306.1 307.8 310.2 314.6 317.7 318.8 321.5 325.3 331.6 333.1 336.5 336.4 340.6 342.4 343.8 345 349.3 357.2 352.5 342.1 340 335.2 330.3 320.6 316 312.6 321 330.1 337 344.6 355.6 365 370.3 381.5 386.2 394.4 399.7 405.3 411.1 413.3 415 416.1 411.4 409.1 402.7 392.9 382.2 370.6 367.5 361.5 356.6 345.3 331.7 345.5 361 364.9 375.4 380 383.2 386 393.3 401.6 401.5 403.1 399.2 396.9 397.6 400.7 397.1 398.1 392.1 383.1 383.8 388.7 388.8 391.8 391.8 392 389.8 388.8 380.4 370.4 371.8 368.1 362 358.4 355.5
409.1 394.3 386.3 373.9 362.7 353.3 340.9 331.5 316.5 313.6 305.5 308.2 312.1 318.5 315.6 321.9 331.3 338.6 350.4 360.2 372.7 383.2 392.4 402.8 417.5 429.5 437.5 449.5 454.7 464 468 467.3 460.6 449.2 435.7 425.8 405.4 384.7 376.5 353.6 323.8 306.3 290.9 275.3 264.8 253.4 244.7 229.9 220.2 213 201 200.1 197.9 192 184.9 180.9 175 170.2 168.4 169.6 172.4 172.1 174 176 180.6 186.8 194.5 207.6 219.8 230 239.4 249.1 257.8 268.3 280.9 293.1 302.1 306.6 307.9 306 305.9 304.7 306 301.8 302.2 296 295 293.1 290.8 289.8 291.1 288.7 280.5 281.8 277.8 274.2 273.6 277 280.2 280.1 280.5 285.7 286.1 292.4 291.5 296.2 297.9 299.7 303.3 308 311.8 315.5 316.9 319.3 323.3 327.7 334.2 333.4 340.3 342.5 343.5 355.7 355.1 360 358.1 360.3 365 366.6 367.3 370.1 372 366.7 361.4 367.9 347.9 340 329.8 323 326.3 329.1 337.4 347.2 358.2 368 378 388.9 400.1 406.9 416.4 424.2 433.6 442.9 447.4 446.6 443.2 439 431 415.4 404.7 397 386.1 375.5 370 359.9 355.6 342.8 356.6 370.7 377.6 385.7 392 394.8 401.9 407.8 411.1 413.3 417.9 415.1 411.9 411.3 412.4 407.6 408.1 402.5 397.5 398.5 400.8 402.1 404.6 408.2 403.9 402.2 400.4 393.6 384.7 381.8 380.5 373 370.3 367
419.6 414.5 396.5 381.3 371.1 357.2 346.4 335.7 324.7 310.4 303.5 300.6 303.5 305.6 306.8 309.3 316.4 320.7 330.1 345 353.1 365.3 374.2 383.2 395 404.2 414.3 424.3 433.4 438.6 440.1 437.4 433.2 424.3 412.8 400.3 387.1 362.4 345.4 329.2 308.7 293.4 281.9 268 259 244.7 227.6 217.9 209.5 201.5 193.6 194.2 190.8 183.4 179.1 174.2 170 166.4 167.2 168.2 170.7 172.6 175.7 179.7 186.3 196.8 208.6 220.3 229.9 241.5 252.6 263.3 274.9 289.4 306.2 316.2 323.2 323 325.6 322.7 320.2 320.6 317.3 314.1 311.5 308.8 307.6 303.7 306.4 303.2 302.3 295.3 290.5 288.3 281.7 283.6 278.8 284.8 287.6 292.4 291.8 291.3 300 306.4 305.6 309.4 313.4 317.1 318.6 323 324.9 330.6 332.7 336.8 342.7 345.7 351.4 359.2 362.6 369.1 369.3 379.5 379.7 382.7 384.7 386.5 384.8 384.2 383.8 382.2 380 373 375.9 371.7 356.4 343.6 333.6 327.7 336.1 336.4 345.9 358 370.4 379.5 394.3 408.8 418.8 428.1 440.2 456.9 461.4 466.7 470.7 471.8 469.4 461.8 452.9 438 427.5 414 393.9 381.6 375.9 370.4 359.6 351.2 365.3 378.9 385.4 394.2 400.4 409.4 414.3 421.6 426.4 426.4 424.8 432.7 426.9 421.9 422.3 421 416.4 413.3 408.9 410 414.1 416 416.9 418.4 421 419 410.9 403.6 397.3 395.3 393.7 386.8 383.9 381.5
430.6 421.5 406.1 391.9 379.7 367.6 356 344.1 331.2 321.3 309.6 299.3 293.4 296.3 297.3 300.5 304.1 307.6 314.7 324.8 338.8 346.7 353.2 363.6 377.2 385.4 391.1 397.1 405.2 413.6 416.3 415.1 409.3 401.9 393.6 376.9 367.9 343.5 322.6 305.2 297.2 281 267.1 255.3 242.6 232 216.1 202.9 198.2 191.2 186.1 184.2 179.5 176.1 172.8 169.7 164.2 165.9 166.5 170.5 172.9 176 181 189.2 198.6 210.2 222.9 233.5 241 254.7 266.2 279.9 295.7 315.1 331.6 338.5 339 340.8 339.8 338.2 334.5 333.4 330.7 328.1 322.3 320.4 319 317.1 318.4 315.9 310.4 304.9 299.9 294.1 292.4 293.3 292.4 292.8 300.8 302 302.8 305.3 313.7 316 316.9 322.8 327.5 330.7 332.8 335.6 341.6 349.6 351 359.1 362 368.4 375.9 382.8 387 392.7 395.8 400.3 407.6 415.6 412.6 410.8 408.6 402.8 392.7 388.9 384.8 380.3 376.5 371.3 362.1 351.9 339.3 334.9 350.2 347.4 357.5 368.4 381.8 398.5 413.4 425.4 436.7 449.9 462.8 472.4 480 489.3 493 488.9 483 473 464.6 456.9 444.4 430 411.1 389 380.5 376.4 368.9 357.3 374 387.9 395.1 401.3 414 421.2 427.4 434.6 436 433.9 434.4 438.7 436.4 433.8 432.9 430.6 429.2 421.6 420.4 423.9 427.7 426.1 423.7 429.9 433.6 431.9 422.3 414.1 411.3 404.6 403.5 395.9 396.6 392.2
441.1 428.5 416.1 402.4 388.2 372.1 357.7 354.2 346.1 328.8 315.1 305.1 292.9 284.1 287.3 289.4 295.8 297.2 297.6 306.6 316.5 326.1 336.5 342.9 353.6 358.8 367 373.7 382.7 388.7 391 393.1 389.5 385.4 377.5 363.3 341.1 323.5 306.9 293.8 280.5 263.6 250.9 239 226.3 217.8 202.4 196.3 190.5 184.9 181.5 177 174.1 172.3 170.9 166.7 165.2 167.5 169.2 172.9 176.1 182.3 187.1 200.7 209.8 222.3 233.7 245.8 256.7 265.6 283.1 299.6 321 339.2 350.9 359.6 368 362.7 363.7 356.8 353.3 352 343.5 338.8 337.2 335.7 332.5 331.3 329.6 325.2 319 315 307.1 301.1 301 301.3 303.1 303.8 310.3 312.9 315.6 319.7 323.2 328.2 328.8 334.2 340.1 346.5 349.8 356.3 361.8 368.8 372.5 378.9 385.7 394.6 397.9 405.6 412.6 416 425.3 431 438.8 439.3 430.4 426.9 421.6 410.4 400.3 393.8 388.8 387.9 380.7 375.4 367.7 356.8 347.9 345.1 354.4 358 367.8 380.9 395.4 413.3 432.1 445.2 458.8 469.7 480.6 488.4 497.2 503.6 505.4 502 496.4 482.7 474.7 468.8 462.3 454.2 444.6 398.8 385.3 378.4 371 367.6 379.1 393.3 404.9 410.6 420.7 432 438.8 446.6 447.1 446.2 445.2 448.6 446.1 443 446.2 448.1 439 429.8 432.1 435.4 437.4 432.9 435.2 441.7 442.1 441.6 434.3 426.8 422 415.1 409.2 407.5 406 402.3
451.9 441.2 425 413.5 398 376.8 365.1 363.9 357.4 333.4 319.5 302.9 290.1 280.9 273.8 276.2 279.2 281.2 286.4 290.6 300.1 306.6 317.3 325.3 331.1 339.7 345.3 350.5 357.7 365.6 370.5 372.3 368.4 364.5 354.6 340 321.9 305.1 291.1 279.2 264.7 250.8 241.7 227 213.2 200.9 195.2 189.2 185 179 173 171 169.4 167 166.5 163.6 166.5 167.7 171.2 176.2 183.1 191.8 199.3 212.6 224.5 233.3 244.7 257.4 269 286 302.5 324.5 341.2 365 381.4 385.6 387.2 385.5 377.7 375.9 371.8 369.7 365 355.5 353.6 352.7 350.8 345.3 341.7 336.2 330.3 325.6 318.1 310.4 309.3 310.5 315.1 315.2 319.2 323.8 324.3 331.8 332.2 338.2 345.1 347.8 355.7 364.8 368.6 372.3 377.3 387.3 392.5 402 405.2 414.2 422 427.6 436.6 446.6 450.2 451.5 453.9 448.8 446.9 443.3 434.5 424.6 408.3 403.8 401 396.3 385.2 378.9 370.9 362.8 355.2 351.5 361.4 368.1 379.6 393 410 430.7 445.6 463.8 477.1 486.3 495.9 504.1 511.5 519.4 518 516.5 512.4 495.8 485.3 481 473 461.8 450.4 407.3 390.1 380.3 370.9 374.3 385.9 400 412.8 419.5 432.2 441.4 451.2 459.8 463 462.7 463.6 459.5 453.9 452.1 457.9 455.7 451.3 440.6 439.9 445 444.5 442.3 442.6 447 452.9 450.8 442.4 436.5 430.9 426.4 418 421.5 415.2 408.4
459.3 447.7 432.7 413.9 395.5 381.3 366.2 355.3 346.8 332.3 316.9 302.5 291.7 277 267 265.9 267.4 268.3 275.9 279.6 286.5 291.6 299.7 312.1 314.6 317.5 320.7 331.1 340.4 344.2 346.6 351.4 348.7 347.8 338.1 320.8 306 293.1 277.3 267.4 251.5 237.2 228.4 213.4 199.4 190.1 187.3 182.1 175.8 170.2 168.3 166.2 167.8 165 159.2 161.8 167.4 170.6 177.3 185.2 192.8 204.7 215.5 225.4 235.1 246.2 257.3 270.9 288.1 307 328.8 352.1 377.9 382.5 389.3 392.8 395.5 389.2 388.4 385.2 385.3 383.6 378.8 372.7 369 363.4 360.7 357.2 349.3 346.2 340 334.8 328.5 322.3 322.5 323.5 325.8 325.6 325.6 329.9 338.9 347.9 343.9 346.4 360.4 361.4 369.5 377.7 382.7 390.2 395.2 398.8 411 417.3 426 430.8 439.7 444.9 453.5 461.1 464.2 465.3 465.3 462.5 461 457.7 442.7 434.5 423.3 418.1 409.9 406.4 391.5 384.5 376.5 370.7 356.2 358.4 369 380.9 391.5 403.7 423.4 443.1 461.3 478.7 492.3 501.8 512.5 522.2 532.6 537.8 541.4 529.7 521.9 511.5 498.3 491.6 486.3 479.3 463.7 419.2 401.6 386 375.2 379.4 392.8 406.1 420.5 430 442.7 452.9 461.6 472.6 479.8 475 472.8 472 472.6 466.3 464.4 467.2 461.8 452.1 447.2 450 456.6 452.1 453.2 454.8 459 453.4 450.5 446.8 440.1 436.5 427.4 427.9 423.5 417.6
461.2 448.6 437.3 425.7 408.2 394.7 378.2 363.3 343.2 322.7 314.9 299.4 285.9 273 266.5 260 254.5 255.9 264.8 269.3 275.3 279.7 286.1 294.8 296.8 302.3 303.8 310.2 316.4 324.3 323.4 328.2 329.9 327 319.9 303.3 293 279.7 264.2 254.9 240.8 225.8 216.2 203.3 194 182.5 179.1 174 167.5 164.4 162 164.8 158.6 161.9 165 166.3 172.3 178.5 186.8 197.4 204.7 215.5 225.6 235.8 247.1 259.8 275.7 290.2 309.9 330.4 350 373 387.7 393.9 396.8 398.8 396.1 395.7 394.3 393.4 393.4 393.3 389.3 383.4 379.6 374.4 371.1 363.7 359.8 353.9 348 343.5 333.5 333.9 332.1 334 335.6 335.5 334.7 342.7 345.7 355.1 359.5 365.7 365.1 375.8 380.1 385.6 395.4 401 407 413.1 424.4 435 440.1 446.2 454.4 464 469.4 475.8 476.9 479.2 476.7 472.5 470.7 468.3 462.6 442.2 439.5 432.7 432.9 426 402.1 392.4 378.1 371.5 361.4 366.6 374.9 388.3 402.3 415.6 434.3 456.2 476.1 492.1 504.6 517.3 528.7 540.4 550.5 559.5 564.8 557.5 537.5 520.5 507.5 501.9 495.1 483.4 468.3 457.2 411.1 397.1 381.9 387.9 398.4 415.9 429.5 439.4 455.7 464.7 476.1 486.1 494.4 490 485.4 484.4 477.6 475.9 474.3 479.2 472.7 461.5 456.4 461.6 464.6 463.1 461.5 460.1 462.4 459.5 457.9 455 448.2 444.2 437 436.2 434.8 429.3
461 455.6 446.3 432.9 418.4 404.7 387.5 364 339.7 321.2 305.4 293.7 280.2 270 264.1 256.6 247.2 252.8 257 261.2 265.8 269.1 273.1 274.7 280.5 289.9 288.4 292.8 297.5 300.4 304 305.2 309.2 303.3 300 291.4 277.2 264.4 252.3 242.3 227 215.2 207.1 194.8 184.6 178.5 173.2 167.7 163.2 159.9 155.8 159.4 160.7 162.7 166.8 171.7 183.5 189.7 200.1 207.1 216.5 226.9 236.9 250.2 262.3 275.3 292.5 311.4 331 353.4 376.2 393.7 409.6 417.6 417.9 410.8 408.2 404.8 406.9 403.8 401.9 402.3 399.9 394.2 388.4 381.8 372 368.8 366.2 360.7 354.2 352.3 345.5 341.9 343.5 343.5 345.2 348.6 348.2 354.9 358.4 364.3 367.4 372.8 378.6 382.5 390.3 398.5 406.3 415.6 425 432.5 438.3 446.9 455.4 464 472.8 477.8 483.5 488.7 492.7 493.3 492.3 487.4 483.8 474.3 468.1 458.9 455 445.2 441.3 430.8 412.2 404.6 386.7 376.6 374.3 370.8 385.9 397.4 408.7 427.5 446.5 469.8 489.2 504 517.4 534 549 565.6 577.2 584.5 591.5 578.2 547.8 527.3 515.6 510.7 506.2 499.9 490.4 472 447.6 406 395.8 396.2 406.5 420.4 435.8 450.3 462 479.4 490.8 498.1 501.5 507.6 503.5 490.3 491.2 493 485.8 489.5 492.6 480.5 464.1 465.8 470.9 473.5 465.6 465.9 467.8 469.7 462.6 460.6 457.8 457.3 445.8 450.2 445.4 439.6
475.5 463.4 457.1 445.7 429.1 418.5 409.9 372.4 345.1 325.5 304.4 289.9 278.3 268.6 256.9 248.8 241.4 243.9 249.3 253.1 256.4 259.5 262.6 265.7 270 270.2 273.9 278.2 279.7 287.1 287.2 287.6 288.9 281.9 278.3 270.7 261.2 256.5 242.3 226.3 215.6 204.4 198.8 189.2 177.9 171.4 166.2 161.6 160.2 156 157.5 159.2 161.2 165.1 173.9 180.4 189 197.3 207.8 216.7 226.6 236.8 251.2 265.3 278.3 294.3 313 335.5 358.2 379.9 397.4 413.4 430.3 435.5 436.3 432.9 421.1 418 416.4 414.7 411.3 410.2 405.1 401.2 394 383.9 379.2 373.4 370.6 364.3 360.9 356.6 352.7 353.7 355.5 354.7 354.6 358.3 359.2 363.7 367.7 369.4 378.8 383.3 389.2 394.5 401.7 407.7 417.7 426.3 436.1 446.5 455.4 465.7 470.2 479.6 486 492.2 499.9 503.9 506.4 511.5 507.2 503.2 496.6 483 472.7 463.2 459.5 452.6 444.6 430.4 418.6 408.5 396.8 387 383.5 378.9 393.8 403.3 417 435.8 458.4 482.8 502.3 517 535 554.9 575.8 594.3 605.3 605.7 611.9 595.3 559.9 537.9 523.6 521 513 507.6 498.9 476.3 456.3 425 408.9 406.4 415.1 430 443.7 455.5 471.7 490.7 503.7 512.3 518.6 516.6 511.6 498.3 501 498.3 498.6 500.1 505.2 493.3 475.2 474 476.3 483 473.7 472 476.8 485 473.7 467.5 472.2 470.6 459.6 455.2 454.1 448.8
486.9 473.9 463.7 448.6 436.6 423.8 407.8 379.3 353.6 333.2 311.6 294.2 278 265.8 257 245.7 239 235.8 243.6 244.8 248.4 249.3 254.7 258.6 257 259.6 260 263.2 264.7 270.8 269.7 269.2 266.5 265.9 259.4 259.2 252.6 242 227.5 212.6 204.9 196.8 191.3 181.8 174.7 168.2 162.5 159.3 157.3 149.6 159.7 161.8 165.4 172.3 179.7 188.7 198.6 206.6 218 227.4 240.6 254 267.9 280.1 293.8 315 339.9 359.4 381.7 401.1 421.4 437.5 448.8 452.2 450.9 444.4 444.4 437.1 430.3 426.6 423.7 419.4 412.9 405.4 398.5 389 383.6 379.1 373.4 370.5 364.7 364.2 362.1 362.2 361 363.7 366.9 369 369.9 371.6 379.1 381.6 388.4 396.9 402 409.8 414 421.4 429.4 439.8 449.2 457.6 466.5 476.3 486.3 495.2 502.1 507.7 512.1 516.8 518.5 523.5 518.7 516.6 513.6 489.9 483.1 472.7 463 456.9 454.3 448.5 431.7 416.7 413.9 395.7 390.6 386.8 401.1 411.6 425.8 444.6 470.5 496 515.5 533.3 554.5 578.2 599.1 615.9 624.1 625.9 630.2 605.1 572.4 546.6 535.4 527.1 520.5 515.5 501.7 483.5 468.8 444.5 427 417.6 426.8 440 450.9 466.1 481.8 502.1 520.4 530.4 535.1 540.2 520.3 504.2 500.2 503.9 503.2 508.1 511.4 497.7 482.6 483.8 488.6 488.6 477.2 478.3 480.4 486.7 482.2 470.7 475.5 474.7 467.1 464 466.3 460.6
498.5 482.1 468.2 456.9 443.4 430.2 413.2 393.5 364.4 340.8 322.3 302.4 283.7 269.2 258.4 243.3 235.4 226.9 230.8 237.5 239.9 244.1 245 246.7 247.6 250.6 248.7 250.5 253.3 255.2 255.8 250.1 251.9 249.6 249.1 246.9 237.5 225.4 213.2 204.6 195.8 189.4 181.6 174 167.4 164.6 157.7 151.5 155.4 157.5 162.2 166.3 173.7 180.7 189.2 199.2 210.7 220.2 229.1 241.9 256.6 271.6 282.7 296.1 313 336.3 360.9 386.1 404.1 422.7 443.1 461.3 464.3 460.3 460.1 461.8 462.3 453 444.2 442.2 436.6 428.2 419.7 413.6 405.2 397.5 389.8 383 377.4 370.6 369.8 371.2 369.7 370.8 372.6 377.7 377.8 377.8 377.6 383.6 384.9 393.3 403.3 409.2 416 419.6 423.8 433.6 441.3 450.3 459.6 471.3 480.8 486.8 495.3 504.8 512.7 519.8 524 526.1 528.6 530.3 527.2 523.4 522.5 510.5 491.4 480.9 475.8 467.6 459.9 450.3 440.4 429.5 418.9 406.1 398.7 393.3 405.5 418.5 433.9 455.7 481.2 507.2 527.5 549.7 577.1 598.4 617.4 633 642 644.9 647 627.9 587.1 559.4 541.4 534.5 528.8 523.1 510.5 496.9 477.3 465.8 436.5 430 434.3 449.8 462.8 475.3 494.2 520.2 540.4 557.5 560.2 548.1 537.9 525.9 514 508.8 508.2 513.3 514.5 496.4 493.9 497.7 499.9 498.6 486.8 487.3 487.3 487.4 486.2 476.6 482.2 482.5 474.3 475.5 474.2 470.9
498.6 485.4 473.9 465.8 450.2 436.8 416.8 394 364.2 339.9 325.2 310.1 293.5 278.3 262.8 249.1 238.8 230.4 221.3 228.9 232.2 235.2 235.4 240.6 241.7 240 240.3 239.8 243 243.1 239.8 236.8 240 237.4 236.3 229.9 223.8 216.5 205.7 194.6 185.1 179.4 174.1 166 162 158.2 152.2 150.8 156.7 159.9 166.3 171.1 178.6 187.7 199.1 208.8 222.1 231.1 241.7 256.9 269.1 283.3 296.4 314.8 333.1 357.1 383.8 409.7 428.5 450.3 466.9 475.6 471.2 467.3 467.8 468.8 465 458.9 454.6 451.8 445.4 439.5 430.7 422.5 413.2 408.1 400.6 390.4 380.9 374.5 373.9 374.6 375.4 376.7 380 385.7 385.8 385.3 385.8 391.9 402.7 404.6 413 417.5 422.8 433.9 436.2 442.6 454.3 462.7 471.1 484.2 490.5 500.1 509.5 519 526.9 532.5 536.1 537.5 537.6 537.7 534.5 534.2 527 515.2 497 486.6 480.1 474.7 465.1 455.8 449.7 438.6 426.7 414.6 406.2 401.6 414.1 426.1 444.9 465.3 493.6 517.4 540.9 566.8 593.7 614.9 633.1 649 656.1 660.2 661 640.4 606.2 576.9 556.3 544.2 536.8 526 512 497.3 477 464.9 446.7 445.4 454.2 470.4 473.7 488.4 510.2 543.1 567.3 577.5 578.3 570.2 560.1 542.7 528.7 530.9 520.4 519 514.2 506 504.7 506.8 511.6 509.5 499.3 496.8 501.2 499.7 499.5 493.6 491.4 490.9 490.8 486 485.2 482.9
500.6 484.5 470.5 460.1 448.2 434.2 412 392.4 376.3 361.1 343.2 327 303.9 287.3 270.9 256.7 241.9 232.7 222.8 214.3 223.5 226.4 226.5 231.7 231.6 232.3 234.1 231.4 229.4 229.1 228.4 226.5 228.8 228.8 220.3 217 208.1 200.8 193.5 185.8 176.8 169.6 167.3 160.2 158.1 151.2 139.8 153.7 156.6 163.4 172.5 180.8 187.6 197.9 209.6 220.5 229.7 242.4 256.6 268.8 280.6 295.5 311.7 332.6 355.5 381.4 408.3 426.8 451.5 474.2 489.1 493.2 488.8 476.3 473.7 472.8 469.9 466.6 464.1 461.6 457 449.9 442.8 434.4 421.9 416.1 405.4 397.3 386.3 383 381.5 382.7 385.4 387.4 388.3 390.5 393 394.5 400.3 404.9 412.2 416.6 422.6 425.7 434.2 442.5 446.8 454.4 461.2 470 479.6 490 501.4 513.9 523.7 534.3 543.1 549.5 551.9 552.4 549.8 543.6 540.2 537.3 529.4 519.3 507 494.5 489.9 484.8 474.5 464.8 461.5 446.4 438.9 422.6 413.4 408.6 420.6 432.8 450.7 476.5 504.2 528 553.8 582 605.6 627.6 647.9 662 668.4 673.3 672.1 661.3 625.9 592 568.4 557.3 543.6 530.8 518 504.8 487.7 468.8 455.7 452.3 462.8 484.9 490.1 499.3 524.5 557.8 591.4 603.5 604.2 594.3 579.7 564 547.1 542.6 532.3 528.6 532.1 527.1 514.9 518.4 517.8 513.2 512.5 511.4 513.2 516.5 515.1 508.7 503.6 504.4 508.2 509.8 502.7 502
499.9 488.8 477.7 469.2 454.4 438 421.2 399.4 374.4 354.6 337.4 321 311.6 304.5 279.6 259.7 248 238.3 227.2 216 207.8 217.7 218.6 223.8 225.9 226.7 225 221.3 220.6 221.4 219 217.7 223.1 213.7 209.7 206.9 197.8 192.9 186.5 178.7 170.7 163.5 158.9 154.9 152.5 136.8 150.1 154.4 160.2 170.7 178 185.8 197.6 208.5 220.1 230.9 244.1 253.8 268.3 279.9 293.7 310 329.9 350.9 376.6 404.9 430.9 452.3 474.5 500.4 513.9 518 509.2 490.2 485 482.7 479.5 475.6 473.2 469.5 465.7 461.4 451.8 442.7 433 424.7 422.1 410.9 403.3 402.1 399 397.2 397.1 397.4 399.1 401.7 403 409.1 417.2 419.7 423.4 427.9 432.8 439.5 446.2 450.9 456.6 460.5 468.7 478.4 489.1 501.9 511.5 524.3 536.1 547.6 557.5 566.3 569.2 567.7 562.4 553.8 547 538.7 537.6 528.9 515.6 505.1 497.4 492.3 484.9 479.9 469.3 453.5 446.5 428.3 420.5 419.5 428.4 440.9 459.3 487.4 515.3 537.2 562.1 590.5 615 636.8 659.3 673.4 681.7 684.5 682.3 671.9 645.3 604.6 573.2 556.4 546.5 540.8 530.7 512.2 508.8 492.9 471 462 469.8 489.7 498.1 507.3 535.9 570.9 613.4 630.9 635.5 624.7 598 575.5 557.8 555.1 542.2 535.9 541.3 537.3 530.4 529.7 526.1 528.1 522 526.2 524.9 526.7 530.3 525.8 525.2 527.9 521.6 526.2 518.7 516.3
489.5 480.3 470.6 458.8 443.9 427.6 413.5 390.8 369.4 350.8 338 329.3 319.4 306.7 282.2 265.5 251.4 241.1 230.6 219.9 210.2 204.2 208.8 213.4 217.3 218.2 215.1 216.8 213.4 211.4 212.4 211.1 210.3 206.7 203.4 200.2 194.8 182.6 176.9 171.2 165.5 159.2 152.3 148.2 142.6 145.8 149.4 157.1 166.1 175.8 183.4 193.7 205.5 218.7 229.9 240.1 254.4 267.2 277 291.7 311.8 326.9 346.5 374.5 400.3 424.2 454.2 480.7 505.1 525.8 544.2 543.5 532.1 513 501.7 492.8 488.5 484.8 482.2 477.9 473.4 467.2 459.5 448.3 444.6 438.4 435.6 428.4 427 426.8 420.3 412.8 409.7 410 411 411.9 417.1 421.5 426 429.3 430.6 436.8 441.4 447.8 454.8 460 465.2 472.7 481.3 489.7 501.1 511.5 521.3 535.2 548.7 561.3 572.9 582.6 589.1 586.2 576.9 566 550.8 540.4 537.5 531 519.8 512.5 508.1 500.6 496.2 496.1 474.6 460.3 452.9 434.7 426 426.8 439.1 449.7 468.8 498.8 526.3 543.2 566.1 592.7 620.6 645 668 683 691.7 693 692.8 682.6 659.8 615 582 560.7 548 547 530.7 533.2 531.3 523.4 494 482.7 484.3 498.6 503.4 521.8 550.1 589 630.4 654.5 658.3 651 620.7 593.3 569.1 561.7 548.7 544.8 552.3 543.4 542 539.9 548.3 550.5 544.3 545.6 543.4 542.6 543.2 545.2 550.2 549.9 542.9 536.5 535.6 528.1
510.1 490.3 461 441.6 428.1 412 400.3 384.8 370.5 353.9 342.9 339.2 329.2 304.4 280.1 268 253.7 244.1 241 231.4 215.8 206 197.9 203.8 207.9 210.3 211.6 211.3 210 206.6 199.9 200 201.6 196.7 199.9 189 187.3 178.4 168.9 163.7 158.3 153.3 146.6 140.9 135.7 145.6 149.4 157.7 168.5 176.9 187.6 200.7 214.4 225.5 238.4 250.7 265.3 279.1 294 308.5 328.5 347 371 395.5 418.6 449.8 476.9 501.9 530.2 555.7 570 570.4 550.3 529 516.7 505.6 497.4 491.8 488.2 485.5 479.6 472.9 465.1 458.2 450.8 451.1 448.3 448.6 446.8 443.3 440 430.8 429.6 432.2 429 427.5 430.5 431.8 434.8 438.5 441.7 446.9 455.3 461.3 466.3 469.6 476.3 484.8 492.6 500.9 509.8 519.6 530.2 545 559.6 572.9 585.9 597.3 604.1 604.8 592.8 574.5 556 546.3 538.7 531.4 525.6 517 514.9 506.6 501.9 495.6 480 468.4 459.6 441.8 430.6 431.8 446.2 456.8 479.1 509 532.5 547.3 568.9 592.5 621.9 650.3 673.5 688.3 698.5 704.2 703.6 695.7 667.8 640.6 602.6 585.1 566.4 556.1 551.7 550.5 557.5 553.5 524.9 508.1 501.8 506.9 519.1 540.5 567.7 601.1 648.5 678.5 686.2 668.6 636.9 608.8 584.6 578.6 569.4 566.1 569.6 566.5 558.2 556 567.3 568.5 563.4 565 566.4 567.3 565 569.2 566.5 560.8 554.8 541 539.2 528.8
519.7 499.4 483.8 464.7 429.9 403.8 388.2 375.3 363.9 351.5 339.9 331.8 327.9 315.3 283.7 280.2 272.1 260.7 250 235.3 225 209.5 198.6 194.5 197.7 198 202.4 202.8 202.1 198.3 192.8 188.6 189.9 188.9 185.5 177.7 176.1 168.4 164.7 157.3 149.7 144.7 140.5 137.3 133.5 142.3 154.1 160.6 172.9 181.9 196.9 210.2 218.7 230.7 246.5 264.9 279.5 296.7 309.7 327.4 350.4 368.4 392.8 417.7 447.2 475.8 502.2 530.3 559.5 581.2 593.4 591.8 571.6 545.9 526.6 511.1 506.1 497.9 495.2 491.6 485.7 479.9 471.2 464.8 461.7 460.8 457.7 456.5 457 456.6 450.2 448.2 444.9 449.6 448.7 447.7 446.9 447.3 446.6 451.4 453.3 461.8 468.7 475.1 478.7 485.9 490.1 495.2 503.9 510.9 520.1 528.7 538.6 553.2 567.2 582.6 596.8 608.4 617.6 622.4 614 589.3 565.4 551 540.7 533.2 527.5 520.9 517.4 512.1 504 496.6 484.8 472.8 463.4 449.4 438.3 439.3 452.5 464.3 490.4 514.1 535.9 550.9 569.4 592.4 617.5 648.2 673.3 690.9 704.1 710.7 711.9 708 693.7 664.4 626.9 602.9 588.7 588 588.5 584.6 585.2 573.4 559 540.7 523.8 520.2 528.6 553.6 579.6 615.1 658.8 692.2 708.6 691.7 661 633 611.9 604.7 594.4 591.5 593.8 594.8 595 595.5 595.1 596.6 597.3 601.8 597.4 591.1 587.1 582.3 577.8 569.1 552.3 538.7 533.6 522.6
526.8 509.5 484.3 470.5 446.8 414.2 392.2 369.9 356.1 346.5 336 324.3 316.9 305.2 293.3 282 267.5 260 246.9 244 238.2 217.3 202.5 190 183.8 192.2 194.6 195.3 194.5 195.8 191.2 184.4 179.3 181.8 177.8 173.4 169.4 162.7 156.2 150.5 145.8 141.1 137.6 135.2 137.6 144.3 154.1 163.2 174.3 187.2 202.7 212.9 227 244.6 262.3 279.1 297.7 312.4 325.2 344.1 366.5 387.1 413.1 443.5 475.8 503.2 531.2 556.8 580.5 599 607.3 605.6 590.6 566.4 544.1 528.7 521.1 510.9 504.5 499.5 493 486.3 481.1 474.3 471.5 468.3 464.8 463.3 464.8 464.4 461.9 460.5 459.6 462.5 466.6 463.6 459.5 460.6 462.9 472.9 470.9 478.3 481.4 487 492.1 497.5 502 507 513.3 524 530.7 539.2 548.8 560.9 574.2 590.7 602.4 616.1 627.9 637.6 634.2 602.7 577.1 556.2 543.4 536.5 528.4 527.2 521.1 512.8 506.4 498.4 487.5 478.4 466.8 454.6 445.6 452.6 461.3 475.5 496.8 518.7 535.4 552.6 570.5 590.8 616 646 672 686.7 697.4 705.1 709.1 711.7 704.3 677.4 645.3 629.3 623.6 624 620.2 614.8 609 592.1 588.2 580 564.5 551.1 546.7 568.7 594.2 629.9 671 704.3 727.9 722.3 687.7 663.2 643.7 634.6 630.4 626.5 630.7 628.9 627.1 623.6 624.9 625.3 624.7 624.2 619 608.7 591.2 580.6 572.2 558.8 541.7 527.7 520.6 510.6
522.1 506.1 487.6 470.8 456.4 436.5 414.7 380.8 365.5 355.5 346.2 331.9 320.2 311.6 302.2 290 278.3 261.8 246.3 238.1 233.1 223 204.7 191.6 184.5 177.1 187.5 189.7 185.1 183.6 185 179.1 173.6 171.2 170.8 165.8 163.7 152.8 147.6 143.5 139.7 135.4 133.7 129.5 137.4 149.9 157.1 168.3 179.3 191.2 208.1 223.1 240.4 257.4 277.4 293.9 309.3 326.4 343.6 361.1 384 408.4 439.6 468 499.2 527.4 550.9 575.9 595.4 607.4 615.7 616.3 608.8 585.8 561.4 543.7 531 520.6 513.9 508.6 505.3 495.4 486.9 480.7 477.5 476.3 473.4 471.6 471.6 470.4 470 468 471.7 474.5 481.3 484.1 482.8 480.5 486.7 498.7 493.1 494.5 495.9 500.5 505.3 508.2 512 517.8 525.6 534.2 541.5 549.9 559 569.5 581.9 595.1 607.7 622 637.7 654 652.9 619.9 590 567.8 550 539 534.5 531.7 525.2 516.8 512.8 504.1 494.3 481.1 471 459 456.8 466.1 473.4 485.3 502.6 522.3 535.3 551.4 572.3 593 621.9 651.8 673.8 684 691.1 698.4 705.9 707.9 707.6 699.4 678.2 669.2 660.8 656.6 651.9 640 635 626.3 620.9 612.7 600 586.6 572.7 584.9 610.2 643.4 692.4 722.5 739.7 736.6 729 714.9 692.6 680.4 683.3 679.2 668.5 665.3 665.6 662 662.9 659.4 651.1 640.5 623 601 581.1 570.7 554.1 537 525.2 512.4 501 492.2
540.3 522.4 501.2 480.9 465.6 443.7 423.6 399.1 381.6 366.7 355.6 345.2 334.3 323.3 310.8 299.2 286.6 272.8 263 246.9 229.4 215.3 198.3 187 181.2 173.8 177.4 177.7 178 179.6 175.7 173.3 168.2 162.7 160.6 157.3 152.3 152.2 143.7 137.7 133.2 130.1 127.7 128.5 138.8 147.9 161.3 170.6 182.8 198.9 213.8 232.4 249.2 269.5 286.3 303 317.7 336.6 355.8 379.9 404.9 432.4 458.3 490.8 518.9 541.4 565.7 586.3 603.5 613.5 621.1 628.3 625.9 606.4 583 561.6 545.3 531 523.9 519.7 512.6 502.8 495.4 490.2 484.6 484 481.1 478 477.2 476.4 476.3 478.9 480.1 483.8 495.6 498.3 500.8 500.5 504.4 506.5 506.1 506 510.5 512 517.2 520.8 524.3 529.8 538.3 545 552 560.3 568.3 578.3 588.9 599 612 628 645.6 666.3 674.3 635.8 603.4 579.9 559.2 546.5 541.4 537.7 532.8 527.5 519.7 507.8 496.8 485.8 473.4 466.6 466.5 474.3 484.3 492.4 508.8 523.8 536.5 553.1 573.4 598.5 627.4 660 676.5 684 688.3 692.2 698.4 702.8 705.2 706.8 708.7 705.8 698.6 691.7 684 678.6 671.5 661.6 658.7 653 638.1 627.9 609.5 605.9 633 665.5 708.8 739.7 738.4 736.9 731.5 724.8 714.9 712.6 712.4 712.4 708.5 700 686.4 676.1 674.2 663.1 651.3 627.2 606.2 583.8 565.4 551.8 532.1 518.2 502.6 491.4 475.7 466.4
555.4 535.9 519.5 499.5 480.3 462.5 447.3 420.7 402.4 386.2 378.4 354.9 340 325.3 312.1 302.2 292.3 281 272.4 254.1 243 223.2 208.5 190.5 182.4 175.5 166.9 166.1 172.6 168.1 169.8 165.6 160.2 155.3 154 151.8 145.8 146.7 136.4 132.2 128.7 128.1 123.5 128.3 138.6 150.5 162.3 175.3 188.2 200.5 217.5 235.2 259.9 280.7 298.7 316.5 333.1 351.3 373.1 398.4 426.2 452.4 481.1 508.5 526.2 549.3 575.7 592.4 607.5 616.2 626.5 632.9 627.4 623.5 609.8 587.2 567.3 546.8 537 530.7 528.6 526.5 520.4 508.6 500 495.7 494.8 487.9 486.4 483.2 485.6 490.7 493.5 499.8 510.3 513 512.6 512.8 513.4 514 513.5 516.1 522.1 524 528.6 531.2 536 541.8 549.2 554.9 560.3 567.1 575.8 586.3 595.4 603.6 616.4 632 652.7 675.4 693.6 656.3 625.2 598.3 576.8 564.7 545.2 539.5 538.3 536.1 524.6 511 500.1 489 480.3 478.6 480.5 484.9 492.5 505 516.4 528.8 542.7 560.2 582.5 608 638.4 666.8 671.3 677.8 683 687.1 688.5 694.4 700 702.8 707.3 708.6 714.4 720.3 722.6 717.5 709.9 700.1 695.8 683.3 669.7 662.9 649.1 639.5 669.1 687 732.3 740.2 736.2 732.7 724.4 718.2 714.1 713.8 713.5 713.7 709.4 697.2 683.2 671.7 657.8 642.5 625.9 600.8 583.8 562.9 549.1 534.2 513.5 488.7 470.6 457.3 447.7 440
589.6 561.2 536 516.6 494.1 472.9 458.5 441.8 419.2 409 389.9 373.9 355.7 331.7 321.5 309.1 300 286.5 271.6 257.9 244.8 224.5 207.4 196.5 185.5 174 171.9 163 158.1 157.2 162.7 158.7 155.1 153 148.5 146.2 139.3 135.3 133.6 128 124.5 124.2 115.3 130.7 140.3 153.5 163.8 174.8 188.2 201.3 221.3 240.8 268.3 287.8 306.5 328.3 348.8 374.7 391.4 414.5 443.8 470.4 491.4 513.5 533.9 559 579.7 595.8 608.2 618.5 628.7 629.7 627.9 628.2 621.9 612.6 599.1 578.7 563.9 562.2 557.9 550.3 541.2 528.6 521.5 514.4 508.1 503.5 497.1 500.7 505.9 507.1 509.5 512.7 520.1 522.9 524.2 520.5 519.1 518.5 520.6 525.9 529.7 534.6 537.6 541.8 544.8 551.3 558.2 563 568 574.6 584.3 594.4 601.4 609.2 620.8 636 661.4 685.3 707.5 679.2 648.8 615.2 586.9 570.1 552.6 545.1 543.7 538 527.3 515.7 506.6 503.1 493.3 495.3 493.8 498.8 503.5 513.1 524.9 537.3 552.1 571.7 596.9 624.6 655 667.5 668.1 671.6 672.4 678.1 680.6 686.6 694 694.9 700.4 705.3 710.7 716.8 724.6 727.2 729 726.5 723.4 717.1 707.8 700.7 692.2 683.3 706.7 721.4 733.7 729.9 728 727.4 723.3 718.7 712.7 711.1 707.7 707.3 701.3 690.6 675.6 660.1 641.8 617.5 593.8 576.2 558.6 540.5 516.7 494.2 476.6 459.1 440 430.1 423.1 414.5
620.9 581.5 551 527.1 507.4 487.2 470.7 452.3 434.4 420.1 409.6 394.5 374.7 345.5 331 318.4 304.2 290.5 274.8 260.6 246.9 229.2 211.9 196.1 187.2 177.1 169.5 164.8 157.7 152.3 152.8 150.6 150.6 146.5 140.2 138.1 133 130.2 126.8 127.1 123.1 118.4 123.3 133.1 142.9 152.3 161.3 173 186.2 204.2 221.2 248 271.9 293.2 315.8 337.4 366.7 385.9 407.3 429.2 453.2 479.1 499.9 520.3 539.2 559.4 578.8 593.5 606.9 618.9 628.4 628.8 629.4 625.8 624.1 622.4 618.6 613.5 602.8 595 584.4 575 563 550.8 539 532 528.2 523.6 511 515.7 522 522.4 519.7 524.2 526.9 529.2 530.4 530.2 525.5 525.7 526.3 532.2 538.4 542.9 545.9 551.2 554.9 559.6 565.8 570.4 576.9 582.5 592.4 601.1 609.7 617.6 627.9 643.9 669.9 698.9 720.1 716.4 677.3 634.6 606.1 581.7 567.7 557.5 549.4 540.5 530.4 526 520.6 514.5 516.6 515.6 518.3 520.5 519.8 526.5 538.1 554.8 571.2 595.2 618 650.3 664.7 668.4 666.7 668.4 672.6 671.7 671.2 677.9 686.5 690.3 690.6 699.3 706.4 712 717.3 719.7 722.5 722.8 723.2 718.7 719.6 724.1 722.1 723.3 732 736.5 729.1 725.5 725.4 723 718.9 710.8 704.9 703.3 700.1 695.6 690.2 678.8 664.7 643.7 624.6 599.8 566.3 548.4 526.8 494.6 477.4 460.6 446.5 431.8 419.6 409.2 401.6 390.8
627.8 614.2 578.8 549.2 522.6 502.7 485.8 470.4 453.4 432.6 420.8 404 387.1 353.2 343.7 330.1 311.2 292.7 274.4 261.5 244.6 231.7 214.5 197.6 185.2 176.8 169 161.5 154.5 150.8 146 145.9 144.8 140.9 135.6 129.9 127.8 124.2 124.5 119.8 114.3 117.6 124.1 133.6 142.3 151.5 161.5 175.8 190.7 204.9 227 253 273.9 301.3 323.9 353.6 374.2 398.9 422 443.2 464.2 484.5 507.3 527 545 560.5 575.8 592.6 604.5 616.6 622.2 628 624.9 622 625.1 627.2 629.8 628.2 624.9 623.7 619 611 598.9 583.4 568.2 555.1 551.8 544.7 535.4 535.2 536 531 528.2 532.4 537.4 543.9 549.7 543.3 535.5 533.3 533.6 541.7 546.2 551.5 555.3 559.5 564.1 568.1 573.6 579.2 585.1 591.4 601.8 609.3 615.6 624.8 634.2 654 680.5 710.2 724.9 724.8 690.3 656 628.6 599.8 581.1 570.1 562.9 552.3 546.4 537 536.7 533.7 533.1 536.5 539.5 541.7 546.8 551.8 572.5 588.1 609.9 620.4 641.1 661.8 665.4 664.3 662.4 666.7 672.2 667.5 667.3 674.1 679.1 682.9 686 692.9 695.4 702.3 706.7 710.7 712 714 718.1 717.6 716.6 721.2 720.5 719.1 726.3 730.7 729.5 727.3 725.8 718.1 701.3 694 691.3 689.2 681.5 677.8 672.2 666.1 651.7 627.2 600.1 571.4 547.6 509.3 489.7 465 449.9 437.3 424.6 412.5 399.8 391.4 383.3 375.1
627.2 621 609 584.9 547.5 520 501.7 485.6 467 446 427.1 408.7 389.8 369.5 355.6 337.6 320.5 305.4 281.4 264.8 248 229.4 214.1 198.9 187.6 178 168.4 161.1 153.6 147.3 142.3 139.8 137.8 133.7 129.7 126.5 122.7 117.7 117.7 116.2 114.2 118.6 124.7 132.7 141.4 148 160.5 175.3 188.2 205.6 228.1 252.4 277.7 305.3 339.3 363.5 385.2 406.7 431.1 454.6 475.9 493.3 508.9 528.5 544.8 559.8 575 590.9 600.4 609.2 613 618.3 617.9 620.5 624.1 629.4 631.3 634.3 631.8 629.8 624.7 622.5 620.1 610.7 601 589.4 577.8 572 562.7 551.9 547.9 547.9 545.9 551.2 560.6 562.6 559.2 555.1 546.4 543.9 546.3 549.5 555.9 561 564.6 568.1 573.7 577.5 581.9 587.6 593.6 601.2 609 616.5 625.5 635 648.4 668.9 695.1 717.8 722.2 722.1 714.6 682.5 652.7 622.6 604.4 592 580.3 571.1 561.3 560.8 559.5 557.3 558.1 559.1 562.5 570.8 573.7 584.6 604.1 623.2 644.3 653 658.3 663.6 667.1 662 658.2 660.5 660.2 660.2 662.7 669.9 673.5 673.2 676.2 685.5 691.4 695.6 696.2 700.1 706.1 706.9 707.4 709.3 709.3 712.6 711.8 710.3 714.9 726.6 731 719.4 708.6 693.7 681.3 680.9 679.9 675.2 673.3 667.1 659.3 652.1 638.3 593.9 561.7 538 505.8 482.3 465.5 446 430.3 416 404.3 393.2 382.1 377.3 368.2 361.3
626.1 627.3 617.9 604.6 572.1 535.8 524.5 510.8 488.4 470.1 454.7 426.1 402.1 381.2 368.5 346.5 327.7 307.8 285.3 264.5 244.4 228.8 216.5 201.4 188.7 178.4 166.7 158.7 153.1 145.9 140.9 134.8 129.9 128 125.1 120.7 116.7 115 114.2 112.7 112.7 117.4 123.8 132.2 138 147.6 158.7 173 186.7 209.4 234.7 263.9 287 318 346 368.3 393.1 417.1 438.1 458.7 479.1 494.1 510.3 528.2 543 557.4 570 584.3 593 600.2 601.9 610.3 617 619.4 622.2 625.2 627.9 630 628 626.1 622.4 621.3 620.9 620.4 616 615.4 608.4 596.5 588.2 579.2 574.9 576.7 579.3 580 578.7 578.5 578 568.4 572.6 563.6 556.8 558.5 564.3 571.9 575.4 579.2 582.7 586.4 591.5 598.9 606.6 611.6 619.2 631.2 642.4 653 666 686.5 709 716.7 715.7 715.5 713.3 705.5 678.5 652.4 639.1 624.2 616.1 607.8 592.9 580.5 577.8 577.2 578.3 581.3 587.9 597.8 605.4 622.3 650.1 654.1 654.7 655.4 657.4 661.4 661.7 659.8 659.1 651.7 650.9 656.6 659.4 663.6 666.9 667.1 671.4 671.6 677.1 684.6 685.9 688.9 693.1 701.1 701.3 699.6 698.1 694.4 696.6 698.3 697.1 691.8 683.2 681.3 679.7 670.5 669.2 670.6 669.6 664.8 658.3 650.5 642.4 631.6 611 571.5 547.2 519.6 484.5 467.3 446.7 431.5 416.6 402.4 389.7 379.6 370.6 364.2 354.3 349.4
621.2 620.8 622.1 609.7 596.7 560.3 534.7 513.8 500.8 482.6 467.2 448.5 410.6 387.5 371.8 353.2 326.1 304 290.7 268.7 244.8 229.2 216.4 203.3 189.3 179.1 166.6 156.5 150.8 144.8 138 131.2 125.1 119.8 118.4 116.2 113.4 112.6 112.8 110.2 111.9 116.5 121.4 127.4 136.8 148.3 160.1 175.4 191 213.8 232.7 260.1 292.1 324.3 351.6 378.1 406.8 425.9 442.6 464.7 483.2 499.4 515.5 528.3 543.1 556.1 566.4 576.3 584.8 586 594.3 601.4 608.5 610.7 613.9 618.8 619.2 623.8 623.2 620.9 620.7 619.3 623.6 624.9 621.4 621 615.4 612.3 610.7 611.6 610 616.3 621.7 621.5 617.2 609.7 608.8 605.8 597.2 590.6 582 578 576 581.8 586.8 588.8 593.7 597.4 604.8 614.5 621.1 634.2 649.2 663 671.8 678.6 690.2 705.6 710.7 713 712.9 712.3 708.6 704.7 697.6 688.1 672.3 658.5 650.4 642.4 630.6 618.4 612.2 608.9 611.7 617.7 631.1 640.4 652.2 658.1 657.1 655.2 654.6 653.7 653.3 655.4 656.1 652.3 653 648.7 645.1 646.9 650.5 653.3 658 658.3 658.8 660.2 662 671 675.7 680.6 684.1 686 688.4 689.8 688.7 687.5 683.9 681.4 677.7 668.7 664.1 664.8 664.6 662.9 657.6 661.6 654.3 649.3 640.9 636.8 630.1 617.8 596.9 559 527.8 496.8 476 455.4 440.4 416.6 400.2 388.6 378 368.8 362.4 355 346.3 338.5
613.4 614.3 614 608.3 595.1 581.6 551.6 532.2 507.7 486 465 445 418.2 390.2 365.2 349.2 327.6 308.2 290.1 267.8 244.8 231.5 215.4 202.4 188.9 178.2 168.1 157 147.9 142.8 138.3 133.7 123.8 116.2 114.1 112.9 111.8 110.1 110 106.6 112.8 115.4 120.7 126.8 134.9 146.3 158.8 175.3 192.6 212.8 232.3 260.9 296.2 328.4 355.9 385.3 408.9 429.6 446.2 467.3 484.9 501.3 514.9 525.8 538.4 550.3 560.8 568.1 571.5 577.5 588.3 595 600 596.9 601.8 605.8 612 616.2 617.5 616.3 617.9 621.3 624.2 623.8 624.1 623.1 620.4 622.8 622.3 622.9 624.8 632.9 640.6 647.4 648.8 644.6 643.2 636.3 628.2 622.8 612 602.3 597.5 596.7 599 605.3 610.3 617.2 625.4 639.4 652.1 669.4 686.3 694.6 698.5 700.7 706.4 707.9 710.5 711.5 708.8 708.6 702.2 702.6 692.2 687.4 682 676.7 672.8 668 658.7 651.5 647.2 643.1 643.6 647.1 650.5 651.9 650.3 653.8 652.2 651.7 650.6 649.1 645.6 648.3 650.2 645 645 641.5 640.8 643.6 644.3 646.2 646.6 647.7 650.9 656.7 659.8 663.4 671.1 671.4 674.8 674.6 677.2 676.7 676.6 675.5 676.8 672 660.5 653.1 649.6 652.2 650.1 650.4 647.4 645.3 641 636.8 631.1 626.8 614.8 600.9 582.5 547 513.2 485.6 466.8 442.8 423.9 406.1 389.9 380.4 372 365.3 355.4 340.7 340.1 334.3
602.7 605.8 602.4 599.8 594 585.6 564.2 542.8 522 499.4 464.9 439.6 417.1 381.5 356.2 339.6 326.3 306.3 292.4 269.4 251.1 236.5 219.3 205.9 193.5 181.2 170.1 157.5 149.3 144.3 134.4 126.8 122 114.9 111.3 110.9 110.1 109 105.2 110.3 114.8 117.2 120.8 126.6 134.8 145.8 158.7 174.6 190.6 209.4 231.9 261.9 300 327.8 358.8 385.3 409.2 430.5 448.3 466 483.4 497.9 507.5 520 530.6 542 552 558.1 562.8 573.5 585.7 592 591.6 590.5 589.7 593.2 600.9 608.6 612.8 612.1 614 618.9 624.7 624.2 623.5 625.8 626.4 627.8 626.9 628.3 634.7 641.4 646.8 657.8 661.9 658.9 662.7 663.8 657 652.9 645.6 635.7 631.8 625.5 623.9 628.2 637.1 644.7 655 668.7 683.5 698.1 700.7 704.2 708.2 706.8 706.9 707.9 707.1 705 702.8 699.7 692.2 692.3 685.9 683.3 678.6 676 673.7 667 663.6 659.4 656.5 654.9 651.3 650 649.6 644 644 645.7 646.3 645.3 644.9 639.7 640 640 644.8 639.2 635.2 632.3 633.5 638.6 640.1 642.3 641.5 643.7 645.3 647.2 647.4 652.3 656 657.2 657.2 658.3 663.7 665 662.4 662.1 660.1 653.5 644.8 640.1 638.1 639.2 641 638.6 635.6 636.4 633.6 626.5 617.1 612.2 599.9 588 567.2 535 508.6 483.6 453.1 429.6 413.4 399.6 385.7 376.9 369 361.2 351.5 343.3 331 326.8
596.8 598 596.5 595.6 592.1 587 576.4 547.3 529.8 502.1 461.7 432.4 400.2 372.6 351.2 334.9 326.5 305.2 286.5 270.6 254.8 240.9 224.9 209.2 195.4 181.1 169.9 161.4 148.2 138.8 131.2 125 119 112.3 108.9 107.8 107.2 105.6 104.5 108.7 112.8 116.9 122.7 127.4 134.6 145.1 161.2 175.7 189.4 207.4 233.2 261.3 295.5 327.1 359.7 385.1 408.1 427.2 442 462.9 477.9 489.8 498.4 510.2 524.3 536.1 545.1 550.3 560 564.5 575 586.7 587.9 585.7 585.2 587.9 591.1 598 602.7 604.1 608.8 613.8 618.5 619.2 621.8 627.9 628.7 630.6 630.5 632.2 638 642.2 647.8 655.4 656.6 657.8 662.5 666.4 668.1 668.6 669.8 669.6 666.4 656 658.6 657.6 665.5 678.9 695 699.8 702.6 703 705.9 707.3 709.4 704.8 701.7 702.2 697.6 698.6 696.9 691.3 687.1 684 683.6 679.3 672.2 671.5 668.5 664.8 661.1 660.3 656.3 654.9 650.7 648 643.8 641.4 640.9 639.6 639.3 641.4 638.1 633.1 633.5 632.5 636 631 629.3 626.7 627.5 631.1 636.5 636.7 636.5 639.9 640.4 640.5 638.4 637.7 642.7 640.5 641.1 643.6 647.2 649 646.5 644.8 643.1 637.3 636.7 631.6 629.7 627.7 630.1 628.4 630.5 628.1 622.4 616 607.6 604.9 595.6 578.6 557.7 524.2 503.9 474.4 446.3 425.5 406.6 395.4 382.8 368.3 354 345.4 341.8 334.5 326.5 314.7
588.2 590.7 593 594.2 594.4 592.5 578.2 554.2 533.7 509.9 460 425.1 395.6 371 351 337.4 324.7 301.7 286 270 252.7 238 224.2 212.6 200.1 187.8 172.9 160.2 150.1 139.2 130.9 120.2 114.8 110.1 105.9 104.1 103.8 101.9 107.6 109.2 111.1 115.3 121.6 127.7 133.2 143.2 159.2 172.2 186.9 208.1 232.2 258.6 289.6 328 362 385.2 405.9 424.5 441.6 457.6 471 485.5 496.3 507.5 519.2 528.8 537 543.7 552.5 557.7 563.7 575.9 579.7 582.2 582.6 584.3 588.4 594.4 596 598.9 600.8 606.8 611.4 617.4 620.6 624.3 626.6 629.2 627 630.5 632.2 639 643.8 646.8 650.2 655.7 660.2 663.7 668.3 670.6 674.3 672.8 675.7 681.2 681.4 685.4 692.7 701.1 703.3 707 708.4 710.7 708.9 707 701.6 699.6 694.8 692 692.9 690.5 686 684 680.7 679.7 678.4 675.4 669.3 663.2 662.4 658.9 656 657.7 656.7 653.6 649.9 644.4 642.3 639.7 636.7 633.8 632.8 632.4 630 626.7 626.1 624.7 624.5 624.5 622 620.8 624.2 625.8 627.2 626.3 628.2 631.8 631.8 632.7 631.9 627.8 631.1 633.3 633.2 631.3 635.6 631.2 631.2 630.3 627.6 624.4 628.7 622.2 621 619.8 620 617.9 618.7 616.6 607.4 601.1 593.8 587 578.7 566.1 546 519 495.1 466.1 442.5 422.2 408.7 396.6 385.2 372.8 356 341.3 330.8 318.1 309.7 304.6
573.8 577.7 584.1 592.1 589.1 590.9 570.7 552.4 530.5 506.6 451.5 424.6 400.4 378.2 357.8 339.3 321.2 301 285.9 270.3 252.8 239.7 227.3 218 202.4 187.9 174.6 164.9 154.9 139.2 129.9 122 115.7 109.9 104 103.2 99.8 105.9 106.7 106.8 110.8 115.2 119.8 125.5 131.9 141.9 156.2 167.6 184.3 209.2 231.5 261.2 289.4 329.6 357.5 383.1 402.9 422.9 439.3 455.9 470.1 478.9 490 501.8 511.8 520.9 526.8 533.8 544.1 550.1 555 565.2 570.2 573.9 579.4 581 583.6 589.5 591.6 592.9 593.4 596.4 602.6 613.2 616.9 620.2 622.5 621.2 625.4 623.1 626.4 631 634.6 639 645.6 652.9 657.8 660.2 663.1 666.9 671.1 675.2 681.2 684.3 686.7 694.3 699.2 704.3 707.1 713.2 715.5 708.9 699.9 695.1 691.9 689.5 686.8 683.6 682.2 681.4 677.9 676.5 674.6 669.8 669.2 667.2 663.6 657.1 654.5 655.1 654.2 653.4 655.1 653 646.7 638 636 632.5 629.4 628.6 627.2 624.4 622.6 620.2 620.5 621 617.3 614.4 615.6 611.9 614.1 617.5 616.1 616.4 615.8 620.2 622.8 625 623.8 617.6 620.8 622.8 621.4 621.3 622.1 618.7 615.5 614.7 615.1 615.2 614.3 615.2 610.4 610.1 608.5 609 604.9 602.1 597.2 592.8 584.8 580.4 569.6 559.6 544.2 519.2 489.2 464.6 446.3 430.8 418.3 402.7 389.4 372 361.7 356.5 342.7 338 332.2 320.8
547.7 561.8 573.6 581.5 582.1 577.1 561.5 549.3 528.3 488.2 450.7 424.2 400.4 380.1 369.2 344.1 324.1 307.7 292.6 275 259 248.4 235.6 223.2 208.1 193 180.8 166.8 155 140.8 129.3 122 115.8 109.8 104.2 98.3 100.8 102.7 105.2 105.4 109.6 113.3 119 124.9 132.4 140.9 152.6 165.3 182.9 206.3 231.1 261.5 292.3 323.6 355.2 380.1 402.5 420.6 437.2 452.3 462.3 474.2 483.1 492.1 502.8 511.7 516.8 523.1 534.2 541.1 548.2 552.5 565.7 566.9 571.2 572.5 578 580.4 584.6 585.8 588.6 587.3 591.3 600.4 606 612.5 614.3 615.4 616.6 619.6 623.3 626.4 633.7 636.7 642.3 649.5 655.5 657.9 659.8 664 666.6 673.4 678.5 680.1 686.6 692.7 699.6 703.3 701.7 704.4 703.2 693.7 685.3 681 679.6 681 674.4 672.5 672.4 670 666.7 666.9 663.1 659.4 660.1 656.9 654 650.2 648.6 650.2 646.6 646.6 644.8 644.1 638.4 633.3 627.6 623.6 618.6 621.4 620.8 618.1 617.7 616 615.6 613.2 610.7 608.7 608.4 602.7 602.6 602.5 603.3 603.2 603.3 606.4 611.9 613.7 609.6 605.9 611.4 612.5 612.3 610.3 605.2 601.1 602.6 603.3 605.1 603.5 605.7 604.2 604.1 604.6 600.3 599.6 596.1 594 591.6 587 579.7 578.4 569.1 560.7 548.3 521.6 493.4 474.4 455.1 439.4 425.3 406.1 395.5 383.3 371.2 361.1 356.1 350.4 348.2 340.6
520 541.5 557.9 568.1 568.1 563.8 562.4 552.5 526.1 485.3 449.6 421.3 400.8 386.1 371.2 349.4 333.3 315.3 303 281.7 263.1 252.2 238.5 224.2 209.4 193.5 182.2 168.3 154.6 143 129.5 122 114.7 108.4 103.1 100.4 96.6 99.1 101.6 104 108 112 117.6 124.9 131.9 138.7 149.4 164.4 181.2 202.9 228.1 258.3 290.4 319.4 351.1 375.7 400.6 417.5 433.3 447.1 459 469.1 480.4 487.2 496.3 502.7 511.5 520 526.2 535.1 539.3 547.3 554.7 558.2 563.4 565.2 572.4 572.7 577.4 579.8 581.5 578.1 582.9 588.6 595.1 598.4 605.9 608.3 612.2 614.9 619.6 622 628.8 633.2 638.3 642.6 650.5 650.6 657.5 662.6 666.7 670 673.6 677 682.5 686 689.2 691.6 691 692.1 684.7 680.6 675.2 670.7 670.9 668 663.8 663.2 661.6 657.9 657 654.4 653 649.3 649.6 647.5 645.2 643.9 640.5 636.6 638 635.2 635.4 635.1 630.8 624.5 617.9 613.6 607.8 610.8 609.9 611.4 610.7 608.2 608.6 607.5 604 601.6 601.2 598.1 597.2 593.9 591 591.8 595.4 595.8 602.4 603 596.3 598.9 601.7 601 602 599.3 598 592.5 589 591.8 595.6 591.2 594.7 600.2 595.7 595.6 591.8 586.9 583.4 578 575.3 574.4 575.1 572.8 563.1 556.4 551.6 527.2 504.9 483.5 463.6 448.2 432.5 416.2 396.3 388.2 382.6 378.1 371.2 364.8 361.7 358.9
497 518.6 542 558.3 563.1 563.9 558 548.2 529.4 486.5 452.7 428.2 409.2 393.5 376.7 360.8 343.6 325.2 304.8 285.5 268.8 256.1 239.9 225.8 211.3 196.6 181.5 169.4 157.1 144 132.4 123.4 113.8 107.4 102.4 98.8 93.6 100.5 100.6 101.9 105.8 111.2 115.8 123 130.3 136.5 146 161.2 179.5 199.6 222.3 254.4 285.4 310.1 345.3 370.7 396.8 413.2 428.3 441.6 452.7 465.6 473.5 481.5 490.5 496.2 505.9 512.3 520.9 528.2 535.6 540.2 543.4 550.6 556.6 559 562.5 565.4 568.6 571.6 570.4 571.6 576.1 582.4 588.5 592.2 596 602.9 608.8 609.8 612.5 618.9 625.2 629.3 632 637.7 641.8 644 653.5 659.6 665.6 669.1 670.5 673.7 677 676.3 676 677.3 680.2 677.6 674 668.5 664.4 662.3 659.9 655.3 651.7 651.6 648.8 646.9 644 640.8 641.3 639.7 639.2 639.3 637.9 635.1 631.2 629.4 626.8 624.4 625.7 623.4 619.4 614.5 606.6 601.7 597.8 599.6 600.7 601.4 602 599 602.8 598.9 598 593.4 593 593.3 586.8 587.8 582.9 582.2 584.6 586.7 587.2 586.5 587.5 589.6 591.8 594 594.4 592.3 592.9 587.8 584.7 584.1 583.5 586.3 591.3 590.2 581.9 584 578.7 574.8 575 571.8 570.3 570.3 565.9 562.4 557.6 550.7 547.4 532.5 511.5 493.8 475 459.7 444.1 421.7 413.4 405.2 398.4 393.3 387.1 382.8 375.6 379.6
468.7 494.4 514.5 542.3 556.3 557.1 553.5 547.2 533.7 507.2 465.8 442.1 422.1 402.8 381.8 361.2 341.8 322.9 307.1 289.1 272.7 256.2 240.1 226.3 211.6 197.2 183.7 170.2 157.2 145.3 136.1 124.5 111.4 105.8 101 97.5 95.1 96.2 97.7 100.6 104.9 109.9 116.3 122.4 129.1 133.5 144.8 159.6 174.5 194.2 217.6 245.9 274.4 302.9 333.3 363.5 390.4 408.7 422.9 435.9 445.9 457.3 466.3 475.6 485.1 492.8 497.9 505.8 513.7 522 527.3 531.4 537.1 542.6 546.2 550.7 554.1 561.4 563.1 562.3 563.8 568.4 571.2 572.5 579.4 583.4 590.4 597.5 603.5 602.4 606.2 613.5 619.5 622.7 625.8 629 631.8 636 645.7 651.1 659.3 659.9 662.1 665.3 664.8 665.3 665.4 666.2 668.7 668 658.3 653.3 653.1 651.2 647.3 641.4 639.7 638.1 637.7 635.2 629.5 629.3 627.1 626.5 626.8 626.1 626.6 625.2 623.3 620.5 619.3 616.6 615.3 613.1 609.5 602.5 599.1 592 589.7 591.1 592.4 592.7 595.4 592.2 593.8 590.6 588.6 586.1 584.7 584.9 582 579.5 575.9 575.9 575.6 571.2 574.2 575.4 579.7 583.5 585.7 585.2 583.2 579.9 574.1 579.2 577.1 576.2 578.8 579.1 575.3 575.2 568.4 569.6 567.4 566 564.8 563.9 563.9 564.5 559.8 551.7 547.7 549.5 547.3 532.6 519.1 506.3 487.6 469.6 449 438.6 428.4 424.8 418.8 414.2 407.9 405.1 394 399.3
445.5 465.9 501 531 549.2 549.5 546.8 542.5 527.1 507.4 478.9 451.8 427.8 404.8 383.3 359.3 343.3 326.1 307.5 290.7 276 257.4 239.3 228.2 213.3 197.9 184.2 173.1 157.4 143.1 134.1 122.2 110.5 103.5 99.6 97.5 96.2 94.3 96.3 99.5 103.4 109.1 115.5 120.8 128.1 136.2 143.2 156.7 172.5 189 215.3 239.1 272.7 295 322.2 354.2 380.9 401.5 418.1 429.7 441 451.4 457.2 466.7 478 484.9 495.1 500.1 509 515.6 520.9 525.2 529.6 534.7 539.3 542.8 547.5 552.3 555.8 559.8 559.2 560 561.6 561.9 568 578.1 582.3 587.4 592.6 593 598.7 604.9 610.1 613.1 616.4 620.6 620.8 626 633.9 642.8 646.7 649.1 650.3 653.8 653.6 655.3 657.3 656.9 657.9 649.8 645 641.2 639.9 638.5 635.4 629.7 626 625.4 623.5 621.1 615.8 615.8 614.5 613.5 615.9 614.2 614.7 615.1 611.7 611.2 609.6 606.7 603.6 602 598.9 595.4 595 586.2 583.6 584.3 583.9 587.8 586.4 586.8 580.9 579.7 579.9 579.1 577 574.5 573 566.2 568.1 566.3 565.7 559.5 557.1 562.8 569.5 569.9 574.1 570.6 566.2 565.3 565.8 566.6 569.9 564.6 571 564.9 566.2 563.7 555.8 559.3 560.6 558.9 556.5 557.8 559 558.4 549.5 545.2 542.1 546.7 538.3 533.2 523.8 508.9 487.9 474.6 465.6 453.3 444.5 445.3 439.3 435.9 429.3 424.8 418.8 424.1
428.1 454.7 483.4 509.6 535.4 545.7 544.2 539.4 520.7 499.6 480.1 456.5 425.4 398.6 376.3 357.5 342 325.9 309.5 290.4 277 259 242.8 230.5 214.1 197.8 184.6 171 158 142.6 130 121.1 111 101.8 97.6 95.9 92.7 93.8 95.9 98.4 101.8 106.3 111 119.9 125.7 132.2 137.7 152.6 169.9 187.2 209.7 229.5 259.1 286.2 311.6 342.1 369.7 394 412.4 424.4 437.5 443.2 451 463.6 470.6 472.9 485.3 496.2 502.4 506.7 511.8 519.3 521.6 526.7 532.4 535.7 539.5 547.4 547.3 551.1 550.9 554.2 555.9 557.5 562 565.8 571.7 573.4 578.2 584.1 588 593.7 598.7 602.6 605.5 608.6 608.6 614.2 619.1 627.9 633.2 637.3 636.3 639.8 642.4 644.1 645.6 643.6 637 633 627.8 627 623.4 623.3 621.1 615.9 612.7 611.5 608.6 604.9 603.3 601.3 602.3 601.7 602.5 603.1 601.1 600.1 601.9 601.3 599.8 598 596.1 593.6 592.6 590.1 587.5 583.5 579.5 579.2 577.3 578 574 573.2 570.3 569.9 570.9 570.2 569.2 565.4 561.8 556 558 554.3 554.6 550.2 549.1 554.7 555 553.8 554.1 556.5 555.6 556.3 556.4 558.3 551.5 549.2 553.3 557.5 555.8 552.7 545.8 549.7 551.5 551.8 549.1 550.7 552.6 545.4 544 545.8 546.6 540.7 535.9 531 519.9 508.5 495.1 493.6 480 470.7 464.5 466.6 462.7 457.4 451.2 446.9 438.9 447.3
409.2 434.9 466.3 492 516.9 536.4 538.2 537 520.2 500.6 482.1 457.2 427.5 401.9 380.1 358.4 345.6 329 310 294.2 277.2 261.3 246.4 231.5 213.3 199 183.5 169.7 155 141 130.3 120.2 109.6 102.7 95.4 93 90.4 90.9 95.7 97.4 100.4 105 111.5 117.9 121.9 127.6 136 150.9 168.1 185.2 203.1 221.4 245.9 273.8 296.8 328.2 355.7 384.5 402.4 414.5 423.8 434.8 447 458.5 463 471.5 479.8 491.4 492.4 498.7 507 511.3 517.2 521.1 521.4 530.8 532.8 538 536.6 541.4 542.9 543.9 546 544.2 551.9 555.8 560.8 565.2 569.1 572.4 578.7 581.8 587.2 590.3 592.7 596.1 596.7 600.3 602.3 609.5 615.1 621.3 621.5 623.8 625.8 623.4 620.9 619.3 617.4 614.6 606.8 602.8 604.9 604.4 601.8 596.9 596.2 593 592.3 589.3 590.7 589.4 588.3 588 588.5 589.8 587 587.5 589.8 590.2 589.8 589.3 587.1 585 583.8 583.5 578.2 575.2 572.7 572.6 571.2 568.4 566.6 564.4 559.6 560.6 560.9 560.8 559.5 557.1 553.8 551.3 546.5 544.3 545.5 541.9 540 545.8 545 547.9 547.3 550 551.6 545.1 539.5 541.2 537.5 539.7 542.7 546.2 547.5 544.7 538 541.4 543.2 544.4 540.6 539.1 536.7 536.2 536.9 540.4 540.3 537.2 536.5 534.5 527.3 519 511 503.4 498.8 490.7 482.7 487.2 482.8 474.8 468.3 461.5 461.4 467.6
396.4 420.1 445 471.4 500 520.8 530 530.5 521.5 500.4 480 455.9 436.2 411.3 386.5 366.1 344.1 328.5 311.5 292.6 275.7 263.8 251 235.8 215.8 199.6 185.9 173.1 158.2 143.8 133 123.8 111.3 98.6 94.4 90.6 88.6 87.9 92.5 95.5 98.7 104.6 110.7 113.7 119.4 128.6 136 151.2 167.6 182 196.2 214.4 234.9 259.7 282 312.9 340.4 369 389.5 403.2 417.5 430.5 442.2 450.3 459.8 468.7 477 480.1 487.8 494.8 500.4 505.6 511.4 512.7 512.2 518.4 520.3 527.7 529.5 529.7 534.3 535.8 535.5 536.9 544.6 546.8 552.6 555.5 559.8 562.5 569.4 571.7 575 578.6 580.9 582.1 581.3 585.1 588.5 592 595.4 602 605.2 606.9 602.1 601.4 596 597.1 598.5 593.7 586.1 585.1 588.3 590.1 583.5 584.7 584.6 583 578.6 576.9 579.8 579.5 579.7 580.5 576.1 577.5 574.4 577.4 579.2 578.8 577.9 578.2 576.1 574.6 574 572.6 569.1 566 563.6 564.7 563.6 559.8 558.5 555.2 554 551.4 550.3 550.7 549 547.8 546.5 537.5 533.6 535.4 536.1 531.2 534.1 538.5 537 539.8 538.3 539.7 534.2 531.9 531 531.9 530.4 535.6 533.5 535.9 536.5 535.9 530.4 534.3 535.1 531.4 528.4 529.1 527.3 530.3 533.2 533.9 532.4 533.3 535 534.2 529.9 527.9 521.3 517.4 513.5 508.7 499.2 502.5 495.3 486.6 486 485.4 486.8 490.3
379.6 398.9 427.9 454.8 484.5 510.1 524 525.2 517 493.8 474.6 459.5 436.4 417.7 393.7 374 356.2 335.8 316.2 297.1 281.3 266 257.3 239.2 219.8 203.2 187.4 171.4 158.6 144.2 132.5 120 111.4 99.6 93.1 92.1 87 90.2 91.8 93.7 97.1 101.7 105.8 110.8 118.3 126.6 135.8 148 162.3 178.6 193.4 208 223.4 245.1 270.1 299.1 327.5 353.9 380.7 398.6 411.3 423.7 431.9 447.3 456.9 466.2 473 475.5 482.7 489.2 493.3 497.2 500.1 502.2 503.3 509.2 510.7 514.7 526.1 522.8 525.6 525.6 531.1 531.5 538.5 538.2 546.9 545.7 551.8 554.1 556.1 558.6 562.5 564.5 567.1 568 569.7 570 574.6 577.2 581.4 585.2 587.3 585.9 584.1 583.1 579.6 573.6 572.1 567.1 570.1 567.9 568.5 570.3 570 572.9 573.5 568.4 567.7 566.6 568.3 567.6 565.6 565.4 568 565.6 566 567.9 569.6 566.7 565.4 564.6 564.4 566.8 562.2 562.2 558.6 556.1 553.7 553 551.8 550.6 548.6 543.8 542.2 538.8 538.6 537.7 536.2 535.3 534.6 527.5 526.7 522.8 523.8 521.9 529.2 530.9 533.7 531 532.7 529.7 534.5 524.4 526.6 527.2 529.3 532.1 530.2 530.7 529.2 525.6 525.5 528.9 527.7 521.8 518.7 516.2 517.6 522.5 526.4 528.3 526.7 527.1 530.8 532.6 530.6 530.4 523.8 521 518.8 516.3 507.5 504.2 498.2 493.9 493.8 488 495.7 495.1
358.5 387.3 408.5 438.1 468.4 493.1 512 516.8 508.5 491.4 480 464.8 442.5 420.5 397.7 382.3 368.9 341.5 324.2 306.9 290 276.9 260.9 242.9 230.2 207.9 199.9 179.5 160.3 149.3 134 120.6 111.7 102.1 94.5 88.3 85.3 87.5 89.3 91.1 94.2 100.5 105.6 111.6 117.5 125.4 132.1 142.3 157.1 171.9 185.9 204.3 221.7 234.5 255.7 285.5 319.5 347.7 373.3 393.2 407.7 417.8 430.1 442.2 451.5 456.6 461.7 471.9 476.7 482.5 485.2 487.2 489 494.1 492.1 500 500.4 509.8 513.5 515.4 517.1 523.4 520.7 523.8 526.2 530.6 535.5 538.6 541.3 540.7 547.1 548.7 551.9 551.8 553.4 556 557.9 560 560.9 563.3 566.8 569.1 568.5 569.1 565.5 564.4 560.7 559 555.3 555.7 553.1 553.4 557.3 556.9 559.9 561.3 561.6 558.4 557.4 554.2 554.9 552.1 554.9 553.7 555 561.3 557.1 554.6 557.5 555.1 553.9 554.4 553.8 553.1 550.1 549.8 545.8 544.4 543 542.2 540.9 539.3 536.9 533.2 533.3 530.9 530.4 528.8 526.1 522.6 521.7 521.8 517.7 510.3 513.8 516.1 518.3 520.9 519.9 520.8 522.4 522.6 519.1 519.9 521.9 519.7 518.2 519.3 521.1 520.7 520.6 517 515.7 516.7 514.6 512.3 511.7 507.8 510.9 514.3 515.6 516.4 518 517.1 520.4 523.2 523.6 522.2 518.8 515 513 512.2 499.3 497.8 491.4 490.5 484.3 489.4 494.6 487.4
345.2 370.7 396.5 423 455.6 481.4 502 509 506.2 496.4 478.8 467.2 448.1 421.2 406.3 384.6 372.7 351 334.9 322.2 299.1 283.6 269.6 253 234.9 219.9 202.6 181.9 161.8 147.5 137 123.5 113.6 100.1 93.1 88.1 81.7 85.5 85.9 89.4 92.4 97.9 102.9 108.3 115 124.9 131.2 138.1 150 165.1 179.3 195.8 211.9 231.2 254.8 287.2 314.4 339.6 365.9 383.2 396.7 410.9 425.8 435.8 445.6 456.1 458.8 463.2 467.7 471.8 474.4 476.4 478.6 480.2 484.4 494.9 499 503.9 503.2 504.1 510.6 510.7 510.1 516.7 521.9 521.5 528.3 527.1 530.6 533.6 536.7 538.9 539.8 539.9 541.7 543.6 545.5 549.7 547.9 550.6 552.8 553.4 555.3 556.3 548.2 548.8 546.6 543.9 542.1 543.1 541.2 545.7 547.8 552.8 553.5 551.3 548.5 545.2 542.7 543.2 542.2 539.6 542.3 541.1 544.9 550.9 546.8 543.7 546.3 544.5 542.9 543.6 543.5 540.4 539.2 537.2 535.2 532.8 529.4 529.8 528.6 524 523.7 522.9 523.5 518.8 516.9 518.9 518.2 515.8 513 512.7 510.4 504.3 505.1 508 512.4 511.2 507.1 506.5 506.2 508.9 511.9 509.4 509.8 509 507.2 510.1 512.6 511.9 507.4 503.8 505.3 505.2 503.9 502.1 499.1 497.5 502 503.7 504 505.9 507.2 510.8 511.6 511.7 510.9 507.9 506.3 503.4 500.5 493.8 489.7 486.8 485.3 477.4 476.9 484.4 480.8 472.4
334.7 355.8 376 409.5 443.2 472.3 493.8 502.5 505.8 497.7 487.7 473.7 450.5 432.9 412.8 394.8 377.2 358.1 344.9 325.2 302.5 291.8 271.1 259.7 240.8 221.4 204.4 182.1 164.3 149.2 135.6 122.5 117.9 100.1 94.1 90.3 86.1 84.2 84 91.5 90.7 94.5 100.1 105 113.3 120.4 127.1 134.3 144.3 158.3 176.2 197.4 207.1 223.7 248.2 277.9 306.1 329 354.2 375.5 393.2 406.9 417.6 426.3 433.6 442.4 451.1 459.8 462.2 462.1 461.4 464.8 468.3 473.2 482.7 481.2 486.2 488.9 491.8 497.9 502.1 499.1 503.1 512.7 509.5 516.9 520.6 520.1 520.7 523.1 523 528.4 529.6 529.7 531.2 531.6 530.8 533.5 537.1 537.8 539.1 541.2 539.1 538.2 535.3 532.6 536.3 536.5 531.1 533.5 535.7 538.6 538.5 540.5 538 539.5 533.6 531.1 530.1 532.7 531.6 529.4 534 533.4 532.3 532.7 530.9 532.8 535.1 535.5 537.8 539.3 533.7 532.3 529.6 527.4 521.7 519.1 518.5 515.1 514.5 513.5 512.5 512.8 509.7 506.8 504.9 505.2 507.6 507.4 503.5 502.3 499.8 497.1 495.4 498.8 500.8 499.8 496.6 496.1 501.9 498.3 496.6 498 496.1 500.7 502.3 504.6 499.7 501 497.2 491.9 494.2 492 490.7 493.4 488.9 490.7 494.3 492.5 495.1 497.3 500 503.5 506.3 502.8 498 493.5 492.3 486.9 482.8 478.3 475.4 469.5 466.2 465.4 470 468.9 462.8 459.9
326 341.1 368 396 425.8 459.5 484.1 496.1 500.9 498.9 492.3 469.2 452.6 442.7 426.3 405.5 385.5 361.9 344.3 328.7 314.6 295.3 277 266.3 242.1 226.4 207.1 187.7 167.9 152.1 139.5 126.4 113.1 102.4 97.1 91.3 84.9 79.2 82 85.9 88.7 93 96.9 102 109.5 116.3 122.7 130.1 140.4 151.1 169.7 183.2 199 210.4 238.2 271.1 300.5 326.1 346.1 365.7 382.8 393.8 407.2 416.1 431.3 437.9 442.3 449.1 452.9 454.7 455.1 456.8 460.7 465.8 471.5 474.3 477 480.4 483.5 488.2 491.6 491 494.5 499.8 501.7 504.9 509.4 512.7 508.9 514.6 513.4 517.3 517.7 517.4 519.2 520.2 521.2 522.1 525.5 526.3 526.9 529 523.8 523.9 522.2 521.6 519 519.7 517.9 522.6 524.7 519.6 527.4 527.2 527.6 527.1 523.6 525.1 523.5 525.6 523.2 520.3 518.1 520.7 519.5 519.2 522.5 524.6 524.8 522.7 522.8 519.4 521.9 519.3 520.2 513.7 510.4 508.7 507.4 506 504.8 504.7 503.8 503 501.1 498.1 499.1 495.5 495.1 493.1 492.5 493.2 492.6 490.8 485.5 489.3 492 489.1 488.4 489 489.1 493.7 491.7 487.8 484.2 488.5 487.9 493.6 490.1 488.6 484.1 479.1 479.4 475.8 478.6 476.8 476.6 480.7 482 487.1 486.4 488.4 492.4 491.9 491.6 487.1 482.3 480.4 476.2 470.1 464.1 463.9 455.4 453.1 449.9 455.1 452.8 452.8 449.3 443.8
311.2 331.7 357.4 381.1 409.3 446.5 472.8 484.4 492.9 495.3 491.2 473.3 458 445.2 428.7 412.4 393.9 371.7 355.2 341.1 324.3 304.4 288.1 271.9 251.6 228.2 209.7 188.8 169.8 157.6 142 127 113.9 106.9 100.1 91.7 86.7 82.7 78.2 83.2 88.2 90 94.1 100.2 104.6 114.4 119.4 127.2 137 146 159 174.9 188.1 210.3 234.7 264.5 295.4 320.4 341.3 356.7 375.7 388.8 401.6 412.4 422.4 427.1 430.9 434.8 441.4 443.3 443.7 447.5 451.7 459.4 460.2 465.5 471.8 472.3 475.4 477.7 484.1 482.4 485.2 493.9 493 498.6 503.3 495.8 504.4 508 502.5 503.3 504.6 506.1 506 509.5 511.7 511.9 512.1 513.7 516.7 517.5 512.8 512.7 511.4 510.1 510.7 509.7 513 515.9 513.7 513.8 513.9 515.9 514 512.1 510.5 512.9 513.6 511.6 510.2 507.9 506.8 507.5 508.6 512.4 509.8 515.4 514 515.6 517.9 512 508.1 509.6 508.1 502.4 499.3 502.1 496.5 494 495.8 494.2 493.2 494.2 492.6 490.9 493.1 489.5 488.4 483.9 487 488.3 483.3 483.2 476.9 473 483.1 477.9 477.9 476 479.7 481.8 480.2 474.3 470.3 474.7 477.6 478.1 474.8 471.5 470.6 461.6 459.1 463.9 465.6 464.5 470.6 469.7 469.1 471.3 472.6 471.6 472.9 470.8 471.2 466.9 464.5 459.3 456.3 452.4 448.8 443.8 437.7 436 442.4 441.8 439.4 435.9 434.1 427.8
302.7 323.6 346.2 372.2 397.7 428.5 460 474.9 481.7 486.1 484.3 476.3 466.9 456.6 436.2 418.4 402.6 382.2 365.8 353.4 334 313.6 295.2 274.3 255.4 230.9 211.9 194 175.7 162.2 145.4 130.8 117.4 105.9 97.4 92.1 87 82.6 79.1 80.7 83.2 86.9 91 95 101.1 109.8 115.6 124.3 129.7 141.9 151.2 164.6 182.5 203.9 229.4 258.2 286.4 310.6 332.5 348.9 366.6 379.1 392.3 403 409.8 418.5 421.4 426 430.5 432.7 438.8 442.7 445.8 449.6 451.5 456.5 464.1 466.1 468.6 472.9 473.3 479.6 482.9 489.3 483.3 489.2 490.3 487.2 489.9 491.7 491.6 492.1 495.2 493.3 496.1 497 500.1 500.4 503.9 504 506.9 506.5 503.1 499 494.8 494.6 500.3 497.8 502.2 499.5 503.1 502.7 503.5 505.3 503.7 504.8 505.1 505.7 507.9 504.9 499.6 496 496.6 496.7 502 500.6 497.6 500.2 502.1 497.7 503 500.2 502 496 492.7 490 491.2 487.7 487.6 484.8 487.2 486.4 487 485.3 486 486.8 484.1 483.3 481.9 477 479.5 477 472.6 472.7 465.2 462.1 466 467.1 471.7 466 470.4 468.3 464.5 461.8 458.4 460.8 461.3 460.8 460.2 457.7 456.4 448.2 450.7 451.2 451.5 455.6 461 458.8 455.2 454.8 452.2 452.4 455.5 457.3 454.3 450.3 447.2 446.2 440.1 438.3 430.6 427.3 426.5 429.2 428.3 425.2 424.5 424.3 420.9 418.4
294.6 313.3 337.8 364 388 417.5 450.5 464.2 466.7 475 476.8 473.6 466.6 456.7 443.2 428.1 409.1 394.5 376 359.7 340.2 321.4 301.3 283.1 259.9 235.2 212.3 198.2 180.8 165.4 149.9 133.2 120.6 108.4 101.5 94 89 83.1 78.3 77.9 80.3 83.3 85.7 91 97 105.5 111.4 119.7 126.7 136.8 148.5 157.6 174.3 197.7 223.5 251.9 277.8 303 323.8 341.2 357.2 372.7 382.6 394.6 399.4 408.7 411.7 418.5 420.9 422.3 426.7 435.1 442.5 445.9 448 452.5 455.4 457.9 459.4 460.5 461.6 466.9 472.8 474.3 476.3 478 480.1 477.5 475.6 481.9 480.4 479.2 486.4 484.6 482.7 489.8 491.1 491 494 494.1 495.4 495.4 492.1 487 484.2 484.1 487.2 488 487.5 484 489.7 491.9 495.4 496.9 493.3 493.8 495.9 496.6 498.5 491.4 489.5 485 485.8 487.4 489.8 485.9 489.1 492.3 492.1 490.2 492.8 489.6 487.1 483.5 484.5 483.4 482.2 482.3 480.5 476.3 475.2 478.9 474.2 476.3 476.8 476.8 475.2 475.1 472 474 471.4 464.1 464.6 461.5 459 452.1 458.4 457.3 459.6 458.8 457.1 456.5 453 453.5 446.5 450.8 449.9 449 444 443.7 443.6 434.4 441.8 441.2 441 442.2 447.2 441 437.6 435.9 436.9 439.3 441.9 440.1 439 433.2 430.1 428.2 426.8 424 419.2 413.9 416.8 412.9 410.4 409.7 408.2 411.2 407.6 406.8
287.3 307 329.6 355.6 380.7 406.4 434.8 451.4 460.7 471.2 471.3 464.9 460.1 446.7 438.1 426.7 416.3 404 382.9 354.5 335.1 316.5 301.1 283.7 258.5 235.6 218.3 201 185.9 169.8 154.8 139.5 125.5 114 103.2 95.5 91.1 81.7 77.8 76.4 76.7 79.1 82.3 87.1 93.5 101.1 107.2 116.9 123.9 132.1 143.3 154.5 168.9 191.2 215.7 242.6 268.1 293.5 315.3 331.7 349.2 363.8 372.1 381.7 388.6 394 402 411.2 413.3 417.4 421.2 430.1 435 439.6 443.8 448 448.9 452.3 449.3 455.1 454.4 455.5 462.1 462.4 463.5 468.2 468.5 466.9 470 473 468.7 474.3 471.9 476.3 476.2 480.3 480.8 480.7 482.9 484.4 487.4 490.2 484.4 482 475.4 481.4 478.2 478.7 481.7 478.2 481.8 484.4 486.7 482.2 486.1 488.1 489.3 489.3 482.5 482.9 480.5 476.6 474.3 481.5 482.3 477.2 480.3 482.1 485.2 478.4 481.2 478.1 477.2 474.8 475.7 471.3 469.5 471 469.1 469.1 467 471.1 466.9 464.5 467.1 471.7 467.4 470.2 464.7 463 462 457.6 456.5 450.9 449.1 440 448.3 448.4 448.9 446.8 445.1 447 440.1 439.3 439.7 441.8 438.2 439.6 437.4 431.2 430.4 424 427.9 431.1 429.7 426.9 428.1 429.8 430.8 430.4 426.2 425.1 422.8 419.2 417.7 416.3 416.2 416.1 411.3 406 402.5 404.5 403.3 400.8 396.7 396.2 395.5 397.3 393.9 397.1
280.5 298.8 321.9 349 372.8 395.5 419.9 436.2 450 459 459.8 457.3 450.5 443.2 435.2 425.5 412.2 400.3 383.4 358.6 332.3 308.2 293 279.2 263.4 243.1 225.3 204.4 188.1 173.9 160 148 134 120.4 104.8 102.4 88.9 82.6 79.3 75.4 72.4 75.5 78.9 84 88.9 95.8 104.5 112.9 121.2 127.2 138.7 150.1 166.5 182 207.3 234.3 260.8 286.3 306.2 322.5 337.8 350.7 360.3 369.9 378.8 385.3 392.9 398.1 401.5 413.6 421.4 427.7 431.2 429.4 435.1 434.2 439.3 442.7 443.9 442.9 449 449.8 452.2 454.9 458.7 456.8 456.4 457 458.7 460.7 460.3 462.9 463.1 462.1 465.6 471.8 474.2 472.9 475.7 472.4 473.6 473.6 472.9 471.1 467.5 473.8 472.3 468.5 474.2 472.3 468.3 472.7 472.3 474.7 482.1 478.6 476 472.1 471.8 474.8 468.9 467.6 468.5 474.4 473.7 468 469.9 473.4 468.3 471.6 473.1 469.4 468.3 464.2 466.2 460.8 462.3 459.1 458.3 458.1 458.1 461 461.1 457.8 463.1 463.8 459.6 455.7 458.4 455.3 449.8 448.3 447.4 444.8 438.9 432.7 441.1 440.7 436 432.5 431.4 432.9 427.1 423.5 424.5 425.9 422.6 427 427.3 423.6 417.5 412.8 415.8 418.7 420.4 418 417.4 421.9 415.8 421.4 415.9 413.6 409 403.1 402.4 401.9 402.7 398.7 394.2 393.2 391 391.6 386.5 384.4 386.7 386.1 383.1 383.6 385.1 381.9
275.3 293.9 313.7 340.3 364.8 386.7 406.7 429.2 438.5 449.1 451.5 450.8 444.9 436.4 434.3 426.6 407.1 391.1 378.8 359.4 334.8 309.7 292.7 276.5 262.8 244.5 226.1 204.2 199.4 179.6 165.7 155.3 140.3 123.8 109.7 100.7 97.1 86.6 80.7 76.7 72.6 73.1 75.7 80.8 85.6 92.1 100.2 107 116 130.1 131.1 145.9 162.8 176.4 197.2 225.5 252.7 276.1 295.7 313 326.7 339.6 349.6 359.8 365.7 374.6 378.5 387.3 394.9 405.1 412.2 417.3 417.8 417 423.5 427.7 431.8 433.3 435.4 440.6 441 443.3 441.7 446.8 445.1 446.5 445.2 451.3 454.2 456.6 453.4 453.8 455.5 455.2 456.4 462.7 461.5 465.3 467.8 463.2 466.9 467.3 464.7 460.3 461 464.7 460 462.2 466.5 467.7 461.9 464.1 462.3 465.7 467 466.5 461.7 462.2 461.1 462.2 460.9 463 462.9 462.5 458.2 456.3 457.6 458.5 458.7 462.3 460.3 460.3 455.1 454.8 450.5 453.2 453.4 449.7 451.6 451.6 447.9 453.4 448.5 447 454 452.8 449.7 448.3 448 444.9 441.1 441.1 441.4 437.8 433.7 418.6 430.5 430.7 427.3 424.9 421.1 421.3 417.2 415.5 413.1 412.8 411.7 413.9 414.7 410.3 404.4 405.5 407.5 412.7 411.1 408.6 406.3 410.3 406.7 406.6 399 400 396.3 392.2 388.8 383.3 388.5 384.6 379 378.7 377.5 380.1 374.2 375.3 374.4 372.3 370.4 369.5 368.2 368
269.7 287.3 307.5 331.2 353 376.9 397.6 413.9 426.6 434.6 439.9 435.4 434.3 432.5 433.7 423.4 411.5 396.3 378.2 362.3 341.4 321.9 303 283 263 246.3 233.4 214.8 203.4 184.7 172.1 160 146.7 131.3 117.9 108.5 100.6 89.8 81.3 78 73.9 69 74.3 77.3 81.6 88.2 97.1 106.7 115.4 121.6 128.7 142.2 156.2 172.2 192 219.2 243.1 262.4 282.2 299.6 315.1 326 338.4 348.6 354.7 364.6 370.2 379.7 389.7 398.2 402.1 404.4 406.1 408.1 414.2 418.6 420.9 423.8 427.6 432.7 438.5 433.5 434.3 437.8 438.5 437.2 437.1 439.7 442.5 442.7 443 444.2 446.1 449 449.7 452.7 453 457.6 456.9 454.7 460.3 455.3 454.3 453.8 448.4 451.5 452.8 455.7 459 454.4 453.4 456.1 455.8 453.4 458 455.9 448.2 450.6 452.8 455.1 453.2 450.5 447.8 450 447.6 443.9 445.8 448.7 446.6 448.7 445.4 447.7 444.1 446.6 441.1 441.4 439.5 444.8 444.6 439.8 439 442.2 442.4 443 447.9 444.6 443.2 441.7 438.8 439.3 436.9 436.5 432.3 431.3 426.9 414.2 417.6 419.7 417 414.2 410.7 408.2 409.8 407.2 408.5 410.1 406.2 407.2 401.4 403.3 399.3 400.6 403.4 405.8 401.1 397.1 398.8 397.9 397.2 391.3 385.6 383.6 382.5 374.4 371.7 373.4 374.9 369.6 364.6 363.4 363.3 364.7 366.5 366.4 365.9 360.5 357.9 356.4 356.7 356.3
265.3 284.9 306.5 326.2 347.7 369.4 392.4 406.9 418.9 426.6 430.4 430 426.3 426.8 421.7 413.9 406.7 401.9 389.6 372.3 354.5 335.3 314.8 295.7 274.5 260.7 240.5 224.5 206.6 189.6 174.7 164 148.3 133.8 123.8 110.5 103.3 93.6 87.7 81.7 76 73.1 70.1 73.4 79.7 85.3 93.6 101 106.4 114.5 125.6 138.3 151.9 168 187.2 210 231.5 251.1 269.3 286.5 301.9 316.6 325.3 337.1 345.6 354.6 365.8 373.3 381.2 388 393.1 394.8 396.1 400.1 404.7 408.4 412.3 415.8 419.5 426.6 425.4 422.2 423.8 426.9 428.7 426.9 428 432.9 433.4 433 435.7 438.6 438.6 439.3 437.7 445 446.6 444.3 446.6 445.7 447 445.1 445.3 442.7 442 441.1 444.8 447.3 448.6 444.5 445.5 449.8 445.2 446.5 447.9 443.8 443 445.7 450.1 444.9 445.9 441.3 433.7 435.9 438.3 434.9 440.1 440.8 435.6 439.5 439.8 438.9 435.2 435.6 433.5 433.9 433.5 439 433.6 431.6 433.3 435.8 436.5 435.7 440 435.9 434 431.7 431.1 432.6 429.4 429.3 422.2 422 417.3 407.2 407.2 409.9 405.3 401.4 396.9 399.4 398.8 398.9 401.3 402.1 395.7 395.5 390.8 394.9 394.3 391.9 388.9 393 392.5 390.2 392.6 391 386.5 378 373.4 371.8 374 367.6 363.1 364.2 359.6 355 353.1 352.7 353.6 354.6 354.7 351 349.9 349.1 348.7 348.8 352.8 353.7
258.9 282.2 303.2 321.1 343.6 365.5 384.8 396.1 406.6 414.1 416.9 419 417.7 414.5 411.8 407.2 408 402.5 388.9 376.4 364.8 347.7 327.4 310.6 283.6 265.6 246.7 230.9 212.4 193.5 179.3 165.8 150.7 138.4 126.4 116.1 107.3 102.6 92.5 83.7 76.5 72.3 66.5 71.3 75.3 81 89.4 96 101.5 111.4 122.9 134.5 145.4 161.9 181.3 200.9 223.1 241 257 275.4 288.7 301.6 313.4 327.5 331.8 346.9 355.3 363.1 371.4 377.1 383.4 385.1 385.8 391.7 398.4 403.8 407.4 409.7 412.6 417 417.4 414 414.4 418.5 421 416.8 421.7 422.4 424.1 427.2 427.9 430.7 431.1 428.4 429.6 432.1 434.5 433 434.5 436.1 438.4 438.1 439.5 436.5 438.4 432 432.4 436.6 436.5 436.6 438.8 441 439.3 437.6 437.5 438.4 438 440.4 441.5 438.6 428.9 426 424.9 427.2 426.7 427.1 427.6 427.5 429.3 431.2 432.1 425.6 425.1 424.6 424.1 424.7 427.1 426.1 425.8 424.6 424.8 424 426.6 427 428.6 429.5 427.1 427.4 425.2 426 420 420.4 410.1 409 403.7 399.1 392.1 398.7 395.2 390.3 386.8 388.7 387.1 387.6 389.7 388 386.9 383 386 383.2 384.5 386.6 385.2 384.4 387.3 386.2 383.9 383.5 376.9 373.2 369.1 366.4 361.4 356 352.2 345.9 344.3 341.6 346.1 348.6 344.4 336.6 337.3 343 345.8 341.3 342.5 342.3 341.9 341.2
258 277.5 296.6 316.6 337.9 360.6 379.6 390.8 398 406.4 411.2 408.8 407.8 407.6 408.6 401.8 399.5 395.2 383.1 373.8 363.3 347.2 331.2 316.5 291.4 267.5 248.9 236 217.2 196.4 181.2 166.6 153 138.7 127.9 120.2 112.2 104.4 97.2 86.9 77.7 72.3 68.2 66.7 71.6 77.8 84.3 90.5 98 109.8 117 126.3 142.2 155.3 173.2 192.7 214.4 232.6 248.3 264.2 280.1 291 304.1 311.7 324.1 335.3 346 355.3 360.5 367.4 372.9 374.4 378.5 388.5 395.3 399.9 402.1 402.2 403.5 404.2 405.3 404.8 405.5 409 410.7 412.6 414.8 416 417.9 420.4 420 422.4 418.4 421.8 421.8 422.8 422.7 426 424.6 425.2 429.1 429.1 430.4 429.7 429.7 432.7 427.5 430.2 431.8 430.2 428.4 431.5 430.1 431.4 427 424.8 424.2 428.1 425 421.9 417.8 415.7 417.2 421.4 417.2 417.7 418.1 418.9 420.5 421.5 420.3 417.5 416.1 416.4 413.6 413.7 416.1 419.5 417 414.3 417 420.1 419.3 416.7 420.7 421.3 419.9 416.4 419.2 414.3 413.2 407.6 405.4 400.2 394.9 390.1 385.2 383.2 387.1 382.9 376.9 375.9 376 376.6 376.9 375.2 372 375.4 375 374.6 375.5 376.1 378 376.8 378.8 379.3 382 378.3 375.1 369.8 365 359.9 355.1 347.5 339.8 336.6 329.2 330.4 333.7 340.8 332.7 328.9 331 338.5 337.2 328.4 330.6 330.9 329.9 326.9
253.1 271 288.9 308.4 331 352.6 368.8 381.5 389.3 395.7 399.4 400.5 401.2 403.9 402.3 397.2 391.2 380.4 375.2 369.7 356.2 342.6 329.3 315.2 292.9 273.7 254.5 232.8 217.8 200.7 181.6 166.4 150.8 139.4 131.1 123.2 114.6 106.6 100.2 90.5 79.4 72.8 69.2 64.7 68.8 75.2 80.3 85.2 92.1 101.7 111.7 126.6 139.5 151.3 167.3 185.3 206 223.2 239.8 253.2 266.8 277.7 290.6 301.6 314 327.4 336.2 343.4 350.2 358.8 364 366.5 374.3 381.8 388.2 386.7 382.8 388.5 393.6 394.8 395 395.9 398.9 399.3 401.3 405.3 408.7 411 409.4 414.7 410.5 411.4 413.1 414 414.1 412.3 415.1 419.6 418.7 422.6 419.1 418.7 422.8 423.5 424.6 419.5 419.5 423.5 426.1 422.2 423.6 421 419.7 418.2 415.6 413.9 416.7 416 414.7 413.8 411.8 403.1 409.7 410.3 412.6 411.6 407.8 411.6 412.8 413 409.8 409.1 408.6 408.3 407.1 405.8 409.3 408.4 410.1 403.2 410.9 412 406.5 410.6 415.2 410.8 408.8 407 406.9 407.9 400.1 397 396.5 392.5 386.8 385 380.3 373 376.2 372.2 368.3 366.3 365.3 361.8 362.6 364.9 364.4 366.3 365.9 366.5 365.3 368.2 368.5 370.9 374.1 369.6 372.5 373.9 369.9 362.4 357.3 350.3 341 333.7 330.4 323.8 321.8 324.4 327 326.7 322.3 325.9 326.5 326.8 320.9 316.1 312 315.5 316.2 313.7
245 263.5 280.6 300.1 321.7 345.1 360.4 371.6 379.7 387.6 390.5 391.8 394.7 398.1 393.8 389.2 385.7 380.5 374.4 369.1 358.5 345 329.8 313.6 295.5 277.6 251.7 234.3 217.9 200.7 182.8 166.2 150.2 137.6 130.9 122.1 111.7 103.2 96 89.7 80.3 73.5 69.1 62.3 66.4 71.4 76.2 80.7 90.3 102.8 111.8 121.2 133.6 147.6 164.1 183.3 199.4 215.6 229.7 241.8 256.1 265.1 279 292.1 305.3 316.4 325.5 332.3 341.3 351 356.5 360.3 368 371.9 374.4 373.6 375.8 380.3 384.9 386.4 388 391.9 392.9 392.6 395.2 400.7 401.4 402.7 402.1 403.4 403.4 405.9 408.2 406.8 407.2 406.6 408.5 409.4 408.9 408.7 408.7 408.9 413.4 416.9 414.8 415.5 409.6 413.9 416.5 413.9 412.3 409.1 407.7 408.1 405.6 404 403.7 405.4 400.8 403.6 401.4 396 398.8 402 403.1 398.3 393.6 401.6 397.8 403.1 398.7 400.3 399.9 402 396.3 395.4 395.7 401.8 397.2 397.9 401.9 397.9 396.4 403 403.5 400.8 402.5 399.9 400.1 399.3 393.3 393.8 386.1 384.1 381.2 377.3 374.6 367.9 363.5 360.2 359.2 354 354.5 356.8 356.7 361.2 358.3 360.3 359.6 357.9 355.7 361.9 359.9 360.3 362.1 360.1 365.3 366.6 359.5 352.1 345 333 326.1 321.8 319.1 316.3 319.6 323.1 319 317.3 316.6 317.9 317.4 315.3 310.3 305.7 300.8 302.1 301.2 302
236.5 255.7 273.1 290.3 309 332.8 349.6 361.1 370 374.2 379.4 382.7 385.4 386.8 386.2 385.4 382.6 376.4 370.9 364 358.3 346.9 328.7 307.8 292.8 277.7 254.8 235.4 218.2 200.6 183.1 166.4 148.9 137.8 130.2 123.6 116.4 105.3 98.7 88.9 79.6 72.6 67.6 62.4 63.7 66.9 71.4 75.8 87.3 96.7 105 115.1 129.6 146.6 162.5 175.3 190.1 207.3 220.4 232.6 244.3 259.4 269.9 280.9 293.2 303.7 313.9 321.7 333.1 342.4 348.1 351.4 358.4 359.6 360.9 364.2 368.9 371.1 375.4 380.6 383.1 386.3 384.7 387.2 390.1 391.3 392.7 395 394.7 396.1 396.1 398 401.1 400.6 400.8 399.8 400.1 400.4 399.8 400.9 401 403 406.4 407 409 410.8 405.5 402.8 404 404.5 400.9 402.3 400.1 397.7 397.8 399.3 395.3 398.3 393.3 394.8 393.4 386.9 389.5 393.4 392.9 390.9 384.4 390.5 391.3 391.5 387.8 390.9 389.4 392.5 384.3 388 389.9 390 390.4 387.4 392.9 389.4 389.7 395.2 395.1 395 392.7 392.6 388.5 388.2 386 382.8 377.4 374.3 369.2 368.7 363.8 360 349.6 351.8 347.1 347.9 350.6 350.4 344.1 347.5 348.5 349 352.4 352.6 348.5 349.1 347.9 348.8 350.7 357.1 352.4 347.2 341.7 335.4 324.6 318.2 313.3 313.8 314.3 315.9 313.5 317.4 311.7 307.7 307.3 307.5 304.8 302.1 295.5 292.8 290.9 293.4 292.3 291.3
228.4 246.5 261.2 278.3 297 318.1 334.1 347.4 357 360.8 366.4 368.9 373.5 374.4 374.2 375.9 374.6 367.3 360.9 354.1 343.7 337.8 324.1 304.7 287.3 274.1 255.5 234.7 214.8 196.6 179.8 164.1 150 140.4 130.2 121.4 114.5 104.2 97.6 87.9 80.7 74 67.8 62.8 60.4 62 65.3 71.9 81.6 88.1 104.1 113.5 128.5 144.1 155.4 168.2 181 196.3 213.9 225.5 241.1 252 261.1 271.3 281.9 291.9 302.8 312.2 325.1 332.4 337.5 340.1 342 347.4 351.5 354.7 360.5 362.4 366.1 370.8 368.4 370.5 372.1 375.6 377.2 380 383.1 385.9 386.7 390 389.1 391.5 392.7 392.4 393.2 394.7 393.8 392.7 393 394.9 398 401.2 402.2 400.5 404.5 406.4 403.2 397.6 396.9 394.4 391.8 391.6 390.2 387.7 392.9 391.8 389.8 387.1 385.1 384.9 380.7 381.6 378.4 382.4 385.6 383.6 375.7 382.2 379.1 381.5 379.9 381.1 383.3 384.4 375 376.2 378.5 378.7 378.3 382.4 387.2 381.5 382.2 386.1 388.9 389.5 384.9 387.4 380.4 381.1 378.3 374 372.1 366.8 364.6 361.5 356.5 350 346.4 342.2 338.5 344.4 341.2 340 337.8 334.9 338 340.8 342.7 342.8 336.1 336.7 333.1 340.8 343.2 339.9 332.7 327.7 323.9 319.2 313.5 308.1 305.3 306.5 312.5 315 303.4 306.6 302.7 298.3 295.6 293.5 292 287.8 286.8 284.6 284.4 281.5 280 280.3
220.9 235.3 250.4 266.3 284.7 302.3 316.1 330.7 341.4 349.1 353.4 355.7 359.6 365.2 364.5 363.4 363.3 362.6 355 348.2 333.5 323.4 308.7 292.4 280.1 270.2 253.1 231.5 211.8 190 171.7 159.6 149.1 140.8 132.8 124.6 112.1 104 95.7 88.2 82.5 75.6 68.5 64 57.7 59.6 64.4 69.1 80.7 88.7 98.8 109 123.3 137 147.4 161.7 177.3 189.9 197.8 224.2 233.1 244.6 253.2 264.3 274.8 280.8 288.9 303.6 316 321.4 326.3 327.9 329.9 336.5 338.6 347.7 351.8 354 358 359.3 358 359.3 361.4 364.6 367.2 371.5 374.8 375.1 379.4 384 383.5 386.9 386.5 386.8 386.5 388.1 387.7 386.9 388.4 389.3 390.3 392.1 394.6 393.4 396 400.2 395.4 395.6 387.5 389.4 384.3 382.3 382.7 380.7 383.6 384 381.1 376.3 379.7 375.7 373.6 368.9 368.3 374.5 374.9 368.9 362.4 371.3 370.6 372.9 372.1 374.8 374.7 371.6 362.3 366.2 369.1 372.4 365.1 375.5 374.1 368.4 376 378.4 373.7 380.7 377.6 375.2 375.5 372.4 370.6 366.7 365 359.1 356.1 351.6 346.6 343.2 339 329.1 332.6 329.5 327.6 329.5 327.7 324.1 326.7 331.9 335.8 329.6 325.5 327.5 325.8 331.5 329.8 322.5 318.7 314.7 313.2 309.6 305.4 301.5 301.4 302.2 306.5 303.2 297.9 294.2 290.4 289.6 287.3 284.1 282.5 282.7 278.9 275.3 273.3 271.2 271 275.2
210.9 225.7 239.1 252.3 269.5 288 301.8 313.7 323.3 334.7 339.5 338.6 350.1 355.7 351.6 348.1 350.6 346.1 343.2 335.4 323.1 311.3 299 286.8 273.8 259.4 247.3 227.6 206.5 185.3 169.2 158.3 147.4 138.9 131.2 125.1 117.4 104.9 98 91.9 83.6 77.8 70.2 64.2 59.9 57 61.3 67 76.4 87 96.1 105.9 118.1 129.9 142.8 157 165.9 180.2 198.7 214.2 227.7 235.8 249.3 256.5 266.4 272.8 282.7 294.4 304.3 310.1 315.3 317.2 322.7 326.8 331.3 339.3 341.3 343.8 347 348.2 348 349 351.2 355.1 359.3 363.9 365.8 367.7 372.1 374.5 375.5 379.7 379 381 379.7 379.9 380.8 382.8 383.8 384.1 384.3 386.7 388.2 389.7 390.7 390.3 388.9 387.5 383.2 380.4 381.3 376.6 375 371.9 375 376.4 372.8 371.1 367.5 364.8 363.5 356.4 361 364.2 363.5 360.7 359.4 361.5 362.2 363.7 364.1 362.8 360 357 358.1 359.4 358 360.2 357.5 361.1 361.8 359.4 364.4 364 366.8 361.9 363.6 362.5 366.3 359.9 358.2 356.9 353.6 352.4 347.3 344.5 338.7 334.3 330.9 321 324.7 320.4 320.4 321.7 322.2 319.9 318.7 316.7 321.1 318.6 318.9 320.2 319.3 321.4 319.5 318.6 314.7 309.4 303.7 300.3 300.3 297.6 295.7 300.1 302.1 298.7 293.9 284.5 283.6 283.2 280.2 278.6 277 273.5 269.1 266.3 266.6 262.7 263 268
201.7 211.9 226.2 238.1 253.4 272.6 286.2 297.2 306.7 318.9 321.9 326.6 333.5 339.1 339.4 334.6 330.1 325.4 325 321.7 316 299.3 290.9 284.2 267 254.5 244.8 233.9 212.7 185.8 166.5 153.5 143.4 133.9 127.2 121.1 113.4 104.6 100.6 92.3 82.5 75.8 69.8 63.6 59.1 55.3 62.3 66.4 73.2 84.5 92.1 102.6 114.1 127.9 137.6 151.4 166.1 178.1 191.3 204.8 217.2 226.7 235.6 245.5 250.2 263.9 274.7 285.5 293 299.2 304.5 308 313.3 316.2 320.2 328.8 328.8 334 336.9 336.2 336 337.4 343.2 347.7 348.9 354.3 356.4 358.7 363.3 364.4 366 370.7 370.4 371.2 371.4 372.8 374.5 375.9 378.3 378 378.8 381.3 383 385.1 386.9 384.8 382 380.1 376.6 374.7 374 372.2 366.4 368.1 366.6 364.2 362.8 361.5 351.6 352.6 354.7 350.6 346.5 353.2 353.1 352 345.5 351 349.4 352.8 352.7 348.6 351.4 346.9 351.4 351.8 350.2 353.6 353 350.1 346.1 355.7 357 359.9 360.1 356.2 361.3 354 358.6 356 352.2 350.9 344.5 348.1 344.3 335.8 328.9 327.1 321.7 317.7 314.8 311.8 316 314.8 311.8 311.9 312 311.9 312.7 313.8 314.3 316.2 313.7 317.5 315.7 310.9 308.5 302.7 298.8 293.9 293.9 289.3 290.2 297.7 297 293.4 285.4 280.4 275.3 277 269.2 271.8 268.7 264.8 259.2 257 254.6 252 251 250.1
186.6 198.6 213.4 226.1 239.4 254 267.7 277.9 288.9 298.8 301.9 308.1 316.4 322 323 322.3 315 310.9 303 302.9 297.4 295.1 286.7 274.8 262.5 250.3 235.5 215.7 198.2 179.8 164.4 147.9 141.4 127.9 121.4 116 110.4 104.9 101.5 90 81.8 72.3 65.6 61.3 58.4 53.3 59.5 65.5 71.4 77.8 88 98.8 111.2 119 133.6 145.7 159.2 170.2 181.9 194 207 216.6 226.1 233.9 245 255.6 267.4 276 282.9 288.2 293.2 299.7 303.1 304.8 312.5 317.6 318.6 321.1 323.8 325.8 327.6 329.4 333.4 333.7 338.3 341.3 346.1 349 352.8 355.7 356.7 360.5 362.1 362.5 363.8 365.4 367.6 369.2 369.8 370.5 373.5 376.2 377.8 378.5 380.7 379.4 377.1 375.4 375 373.7 367.2 369.4 362.9 359.5 357.1 359.3 354.3 351.6 342 345.2 345.8 343.8 339.4 342.8 343.2 341.4 334.8 337.8 339.1 338.5 339.6 336.2 337.5 336 332.8 337.5 337.6 336.8 335.4 338.7 340.5 344.7 344.2 349.6 348.2 347.5 348.9 348.9 349.9 351.2 347.2 347.5 341.2 339.9 332.2 326.4 320 317.6 313.1 308.3 306.5 306.1 303.7 303.5 303.9 302.8 304.8 308 309.1 311 308.5 311.3 310.8 311.3 306.6 305.6 301.3 296.1 290.4 286.9 285.5 276.6 283.4 288.5 283.1 277.7 272.7 273.1 269.2 267.6 264.3 259.6 258.4 252.8 247.2 243.2 240.6 237.9 235.1 232.9
172.8 185.5 196.9 210.1 222.3 233.9 250.3 261.9 271 278.1 284.5 291.8 296.9 302.8 304.9 302.6 299.4 296.1 291.8 290.3 287.4 284.8 269.4 259.4 245.2 231.7 216.6 204.6 193.3 171.5 154.3 143.4 134 121.4 114.8 107.8 103.7 99.6 94.5 89.3 82.3 72.7 65.1 58.4 56.8 52.6 56.2 62 73.5 81.4 88.7 97.4 108.9 121.7 129.8 142.3 155.4 165.2 175.3 185.4 196.2 206.2 215.5 228.3 236.9 247.4 259.3 267.6 271.2 277.2 280.2 287.9 290.6 294.5 300.7 305.8 308.7 311.5 315.9 317.3 319.7 321.9 323.1 325.1 328.5 333.5 337.3 340 344.3 345.6 347.8 352.2 353.9 354.4 355.6 358.2 360.8 363.1 364.5 366.2 368.5 371.1 371.6 372 372.6 375.4 375.5 374.9 372.1 371.7 367.1 364.2 354.9 350.9 347 348.6 346.9 338.1 333.1 336.8 335.9 332.5 322.1 327.8 331.2 330.2 327.9 327.7 328.1 328.8 325.9 321.8 325.8 324.6 318.7 323.8 326.3 327.3 328.1 323.6 331.7 336.1 339 341.6 341 340.6 340.5 343.5 343.3 343.7 342.1 339.6 335.3 331.5 329.6 321.1 314.2 305.9 305.8 302.4 298.5 299.9 298 296.9 297.9 300.4 302.6 302.1 300.5 300.7 302.7 306.2 305.4 304.9 303.7 303.9 293.1 287.3 284.3 281.8 274.5 269.4 279.1 278.1 272.6 266.9 267.5 268.8 261.2 258.6 259.5 247.9 243.1 237.5 235.3 231.4 226.4 222.7 220.2 220.8
162.3 170.5 180 194.5 205.3 215.9 228.7 241.6 249.2 260.1 270 275.7 281.6 283.3 285.5 283.4 281.3 281 278.9 274.2 267.2 264.5 255.5 241.5 225.6 213.4 201.5 188 178.5 158.6 147.3 132.8 124.7 117.4 107.4 98 93.9 91.3 83.9 76.2 71.9 69.5 63.4 58.2 53.1 53.7 58.5 61.8 70.5 76.8 86 94.8 104.8 116.4 127.2 138.5 149.8 160.7 168.4 176.7 186.5 196.8 208.3 225.2 234.6 242.5 249.9 257.4 260.8 268.5 270.2 276.1 277.7 284.3 289.7 294.7 298 301.4 304.6 307.6 308.4 314.3 315.4 316.6 320.8 325.2 327.6 330.9 336.1 337.3 342.1 344.7 346.1 347 348.8 350.4 353.2 355.9 358.6 361.1 363.3 365.6 365.6 365.7 367.1 370.8 373.3 372 368.5 367.5 362.1 354.1 347.4 341.3 339.4 339.8 338.6 333.8 326.8 323.8 321.9 318.8 312.9 315.7 317.9 319.2 314.5 316.3 316.2 319.3 313.5 314.1 313.2 312.5 312.5 312.3 317.7 319.7 313.1 318.8 322.6 325.2 324.3 329.4 335.6 329.6 331.3 334.6 330.8 333.2 331.9 332.3 326 322.8 316.9 312.3 307.7 300.2 298.1 292.5 288.7 291.6 290.7 292.2 291.2 293.5 296 293.7 293.6 297 300.1 305 297.9 295.2 292.7 288 283.2 279.3 274.4 269.6 266.7 265.3 269.8 267.8 260.7 263 266.2 257.1 254 246.5 246 236.5 231.9 227.6 224.9 222.4 219.9 216.5 213 211.3
152.8 159 165.7 177.5 189.9 199.9 213.7 223.6 232.8 244.6 254.1 260.2 265.2 268 268.6 268 266.8 265.6 263.4 256 248.2 247.9 237.8 222.8 207.5 198.1 183.9 171.1 163 146.2 133.3 124.4 115.3 108.2 103.1 94.2 86.8 77.5 69.5 65 62.6 58.3 56.5 54.8 51.7 52 55.2 60.6 67.7 75.4 80.6 90.7 104.3 116.2 123.7 136.4 142.9 153.1 162.2 168.8 181.4 192.2 201.8 218.8 223.8 230.9 236.5 248.6 254.5 259.2 261.1 265.2 273.4 279.3 279.5 287.5 292 292.8 293.1 295.1 297.1 304.2 305.2 307.1 312.3 316.6 319.1 324.6 330.2 331.6 334.3 337 338.8 340.8 342.8 344.4 345.7 348.5 351.3 354.2 357 358.6 359.6 360.8 362.6 363.5 365.8 365 363 362.4 359.4 352.7 345 337.6 329.7 332.1 333.1 328.1 318.6 314 312.4 307.4 304.6 306.1 306.6 306.5 304.5 303.7 306.9 302.3 303.7 298.7 300.3 301.6 301.8 301.2 307 307.8 303.1 309.6 313.1 313.4 313.8 318.3 323.6 319.5 323.3 322.8 321.4 318.3 319.8 321.4 315.8 313.3 308.3 304 299.3 293.3 287.2 285.1 283.1 287.4 289.5 289.6 284 287 288 286.6 284.4 290.2 293.9 296.8 292.5 283.9 282.4 279.4 274.4 273.3 266.2 259.7 259.4 261.3 262.5 257.3 254.9 256.4 252.9 241.7 234.9 232.1 230.3 227.5 228.2 226.5 221.6 217.5 216.1 211.4 208.1 207
145.3 148.6 154.6 161.8 172.8 185.2 196.2 205.8 216.4 226.6 234.3 240.9 246.2 250.9 253.2 250.4 250.3 249.8 247.2 240.5 235 229.5 218.8 210 199.4 188.1 175.6 163.5 151 138.2 128.3 119.4 109.5 102.8 95.6 88.2 81 72.7 66.6 62 56.9 52.4 50.7 51.1 48.6 45.5 50.5 59 65.1 67.9 77.4 91.6 102.4 111.5 120.3 129.3 136.5 147.1 156.6 168 179.3 186.6 199.1 209.6 213.8 220.8 230.9 239.3 243.8 249.1 251.8 258.2 264.3 269.3 271.4 276 279.2 282.1 282.5 284.1 285 288.7 293.9 299 303.1 307.7 310.6 314.5 320.1 322.5 325.3 328 330.7 333 335.6 338 338.6 341.9 344.3 347 351.5 352.7 353.4 355.2 355.7 357.1 358.4 361 359.4 356.2 351.7 347.3 339.8 331.2 326.8 322.3 322.2 316.2 306.9 305.3 301.7 298.1 294.3 295.1 294.7 293.5 294.1 290.7 294.8 291.4 289.2 285 291.6 292.2 292 292.9 297.2 294.8 296.1 300 303.7 304.9 304.6 307 309.3 313.2 316.5 311.3 310.4 310.1 310.1 305.9 305.5 301.9 297.5 294.8 290.5 286.2 281.4 270.6 274.5 281.7 282.7 275.5 273.2 277.5 278.6 276.5 278 282.8 282.5 282 282.5 278.5 278.3 271.9 267.2 258.7 256.7 253.2 252 252.4 258 248.8 245.2 241.9 233.5 225.8 222.6 222.3 221.4 225.1 223.7 217.5 216.7 208.8 207.3 203.8 203.9 203.2
