ncols 200
nrows 200
xllcorner 310000
yllcorner 700000
cellsize 50
270.4 266 262.2 258.9 256.4 251.4 247.3 240.6 240.8 238.5 232.9 246.6 243.7 239.5 239.6 243.3 247.9 254.6 258.7 255.1 254.1 243.4 228.4 225.2 230.8 221.8 218.8 214.7 207.4 205.6 199.6 194.9 194 202.3 213 215.8 215.5 206.4 203.3 204.2 209.2 214.5 211.7 206.9 199.7 190.6 178.4 175.5 175 172.9 171.3 170.2 161 174.6 183.5 191 200.5 207.5 207.5 205.5 202.7 198.5 190.2 180.3 172.1 163.4 156.4 149.4 145.6 143.9 141.7 141.5 145.1 148.6 163.3 168.5 169.3 171.5 179.2 183.7 187.9 185.8 186.2 188.8 188.8 190.7 191.1 193.2 193.4 192.5 193.6 192.3 189.9 187.7 185.4 182.5 180.6 178.4 174.7 170.3 166.8 164.6 162.9 161.6 161.3 161.1 162.3 163.7 165.4 166.5 168.4 171.4 173.7 176 178.6 179.7 182.2 184.6 186.7 187.8 186.7 185.3 184.6 185.7 187.1 185.4 182.8 177.9 173.6 170.4 167.6 165.7 161.3 156.7 151.2 145.2 136.7 130.3 125.4 136.7 146.8 149.6 147.5 146.4 144.7 139.9 133.7 129.5 127.7 126.2 123.2 121 119.4 117.1 115.3 113.1 109.5 108.8 107.6 104.3 102.3 100.7 98.8 97.5 97.1 95.3 95.3 95.1 94.2 92.9 91 89.9 88.1 86.9 85.8 85.7 84.3 83.1 83.6 84.3 84.9 82.8 80.2 80.2 80.6 79.9 78.9 81 85 86 87 85.3 87.3 88.5 88.2 86 83.1 82.3 80.4 79
271.1 266.4 264.5 262.9 259.5 255.5 251.1 242.6 239.2 236.7 231.6 239.2 239.7 248 249.8 253.8 263.1 262.4 264.9 263.9 259.2 256.8 233.3 227.5 230 233.6 233.8 229.3 223.6 222.1 218.2 219.2 218 216.3 223 223.3 221.4 209 208.4 214.2 216.2 217.6 213.6 209.6 201 191.7 181.1 171.2 168.9 167.2 165.4 163.6 171.6 179.8 187.4 197.8 209.7 213.6 214.3 209.2 208.8 204.3 194.7 183.7 174.8 165.5 157 151.3 146.4 143.8 141.4 140.3 142.5 144.8 155.7 162.2 163.7 165.7 169.2 175.2 178 180.4 182.6 185.5 186.5 186.9 187.6 187.8 188.7 188.7 188.5 189.1 187.6 186.6 185 182.8 181 179.1 176.2 172.1 168.5 165.1 163.3 161.7 160.7 162.1 163.6 165 167.8 170.3 174.3 177.8 178.5 179.1 181.2 183.1 183.6 185.8 187.5 189.6 188.9 186.8 187.9 189.3 188.9 187.8 184.1 179.8 175.5 171.7 168.5 166 162.6 158.1 152.6 145.6 137 127.8 125.6 136 139.4 138.5 137.3 138.8 139.6 134.8 129.8 127.1 124.3 121.6 119.1 116.6 115.2 113.5 112.5 109.2 106.1 105.6 107.3 105 103.3 101.5 98.7 97.6 95.6 93.7 93.7 92.5 91.7 90.7 88.7 87 86 85.3 84.8 84.8 83 83.6 84.5 85.6 84.4 81.9 81.3 81.3 80.7 79.1 80 83.8 86.7 86.9 86.2 86 86.7 87.8 87.7 85.5 83.1 81.9 79.7 78.7
270.3 265.2 263.5 262 260.2 257.9 248.1 245.1 239 237.5 231.4 236.5 241.6 253.7 255.4 254.1 269.2 269.6 264.1 263.1 260.3 255.1 250.2 233.4 226.8 238.2 238.3 235.1 239.3 236.8 236.1 224.7 227.6 228 232.3 233.2 232.5 217.6 214.3 216.5 217.3 217.8 214.7 208.9 200.6 190.4 179.7 173.7 169 166.2 165.6 170 176 183.9 191.4 202.5 214.8 218.8 217 213.4 212.4 208.2 199.2 189.3 177.2 168.4 163.6 159.8 149.9 144.8 141.2 140.2 139.6 143.3 144.7 155.8 160.3 162.9 164.8 167.3 174.1 177.3 179.4 181.6 182.7 185.5 185.2 185.2 185.2 185.2 185 185.1 184.8 183.9 182.7 181.5 180.2 178.7 176 172.9 170.8 166.8 163.7 162.6 160 163.5 164.9 167.5 170.8 175.1 178.7 181.6 181.4 182 182.5 183.7 185.9 187.3 188.3 190.8 191.3 190.7 189.3 189.6 191.7 188.8 183.6 178.6 174.2 170.9 168.4 165.6 163.3 159 153.9 146.8 138 127.3 122.1 125.9 128.8 127.9 128 127 128.1 126.8 124.3 125 124.1 121.3 117.5 114.7 112.7 110.3 109.3 108.3 105 103.2 103.4 102.9 102.4 101.2 98.2 97 95 93.5 91.4 90.1 89.3 88.1 86.6 85.2 85 84 83.7 83.5 82.8 82.5 82.7 83.6 81.8 80.3 81.1 80.2 79.3 81.3 83.2 84.6 85.6 86.4 84.9 85.8 86.3 87.4 86.3 84.7 83.7 82.6 80.3 77.8
263.2 266.7 264.4 259.5 258.5 256 251.2 242.5 237 232.8 234.6 243.7 244.5 250.6 255.9 260.3 263.7 269 268.2 265.3 261.9 254.2 250.3 241.2 240.7 235.3 239.9 238.3 240.9 243.9 243.5 239.6 237.3 236.4 235.4 234.6 231.1 224 219.6 218.6 216 215.1 214.5 206.9 197.9 188.2 179.8 174.6 170 169.6 173.7 174.7 179.9 186.9 196.4 209 219.2 221.8 219.8 215.2 213.2 209.4 204.1 194.3 182 174.7 171.5 163.7 155.1 147.1 142.6 140.2 140.3 139.6 144.5 144.6 157 159.5 161.4 163.9 171.9 177.3 177.6 176.8 179.6 181.9 180.5 182 182.3 181.3 181.3 181 180.4 179.5 178.7 177.6 176.8 175.8 174.1 171.3 169.8 168.2 164.4 161.2 160.3 164.3 167.1 169.9 174.2 177.8 180.9 183.6 184.5 184.5 185 185.6 186.8 187.4 189.1 191.2 191.3 191.2 189.4 191.5 190.9 187.5 182 178.6 175.5 171.3 168.5 165.3 162.8 158.4 154.3 149 142.2 133 122.5 119.2 119.6 119.5 120 120.7 120.8 121.5 122.1 123.4 122.8 119.8 116.3 113.2 111.4 109.3 107 106.5 105.3 103.5 102.8 101.4 99.9 98.1 96.8 95.5 94.3 92.7 91.3 90.1 87.8 87 85.7 84.8 85.2 83.5 83.1 82.6 82.4 82.4 82 80.9 81.2 80.4 80.7 80.9 81.2 82.6 84.6 84.5 85.7 86.3 84.9 84.7 85.3 85.4 84.4 82.7 80.9 79.7 77.9 76.7
258.9 259.7 262 258.6 255.5 253.8 251 247.3 235.3 232.9 241.1 248.3 252.8 259.6 263.6 266.5 265.1 264.4 263.9 260.9 258.7 254.5 249.7 249 241.2 246.5 242.2 243 246.3 252.6 242.8 240.3 238.5 238 235.4 230 228.1 223.5 219.7 219.5 219.9 215.9 210.1 203.8 194.9 186.4 177.6 171.6 167.1 174 178.9 181.3 185.9 194 204.1 215.6 224.4 224.6 221.1 217.8 214.6 212 208.8 199.5 186.6 180.2 176.8 169.7 162.1 154.8 146.1 141 140.3 140.8 139.6 144 144.5 154.8 155 158.1 163.3 170 173.1 172.5 173.7 175 176.3 176.8 177.6 176.6 176.1 176.1 175 173.8 173.3 172.4 172.5 171.8 170.9 169.7 168.3 166.9 164.1 161 161.9 166.7 170.1 174.1 176.1 179.4 181.8 184.3 186.2 187.2 187.5 188.1 188 188.4 188.6 189.9 190.2 190.5 189.9 188.7 187 184.5 182.1 180.1 177.4 173.2 168.1 165 161.8 158.3 153.6 149.7 143.5 135.9 129.4 122.2 117.7 116.7 116.5 116.5 117.4 118.4 119.6 117.8 116.4 116.4 114.2 112.2 109.2 107.4 105.2 105 104.6 104.6 103.9 102.3 101.2 99.3 96.9 95.7 94.4 92.8 91.3 89.6 88.1 86.3 85.4 84.5 83.9 83.9 83.3 83.1 83.2 83.6 82.8 81.4 82 81.1 80.1 82.4 84.1 86 86 85.9 85.4 84.2 84.8 84.5 84.5 84.2 83.1 80.1 77.5 75.4 74.5 73.9
261.1 263 257.5 255.1 253.1 251.6 249.7 243.6 237.5 234 246 259.8 264.8 269.4 274.3 270.7 265.5 262.8 258.1 256.4 254.6 248.4 243.2 241 236.4 244.6 250.5 243.5 243.7 244.4 243.2 239.5 236.4 234.6 232.6 226.8 224.4 222.8 220.4 219.8 219.9 215.1 208 200.1 191.7 182.3 172.6 168.4 168.2 175.6 182 187.7 192.7 200.5 211.9 223.9 227.8 226.6 223.2 221.5 216.2 213.7 210.6 202.3 192.1 184.2 180.2 175.2 167.7 161.3 155 145.5 143.2 141.4 140.4 139.5 145.4 143.2 149.1 151 156 160.2 165.4 167.8 167.4 169.1 171.3 172.1 172.4 172.1 171.5 171.1 169.6 168 167.5 167.3 167.1 166.5 166 165.6 165.3 163.8 161.5 159.6 166.6 169.7 172.6 176.4 179.4 181.1 183.5 185.5 187.2 188.3 189.1 189.3 189.4 190 189.4 189.9 190.7 191.5 191.2 189 187.2 185.1 182.3 180.1 177.6 173.2 169.4 165.2 162 158.2 153.5 149.8 145.2 141.2 137.6 131.8 124.9 119.6 116.4 114.8 113.8 112.8 113.2 112 110.9 111.3 110.9 109.1 107 105.7 105 105.4 106.2 106 104.9 103.8 102 99.7 98.3 96.5 95.1 93.6 92.1 90.7 88.5 87.4 85.7 85.1 86.2 86 83.9 83.6 84.9 84.9 84.1 83.5 83.8 84.2 84.9 85.7 86.4 86.2 85.4 85.4 86.2 85.6 84.4 84.3 82.8 81.2 80.7 78.6 76.2 75 73.2 72.5
262 259.3 258.1 254.3 248.4 247 245.9 236.1 235.5 236.1 250.2 261.5 272.2 277.2 278.7 274.1 264.9 258.8 255.3 247.9 245.2 240.4 237.7 234.9 234 235.3 242.1 243 235.5 236 237.9 237.5 231.9 228.8 226.1 222.3 220.9 220 219.5 218 218.2 212.1 205 196.5 187 176.8 169.7 169 170.6 178.3 186.3 191.5 199 208.1 219.6 229.1 233.9 233.2 229.2 221.7 218.1 212.2 209.6 206.1 197.9 188.5 184.1 178.7 171.9 166.1 159.8 153.9 145.8 143.7 141.5 142.6 139.6 144.3 142.5 143.1 147.8 153.2 157.5 160.9 161.8 164 167.2 167.4 167.3 167.6 166.6 165.8 164.1 162.6 161.6 161.4 161.2 161.1 160.8 161 160.9 159.6 157.8 165.3 170.2 173.1 175.9 177.4 180 182.7 185.2 186 187.8 189 189.6 190.2 190.8 191.2 190.5 190.6 191.4 193.3 193 190.7 188.3 185.6 183 180.3 178.2 175.9 174.2 172 168 160.9 154.6 150.3 146.8 143.1 139.2 134.1 130 125.8 121 117.5 114.9 113.7 110.6 108.1 106.6 106.3 106.4 105.7 104.3 104.6 106.7 107.3 107.1 106.5 105.4 104.4 102.4 100.2 99 97.7 96 94.5 93 91.5 89.8 88.7 89.2 89.3 89.5 88.6 86.8 85.6 86.7 86.5 87.6 87.1 85.7 86.4 87.7 87.4 86.3 85.6 84.9 84.3 84.5 82.9 83 83.6 81.9 79.8 79.3 78.6 76.6 74.3 72.4 71.3
259.1 255.5 252.4 248.9 243.4 238.8 237.7 240.6 245 246.4 244.5 258 269.4 276.6 281.3 273.4 263.4 254.7 247.6 243.5 240.7 239 235.5 232.2 229.8 228.7 231.4 237.4 234.9 229 230.7 229.7 227.2 222.4 218.5 216 216 215.1 214.2 213.3 211.1 207.8 201.4 192.7 181.6 171.7 170.5 170 171.5 180.9 190.1 199.6 207.2 217.3 227 234.3 237.2 237.1 230.4 228 218.7 211.5 206.9 203.6 198.2 192.3 187.3 181.9 175.7 170 162.2 158.3 154.5 153.9 149.4 144.7 143.7 141.6 142.2 139.4 142 144.9 151.4 154.2 156.3 159.5 160.9 161.7 162.7 162.4 161.4 160.1 159.2 157.6 158 157.8 156.6 156.2 155.6 157 157 156.2 166 171 174.8 177.5 178.5 180 181.6 184.1 186.1 188.7 189 189.7 190.3 190.6 191.4 191.3 191.4 191.4 191.8 191.6 191 189.4 187.1 185.1 183.5 180.8 178.9 179.3 174.7 172.6 168.2 164.8 158.3 153.2 148 143.9 140.4 136.7 132.9 129.5 125.6 121.6 118.6 115.9 113.3 111.3 109.6 106.3 103.8 103 102.8 104.3 107.2 107.3 106.8 106.5 106.6 104.7 102.3 102.1 101.2 100 97.5 95.9 94.3 92.9 92.2 91.2 91 91.7 92 90.9 88.9 89.4 89.7 90.2 91.1 90.6 88.9 87.8 90.1 89 87.7 86.5 85.8 83.3 82 82.4 82.5 81.9 80.4 78.5 77.2 77.4 75.8 74 70.9 67.1
250 251.5 247.8 243.1 240.3 245.9 247.6 241.5 242.8 246 249.2 246.5 256.9 273 279.4 275.3 265.3 252.2 245.1 242.5 242.1 239.1 235.6 233.9 229.9 223.9 221.5 224.1 227.3 225.8 219.8 218.5 217.4 214.4 210.5 208 208.9 209.4 208.3 207.4 205.2 200.9 195.9 188.2 178.2 171.8 171.5 171.2 175.1 186.2 198.9 208.4 221.4 227.4 236.1 241.1 240.4 235.6 233.7 230.4 220.5 211.8 205.3 200.6 196.9 194.3 189.9 184.3 178 172.5 168.3 163.5 162 159.4 157.8 154.2 154.1 150.8 147 143.1 139.1 140.7 140 145.7 149.5 152.6 155.5 156.2 157 156.4 155.2 154 153.8 154.3 155.8 154.6 150.4 152.9 156 155.5 156.8 164 171 175.2 177.5 180.3 182.4 182.6 184 185.5 187.4 188.8 190.5 190.8 190.8 190.9 191.7 191.8 192.7 193.5 193.4 191.7 190.1 188.7 186.2 183.8 181.8 180.7 179.3 176.6 172.8 171.5 168.2 166.3 162.9 156.8 152.1 146.9 142.7 138.9 135.5 132.2 128.8 123.9 120.4 116.6 113.6 111.4 110.4 108.3 105.6 103.5 102.2 102.5 105 106.5 105.7 105.6 103.6 102.5 100.9 100.9 100.6 99.2 96.5 94.6 93.2 92.1 91.9 91.6 91.1 92.5 91.3 90.4 89.7 90.9 91.4 93 93.1 91.4 90.6 89.5 91.3 89.7 88 85.7 85 82.7 79.5 81.9 81.7 80.8 78.2 76.5 76.1 75.1 73.3 66.9 64.8 64.6
251.1 249.2 247.5 249.9 254.2 254.6 254.4 254.4 250.4 248.8 249.6 248.6 251.6 257.5 269.3 269.3 260.9 250.5 241.9 239 239.4 236.4 232.5 231.4 226.2 222.1 218.7 213.4 215.4 215.5 212.2 207.4 204.4 204 203.1 201 200.5 201.5 201.9 200.6 198.2 193.7 188.8 182.9 176.2 173.7 172.6 174.1 180.7 192.9 206.9 219.3 229.2 234.3 240.4 242 244.1 240.4 236.1 230.6 223.1 212.8 207.5 202.1 197.1 194 190.7 185.9 181.3 176.7 171.8 168.5 167.6 166.1 164.6 163.6 162.7 161.3 158.7 153.8 146.1 141.7 140.2 138.4 138.9 144.3 148.2 151.5 151.9 149.7 148.6 147.3 147.5 148.1 145.2 152.5 158.7 160.5 162.1 162.5 163.4 169.2 175 178.2 181.1 183.1 184.4 185.5 185.9 187.1 188.4 189.8 190.5 191.2 192 191.6 192.1 192.8 193.9 195.2 195 194.5 192.4 190.3 187.4 183.8 180.6 177.6 174.2 172.6 169.2 166.7 165.2 163.2 160.4 157.7 152.4 148.6 144.6 140.7 137.8 135 131.6 126.9 122.1 118.4 114.6 112.2 110.9 109.9 106.7 105.5 104.6 102 100.5 102.3 103 103.8 102.4 100.2 99.7 99.3 98.5 97.4 95 93.5 92.4 91.3 91.1 91.6 91.5 91.8 91.4 91.1 91.7 93.7 92.7 92.8 93.3 92.6 92.7 92.9 92.6 91.2 88.2 83.7 80.5 77.9 75.6 74.6 75.9 76 75.3 74.7 73.7 70.5 66 65.4 65.6 64.3
256.7 248.3 257 261.7 266.3 268.7 267.7 262.1 260.7 254.7 251.3 243.7 239.5 249.7 254.3 253.7 256 248.3 239.4 233.6 232.8 231.3 228.7 224.1 218.8 215.7 215 211.5 207.6 207.5 201 198.8 200.7 194.4 195.3 193.5 190.8 191.4 194.7 194.2 190.8 185.7 182.2 179.6 176.6 174.7 177.1 181 188.9 200.7 210.8 223.1 233.2 238.6 240.2 241.6 244.9 241.3 235.6 232 224.5 216.5 210.5 205 198.1 192.8 189.9 187.1 182.6 178.9 174.6 172.1 170.2 170.1 169.6 167.3 167.5 168.2 169.8 164.9 160.6 151.4 145.1 140.3 139.1 138.2 142.7 146.2 147.8 145.2 142.2 140.7 139.1 144.4 151.1 158.6 164.5 167.8 168.5 168.7 169.7 171.7 176.4 180.1 183.8 187.7 187.6 187.3 188.4 188.4 189.1 189.9 190.2 190.6 191.7 192.1 193.6 194.4 195.9 197.1 198.2 197.4 195.9 193.6 188.8 182.4 178.2 174.2 170.9 168.7 165.9 163.4 160.8 157.5 154.7 151.9 148.9 145.9 143.6 141.2 138.8 135.8 133.7 131.1 128.4 124.8 120.6 117.6 114.5 111.9 109.8 108.7 106.8 104.2 101.7 99 96.7 100.1 99.2 99.2 99 98.2 96.9 95.6 93.8 92.7 91.6 90.5 90.3 91.6 92.3 92.4 92.1 92.7 93.5 95.9 95.4 94.6 94.4 94.3 92.3 91.2 90 87 82.7 83.4 83.7 83.9 80.1 75.6 69.3 70.3 68.9 67.6 66.5 66.6 65.6 64.5 64.8 65.6
259.3 255.6 264.5 268 270.4 269 272.9 273.1 266.6 262.7 255 246.9 238.9 241.2 245.4 247.9 249.1 243.9 237.2 231.5 225.7 221.2 222.4 221.4 220.7 225.1 234.1 228.9 219.6 217.5 214.6 214.4 211.4 205.7 200.9 201.2 198.6 192.5 186.5 186.4 180.8 180.7 178.7 177.8 175.7 174.4 183.5 189.1 197.3 208.9 217.9 226.3 233.5 239.5 242.9 243 243.8 242.7 237.2 230.4 225.8 218.3 211.6 208.1 202.2 194.5 190.5 188.5 182.8 178.9 177 174.6 172.4 172.7 170.4 169.7 168.9 170.3 172.5 172.6 168.3 162.7 154.3 147.2 141.8 138.8 136.9 141 142.6 140.3 137 140.8 146.3 152.1 156.3 164.4 171.6 174.7 175.8 174.1 173.6 175.7 177.7 180.7 186.1 190.9 190.7 189.4 187.5 188.2 189.5 189.9 190.1 190.5 191.4 192.9 194.5 195.9 198.7 198.5 198.1 197.7 193.1 189.9 185.4 180.4 176.6 172.4 168.7 165 162.5 160 156.3 152.6 149.2 146.4 143.4 142.1 140.3 139.1 137.3 135.6 133.6 131.7 129.8 127.7 125.1 121.9 119.1 116.4 113.6 111.3 109.3 107.1 104.7 102.4 98.3 95.8 95.5 96.9 96.3 96.7 95.3 94.2 92.9 91.9 90.8 89.7 89.4 91.4 92.8 93.1 93.3 94.2 94.9 96 94.5 94.9 95.9 94.8 92 87.7 86.4 85.2 86 87.6 88.4 87.5 82.2 68.9 68.1 68.3 65.7 67 66.2 67.4 66.9 66.5 65.9 66.5
258.6 263.9 266.7 270.8 272.6 277 276.7 276.6 273.5 267.8 259.4 250.9 242.7 234.7 235.9 236.5 236.2 239.8 237.9 227.5 223.8 225.6 226.7 229.2 238.9 246.8 245.8 246.4 241.1 224.4 222.9 221.6 218.1 212.7 211.9 214 208.6 196.1 190.3 186.4 188.8 184.6 179.9 176.9 176.1 180.4 187.5 194.1 203.4 214.3 224.5 231.2 236.5 238.4 241.1 242.4 242.7 240.3 237.5 230.9 225.6 219.7 213.7 209.5 204.6 198.3 192.9 190.7 186.3 179.7 177.4 174.1 174.5 173.9 173.8 173.8 168.4 168.4 171.7 175.3 173.5 168.3 162.1 156.8 150.8 142.5 138.7 133.6 138.4 135.3 140.3 145.5 152.5 159.2 163.7 168.3 175.9 180.6 179.1 178.3 177.5 178.8 180.6 182.2 187.1 190.5 189.6 189.6 188.8 188.6 188.7 189.3 189.8 190.6 192.2 193.8 196.6 199.1 198.4 196.5 196.7 191.7 186.4 184.2 181 177.8 174.8 170.8 166.8 162.8 159.1 155.7 152.6 149.4 147.1 144.1 141.5 139.7 137.3 135 134.5 132.6 130.1 128.3 127.3 126.3 124.8 122.8 121.1 119.6 116.5 113.7 111.9 109.3 106.4 103.8 100.4 97.9 95.4 93.1 93.3 92.8 93.3 92.7 91.8 90.6 89.9 89 88 90.5 92.6 94.7 94 95.1 94.5 95 94.5 93.6 93.2 91.3 88.2 86 86.8 87.3 87.8 87.7 86.3 82.3 70.8 68.5 72.1 74 71.7 69.4 68.6 70.2 70.1 68.7 68.5 70.3
261.5 266 268.6 268.2 276.7 277.2 277.6 274.2 275.5 270.2 266.8 256.1 252.5 244.3 234.1 232.1 230.5 228.6 228.3 231.3 227.3 228.6 239 248.9 256.9 258.5 258.1 255.5 250.7 241.8 227.8 226.8 221.8 218.8 217.2 219.8 213.4 202.8 193.2 191 193.9 185.9 177.6 177.2 180.1 185.9 193.5 199.7 209.7 221.1 231.7 237.7 237.6 239.6 240.3 241.6 239.3 236.2 234.2 230.6 225.7 220.2 214.9 210.1 205 199.8 193.9 190 186.3 181.9 177.8 174.9 174.5 174.6 175.2 174.2 170.4 167.5 168.3 171.9 172.7 170.7 164.8 159.7 154 148.7 140 137.2 132.9 133.2 143 151.3 159 166.4 171.8 174.7 178.2 181.8 181.9 181.4 180.5 181.3 182.8 184.8 186.1 189 188 188.3 188.1 188.1 187.8 187.7 188.2 189.2 192.3 195.7 198.8 198.1 197.6 191.5 185.9 183.2 181.2 178.7 175.7 173.4 170.7 167.4 163.8 159.8 156.3 152.5 149.8 147.5 145 142.6 140.9 139.1 137.4 135.8 133.3 130.5 128.2 126 124.7 123.9 122.6 121.2 120.1 117.7 115.7 114.2 112.4 109.4 106.8 104.9 103.2 101 99.2 97 95.5 94.6 91.6 90.4 89.9 88 87.5 86.7 84.3 90.1 91.1 93.9 94.3 93.2 92.4 92.7 92.9 90.4 87.8 86.8 85.4 85.6 86.6 89.3 87.1 83 80.3 78.8 69 78.8 78.1 76.4 74.3 73 72 75.4 76.1 77.2 78.5 77.5
263.5 268.9 276.6 278.1 273 277.9 276.6 271.2 272.5 269.9 265 259.4 253.1 244.5 235.7 232.6 235.8 240.9 242.7 239.6 235.6 230.7 240.6 254.6 262 264.6 261.1 261.6 257.1 249.1 243.3 235.1 228.4 225.4 223.5 223.3 216.7 208 200 195.9 193.8 188.6 179.4 180.2 186.6 194 199.4 206 220.1 227.7 237.9 242.1 243 240.9 238.1 236.4 235.2 234 231.5 228.5 225.4 219.9 215 209.7 205 199.6 193.9 190.2 187 186 181.6 175.9 176 175.7 175.3 172.9 171.7 169.5 164.8 166.1 168.6 170.7 167.5 162.6 157 152 145.4 137.3 134 131.8 142 151.4 167.2 172.6 177.7 179.9 180.1 179.9 181.1 182.7 183 183.1 183.9 185.9 186.5 186.3 186.8 186.9 187.2 187.1 186.8 185.5 185.9 186.2 189.2 194.5 190.6 188.7 184.5 181.8 179.6 176.7 174.7 172.3 169.9 167.3 164.6 161.8 159 156.2 152.3 149.8 147.3 145.6 143.5 142 140 139 137.7 136.6 134.7 132.2 130.5 127.4 125.4 123.8 121.8 120.2 119.1 118.2 116.7 114.3 112.3 109.7 108.2 106.8 104.9 102.1 100.1 98.2 96.8 95.4 94.4 93.2 91.8 90.8 90.1 88.4 85.3 83 88 91.9 92.1 90.2 89.8 90.8 88.6 85.2 83.3 81.8 81 80.2 84.7 84.2 82.1 80.9 77.9 73.2 74.4 80.5 78.6 76.8 77 74.7 76.9 79.2 80.1 82.6 82 84.7
260.5 270.9 278.9 282.5 279.2 273.1 271.6 270.5 267.4 264.5 259.3 255.7 250.1 244.2 234.5 236.5 241.8 243.6 244.9 244.6 239.9 237.2 241.9 247.2 255.6 262.2 261.3 261 262 255.3 251.1 240.7 233.9 232.1 229.2 225.7 221.3 213 204.6 198.2 193.1 187.5 181 184.3 191.4 198.7 204.8 213.8 222.6 235.6 242.4 247.3 247 243 239.9 238.9 235.1 232.2 229.2 226.4 223.8 220.4 215.7 210.8 204.8 199.3 195.4 192.1 189.3 186.3 184.2 180.3 177.5 175.3 174 173.4 173 171.8 166.2 162.7 162.8 166.5 168.1 164.4 160 153.7 146.2 139.8 136.6 130.2 145.1 160.7 172.9 178.2 181.5 181.8 181.5 180.6 180.9 181.8 183.6 183.8 184 184.9 186.1 187.3 188.2 188.5 187.6 186.3 184.7 182.9 182.6 181.8 179.1 178.6 177.6 176.6 176.1 175.1 173.1 170.6 168.3 165.6 163.4 160.9 158.6 156.4 153.2 151.2 148.6 146.1 143.6 142.9 141.5 140.6 138.9 138 137.1 136.2 134.8 132.9 130.7 128.7 126.3 124.7 121.6 121.6 120.4 119.3 117.8 115.1 112.6 110.3 108.8 107.3 105 101.9 99.9 98.7 97.2 96.3 95.4 93.9 93.4 92 91 90.6 85.5 82.8 86.2 89.4 89.1 87.9 80.9 80.4 84.4 82.8 80 77.3 71.7 72.8 72.6 71.5 72.4 75 71.2 72 83.3 80.4 79.2 79.6 82 77.3 82.5 83.3 84.1 84.2 88.2 87.2
264.3 263.8 272.5 281.1 282.5 276.4 271 269.5 266.9 262.5 259.1 253.8 247.4 241.6 242.5 244.2 246.3 247.1 246 245 244.6 241.6 246.5 254.3 252.7 258.6 264.9 262.1 262.1 257.1 248.6 246.7 240 231.1 230.1 226.1 221.3 216.9 208.3 198.9 192.1 186.2 182.9 190.1 198.4 205.1 211.4 221.4 232.3 240.7 246.8 252.5 249.6 247 244.5 241.7 238.1 232.6 227.8 224.5 222 219.4 215.4 210.6 205.3 200.3 197.3 194.7 191.7 187.6 185.1 183 179.9 176.7 173.8 170.7 172 170.7 167.8 162.6 159.9 162 165.6 165.8 161.3 154.7 147.8 142.1 136 135.5 152.9 167.3 174.6 181.3 183.8 185.4 184.5 182.8 181.8 181.7 182.2 184 184.6 185.1 187.2 189.6 191.2 193.4 191.2 186.5 184.5 180.3 178 175.6 173.4 171.6 170.4 168.8 168.2 167.4 166.2 164.8 162.3 159.1 157 155.9 154.5 152.1 149.2 146.9 144.7 142.6 141.3 140.1 138.9 138 136.9 136.2 135.3 133.9 132.9 131.1 128.9 128.1 126.1 123.9 121.3 121 120.1 119.2 117.8 116.2 113.7 110.8 109.1 107.5 106.3 103.7 101.1 99.6 99.4 98.4 95.9 94.8 95 94.7 92.3 90.4 87.9 85.5 84.7 88.9 86.2 78 78 76.8 76.1 75.5 76.5 75.3 79.8 78.4 81.9 81.2 81.1 80.8 84.2 84.9 83.4 83.6 85.2 87.9 89.2 83.1 86.8 86.3 87.8 86.1 87.7 89
271.1 267.6 272 269.7 270.2 272.9 274.7 273.2 267.5 262.9 258.9 252.6 245 245.4 250.7 254.2 254.2 256.7 256.3 255.3 251.3 245.1 250.9 257.7 257.4 259.6 262.7 262.8 259.2 255.5 249.6 249.5 243.4 236.8 228.6 225.4 221.9 216.7 212.7 202.2 194.9 189.4 186.8 197.8 205.9 211.5 218.1 227.2 236.8 244.7 250.8 256.9 252.8 250.6 248.5 244.4 239.1 231.3 226.2 222.5 219.5 216.7 213.9 210.4 205.1 201.3 196.5 196.5 192.4 189.7 186.3 185.1 180.3 177.8 175 173.3 170.5 167.3 163.9 164 161.3 156.6 161 162.8 161.5 156.3 147.9 143.6 131.9 135.3 151.6 166.9 173.8 183 187.3 188.3 187.7 186.5 184.1 183.9 183.1 183.6 185.2 186.1 188.9 191.7 194.8 196.6 193.5 185.3 180 177.3 173.5 170.6 168.1 166.1 164.7 163.9 162.1 161.6 160.7 158.5 156.5 154.3 152.6 152.5 151.4 150.2 148.4 146.5 143.8 142.5 140.3 139 137.6 135.8 134.9 134.2 133 131.1 129.8 128.2 127 126.7 125.4 123.2 121.3 120.2 119.4 117.9 116.4 114.7 113.1 110.9 109.7 108.4 107.4 105.5 103.1 101.1 100.7 99.1 96.9 96.5 95.7 94.3 92.2 90.5 88.4 85.3 82.2 83 78.4 81.2 84.3 84.6 83.5 83.7 81.5 85.9 85 84.7 87.2 87.3 87 85.1 85.6 88.2 90.9 89.2 90.8 90.5 88.4 85.7 86.4 87.6 89.5 91 92.6 94.4
270.5 272.3 278.5 273.6 268.3 263.8 266 265.8 268.7 262.6 256.9 248.8 246.3 253.6 257.8 259 259.4 259.5 262.4 257.4 251.7 246.1 248.7 259.5 259.9 262 263.9 259.9 258.3 255.1 256.6 255.7 248.5 241.2 233.4 224.6 221.3 216.4 211.9 207.3 202.4 196.8 187.6 200.3 209 216.9 223.2 232.9 241 248.3 254.2 257.9 254.2 250.1 248 243.7 237.5 230.7 225.2 220.9 217.2 214.2 211.3 208.5 204.9 201.3 198.3 194.8 191.8 189.4 185.4 182.1 180.1 180.6 177.4 174.8 172.6 169.7 167.3 165 162.6 157.9 154.5 156.5 156.8 154.4 146.2 142.9 129.7 134.8 147.3 165.6 172.6 181.4 187.6 193.4 192.3 190.5 188 186.6 185.5 182.8 183.1 188 189.6 192.2 191 184.1 181.6 179 176.6 173 169 165.7 163.5 161.6 160.4 159.7 157.9 156.4 155.7 154.4 152.5 150.3 149.6 149.5 148.4 147.1 146.2 146 143.4 142 140.1 138.4 137.3 135.6 134.7 133.3 132.4 130.4 128.3 126.3 125.2 124.3 123.2 122.3 120.7 119.4 118.4 117.1 116.1 114.6 112.8 111.2 109.8 108.6 107.3 105.9 104.2 102.3 101.1 99.3 97.8 96.6 93.9 92.7 90.5 87.6 85.9 78.8 78.8 81.2 85.8 88.8 89.2 88.8 87.6 88.8 88.6 90.6 89.7 88.9 91.4 89.9 88.3 87.9 89.7 91.5 90.8 90.2 88.4 86.9 86.8 88.5 90.5 93 94.7 96.2 97.5 99.5
285.9 274.2 280.8 280.5 272.8 263.4 264.1 263.6 256.7 254.4 248.3 247.5 253.4 259.2 263 264.8 261.2 256 260 254.6 246.9 246.5 251.1 261 263.6 265.5 265.2 260.2 259.1 257.8 257.2 255.5 254.1 245.7 237.2 227.3 218.9 215.7 210.9 207.4 204.6 200.5 194.5 200.4 209.2 219.1 225.8 235 241.5 249.2 255.3 256.7 254.5 247 242.9 239.7 235.6 230.1 224.8 219.8 215.6 211.9 208.6 206 204 200.9 197.1 193.7 190.9 188.2 184.8 184 181.6 180.9 179.7 176.3 173.6 170.7 167.9 165.5 163.2 161.6 157.1 150.1 150.7 152.1 146.2 140.3 127.6 133.6 135.3 148.8 157.5 175.6 178.9 186.6 192.5 190.6 187.9 186.2 183.5 180.7 177.9 177.1 177.1 176.3 176.1 175.5 174.4 173 171.5 169.1 164.7 161.9 159.6 157.5 156.1 155.8 155.2 153.4 152.1 150.4 148.9 147.9 147.1 146.6 145.6 145 144.4 143.8 142.6 141.5 140.7 139.4 138.4 136.5 135.3 133.5 132.5 130.8 128.7 126.6 124.2 123.1 120.8 119.5 118.4 117.6 117 116.2 115.3 114.3 112.9 111.1 109.7 108.4 106.8 104.5 103.5 101.4 100.3 98.7 96 94.3 91.9 88.7 86.9 85.4 78.6 86.6 88 88.4 88.2 90.6 91 92.3 92 93.4 93 94.1 91.7 92.1 90.7 92 92.1 90.1 90.5 89.6 88.9 88.1 88.4 89.1 90.1 93.5 95.1 97.5 99.1 101.2 102.4 103.9
291 284.4 277.1 278.3 274.8 272.5 281.3 272 263.8 256.6 256.4 256.4 258 261.4 265.5 267.2 262.1 257.3 254.5 252.4 247.3 247.8 256.5 268.6 273.7 269.9 266.3 262.7 261.1 260.6 256.5 251.3 250.8 247.3 239 229.8 220.4 212.7 209.5 206.2 204.2 201.5 193.8 201.2 207.7 218.8 228.3 235.7 240.6 245.2 254.8 253.5 249.5 244.8 241.2 237.2 233.8 228.9 223.8 218.8 215.2 211.4 206.7 202.9 200 198.1 196 192.6 187.9 188.4 188.4 185.5 183.4 181.3 179.9 176.8 174.5 171.4 168.5 166.1 163.8 161.4 159.2 155.2 149 146.6 145.4 134.3 127.8 129.2 135.6 148 154.2 160 169.4 174.2 176.9 180.3 180.2 180 178.8 176.8 173.6 171.5 169.7 168.2 167.3 168 168.2 167.7 165.7 163.4 160.3 158.4 156.3 154.6 152.5 151.4 150.7 149.6 149.4 148.4 147.4 146.5 145.7 145.1 144.7 144.1 143.6 143.1 142.8 141.9 141.2 140.2 138.9 137.5 135.7 134 132.2 130.4 128.6 126.5 123.7 121.3 119.2 117.1 115.9 115.9 115 114.2 113.4 112.5 111.5 110.2 109.3 107.9 105.5 103.7 102.3 100.8 98.7 96.6 94.3 91.4 89.1 85.9 81.4 79.6 86.3 88.4 89 91.6 92.7 95 95 94.4 93.5 95.5 96.8 95.3 93.3 91.5 92.1 93.7 92 90.5 89.2 89.7 89 90.1 91.4 92.5 95.2 97.9 101.3 103 105.1 106.3 106.8 106.6
290.2 296.4 283 277.5 276.2 274.1 276.6 274.8 268.1 261.4 265.1 266 270.2 268.5 272 274.9 266.3 258.7 255.6 251.2 249.4 250.4 257.7 269 269.6 274.1 269.1 262.8 259.3 257.6 254.8 251.1 245.4 244.4 239.4 231.3 222 212.4 207.4 204.5 200.3 198 198.3 202.6 207.5 217 228.7 233.8 238.5 242.2 251.1 251 245 240.7 238.9 236.1 232.5 227 222.8 218.8 215.2 211.5 206.7 201.5 196.6 193.5 192.1 190 189.7 190.2 190.2 187.6 184.4 182.4 180.5 177.1 174.7 172.5 169.7 167.2 167.1 164.3 160.9 157.1 154 149.2 145.9 138.2 128.1 126.8 134.2 135.2 147.2 154.5 160.3 166 168.3 171.5 173.4 173.7 173.1 171.5 169.7 166.7 165.9 163.5 161.8 161.4 161.8 161.9 159.9 158.1 155.2 153.5 152.4 150.9 149.2 148.2 147 146.5 146.7 146.2 145.6 145.3 144.7 144 143.7 143.3 142.8 142.6 142.5 142.1 141.1 140 138.5 136.9 134.8 132.7 130.9 129.1 127.5 126.1 124.2 121.9 119.8 117.4 115.7 114.3 113.8 112.8 111.4 110.5 109.6 108.4 108.1 105.9 104.1 102.3 100.6 98.2 96.7 93.9 91.1 88.8 84.6 79.1 81.7 84.8 89.2 90.3 91.3 94.5 96.3 96.4 95.9 95.2 95.7 97.1 97.5 96.6 94.3 92.7 93 92.4 91.5 90.3 89.9 90.9 92.6 94.2 96.5 98.7 101.2 103.9 106.8 108.5 110.5 110 108.9 110
293.4 296 290.2 276.9 275 276.8 284.3 280.8 275.7 270.6 269.4 274.9 279.5 285.6 278.8 276.3 268.3 262.3 258.9 253 250.8 250.9 256.6 262.8 267.1 269.7 270.3 263.3 257.8 255.5 252.9 249 243.8 239.5 236.8 230 222.2 213.3 204 199.2 196.9 196.1 199.5 204.5 207.9 215 228 232.6 235.1 238.8 243.6 245.2 239.1 236.5 235.7 234.7 230.3 226.4 222.5 219.4 216.7 211.7 206.8 200.8 195 193.2 193.4 193.3 193.7 192.3 191.2 190.2 186.6 183 180.3 176 173.4 172.2 169.7 170.5 171.2 168.3 164.9 159.9 156.7 153 149.7 144.8 133.8 125.7 125.5 135.7 141.2 146.4 155.1 158.7 160.5 163.8 166.1 166.9 166.6 165.1 163.8 161.1 161.2 160 157.3 156.5 156.1 156.1 154.7 152.9 151.3 149.4 148.2 147.5 147 146.2 144.7 143.5 143.1 143.1 143.2 143.6 143.4 143 142.4 142.5 142.1 141.7 141.3 141.2 139.7 138.1 136.5 134.9 133.3 131.2 129.5 127.7 126.5 125.2 123 120.2 118.7 116.9 115.5 113.9 112.7 110.9 108.9 108.6 107.8 105.9 104.5 103 101.9 99.7 97.3 94.8 93.7 90.7 88 85.3 80.3 83 86.3 87.6 90.5 92.6 95.1 96.5 97.5 97 96.8 97.1 97.2 98.7 97.5 96.5 94.6 93 92.2 93.1 92.2 91.6 92.7 95.1 97.6 100.5 103.2 105.1 107.7 110.2 111 111.7 112.2 111.7 112.4 112.2
293.6 296.2 295.3 281 275.6 279.2 285.9 289.8 285.7 276.2 273.5 277.8 281.4 284.7 282.7 280.8 278.2 268.9 260.5 254.5 251.6 249.4 253.9 262.4 270.9 275.4 270.8 265.5 259 253.5 251.5 248.2 242.8 237.2 233.5 229.2 221.8 212.9 206.1 199.6 197.5 198.8 201.9 208.5 212.8 216.6 220.9 228.9 232.8 236.5 239.7 239.9 237.9 235.6 234 233.4 230.1 226.4 222.5 219.4 215.6 212.2 206.7 201.1 195.8 194 195 195.1 196 195.8 193.3 191.4 188.2 183.9 180.3 177.4 174.4 172.2 171 171.7 175.2 172.7 168.2 164.4 159.6 156.6 151.9 146.8 142.6 133.8 126.3 131.5 134 139.1 147 152.5 154.3 154.3 157.1 159.1 159.8 159.1 157.8 154.7 153.9 155.5 154 152.5 152.1 152.2 152 150.5 149.3 147.4 146.1 145.4 144.8 144.2 142.9 141.6 140.6 140.5 141.1 141.4 141.3 141.2 141.1 141.3 141.2 140.8 139.9 138.7 137.8 136.1 134.4 132.8 131.3 129.6 127.2 125.2 124.3 123.3 121.5 118.7 117.1 115.6 114.2 112.9 111.4 109.1 107.6 105.6 104.3 103.7 102.2 100.4 99 96.9 93.9 91.5 89.7 88 86.1 83 79.5 85.9 89 91.2 93.4 95.2 96.5 98.1 98.6 98.1 98.7 99.1 98.9 98.2 97.1 95.7 94.2 92.2 92.2 93.6 95.2 95.2 97.1 100.1 103.4 106.6 109.7 111.8 113.3 114.1 114.8 114.8 114.4 113.2 113.8 113.6
291.9 296 295.4 282.1 277.9 279.4 289.8 299.2 291.3 281.7 278.8 282.8 287.1 284.4 281.5 279.1 280.3 271 261.7 259.9 252.9 249 251 261.7 276.4 279.9 276.2 267.3 262.2 255.9 250.1 246.7 240.4 234.8 230.3 226.5 220.6 213.5 208.8 206 202.3 203.1 206.4 212.2 217.6 222.2 226.3 232.6 237.1 237.7 238.4 238.8 239.1 238.4 235.6 233 229.8 226.3 222.1 217.6 213.4 210.6 206.5 202 198.5 195.9 195.2 194.7 196.4 198.2 197.9 195.2 191.5 187 182.8 178.4 177 176.8 178.7 173.7 172.1 176.1 171.7 169.5 167.6 162.3 155.8 150.1 145.2 141.3 135.6 126.3 136.8 128.4 138.1 143.7 145.8 148.5 148.5 150 150.9 151.7 150.1 149.8 148.9 150.5 150.6 149.3 148.5 149 149.4 148.5 147.2 146.2 144.7 143.8 143.2 142.8 141.6 140.6 140.1 139.2 139.5 139.6 139.7 139.8 140 140.4 139.9 139 137.8 136.7 135.4 133.9 132.3 130.7 129 127 124.5 123 122.4 121.5 119.7 117.6 115.7 114.7 113.2 111.7 110.2 108.9 105.8 103.3 102.2 101.7 100.3 98.6 97 95.1 92.3 89.7 88.1 85.8 84.7 82.4 84.7 90.1 92.4 94.9 96.3 97.2 98.1 99.5 100 100.3 100.7 98.8 98.4 96.8 95.4 94.5 94.4 94.9 95.6 97.9 99.1 99.2 101.3 104.3 109.3 112.2 114 115 116 117.4 118.4 118.5 117 117 116.4 115.7
292.5 295 296.4 290.1 290.2 284.6 293.3 295.9 299.2 290 284.6 284.6 290.5 290.1 283.4 279.4 279.1 271.5 269.2 267.5 254.2 250.7 249.4 257.6 274.1 279.3 279.7 270.6 262.3 256 249.6 243.9 237.4 232.7 227.2 221.1 215.7 211.9 210 205.9 208.2 210.6 211.3 216.3 221.9 227.6 233.2 239.2 244.4 243.6 239.8 239.9 241.6 241.6 240.1 235.8 231.3 227.9 224.2 219.3 213.9 208.7 205.1 200.8 200.4 199.9 198.9 198 198.4 199.1 200.6 197.5 194.8 190.3 185.3 181.7 177.5 178.5 181 179.6 174 170.9 170.6 169.5 170.6 170.4 161.3 153.5 148.5 144.5 141.5 136.6 137 127.9 129.2 134.8 138.3 141.5 142.5 143.4 144.5 143.9 143.5 144.5 144.5 144.7 146.1 145.5 145.1 144.5 144.7 145.4 144.5 143.6 142.9 142.2 141.7 141.1 140.2 139.4 139.6 139 138.5 138.6 138.6 138.6 138.6 138.4 137.8 136.6 134.8 133.7 132 130.6 128.8 127.3 126.1 123.7 121.7 120.9 120.3 119.6 117.9 116.3 115 113.6 111.7 110.3 108 106.2 104.7 102.7 98.9 99.2 98.2 96.5 94.6 93.4 90.3 87.8 85.8 84.4 82.9 82.6 89.8 92.9 95.6 97.1 98.5 99.5 100 100.4 100.9 101.7 99.9 97.5 97.6 97.8 98.6 99.6 101.3 102.5 103.6 104.2 104.3 103.8 107.4 110.3 113.2 115.3 116.2 116.9 118 119.4 120.5 121.7 121.8 121.2 120 118.8
294.6 298.9 295.2 294.8 294.9 293.2 298.9 297 299 296.2 291 289.9 292.2 293 287 284.2 279.4 276.3 279.2 270.6 263.5 252.4 253.2 256.6 268.4 276.1 277.2 272.2 262.9 255.4 248.5 241.1 235.2 229.5 222.1 215.9 211.9 209.3 207 206.8 210.6 214.6 220 223.2 227.9 231 238.2 242.4 250.6 251 245.8 243 244.6 246.2 245.6 241.8 236.3 231.9 226.7 221.2 216 210.1 206.9 206.5 205.6 203.9 202 201 201.2 201.1 202.3 200.7 197 191.4 187 183.6 179.4 177.9 179.7 180.1 175.9 172.9 168.1 168.2 167.8 169.3 168.2 160.8 154.1 148 145.8 141.6 136.9 136.1 122.5 125.9 130.4 134.9 136.7 138.6 139.2 139.6 138.4 138.7 139.8 140.4 141.4 141.3 140.6 139.7 139.7 140.2 140.9 141 140.8 139.7 140.1 140 139.2 138.3 138.8 139 138.4 138.4 138.4 138 136.9 136.8 135.5 134.3 132.5 130.9 129.7 127.4 125.9 124.4 122.6 121.3 119.4 118 118 117 115.9 114.4 112.1 110.4 109 106.7 104.4 102.3 101.1 99.8 96.4 95.4 96.5 94.5 90.6 87.5 85.8 85.6 83.3 83 83.9 93.9 94.7 95.6 98.2 99.4 100.6 101.5 102.2 102.5 102.1 100.9 99.1 99.6 100.8 102.5 105.2 108.2 109.3 110.9 112.1 112.1 108 111.8 114.9 115.9 116.9 117.8 118.2 118.8 119.9 121 122.9 124.5 125.2 125 123.8 122.5
296.2 300.5 297 296.6 296.3 298.5 289.6 302.7 304.6 303 295 294.4 295.2 295.1 291.7 287.3 284.7 278.8 280.2 274.6 265.7 254.5 250.9 253.6 261.4 273.2 273.2 270.8 264.4 255.2 246.6 239.5 233.2 225.6 217.2 211.7 209.1 206.3 205.1 208.6 213.5 221.5 229.6 234.7 236.1 236 241.2 246.8 253.2 255.4 251.7 248.7 250.2 251.8 251.2 248.3 243.9 238.7 232.9 225.1 218.7 213.4 211.5 211.7 212 212 207.6 208.3 204.7 202.9 202.7 201.1 196.1 192.1 188.8 185.3 181.5 178.7 178.6 178.2 178 176.6 172.8 167.6 165.6 165.2 166.5 165.1 161.1 154.1 149 147.5 141.3 138.6 130.2 122.9 122 126.3 131.2 133.1 133.2 134.7 133.7 133 134.4 135.6 135.5 136.2 137.2 135.8 134.6 134.7 135.6 136.5 137.5 137.4 138.9 138.6 138 136.9 137.4 137.9 137.7 137.8 138.1 137.3 136.1 135.1 133.9 131.9 130.7 128.6 126.7 124.8 123 121.6 119.8 118 116.7 116.8 115.2 113.6 112.3 110.9 108.7 106.8 104.9 103.4 100.8 98.3 96.9 95.2 92.9 90 92.1 86.6 86.3 84.8 91.8 91.9 91.9 93.4 95.7 97.4 98.3 99.1 100.7 102.1 103.4 104.6 104.7 103.8 102.8 103.4 104.5 105.6 107.3 108.8 111.7 114.4 116.9 117.9 117.9 115 114.7 118 118.8 119.4 120 120.3 120.5 121.2 122.3 124 126 127.7 127.9 127.3 125.4 123
300 297.7 298 296.9 298.6 298.3 295.3 299 310.6 307.9 300 301 301.4 300.5 298.2 290.4 288.9 281.9 278.6 275 266.4 256 250.9 249.2 254.4 268.6 271.8 269.1 263.7 257 247.5 238.2 231.2 222 216.5 211.9 207.8 205.9 208.1 213 218.3 229.7 236.6 241.4 242.9 243.8 245.7 249.3 255.2 257.5 255.9 254.5 255.8 256.6 255.3 252.8 249.7 245 238.8 231.5 223.8 217.4 215.4 215.3 215.9 215.8 214.3 213.5 211.7 203.3 202.8 200.8 197.1 194 191.5 187 182.6 180 178.4 177.9 176.1 175.7 173.4 169.8 165.3 162.5 161.5 163.7 164.2 161 155.9 150.7 149.3 139.6 135.7 130 124.5 119.3 120.6 123 128.3 130.2 129.4 128.5 129.2 128.6 129.1 130.7 132.5 133.4 132.6 130.9 131.2 132.2 133.4 134.2 134.7 136.3 135.9 135.3 135.8 135.6 136.4 136.3 136.9 136.7 135.5 133.9 132.2 130.6 128.5 126.4 124.5 122.4 120.4 118.7 117 115.6 114.6 113.3 112.3 110.7 108.8 107.1 104.1 102.2 100.4 98.7 97 91.3 88.3 87.7 87.4 87.5 88 89.7 94.7 95.9 96.2 96.4 97 98.4 99.7 101.2 102.2 102.9 104.1 105.6 106.6 106.7 106 105.2 105.4 108.3 110.8 112.2 114.6 115.8 118.7 121.4 121.8 120.4 119.5 117.9 119.4 120.3 120.6 120.9 121.3 122 122.6 123.7 125.4 127 127.4 129.2 128.5 127 124.8 119.8
303.3 301.3 297 296.6 300.2 297.1 292.2 291.4 304.5 310.6 305.7 300.8 301 305.8 305.4 297.9 289.8 282.3 278.2 273.9 267.5 257.8 250.3 247.9 246.3 255.1 266.9 267.4 261.8 256.5 247.6 238.1 231 223.4 214.9 210.4 207.8 207.5 212.4 218.3 227.3 237.8 245 246.4 247.9 247.8 249.6 252.1 256.2 259.6 259.5 258.3 258.6 258.7 257.6 255.1 252.2 248.6 243.3 237.1 229.3 223.1 220.6 219.3 217.8 216.8 214.4 214.2 211.6 208.7 205.2 200.4 198.8 196.5 193.4 189.7 185.4 182.8 179.7 178.2 176.3 174.4 173.5 171.3 168.2 164.4 160.8 160.2 161.9 161.6 159.2 154.8 150.5 143.9 139.7 133.8 130.3 126.4 120.7 117.8 116.4 122.5 125.4 124.8 124.7 123.9 124.4 126.3 128.7 129.5 130.2 129.2 128.6 129.2 130.3 130.9 131.5 132.3 133 133.7 133 132.4 135.5 135.6 136.1 134.8 133.2 131.6 130 128.4 126.9 124.6 122.3 120.3 118.2 116.1 114.4 113.6 112 109.6 108.3 108.1 105.5 103 100.3 97.8 96.1 94.8 92.2 89.4 90.1 90.7 88.5 93.9 96.8 97.7 97.7 98.5 99.6 100.4 101.4 103.3 104.2 104.6 106.1 106.8 107.2 107.9 108.7 109.1 108.9 108.7 110.8 113.8 115.9 120.1 121.6 122.7 123.2 123.8 122.4 120.4 119.8 120.1 121.2 121.5 121.8 122.9 124.1 125.1 125.2 126.6 127.4 128.1 126.6 127.6 125.9 123.3 121.1 118
302.8 302.4 298.8 298.3 298.1 294.8 294.3 298 297.5 307 304.5 302.3 304 306.6 308 301.1 297.2 287.9 282.2 275.7 268.1 258.9 251.6 251.2 248.4 243.2 255.4 262 257.9 252.3 245.6 237.1 229.7 221.3 212.5 207 206.6 210.7 216.2 226.5 234.1 244.4 251.2 253 251.8 250.8 252 253.9 257.8 260.6 262.2 260.6 260.4 259.9 258.5 255.5 252.7 249.3 244.5 239.6 234.7 227.8 223.9 220.8 217.3 215.6 214.4 212.2 210.1 209.3 206.2 200.9 198.2 195.9 193.4 190.9 188.4 185.4 182.5 179.7 177.4 175.5 172.7 170.7 168 164.8 162 159.6 157.5 158.3 158.5 156.7 152.6 147.1 141.4 137.7 134.2 131.9 128.5 123.1 117.8 116.4 117.3 118.1 119.4 120 121.5 121.9 123.7 125.8 127 126.7 126.9 127.7 127.4 128.5 129.3 129.9 130.1 130.8 129.9 131.9 132.1 134 133.2 131.7 130.6 129.4 127.8 126.3 124.8 122.7 120.3 118.1 116.3 114.5 112 110.9 109.3 106.8 105.2 104.3 102.5 99.8 96.8 94.6 93.2 90.9 91.9 92.2 94.1 96.6 98.1 99.4 100.8 101.8 102.4 103.2 104.3 104.9 105.4 106.8 107.3 108.1 108.5 109.6 110.4 111.4 111.5 112.1 113.4 114.3 116.9 119.5 121.3 123.5 123.7 124.4 124.3 123.9 121.9 121.5 121.8 123.1 124.9 125.7 127.3 127.7 127.9 128.8 129.4 128.5 128.8 127.2 125.8 124 122 118.9 116.9 115
303.2 304.5 303.2 300.8 300.7 294.3 299.3 302.7 300.7 304.4 308.6 305.6 307.6 310.9 313.9 307.3 300.8 297.7 295.3 283.8 273.2 265.2 255.8 250.1 249.3 247.4 241.9 250.2 251.9 248.3 243.5 236.2 229 220.1 212.2 207.3 206.7 211.2 218.6 231.4 238.6 247.9 254.8 257.2 255.5 254.5 253.2 255.5 258.8 261.8 263 261.8 261.3 260.8 258.2 255.9 252.5 249.1 244.8 241.6 237.5 232.7 227.5 222.2 218.7 217 215.3 210.9 207.9 207.3 206.6 202.9 199.1 195.6 193.1 190.7 188.6 186.9 184.5 181.8 179.2 175.5 172.6 170.1 167.7 164.9 162.3 159.9 157.2 154.7 155.6 155.4 153.6 149.7 142.1 141.7 139.3 136.6 133.3 128.3 122.7 118.2 116.1 114.2 114.1 113.7 116 117 117.9 119.8 121.1 123.7 124.6 124.8 124.6 126.2 126.8 127.3 127.6 128 128.4 129.2 130.5 131 129.9 128.4 127 126.1 125.2 123.8 122.1 120.2 117.5 116.3 115.1 112.9 110.5 109.8 106.9 105 103.1 100.7 99.1 96.6 93.3 92 92 91.5 95.8 93.4 96.4 99 101.8 103.4 105 105.9 106.8 108 108.6 109.3 110.2 110.4 110.5 110.5 111.6 112.8 113.7 114.7 115.8 116.4 117.7 119.7 122.9 124.1 124.6 125.2 126.2 125.4 124.8 123.8 122.8 123.4 127 130.2 131.6 132.9 133 132.6 132.5 132.1 131 129.8 128.2 126.3 124.3 121.8 119.1 116.9 116.6 115.5
305.9 305 306.9 303.7 302 296.5 297.5 306.1 309.2 307.5 310.3 307.1 310.2 314.3 315.1 312.1 301.3 300.2 299.8 292.8 281.7 275.2 263.4 253.5 248.6 248.9 240.1 237.2 243.1 242.7 239 234 227.3 220.6 214.4 209.1 207.3 209.6 218.4 232.2 240.8 249 255.6 258.1 257.3 256.1 255.2 254.6 258 261.6 262.9 261.3 260.2 259.8 257.9 254.4 250.6 247.8 244.2 240.6 237.3 233.4 230.8 225.6 221.2 220.1 218 212.7 207.5 205.2 204.7 203.6 200.4 196.4 193.1 190.7 189 187.2 185.1 182.6 179.4 176.6 172.9 170.4 168 165.2 162.7 160.1 157.6 155 152.6 153.4 152.3 150.5 143.3 147.4 141.8 139 136.1 130.9 125.6 128.4 118.2 116.1 114.9 113.3 112.7 112.8 113.3 113.4 114.8 116.8 119.3 120.2 121.2 122.9 124.1 124.6 123.8 125.4 127.3 128.8 129 128.3 126.6 125.9 123 122.2 121.2 120.4 119 117.2 115.1 113.9 112.9 111.5 110.2 108.4 107.1 105 101.4 98.6 94.8 92.7 93.4 95.7 97.2 98.1 98.7 98.1 98.8 103.2 106.1 108 109.3 109.8 110.9 110.8 112.3 112.5 112 112.9 113 113.1 114.5 115.9 116.9 118 119.9 121.7 122.9 124.8 126.2 126.8 127.2 127.6 128.2 126.7 125.5 124.9 125.3 129.3 132.7 134.2 136 136.1 135.7 135.4 134.5 133.4 131.8 129.4 126.7 124.8 122.1 120.4 119.6 119 118.4 117.7
306 306 306.2 307.9 304.7 298 297.5 303.6 312.7 313.6 311.5 307.4 312.3 316.9 322.5 315.6 304 301.2 296.2 294.3 291.8 281.9 270.9 259.8 251.7 253.6 242 234.3 231.9 235.7 234 230.8 226 221.6 215.6 211.7 208.9 209 216.9 229 240.2 249.3 254 256.8 257.2 256.4 255.6 252.3 253.9 258.5 260.5 259.2 256.9 254.9 254.5 251.5 248.2 245 241.7 239.3 236.7 234 230.3 226 222.5 221 218.4 214.4 208.7 204.8 202.5 201.6 200.5 197.5 193.7 190.9 188.6 186.3 184.6 182.9 180.6 177.4 174.2 171.5 168.6 165.5 163 160.5 158 155.5 152.8 150.7 149.4 148.5 145.4 147.2 146.1 138.6 133.5 128.3 128.5 125.3 128.2 124.6 118.8 116.1 113.1 111.6 111.6 110.9 111.3 112.3 113.1 114.3 116.4 118.3 120.2 120.2 118.3 123.1 124.5 125.5 125 124.2 123.5 123.5 120.6 118.3 117.1 116.1 115.4 114.1 112.1 111.1 110.4 109.5 109 108.7 106 103.2 99.1 93.7 93.1 98.1 99.7 101.3 102.5 103.3 103.7 104.3 99.1 106.5 109.1 111.8 113 114.7 115.1 115.2 114.9 113.4 114 114.9 115.5 115.8 117.2 118.7 120.6 122.8 125 127.5 126.9 127.9 128.7 129.2 129.4 128.7 129.7 128.7 127.5 127.5 128.2 131.4 133.7 136 135.9 135.9 135 134.5 133.1 131.3 129.4 126.6 125.5 123.4 121.1 121.3 121.6 121.1 120.8 120.3
306.6 309.1 307 306.9 305.2 299.4 298.1 302.7 312.6 318.5 312.4 308.9 314.9 322.4 327.8 319.9 307.5 305.4 300.4 295.6 298.6 290 277.8 265.2 259.1 256.4 244.7 235.4 229.4 225.8 228.8 227 224.2 221 216.4 212.1 211.1 209.2 212.5 223.2 235.2 245.5 250.9 253.8 254.9 255 253.6 251.3 250.2 253.2 255.9 255.5 253.1 250.3 249.2 248.6 246.3 242.8 239.5 237.2 235 232.8 230.2 226.6 223.6 219.4 217.5 214.4 210.5 205.8 201.2 199.2 198.4 197 194.6 191.4 188.6 185.8 183.6 182 180 178.9 175.6 172.1 169.1 165.6 163.1 160.9 158.4 155.9 153.5 150.8 148.3 146.4 144.8 143.4 138.6 143.3 136.4 133.6 131.7 131 130.6 127.9 130.9 123.6 120.7 117 112.6 110 110 110.2 109.7 110.2 110.9 113.2 114.8 115.1 115.9 118.9 121.2 121.4 121.3 121.6 120.9 120.1 118.4 115.5 114.4 113.1 111.9 110.6 109.1 108.7 107.9 107.3 107.2 105.1 102.9 100.5 95.5 94.2 99.8 101.8 102.9 104.4 106.6 106.3 106.7 107.3 102 109.4 112.2 115.1 115.9 116.4 116.4 115.7 114.5 115.3 116.1 117 118.1 119.3 120.5 122.4 124.6 127.1 129.5 130.1 129.6 131.9 131.6 130.8 131.2 132.2 132.4 132 131.3 131.2 130.7 131.6 132.3 132.9 133.1 132.5 130.6 129.1 127.5 127.2 124.9 124.3 125.2 121.9 122.7 124 124.7 124.9 124.7 124.2
310.1 308.9 308.1 305.7 304.7 298.6 299.4 304.2 311.5 318 321.8 310.3 318.4 321.6 326.9 325.6 317.8 314.1 308.5 299.7 299.7 296.4 283.1 268.1 256.9 252.9 247.7 238.5 230.9 224.1 222.7 222.3 219.8 217.1 214.9 215.2 216.3 212.5 207.7 216.4 227.3 237.1 244.4 248.5 250.9 251.3 250.1 248.7 247.7 247.7 249.7 250.2 249 246.7 244.5 243.3 242.1 239.5 236.4 234 232.5 230.9 228.6 225.4 223.1 219.7 216.1 213.9 210.8 206.8 202.6 198 195.9 195.4 194.3 191.7 188.9 185.5 182.8 180.9 179.8 177.6 175.4 172.4 169.7 166.9 163.6 160.8 158.9 157 154.2 151.7 146.3 146.7 146.7 146.3 148.6 147.5 144.2 141.3 139.3 136.7 134.9 132.3 131.2 129.8 127.7 125.5 123.4 121.3 118.7 113.7 109 108.4 108.8 108.9 109 109.1 114.5 116.6 117.5 118.1 118.3 118.5 118.8 117.7 116.2 114.1 112 110.5 109 107.5 106.1 105.6 105.9 105.7 103.8 102.7 101.1 97.6 97 100.4 103.7 105.1 106.3 107.6 108.9 109.7 109.7 110.4 105.8 111.3 113.9 116.3 116.8 116.4 116.3 115.6 116.9 118.1 120.4 121.8 123 125.7 126.9 129 130.4 131.6 131.7 131.5 132.4 132.9 134.7 135.8 136.9 137.4 137.5 136.1 134.8 133.7 132.7 132 130.8 130.4 129.8 128.9 127.2 126.4 125.8 125.4 125.5 125.1 124.9 123.8 126.8 129 130.2 130.5 130.5 130.5
313.8 312.7 312.1 313.7 307.3 298.9 302.5 304.3 313.5 319.4 322.6 319.6 321 323 324 323.1 317.3 313.5 311.1 304.6 300.8 299.1 285.3 269.7 257 246.5 245.2 240.1 232.6 227.5 223 220 220.1 220.3 221 219.2 221.7 217.6 210.5 207 216.3 227.3 235.3 241.8 245.3 246 245 244.9 244.2 244.1 243.9 244.2 243.2 242.6 240.3 237.9 236 235.3 232.6 230.7 229.2 228 226.3 224 221.7 218.5 214.8 212 210 207 202.9 199.6 194.8 193.2 192.6 191.2 188.8 185.3 182.1 180.3 178.8 176.2 173.7 172.1 169.3 167.1 165.2 162.3 160.1 157.7 154.7 152.1 151.2 151.2 150 147.4 150.2 149.8 146.5 146.1 144.4 142.8 139.8 138 135.9 134.2 133.6 131.1 128.6 126.9 126 122.8 120.5 116.9 113.5 108.1 106.5 106.7 111 114.4 115.6 113.5 115.7 116.3 115.9 115 114.4 113.1 110.4 108.7 107.6 106.3 104.7 105.6 104 105.4 103 98.6 97 97.4 95.7 104.3 106.3 107.8 110.2 111.4 112.3 112.6 113.1 113.9 107.6 113.7 114.9 116.6 116.8 117.1 117.7 120 121.7 124 127 129.1 131.8 134.4 134.9 135.1 134.8 134.1 133.9 133.1 134.5 135.4 138.1 140.7 141.2 141.4 141.2 140.4 137.8 135.3 133.9 132.7 132.2 131.3 129.8 128.9 128.3 127.5 128 128.1 127.7 127.1 128.4 131.1 132.6 135.2 136.1 136.7 137.3 137.7
312.7 312.9 313 311.8 305.2 301.8 303.9 305 313 322.7 324.1 323.4 315.9 320.8 321.6 321 316.9 313.6 313.7 310.3 303.5 296.1 284.9 270 261.4 251 242.6 238.7 235.5 230.8 225.8 228.7 232.8 230 232.2 226.4 223.6 221.3 215.4 208.1 204.8 215.8 226.1 233.6 237.7 239.6 240.5 240.5 240.2 239.8 239.4 240 239.9 238.9 237 234.8 232.5 230.6 229.1 226.9 225.7 224.5 223 220.9 218.7 216.8 213.5 211 208.6 206.5 204.3 200.9 196.4 192.4 189.6 189.4 188.1 186 183 180.5 177.9 174.7 172.5 171.4 169.2 167.4 165.7 163.7 161.4 158.1 156.9 157.6 156.1 154.4 152.7 148.5 150.9 150.1 148.8 147.8 146.2 144.2 142.1 142.2 140.5 138.4 136.5 135.7 133.1 131.4 130.3 128.2 125.9 123.6 120.8 117.1 114.1 108.3 105.7 107.6 108.7 108 115.5 116.5 115.1 113.8 113.6 112.5 111.2 109.6 107.7 106.8 105.7 103.1 100.4 100.4 97.1 96.7 97.9 97.1 103.3 106.9 109.4 111.9 113.7 114.4 115.8 117 117.3 116.9 108.3 116.5 117.2 118.1 119.9 121.7 123.7 126.9 130 133.6 135.6 137.1 137.1 137.4 137.8 137.4 136.8 136.1 135.6 136 136.4 137.9 140.5 142.7 144 144.3 143.5 141.8 139.6 136.8 134.7 133.3 134.1 132.9 132.2 130.8 131 131.3 131.7 131.7 131.5 132.5 134.1 135.9 138.7 141.5 142.4 144.1 144.5 144.9
312.2 313.1 309.3 306.1 304.7 305.4 307 307.1 312.2 323.7 327 324.1 319.1 312.6 317.9 316.4 316.5 318.3 313.5 309.9 301.6 293.3 283.4 272.6 262.9 253.4 244.9 236 234 231.8 230.3 233.2 239.2 239.9 241.9 237.9 229.2 225.4 220.6 212.4 205.1 204.7 214.4 224.6 230.2 233.6 235.2 235.9 235.4 234.9 235.6 236.5 236.5 235.5 233.3 231.3 229.3 227.7 225.5 223.6 221.6 220.2 219 217.4 215.2 213.6 212.1 210.1 207.9 205.8 203 200.6 197.9 195.3 190 187.2 186 185.8 183.9 180.8 177.9 174.5 172.5 170.6 169.3 167.8 166.2 164.2 161.5 159.5 159.7 159 157 155.6 154.1 149.4 150.9 149.7 148.3 147.5 146.9 145.4 144.5 143.2 141.9 140 138.5 136.3 134.8 132.9 131.1 129.6 127.2 125.6 123.7 121.2 119.6 118.7 114 105.3 104.3 104.8 112.9 116.7 114.4 113 112.7 111.7 110.3 108.6 107.4 107 104.1 101.8 98.7 97.8 96.6 97.8 99.1 103.6 108.7 111.4 113.6 115.2 116.3 118.1 119.2 119.4 119.8 119.2 114.8 120.4 121.9 123 125.7 128.6 131.9 135.4 137.8 139.3 140 140.3 139.6 139.9 139.5 139.1 138.8 138.6 138.7 138.7 139.4 142.2 144.3 145.8 146.4 145.2 143.9 141.1 139.4 138.1 136.8 135.4 135.4 134.7 133.9 133.7 134.4 134.7 135.5 136.3 137 139.2 140.4 141.9 145 147.8 149.7 150.9 151.3 151
312.3 309.4 307.8 305.5 305.4 306.6 307 310 313.7 321.9 330.9 328.7 318.4 310.8 308.9 312.3 315.4 316.6 310.2 304.2 298.9 290.6 282.3 272.6 263.7 253.8 245 237.5 232 231.2 232.9 238 242.9 244.2 243.8 242.2 237 230.7 225 218.8 212.3 203.9 203.2 213.4 220.9 226.1 228.6 230.2 230 230.4 231.2 231.9 232.4 232.3 230.7 228.7 227 226.7 224.9 222.8 219.1 217.2 215.4 213.6 212.1 210.8 209.5 208.6 207 205.7 202.6 199.4 197.3 195.1 192.1 187.3 183.2 183.2 181.8 180.8 178.1 174.5 172.6 170.8 168.6 166.8 165.5 164 162.6 161.6 159.7 158.3 157.1 155.7 154.6 150.9 150.7 149 147.4 146.5 146.9 146.6 145.5 143.7 142.7 141 139.1 138 135.7 133.4 132.3 131 128.8 126.6 124.6 123.3 122.2 121.5 119.8 118.3 108.9 105.3 105.5 114.6 113.3 111.4 110 109.4 109.1 108.3 106.9 106 102.6 98.8 98.2 100.6 101.5 100.6 101.3 106.4 110.5 114.8 116.9 119 121.2 121.3 120.9 121.6 122 121.7 114.9 123.8 126.1 128.1 131.4 135.2 138.5 140.9 142 142.3 143 142.6 142.1 142.3 141.7 140.9 140.9 141 140.9 141.6 143.7 146.5 147.3 148 146.6 145.9 143.3 141.3 141.2 139.8 138.9 138.2 137.7 137.1 136.7 137.4 138.4 141 141.6 142.4 143.8 145.8 147.3 148.8 151.5 155.4 156.9 157.2 156.6 154.2
317.3 310 307.7 306.9 305.5 306.2 306.3 310.4 315.3 320.4 328.3 329.1 321.4 310.8 301.3 305.8 309.6 306.8 305.1 300.3 294.7 287.6 279.6 272.1 263.6 256.2 248.9 241.7 235.5 233.5 236.3 242.2 246.1 249 248.7 247.8 246.1 241.5 232.1 224.1 217.4 208.7 200.9 201.3 210.3 219.1 222.5 224.7 225.2 225.9 226.6 227.1 227.8 228.7 227.6 226.2 225.7 226.3 225 223.6 219.6 215.1 212.4 210.7 209.5 208.2 206.9 205 204 203 201.3 198 194.7 192.4 190.8 189.5 184.7 180.5 179.6 179.3 177.7 175.3 172.4 170.6 168.8 166.9 165.4 164.1 162.9 161.7 160.6 159.3 158.1 156.4 154.7 151.6 152.2 150.2 148.6 147.1 146 145.6 144 143.2 142.3 141.7 140.3 138.6 136.2 131 132.6 131.3 129.6 127.4 126 124.2 121.9 121.7 121.1 119.1 116.8 113.6 103.9 104.2 108.7 108 106.6 107 107 105.9 105.5 102.4 98.7 98.2 102.5 103.7 103.5 103.1 100.6 107.8 113.4 117.6 120.3 121.7 123.3 122.9 122.9 123.8 124.5 124.5 119.3 126.4 128.9 131.1 135.3 139.4 142.9 144.5 145.6 146.1 145.4 145 144.9 144.8 144.4 144.1 144.2 144.7 145.1 145.8 148.1 150.8 150.7 149.4 146.8 144.8 143.5 143.7 143.3 142.8 141.3 139.8 139.6 139.6 140.7 141.6 145.5 149.4 151 153.2 154.7 154.9 155.1 155.8 158.3 160 159.7 158.7 157.4 155.8
322.8 317.9 309.9 309 306.9 305.1 307.2 308.9 314.2 319.4 325 325.6 322.1 311 301.4 291.8 295.5 296.5 296.8 294.2 289.1 283.3 277.7 271 264.4 258 252.2 245.9 239.9 237.8 240.5 244.2 246.4 250.7 252.4 251.2 250.1 246.6 240.7 232.1 223.3 215.4 205.8 198 199.7 209.6 216.4 219.7 221.2 222.3 222.9 223.5 223.8 225 224.7 224.1 225.5 225.6 225 222.5 219.9 216.1 211 208.1 206.9 205.3 203.6 201.9 200.2 199.2 197.5 195.8 192.4 189.5 188.1 186.6 185 182.7 179.2 177.2 176.6 173.9 171.3 171.1 169.5 168.2 166.6 165.6 163.6 162.2 161.4 160.5 159.1 157.1 155.8 152.5 152.8 151.1 149.4 146.7 146.3 144.4 142.7 141.8 140.6 139.2 138.7 137.2 135.4 134 132.2 130.7 129.8 128.1 125.9 123.7 121.4 120.7 120 117.6 115.4 112.4 110.3 104.8 103.2 102.7 104.1 106.6 104.9 103 100.6 100 101.8 105.4 106.2 107 106.7 107.7 103.9 110.6 115.7 120.2 122.3 122.2 122.3 122.7 124.3 125.7 126.9 127.2 124.1 127.7 131.1 133.9 137.4 141.4 145.5 147.9 148.6 148.7 147.9 147.5 147.7 147.7 147.7 147.8 148.3 149 150.1 150.6 152.3 153.6 152.9 151.4 149.1 149 148.6 147.8 146.9 145.6 144.3 142.3 142.5 142.9 144.3 146.5 152.7 157.7 161.1 163 163.7 164.5 164.1 162.7 161.6 159.8 159.1 157 155.1 153.2
324.1 323.1 314.8 314.3 311.5 305 305 305.9 304.8 313 316.4 318.8 316.9 309.7 300.6 291.4 284.1 285.1 287.8 287.3 285.1 279.8 273.6 267.9 263.5 259 253.8 248.4 243 238.2 239 242.8 245.6 247.6 250.2 250.7 250.4 248.1 244.1 239.5 231.7 222.1 214.1 204.3 194.2 199.5 207 212.2 215.6 218.1 219.8 220.6 220.6 220.9 221.8 221.9 223.4 224.2 224.2 221.7 219.1 216.5 212.1 207.6 204.5 202.9 200.6 199.2 197.4 195.6 194.2 192.1 189.6 186.8 185.1 183.9 183.8 182.3 180.5 177.7 175.4 174.3 173.6 172.4 170.6 169.1 166.9 165.2 164.1 163.3 162.5 161.5 159.9 157.7 156.1 153.3 152.8 151.4 149.4 147.7 146.4 143.9 141.9 140.3 138.7 137.3 136.3 135.3 133.7 132.5 128.1 129.8 129.1 127.8 125.5 123.3 121 119.5 117.8 116 113.9 110.8 108.8 106.9 105.1 105.9 101.4 101.5 100.9 100.2 99.2 105.2 106.8 109 110.5 110.9 111.4 112.2 107.3 113.9 117.1 120.7 122.5 122.6 123.4 125.3 127.4 128.9 130.2 130.5 123.2 130.3 133.4 136 138.2 142.4 146 148.4 149.5 149.9 150.8 150.3 150.4 150.4 150.2 151.1 153.5 155 156.4 155.9 156.2 155.8 154.7 154.3 154.4 153 152.1 151.1 149.7 148.6 147.5 144.8 146 146.7 148.9 152.2 159.2 164.4 168.4 169.9 170.5 169.6 166.4 164 160.8 157.3 154.5 152 150.2 148.7
317.5 321.6 319.4 315.9 314.6 308.7 301.5 302.8 304.9 306.1 305.8 307.1 309.2 306.7 299.3 291.6 284.2 275.4 273.7 275.7 277.5 272.2 268.4 264.7 261.4 258 252.3 247.7 243.9 239.3 236.2 237.1 242.1 244.2 246.9 248.9 248.8 247.2 245.5 242 236.7 228.1 220.8 212.6 203.9 191.6 195.4 202.8 208.4 212.4 215.1 216.9 217.7 217.5 217.7 218.6 221.3 221.7 223.1 221.3 219 216.1 212.8 208.5 203.7 200.3 197.8 196.3 194.6 192.6 190.6 188.3 185.8 183.4 182 181.7 181.6 181.4 180.8 179.4 177.5 174.6 173.8 172.7 170.7 168.7 167.7 166.7 164.6 163.4 162.3 161.1 159.5 157.2 155.2 153.7 152.7 150.9 148.8 147.1 145.9 144 142.2 139.9 137.6 136 134.2 132.6 132.1 131.2 129.6 128.6 127.9 126.5 124.7 122.7 120.5 119 116.8 114.5 112.3 110 108.2 106.6 106.6 104 101.5 101.1 105.4 109 111.6 112.9 113.8 114.7 115.3 116.8 118.1 118.6 117.4 109.9 118.5 121.5 123.9 125.1 126.7 129.1 132.5 133.8 134.9 134.9 133.8 126.2 136.7 138.8 140.1 141.7 144.7 147.3 150 151.1 151.9 152.5 152.4 152.3 153 156.1 159.7 160.9 161.2 161.4 160.9 160.6 159.5 159.3 158.7 156.9 155.4 154.3 153.1 152.2 150.5 150.6 149.3 150.6 151.9 158.1 164.4 169.4 172 171.9 171 168.8 164.6 160.9 156.7 153.9 152.8 152.4 152.3 151.4
314.7 314.2 317.5 314.3 311.9 308.8 300.5 294.4 296.5 297.2 297.5 300.6 302.1 299.2 295.7 289.2 282.7 274.8 266.9 265.5 265.2 264.3 262.7 260.5 258.4 256.3 251.8 245.9 243 239.8 237.3 233.8 235.5 239.2 242.9 245.4 246.8 246.4 245.3 243.9 239.4 234 226.8 219.6 211.9 202.9 189.8 192.5 197.3 203.8 208.7 212.3 214.2 213.8 213.9 215.3 216.6 217.4 219.1 220.9 218.6 215.7 212.8 209.5 205.8 202.1 198.1 194.7 191.8 188 187 184.6 182.2 179.7 179.5 179.3 179.2 179 178.5 177.5 177.1 174.6 173.4 171.9 170.4 169.2 168.5 167.6 166.2 163.8 162.4 160.7 159.1 156.9 154.9 153.9 151.7 149.6 147.5 145.9 144.4 142.7 140.8 139.7 137.7 136.3 134 131.3 129.4 128.2 127.1 127 126.2 124.4 122.2 120.2 118.2 117.1 115.8 113.5 111.4 110.4 107.9 106.7 104 102.4 104.1 106 111.5 114.9 117.8 119.6 120.7 121.7 121.3 121.8 122.7 123 121.7 119 121.2 123.8 126 127.8 129.9 133.3 137 138.3 138.8 138.9 135.2 136.9 138.6 141.3 142.5 143.6 144.5 147.2 148.6 150.6 151.8 152.1 152.8 154.6 157.7 161.4 164.6 165.7 165.7 165.8 164.9 164.4 163.5 162.8 161.8 161.3 159.9 159.6 157.6 155.2 156.3 157.5 153.7 157.2 157.8 160.4 168.8 172.6 172.8 172.3 170.9 167.5 163.4 158.8 156.2 155.8 155.6 155.3 155.3 154.5
309.8 307.8 307 308.9 306.1 302.6 298.9 289.3 285.4 286.5 288.6 289.2 292.4 291.7 288.1 284.2 279.2 273.3 265.6 257.7 256.2 255.2 254.6 254 253.6 251.2 247.7 246.3 242.9 239.2 236.5 233.2 232.9 235.2 238.4 240.3 241.9 241.7 242.4 242.7 241.3 238.1 233 225.6 218.3 210.3 200.6 189.5 189.4 193.5 199.9 206.4 208.6 209.9 209.3 210.6 211.7 212.2 213.6 216 217.6 215.1 211.9 209 206.5 202.9 198.8 195 192.5 189.7 186 182 180.8 178.5 177.7 177.3 177 176.8 176.4 175.5 174.7 173.7 172.6 171 169.9 168.8 168.9 168.1 167 164.4 162.6 160.7 158.6 157.2 155.7 154 150.3 148.8 147.2 144.5 142.2 140.4 139.1 138.7 137.3 136.2 134.4 131.7 130.4 128.8 126.3 123.2 123.1 121.7 119.6 117.5 115.8 115.1 113.8 111.5 110 108.8 108.2 104.7 104 107.4 110.4 114 116.6 119.4 121.1 122.6 124.1 125.5 125.9 126.5 126.6 126.5 125.8 125.3 117.9 124.6 127.2 129.9 132.8 137.4 140.3 141.9 142.5 142 139.6 140.7 136.5 143.4 144.4 145.3 146.1 147 147.5 148.9 150.7 153.4 155.6 159.1 162.5 165.5 167.8 168.3 168.1 167.7 167 166 165.9 165.3 164.7 165.1 162.8 162.7 164.2 163.1 164.8 166.7 164.3 167.4 166.1 164.3 168.5 171.8 172.5 172.6 171 166.4 160.9 160 160.1 160.1 159.5 160.2 160.7 159.7
296.4 294.8 296.2 297.2 298.5 295.7 292.6 287.1 279 276.2 277.6 279.3 279.6 281.3 278.7 275.5 273.1 268.6 263.5 256.6 249.8 248 247.3 247.2 246.4 245 244.2 243 240.6 237.7 234.8 231.6 230 230.2 232.3 233.7 235.3 236.1 237.4 238.7 238.8 237.9 235.6 230.9 224.6 217.1 207.6 198.2 189.7 185.3 190 196.5 201.1 203.5 202 206.7 207 208.3 209.5 210.9 212.4 213.6 210.8 208.4 205.6 202.7 199.8 196.7 191.9 189.1 185.9 182.9 179.8 177.8 176.8 176.1 174.4 174.4 174.2 173.4 172.5 172 171.8 171.7 170.3 168.5 168.5 167.8 166.8 165.5 163.4 161 158.9 156.9 155.7 154.4 150.2 147.6 145.6 142.4 140.3 138.6 137.5 136.5 135.7 135 134.3 132.4 130.9 128.7 127.2 124 120.9 119 116.9 115.2 113.9 112.5 111.4 109.6 109.8 106.7 105.6 105.1 108.1 113 116.8 118.3 120 122.4 124.2 125.9 127.3 128.7 129.2 129 128.7 128.6 128.3 127.5 118.6 124.9 129.6 131.8 134.9 140.4 143.3 144.6 144.6 142.5 142.7 142.2 135.8 143.6 144.8 145.8 146.7 147.7 148.4 150.2 152.1 156.5 161 164.6 167.3 168.8 169.6 169.6 169.2 168.8 168.3 168 168.3 168.6 168.5 168.9 166.3 166.3 169.6 169.9 169.8 173.7 168.2 173.5 172 169 169.1 170.7 170 168.9 166.4 163.8 163.9 164 164.5 165.7 165.7 166.9 166.5 166.3
278.8 282.1 285.7 285.6 286.2 286 283.2 277.5 273.8 267.2 269 271.4 270.9 268.8 266.7 264.2 263 260.6 258.4 254.1 247.8 244.7 244.8 243.2 241.6 240.5 239.2 238.8 237 234.7 231.7 229.4 227.7 226 226.3 227.5 229 230.7 232.3 233.9 233.9 233.9 233.2 230.9 227.2 221.5 214.1 204.6 196.1 189.6 184 185 190.2 194.8 199.9 202.3 203.1 204.4 205.6 206 207.3 208.8 209.4 207 204.1 201.3 198.8 195.8 192 188.9 185.9 183.3 179.8 177.4 175.9 175.1 173.8 173.1 172.1 171.8 171.1 171.4 170.2 171.4 169.7 167.3 166.5 166.4 165.5 165.1 163.6 161.8 159.6 156.6 154.5 154.4 150.2 147.9 145.2 142.6 139.9 136.5 135.1 134.3 134 133.3 132.3 131.6 130.2 128.7 127.2 125.3 122.4 120 117.9 116.3 114.8 113.1 111.2 111.1 108.6 107.3 105 108.6 111.9 118.3 121.2 122.6 123.7 126.7 127.7 129.4 130.7 131.6 130.9 130.9 130.7 130.4 130 129.2 119.2 127.2 131.3 133.6 137.6 141.9 144.6 145.4 144.2 144.2 144.1 144.5 139.4 145.4 145.9 146.6 147.4 148.4 148.9 151.2 154.6 160.4 165.3 168.7 171.2 171.5 171.9 171.6 170.7 170.5 170.7 170.9 171.6 171.7 172.3 174.1 169.9 170.7 175.1 176.1 174 177.1 176.6 178 177.4 173.8 173.9 173.3 171.4 169.3 168.7 168.4 169 169.5 171.8 174.3 173.6 174.8 173 174.1
260.8 263 266.8 271 273.4 271.5 268.8 270.1 266 259.2 258 260.1 260.2 258.3 254.9 254.5 253.7 251.7 251.4 250.3 246.7 242.4 243.3 243 242.7 237.2 234.7 233.5 232.8 231 229 227 224.9 220.9 221.6 221.8 223.2 224.6 226.6 227.6 227.7 227.5 227.2 227.1 225 222.1 217.7 210.4 201.9 194.4 188.4 179.8 180 183.3 192 196.4 198.7 200.5 201.3 202.1 202.5 203.2 204.2 204.5 202.3 199 196.3 194.4 192.1 189.3 186.6 183.9 181.2 178.7 176.9 176.2 175.9 174.9 173.7 173.8 173.6 172.3 171.4 167.8 167.1 165.5 165.1 163 162.8 163.1 161.7 160.6 159.2 157.5 154.9 154.3 151.1 148.1 145.3 140.6 136.8 136.4 135 130.9 130.3 130.5 129.9 128.8 128.7 127.6 126.8 124.5 122.4 120.7 119 117.3 116.2 114.7 112.4 111.2 109.8 107.8 107.5 112 115.3 121.2 124 125.9 129.2 131 132.1 132.8 133.1 133 132.7 132.5 132.2 131.8 131.4 130.9 124.2 130.1 132.6 135.6 139.7 143.1 144.2 145 144.9 145.9 144.8 144.5 141.8 143.3 146 147.1 148 149 150.2 151.8 157 162.8 167.7 171.1 172.7 173.8 173.4 173.4 173.4 173.3 173.8 174.9 175 174.9 175.5 178.3 172.6 177.3 177.9 180.1 177.1 181.1 181.9 182.9 180.4 179.8 178.2 176.5 174.7 172.4 173 174.9 175.6 177.3 182.8 182.8 185.5 183.4 182.3 185.8
246.1 246.9 251 252.4 253.7 255 255 254.5 254.7 252.9 245.2 248.8 249 248.1 246.6 245.1 244.8 244.1 244 244.5 243.4 240.2 238.7 239.2 238.7 238.6 233.2 230.1 227.9 227.6 225.8 223.8 221.8 217.8 216.9 216.9 216.9 218.2 219.7 221.2 221.3 221.6 221.4 221.2 220.4 219 216.4 212.7 206.7 199.3 192.4 186.9 180.6 176.5 183.2 189.3 194.3 195.9 197.3 198.5 198.7 198.2 198.6 199.3 199.5 196.5 194 192.4 191.3 189.5 188.1 185.8 183 180.2 179.2 178.6 177.7 176.1 175 174.2 173.6 172.2 171.1 170.8 169.1 168.4 168 166.1 163.7 162.3 157.7 158.6 157.4 155.4 153.7 153.3 149 146 141.8 141.8 140.6 138.7 139.7 134.1 131.9 127.8 126.7 126.2 125.5 124.3 123.5 122.7 122.2 120.6 118.9 118.5 117.4 115 113.5 110.9 109.5 106.6 110.2 115 117.9 120.7 124.9 128.5 132 133.3 133.4 133.8 134.1 133.9 133.6 133.1 132.8 132.9 133.2 133.5 131.4 127.8 134.6 138 141.2 144 144.9 145.6 145.8 145.3 145.9 145.9 144.4 144.2 143.5 147.3 148.7 149.4 150.6 152.3 157.6 163.9 168.1 170.9 172.5 173.7 174.4 175.3 175.9 176.7 178.5 179.9 180.2 179.6 179.4 179.8 177.6 181.9 181.8 183.7 182 184.9 185.5 187 185.8 185.3 183.7 183.7 180.6 177.8 181.3 183.5 184.8 189.8 191.4 192.4 194.8 191.5 193.6 198.8
236.6 236.5 237.3 238.8 241.1 241.5 242.7 243 243.7 243 240.2 240.9 239.6 238.6 237.9 236.7 236.6 237.1 238.2 237.6 236.9 235.3 232.6 234.2 234.8 233.7 232.7 230.5 225.7 223.2 222.3 221 218.5 214.9 212.5 212.5 211.9 212.1 212.7 214.2 215 215.4 215.5 215 215 213.9 212.4 210.1 206.7 202.5 196.4 190.3 185.1 178.4 174.6 182.4 188.4 190.3 191.9 193.4 194.6 194.3 193.7 194.6 194.8 193.9 191.6 190.1 189.9 189.2 187.6 186 184.4 181.8 179.8 178.9 178.1 177 175.7 174.8 174.1 172.7 171.5 171.2 170.5 169.5 168.2 167.2 165.5 164.3 162.4 160.3 158.3 156.2 147.3 153 144.8 147.2 146.2 143.5 139 139.7 140.2 134.2 131.2 129.3 126.8 124.6 122.5 122 121 120.3 119.6 119 118.7 117.5 117 115 114.4 112.4 111.5 107.4 113.6 117.1 119.6 123.4 127 130 132.4 133.9 133.6 134.1 134.6 134.8 134.4 134.9 135.4 135.6 135.9 136.1 135.3 136.1 139 140.7 142.6 144.8 145.6 146.2 146.1 145.7 145.8 147 147 145.9 146.6 146.2 148.8 150.1 151 152.7 158.2 164 167.2 169.9 171.7 174 176.8 178.5 180.5 182.9 185.4 186.3 187 183.7 184.9 183.6 182 184.9 183.6 187.1 185.7 188 190.3 191 192 193.5 193.8 191.8 191.7 190 193.4 196.6 199.1 201.6 201.9 202.9 204.8 202.2 201.9 211.7
230.1 230.1 230.5 232.4 234.4 235.1 235.1 234.7 234.6 234.2 231.9 233.6 232.1 229.9 228.5 229.4 230 232.6 234 231.5 230.2 229.8 229.1 229.4 229.3 228.2 228.1 227.5 224.4 221.6 218.5 218.3 215.7 212.1 208.1 207.8 208.2 207.2 207.8 208.4 208.1 209.4 209.8 209.7 209.6 208.5 207 205.5 203.9 200.8 196.3 191.7 186.5 181.4 174.8 176.9 181.7 184 185.8 187.8 189.9 190.2 190 190.4 190.2 189.7 189.3 188.2 188.4 187.7 186.6 184.7 183.7 182 180.4 179.6 179 177.7 176.4 175.4 174.7 173.8 172.6 171.1 170.7 170.1 169.1 167.5 166.5 165.2 163.1 161.2 159.2 157.1 155.1 153.6 150.8 149 147.3 145.2 141.9 139.6 136.8 134.4 132.5 131.3 128.7 127.1 125.1 123.2 119.2 119.5 117.1 116.6 116.8 119.6 116.9 116.3 115.8 113.8 110.7 109.5 115.4 118.6 122.3 125.3 129.1 132.2 133.1 133.7 134 134.5 135.1 135.7 136.4 137.7 138.3 138.5 139.2 139.9 131.4 139.9 142.7 144.2 145.2 146 146.3 147 146.9 146.4 146.8 147.3 148.2 147.6 148.4 149.5 148.2 150.1 151.5 152.8 156.9 162.7 166.7 169.5 172.7 176.9 180.8 184.2 187.9 190.1 191.5 192.6 192.2 189.7 188.8 188.6 186.7 190 189.4 191.2 190.2 191.4 193.2 198.9 199.2 200.6 201.1 199.2 200.8 205.9 209.7 215.2 216.8 216.5 220.4 220 223.1 221.2 218.4 220.8
226.2 226.2 226.8 228.4 229.7 230 229.3 227.8 227.6 226.9 226.1 225.7 224.6 223 220.7 220.6 223.2 229.7 231.7 230.2 225.9 225 224 224.2 224.1 223.7 223.3 222.9 222.2 220.4 218 215.5 213.7 210.2 207.6 202.9 203.3 202.4 202.2 202.4 203 204.1 204.4 204.4 204.1 203.1 201.6 200.4 198.5 196.7 194.1 190.7 186.6 182 176.8 171 174.8 177.4 179.3 181.7 184.2 185.2 186 185.6 185.9 185.6 185.9 186 185.2 184.6 184 183.5 182.6 181.6 180.3 179.4 178.6 178 177.1 176 175.3 173.8 172.2 171 170.4 169.8 168.5 167.1 165.6 164.2 163.4 161.7 159.9 157.5 154.6 153 151.3 149.5 147.7 145.8 143.4 140.8 138.3 135.5 133.4 131.7 129.8 128.2 126.2 124.9 122.7 120.9 119.6 117.2 121.8 114.1 113.8 112.5 112.2 110.7 109.4 110.6 115.9 118.8 123.1 126.6 130.1 132 132.9 133.6 135.1 135.6 136.6 137.6 138.8 140.7 142.2 143.9 145 144.6 139 142.6 145 146.1 146.6 147.2 147.4 147.9 147.6 147.3 147.4 147.6 148.3 149.3 149.5 150 151.1 151.7 152.7 154.1 155.7 160.5 166 171.5 176.1 181 186.6 189.8 193.2 195.3 196 196.4 195.4 196.8 196.1 196.4 193.8 194.5 195.6 197.5 196.1 196.5 199.3 203 207.2 208.5 210.4 207.8 216.6 226.1 231.6 236.7 239.6 239.7 240.9 242.2 245.5 244.1 241.9 237.5
224.5 223 223.8 224.9 225.6 225.8 225.1 223.7 221.9 219.8 220.1 219.6 218.4 216.9 215.4 214.5 219.4 226.4 227.1 227.7 225.2 222.6 221.5 220.4 219.5 219.3 217.9 217.5 217.1 217.2 216.1 213.7 210.8 209.4 207 204.2 199.4 199 198.4 197.4 197.5 197.8 198.5 199 198.7 197.7 196.8 196.3 194.4 192.8 190.8 188.1 185.3 181.8 177.8 173.2 168.4 170.8 173.7 176.2 178.8 180.4 180.8 181.3 181.6 182.2 182.7 183.3 183.2 182.5 182.9 182.7 181.9 181.1 179.9 178 177.6 177.1 176.7 176 174.8 172.9 171.2 170 169.4 168.9 167.8 166.4 164.8 163.3 162.4 160.9 159.3 157.6 153.7 153.3 151.9 150 147.9 145.4 143.2 141.7 139.6 137.3 134.8 133.1 131.3 129.4 127.9 126.6 124.1 121.8 120.4 123 116.7 115.4 115.3 114.6 113.2 113.8 111 112.4 113.9 118.3 122.4 126.8 129.5 131 132.2 133.9 135.9 137.6 139.3 140.6 141.9 143.8 146.5 147.8 148 147 133.5 144.6 146.1 146.5 147.3 148.3 148.4 148.4 148.3 148.2 148.2 148.4 149.5 150.5 150.9 151.4 152.2 152.9 155.4 154.9 157.3 162 167.6 173.4 178.6 185.6 190.7 194.2 196.2 197.1 198.4 199.1 199.5 199.6 199.7 200.2 196.1 198.5 199.1 201.6 203.4 206.2 205.8 213 217.8 217.9 222.8 227.9 238 246.9 255.9 260.4 263.2 265.7 266.7 265.3 271.8 271.6 268.4 257
222.2 220.1 220.6 221.9 222.6 221.1 220.3 219.5 218.5 217.4 213.3 214.3 213.5 212.2 210.7 209.8 213.7 219.7 222 221.5 223.1 221.7 219.8 218.2 216 215.1 214.6 213.1 212.8 212.7 212.5 211.4 208.4 207.5 205.6 203 200.1 195.7 194.9 193.9 193.7 194.2 194.9 194.7 194.1 193.7 193.1 192.2 190.4 189 187.4 185.3 182.5 180.3 177.5 173.9 169.7 166.7 169 170.8 173.2 174.8 176.2 177.7 178.6 179 179.6 180.3 181.1 181 181.8 181.1 181.1 180.4 179.2 177.8 176.4 175.4 174.9 174.1 173.1 171.6 170 168.8 167.8 166.6 166.3 165 163.9 162.7 161.3 159.4 158.5 156.5 153.3 153.7 152.2 149.9 147.7 145.3 143.6 141.8 139.5 137.7 136.2 134.8 133.2 131.6 129.7 128.1 125.9 123.9 124 120.6 118.8 117.3 117.1 116.6 116.1 115.3 111.4 114.3 115.8 119.8 124.7 128.8 130.3 130.7 131.7 133.7 137 139.4 141.5 143.4 144.9 146.8 148 149.2 148.7 147.5 145.6 135.9 146.4 147.1 147.5 148.5 148.9 149.2 150 149.5 149.8 149.8 150.3 151 152 152.7 153.2 154.9 156.2 155.2 158.2 161 165.3 173.3 180 186.3 191.3 194.5 196.3 198.2 198.9 200.8 202.1 202.6 203.8 203.7 199.6 202.1 204.1 207.1 210 209.7 211.6 216.1 225.6 228.9 240.9 241.8 255 267.8 281.8 288.9 290.8 293.8 296.7 298.1 298.6 300.2 295.1 286.9
218.5 218 217 218.8 219.3 218.1 217.1 216.4 214.6 213.3 211.2 208.7 208.9 207.8 206.1 204.9 208.8 211.5 214.3 216.1 217.7 219.4 218.8 216.8 213.5 211.3 211.4 210.2 209.5 208.4 207.8 207.3 205.3 205 204.1 201.8 199 195.4 191.7 191.6 191.2 191 191.6 192.4 191.6 190.9 189.9 188.8 187.4 186 184.9 182.3 180.4 178 175.5 173.2 169.1 163.5 164.1 165.5 167.9 169.8 171.5 173.3 173.9 174.8 176.6 177.1 178 178.2 178.4 178.8 179.5 179.1 178.5 177.6 176.5 174.9 173 171.9 170.9 169.8 167.9 166.4 165.6 164.4 164 163.2 162.2 161.1 159.5 158.3 157.4 154.8 153.5 152.6 151.4 149.7 147.2 145.2 143.4 141.6 139.5 137.6 136.3 134.9 133.5 131.7 130.4 129.1 127.2 125.5 124.2 122.9 120.9 119.4 118.7 118.3 117.3 115.9 112.8 116.8 117.9 120.3 126.1 129.4 131 131 132.6 135.7 138.9 141.1 143.2 145.5 148 149.5 150.1 149.8 149.1 148.4 146.7 144.3 143 146.5 147.8 149.4 150.6 151.1 151.9 151.6 151.6 151.9 151.9 152.9 153.2 153.7 155.2 156.7 157.4 158.8 158.3 162.1 170.7 178.5 184.6 185.9 189 190 192.2 196.3 199.3 201.8 203.6 205 206.5 205.8 204.7 207.3 211.1 210.7 215.5 215.3 216.6 221.9 231.1 243.8 255.2 259.1 271.6 289.8 304.6 315.1 320.8 322.9 323.9 326.5 323.6 334.7 333 313.1
214.4 213.9 214 215 215.2 215.4 214.7 213.6 211.9 210.8 209.1 206.6 204 203.1 202 201.4 203.3 205.2 207.7 209.5 211.4 213.8 215.1 214.5 212.9 209.9 208 207.7 207.2 205.5 203.7 203.3 201.7 201.6 200.4 199.1 196.8 194.4 191.9 188.9 188.7 188.3 188.4 190.3 190 189.1 188 186.8 185.1 183.2 182.1 180 177.9 175 172.7 170.7 169.2 167.3 164 160.7 162.6 164.7 166.2 168 168.4 169.5 171.9 173.6 175.1 175.8 176.5 177.2 178.1 177.1 176.6 176.1 175.1 173.7 172.2 170.3 169.3 168 166 164.7 163.4 162.2 161.7 161.3 160.3 159.3 158.1 157.9 156.4 153.5 151.7 150.2 148.6 148.3 146.3 144.9 143.1 140.6 139.7 137.8 136.4 134.8 133.1 131.5 130.5 129.4 127.9 125.6 125 123.5 122.6 121.5 120.4 119.9 118.7 117.6 113.7 118.6 119.1 121.9 127.9 131.1 132.6 132.7 134 137.5 140.4 143.1 145.9 148.4 150.3 151.1 151.2 151.1 149.5 148.3 147.4 142.9 145.8 147.4 148.8 151.7 152.9 154.4 154.8 155.3 155.5 155.5 155.5 155.8 156.5 156.4 157 158.2 159.4 160.9 159.6 165.2 175.2 184.9 190.5 193 195 197 199.6 200.7 202.6 203.7 205.2 207.1 209.3 209.4 209.9 212.8 214.7 215 220.4 221.7 224.7 233.8 240.1 257.5 265.5 276.1 290.7 309.9 329.6 349.9 354.3 362.6 370.7 370 358.1 378.6 366.5 345.8
211.8 209.8 209.9 211.7 211.6 211.8 212.1 211.1 209.6 208.7 207.1 205.6 203.6 200.4 198.7 197.4 198.4 199.4 200.6 202.8 205.1 207 209.2 209.7 210.1 209 206.8 203.9 204 203.1 200.8 199.1 197.6 197.3 196.4 195.3 194.7 192.8 190.9 186.6 186.7 185.8 186.3 188.1 188.1 187.4 186.6 185.7 184.1 182.1 180.2 177.8 175.3 172.2 170.1 168.4 166.5 164.8 163.8 162 158.3 161.5 162.4 162.8 163.5 164.4 167.7 169.9 170.5 173.3 174.9 175.2 175.7 174.9 173.9 173.2 172.2 171.2 169 167.6 167 166 163.1 161.8 161.5 160.5 159.9 159.2 158.3 156.9 156 155.7 157.4 151.7 150.3 148.5 146.6 145.7 145.4 144 142.8 139.9 139.3 137.3 135.8 135 133 131.3 130.5 128.3 126.5 125.3 123.1 123.4 122.5 121.4 120.8 120 119.3 118.1 114.8 118.6 120.6 123.7 128.1 131.5 132.7 133.7 136.1 139.6 142.6 145.4 148.3 150.5 151.7 152.2 152.2 151.8 150.3 148.1 147.9 140.9 147.5 149.7 151.4 154.6 157.8 158.3 158.6 158.6 158.7 158.7 159 159.3 159.6 159.4 159.9 160.5 161.2 162.5 164.2 168.6 179.7 186.9 190.9 194.3 198 200.3 202.5 204.5 206.7 207.1 206.4 209.6 213.3 214.6 211.5 214.8 217.3 220.3 225.8 231.3 239.3 243.6 254.5 264.1 282.4 291.1 306.5 327.3 353.7 386.4 392.4 396 402.9 404.3 401.5 403.3 403.2 385.4
211.3 208.9 207.2 208 208.2 208.2 208.6 208.7 208.7 207.2 205.6 204 202.5 200.4 197.3 194.4 193.7 194.9 196.6 198.6 199.7 200.6 202.9 204.1 204.5 205.4 204.6 202.6 199.4 200 198.1 196.1 194.4 192.2 191.6 190.4 190.1 190.6 189.3 183.5 184.2 182.9 182.3 184.1 185.2 184.7 184.4 184.3 182.8 181.4 179.7 177.4 175.2 171.6 168.5 166.4 164.7 163 162.1 161.1 158.6 159.3 159.5 158.9 160 161.2 162.4 164.8 166.1 168.8 171.2 172 172.5 172.5 171.3 170.3 168.7 167.1 165.6 164.8 164.6 163.7 160.9 159.9 159.8 159 157.7 156.5 155.1 154.2 153.6 153.7 152.3 150.9 149 147.6 145.8 144.9 142.8 141.7 141.2 139.6 138.3 137 135.3 134.9 133.1 128.9 129 126.9 125.6 124.5 122 121.3 120.8 119.6 118.4 117.7 117.1 115.3 116 117.7 120.3 123.9 127.6 131.1 132.5 134.7 138.2 142 144.9 147 150 151.7 153 153.3 153.3 151.8 150.5 149.1 143 142.8 149.3 151.3 154.4 157.1 160.1 160.6 161.3 161.5 161.6 161.6 161.7 161.8 162.3 162.7 163 163.9 165.2 166.3 167.3 167.2 179.1 186.1 189.4 194.5 197.7 201.6 204.4 207.2 210.2 211.8 212.3 214.2 217 218 216.5 217.5 222.1 228.8 231.2 238.7 247 255.1 267.6 282.9 303.1 313 323.6 351.9 377.8 396.2 407 408.7 409.5 409.3 407.7 406.8 404.1 402.3
209.6 208.3 206.6 204.7 204.6 204.9 205.7 206.1 205.9 205.6 203.9 202.3 200.8 199.3 197.7 194.9 191.2 190.8 192.7 197.1 198.3 197 197.1 198.1 199.6 199.7 200.5 200.5 196.6 196.1 195.4 193.4 191.7 188.3 186.9 185 185.8 186.4 185.3 179.5 182.1 180.8 179.1 179.4 180.4 181.8 182 182.1 181.2 179.9 179.4 178 175.2 171.9 168.5 165.8 163.5 161.6 159.9 158.5 157.6 156.4 157.4 156.8 156.8 157.2 158.3 159.3 161 162.8 163.6 166.4 167.4 167.8 167.4 166.8 165.8 164.2 162.8 162.5 162.6 161.7 160.3 158.9 158.3 156.7 155.2 154 153.5 151.4 151.3 151.3 151.2 149 147.6 145.5 144.5 142.7 140.9 139.2 138.8 137.4 136.7 135.3 133.7 133.3 129.6 130.2 128.4 126.3 125.1 123.5 120.9 119.4 118.7 117.1 115.9 115.9 114.4 116.2 116.7 117.6 120.3 123.9 128.2 131.3 132.5 134.6 138.7 143.7 147 149 151.3 152.9 153.9 153.9 153.9 152.8 151.7 150.6 147.9 146.3 150.6 153 156.4 159.3 161.5 162.7 163.8 164.2 164.5 164.6 164.6 164.6 165.4 165.6 166.5 168.3 170.5 172.4 175.9 178.4 177.8 178.6 183.3 188.8 193.5 199.8 203.8 207.5 211.4 216 218.2 216.1 218.1 221.2 220.6 220 229.2 233.8 239.7 246.1 257 266 280.3 301.2 319.7 332.9 341.4 356.7 385.9 405.2 411.1 409 408.5 408 406.9 406.1 404 402
206.6 206.8 206.1 204.7 202.9 203.2 203.7 203.6 203.1 202.7 201.9 200.7 199.3 197.9 195.6 194.9 191.4 186.7 187.8 190.2 193.2 195 193.1 192.9 193.8 194.5 194.9 195.3 194.2 189.7 192 190.8 189.4 186.1 183.2 181.6 180.7 181.2 178.4 177.1 179.2 178.6 175.6 176.6 176.9 178.3 178.8 179.3 178.8 178.8 178.5 177.8 175.3 172.2 168.9 165.8 163 160.9 159 156.9 155.1 154 154.7 154.7 154.7 154.8 155.1 155.7 156.7 157.7 159.6 161.8 162.6 163.3 163.6 163 162.1 161.2 160.9 160.8 160.8 160 157.7 157.7 156.5 155 153.3 152.3 151.8 149.7 149 148.8 149.2 146 145.1 142.9 141.8 140.1 138.2 135.8 136.1 135.3 133.7 132.5 131.5 129.7 129.2 128.2 126.9 125.3 123.4 121.6 119.7 118.8 116.4 114.8 115.9 115.1 114.9 116.6 118 118.8 120.1 123.4 126.9 130.5 132.3 135 139.1 144.4 148.5 150.1 152.7 154.3 154.8 154.6 154.3 153.4 152.2 151 150.6 144.6 150.7 154.2 157.7 161.7 163.6 165.1 166 167.3 167.4 167.3 167.3 167.3 168.1 168.4 171 174 179.6 183.1 184.5 181.4 188 187.2 192 193.8 195.1 193.3 202.3 203.8 208.7 218.4 222.7 222.7 219.5 225.9 232 225.9 234 240 247.9 255.2 266.6 280.7 296.7 316 340.5 366.9 375 388.8 401 410.7 423.2 420.8 411.2 408 406.6 405.7 406 406.5
202.9 204.1 204.6 205.7 204 201.5 200.1 200.9 200.5 200.4 200 198.8 197.1 195.7 194.3 192.6 190.3 188.8 184.9 185 187.5 188.6 190.8 190.1 189.8 189.4 190 190 190.1 186.9 187.8 187.3 186 183.7 180.8 179.2 178.3 176.6 174.8 175 175.1 175 173.9 174.5 174.5 175.8 175.6 175.5 175.9 176 176.1 175.8 174.7 172.5 170 167.2 163.6 161.2 158.7 156.6 155.3 152.8 152.6 152.6 152.6 152.6 153.4 153.9 154.6 155.8 159 161.4 162.6 161.4 160.8 160.8 160.6 160.6 159.8 159.6 159.2 158.3 156.6 156.1 154.9 153.6 151.9 150.7 150.1 148 147.7 150.1 145.5 143.9 142.9 140.4 138.6 137.5 135.5 134.1 133.7 133.3 131.7 130.2 129 127.3 126 125.3 124.7 123.2 121.6 119.2 117.6 116.8 115.3 114.9 115.5 115.7 116.3 116.2 117.6 119.1 120 122.1 125.3 129.3 132.6 135.8 140.9 146.2 150.9 153.3 155.1 155.5 155.8 156 155.5 154.7 153.5 152.6 151.5 149.3 150.3 154.2 157.9 161.5 164.4 166.5 167.9 169.1 170.2 170.1 170 170.1 170.9 172.6 176.5 182.3 185.7 189.1 189.8 191.9 194.7 192.5 198.6 201 200 201.3 200.9 201.5 214.6 220.3 223.9 224.8 223.5 225.8 232.7 236.1 238.4 247.3 254.5 266.6 279.1 294.9 313.1 329.6 354.9 388.5 405.9 408.1 418.5 423.6 427.3 426.3 425.2 423.5 409.3 407.9 406.9 406.4
198.4 200.3 202.3 203 202.7 202 199.8 198.4 199.4 198.8 197.7 197.2 195.3 193.6 192.1 191.3 189.5 188.4 186.4 183.1 180.7 182.2 184.3 186.5 187.4 186.8 186 185.8 185.5 183.6 184.2 184 182.5 181 178 176.4 176.1 174.5 172.9 171.7 171.5 171.2 171 172.1 172.4 173.4 172.4 173.5 173.2 173.1 173.1 172.4 171.7 171.6 170.3 168.5 165.2 162.1 159.2 156.9 155 152.8 150.8 150.6 150.7 151.1 153.7 153.6 153.9 155.2 157.8 160.9 161.1 162.1 161.7 161 160.5 159.9 158.9 157.8 157.3 155 153.4 154.7 153.4 152.1 150.4 149.2 148.4 146.9 147.2 147 143.7 141.6 139 139.1 137.2 135.4 133.6 131.8 130.3 130.4 129.9 127.9 126.3 124.7 123.1 122 121.6 119.4 118.3 117.4 116.7 115.6 116.3 115.5 116.5 117 116.6 116.4 117.9 118.7 119.2 121 124.8 129.5 133.7 138 143.8 148.9 152.8 156.1 157.5 157.8 157 156.8 156.7 155.9 154.8 154 153.3 152.7 148.1 152.3 157.2 160.6 164.3 166.9 168.7 170 171.3 171.8 172 172.9 174.9 177.6 184.5 188.8 191.3 193.8 195.2 197.6 195.4 201.2 198.8 205.3 204.7 206.1 207 204.4 211 218.6 225.6 224.6 230 235.7 235.7 239.8 244.2 257.8 262.2 276.1 290.2 310.1 331.2 355.8 381.3 412.7 424.8 437.4 442 441.9 437 433.9 431.1 431.4 431.4 411.8 407.5 408.1
192.3 195.7 197.6 199.3 199.7 199.6 199.5 193.7 197.2 196.3 196.2 195.6 194.3 192.6 191 189.8 189.1 187.3 185.4 183.6 181.6 176.5 178.3 180.6 182.5 184.1 183.7 182.4 181.5 180.3 180.6 180 179 177.5 175.3 173.1 173.3 172.7 171.5 169.9 169.3 169.2 168.8 171.5 172.4 171.4 170.6 171.3 171.7 170.8 169.8 169.6 168.6 168.5 168.5 167.1 165.7 163.7 160.3 157.9 156 154 150.3 149 148.1 150.6 152.4 154 154.4 155 156.5 158 158.5 159.5 160.2 159.8 159.4 158.8 158 156.9 156.2 155.1 152.6 152.5 151.9 150.8 148.9 147.5 146.7 145.8 148.2 143.5 142.6 141 138.3 136.6 135.4 133.9 132.1 130.3 129.7 129.4 126.7 125.4 123.9 122.5 121.1 120.1 119.1 117.9 116.4 116.2 116 116.4 117.2 117.2 116.4 117.5 117.1 116.8 118 118.6 118.9 120.8 124.7 130.5 135.3 142.3 147.3 151.8 155.4 157 157.9 158.9 158.9 158.1 157.9 157.4 156.6 155.8 155 154.3 153.9 149.2 155.2 159.8 163.9 166.5 168.8 170.2 172 173.3 174.6 175.8 178.8 182.5 189.7 193 194.8 197.5 199.4 201.9 201.1 205.1 205.3 205 212.6 213.4 214 212.9 213.3 214.9 219.3 223 230.7 238.7 242.5 245.3 251.5 262.5 272.1 285.4 304.9 327.2 348.6 379.2 414.6 429.3 437 445.8 454.8 461.3 460.2 455.6 451.4 444.4 438.4 421.3 410.6 406.3
186.2 189.3 191.1 193.6 195.6 196.4 196.8 184.5 195.5 195.3 194.4 194 193.4 191.8 190.1 188.5 187.7 186.4 184.8 183 181.4 179.1 174.8 174.8 177.2 179.3 181 180.4 179.1 178 177.5 177 175.5 174.5 173.7 172.2 170.8 171.2 170.3 170.3 168.7 167 168.3 170.8 171.2 170.3 169.3 169.4 169.5 168.5 167.7 167 165.7 165.1 165.2 164.5 164.4 162.3 160.4 158.9 156.7 154.7 153.4 149.4 146.9 150.2 151.4 152.9 154.1 154.8 155.8 156 155.7 156.7 157.6 158 157.7 157.4 157 155.9 154.7 153.6 152 150.8 150.6 149.6 147.9 146.2 145.3 147.2 143.3 142 140.7 139.7 137.3 135.6 134.1 132.5 131.2 129.9 129.3 128.1 126 125 123.9 122.5 121.1 119.5 118.5 117.4 117.1 117.4 117.6 117.7 116.9 117.2 117.8 118 117.7 117.2 117.4 117.8 119.7 124.5 128 135.4 142.8 146.5 151.5 154.8 157.2 157.5 158.8 159.4 159.8 159.5 159.2 158.6 157.6 157.5 156.9 156 155 153.7 152.7 159 163.3 166 168.1 170.7 172.9 174.5 176.7 178.5 181.8 187 193.2 196.5 199 200.9 203.3 205.7 207.8 206.1 209.2 213.5 215.3 217.8 219.3 216 217.4 219 221.7 224.7 230.3 237.6 245.1 250.9 260.3 269.4 284.9 305.8 325.9 345.7 376.5 405.5 430.2 435.1 444.2 456 472.9 485.9 489.3 487.4 478.4 466.8 454.3 434 417.1 407.9
185.6 181.4 183.9 185.6 188 190.9 192.9 185 194.1 192.4 193.4 192.4 191.8 190.7 189 188.1 186.2 184.6 183.1 181.6 179.8 178.2 176.4 170.9 171.9 173.7 175.1 177.2 177.5 176.2 170.9 174.8 173.6 172 170.9 169.8 169 168.5 169.6 169.5 168.1 164.7 166.5 168.8 169.3 169 168.7 168.5 167.6 167.2 166.5 164.9 163.6 162.9 162 161.9 161.2 159.4 160.1 157.7 156.4 154.7 153.1 152.4 151 146.2 150.4 151.1 152.8 153.5 153.9 154.6 154.4 154.4 154.6 155.5 155.7 155.3 155.2 154.4 153.2 152 150 149.5 149.3 148.4 146.7 145.2 144.1 146.5 142.4 140.7 139.5 138 136.2 134.8 133.1 131.8 130.3 129.7 128.2 127.6 125.8 124.3 123.5 122.5 121 119.6 118.4 117.7 117.5 118.1 118.9 118.3 117.4 117.8 118.2 118.5 118.1 117.6 118 119.6 123.5 128.6 134.6 140.8 145.8 149.8 153.6 157.2 158.5 158.4 159.3 159.7 160.1 160.5 160 159 158.9 158.8 158.5 158.4 158.4 158.4 157.3 153.8 162.7 164.6 167.1 169.4 172.1 174.9 177.7 180.8 184.5 190 195.7 198.2 201.1 203.4 205.4 208.3 210.3 213.6 214.5 216.5 216.3 218.1 222.6 223 221 224 225.2 230.6 234.9 239.8 247.9 252.8 263.7 279.6 298.3 320.7 347.2 378.2 402.9 425.2 433.8 437 446 461 480.5 492.6 500.6 500.1 497 490.3 473.6 446.1 430 413
181 180.1 179.5 178.5 176.3 179.5 181.8 178.7 187.3 190.1 190.6 191.1 189.8 189 188.2 187.1 184.5 184.2 182.3 178.8 177.7 176.5 174.8 173 167.6 168.2 170 171.7 173.4 174.6 171.5 171.9 171.7 170.4 169.1 168 167.3 166.5 166.5 167 166.9 164.1 164 165.8 167.2 166.9 167.6 166.9 166.4 166.1 166.1 164.6 162.9 161.9 159.4 158.7 158 158 157.8 156.2 154.2 153.7 152.6 152.2 148.4 145.2 150.9 150.8 151.3 152.6 152.6 153.4 152.5 152.4 153 153 153 153.1 153.2 153.1 152.8 151.3 148 148.4 148 147.3 146 145 144.9 140.7 140.3 138.8 137.1 135.9 134.5 133.4 132.5 131.1 129.7 128.3 128.3 128.3 126.5 123.8 122.8 121.9 121.1 119.9 119.6 119.2 119.2 119.9 118.8 119 118.3 118.6 118.7 118.9 118 118.7 119.3 122.9 128.3 133.6 140.3 144.5 149.2 152.8 156 157.8 158.8 159.2 159.8 160.5 161 160.8 159.5 159.8 159.8 159.9 159.9 160.3 160.8 160.9 160.9 161.8 159.6 161.4 159.3 164.2 171.5 174.2 177.2 180.9 185.2 191.2 196.3 199.7 203 205.7 207.8 210.8 213.5 215.5 217.9 219.3 220.2 219.8 222.8 227.3 228.2 226 234.5 233.9 238.2 246.8 255.8 261 274.7 288.1 308.7 331.8 365.4 403.2 430.3 438.2 433.4 433.5 445 460.3 483.3 492.8 506.6 509.5 510 499.9 482.3 457.2 430.3 416.7
180.5 180.7 178.8 177.2 178.3 176.5 174.5 175.2 177.8 178.8 183.5 187.1 185.4 184.3 184.3 183.7 180.7 182.6 181 178.9 176.2 172.6 173.2 172.1 170.1 166.1 163.6 164.6 168.1 170 166.1 171.8 170.7 170 168.8 167 166.2 164.4 164.4 164.9 165 163.2 162 163.7 164.9 164.8 165.4 165.4 165.2 166.2 166.2 164.8 162.6 161.1 158.9 157.2 156 156.2 155.5 153.9 152.4 150.9 150.4 150 145.7 148.6 150.1 149.4 150.3 150.6 150.6 150.6 150.4 150.5 151.2 151.5 151.5 151.2 151.2 151.3 150.1 149 146.2 146.2 145.9 145.5 144.8 144.1 141.6 139 138.3 137.1 135.4 134.1 132.8 132 131.4 130 128.4 129.2 126 126.1 124.7 123.4 122 120.9 120.1 119.2 119.6 119.3 119.4 119.1 119.3 118.9 119.2 119.5 119.4 119.5 119.1 119.1 120.7 126 131.7 138.9 145.1 149.8 151.5 154.6 156.9 158.7 158.5 159.5 160.2 160.7 161 161 160.4 161.3 161.3 161.4 161.5 163.2 163.4 163.6 164 164.5 165.2 165.1 167.6 169.5 163.4 164.9 169.6 177 183.1 187.7 191.9 197.4 203.7 206.5 206.3 211.6 214.7 218 221.3 222.3 223.4 223.4 222.4 224.6 233.6 236.1 236.9 243.7 242.5 248.1 258.3 270.1 283.7 307.7 323.4 352.5 383.9 415.7 432.6 437.1 432.2 426.4 437.6 454.3 477.8 496.2 504.8 517.6 520 513.2 492.9 466 435.8 416.2
182.2 180.1 178.7 176.3 180.3 180.3 179.5 175.5 173 171.8 171.3 171.8 171.4 170.3 170.7 170.9 174.6 178.1 177 175.9 173.9 170.4 167.6 169.3 166 157.2 154.9 154.8 160.5 163.3 163.7 168 169.1 168.1 168 167.6 165.9 165.1 162.4 162.4 162.6 161.2 160.2 162 162.6 162 162.6 162.7 163 164.1 164.9 163.9 162 160.1 159.2 157.1 154.8 154.4 153.3 152.2 150.9 149.6 148.8 148.1 144.4 144.9 147.2 147 147.4 147.3 147.8 147.6 147.9 148 148.7 149.6 149.6 149.5 149.5 149.3 148.4 146.7 144.5 143.8 143.4 143 142.4 142.2 139.8 137.2 136.2 135.2 133.8 132.5 131.4 131.4 130.7 129.7 127.2 126.3 124.7 124.3 123.2 122.5 121 120.4 119.4 118.8 119 119.1 119.5 120 119.7 119.2 119.8 120.2 120.2 120.9 120.7 120.5 123.1 127.5 134.3 140.5 146.6 151 153.1 155.3 156.9 157.5 158.3 159.1 160.3 160.7 160.9 161.2 161.4 162.2 162.8 162.9 163.3 165 166.4 166.8 167.2 167.6 167.7 168 168.5 171.1 173.5 176.1 178.9 178.8 170.8 178.3 189.6 187.4 198.6 205 203.7 210 216.4 220.7 223.4 225.1 226.4 228.3 227.6 227.7 237.5 241.9 239 244.8 248.7 252.5 262.3 277 295.5 317.4 340.3 370.7 403.8 422.8 435.6 434.8 430.7 423.4 430 444.8 463.5 485.7 492.7 497.8 511.3 512.9 499.1 476.4 446.8 419.8
177.6 175.9 175.3 175.4 176.5 179.3 178.5 178 179.5 176.3 177.5 170.1 170.7 170.6 168.8 166.7 166.1 164.7 166.3 166 163.1 160.3 159.9 162.3 160 158.9 163.2 163.2 152.5 160 161.6 163.2 164 164.5 166.9 167.3 166.7 166.3 164.3 161.9 158.4 158.4 158 159.5 160 159.6 159.5 159.5 160.5 160.4 160.8 161.1 160.3 159.6 158.8 157.2 155.1 153.5 152.6 151.4 150.3 149.1 147.7 146 144.5 142.1 144.8 145.5 144.8 144 144 144.5 144.8 144.3 145.5 146.1 146.7 147.1 147.7 147.6 146.2 144.8 142.5 141.6 142.3 141 140.4 139.4 137.6 135.9 134.9 133.6 133 131.1 131.2 129.6 128.5 128.6 127.1 124.7 123.7 123.3 122.8 121.2 120.1 119.6 119.1 118.8 119.4 119.8 120 118.9 118.6 119.5 120.2 121 120.8 121.3 121.8 122.9 124.8 128.6 135 140.4 145.6 149.3 152 154.3 156.2 156.5 157.4 158.7 160 160.9 161.1 161.3 162.3 163.2 164 164.4 165 167 168.8 169.9 170.4 170.7 170.4 170.6 171.7 172.4 175.2 178.9 182.9 187.3 192.1 189.4 183.7 174.2 200.4 206.3 208.7 214.1 213.1 216.9 222.2 221.4 226.5 230.8 232.6 237 235 241.2 244.3 248.1 257.8 260.3 271.6 286.7 304 326.8 353 384.5 412.9 425.4 433.1 431.7 428.9 423.7 422.3 434.6 446.9 464.8 477.7 482.2 492.7 498.6 492.4 469 451.5 425.7
175.8 176.7 176 176.2 175.4 175.6 177.1 175.6 175.5 175.4 177.1 177.5 178.1 179 177.3 176.7 176.5 173.9 172.1 174.8 174.5 170.9 168.2 164 165.4 165.3 165.6 164.9 152.8 158.1 161.3 160.8 158.6 158 162.1 164.3 165.8 165.7 165.1 163.1 159.7 155.8 156.8 158.3 157.9 157.7 156.9 156.6 156.1 157.3 157.6 158 158.4 158 156.4 156.8 155.3 153.4 152.9 151.9 149.6 148.7 148.1 145.8 144.3 140.9 140.6 142.4 142.5 141.8 140.1 140.9 141.5 141.2 142 142.7 143.5 144.3 144.8 145.1 144.8 142.9 140.5 140.2 141 138.8 139.1 137.4 136.9 134.1 133.3 132 130.9 131.3 129.4 128.6 126.9 125.7 125.3 123.8 122.8 121.9 120.8 120 118.9 119.1 118.8 118.9 119.5 119.8 120 120.1 119.5 120 120.9 121.7 121.6 121.8 123.2 124.5 126.7 130.6 135.3 139.7 144.4 147.5 150.2 152.9 154.3 155.7 157 158.3 159.6 160.9 161.3 162.2 163.6 164.6 165.3 166.3 167.6 169.3 170.7 172.1 173.2 173.8 173.5 173.5 174.2 175.1 177.2 180.7 185.3 190.3 195.8 198.8 201.4 202.4 177.7 199.5 210.4 212.4 217.1 220.8 222.6 224.8 227 231.6 236.6 242.2 239.2 242.1 249.6 254.5 261.6 274.2 291.2 308.4 324.3 347.8 374.4 399.8 413.6 420.6 425.4 429.4 427 424 417.7 421 431.9 443.7 452.2 460.5 470.2 478.7 477.8 466.2 437.4 428.7
176.3 177.1 177.9 177.2 175.2 174.6 174.4 173.2 174.4 175.8 176.3 176.3 177 176.6 177.3 177.4 175.2 173.8 173.1 173.1 172.2 171.1 169.1 168.4 167 165.9 165 165 163.6 151 157.1 158.6 158 154.5 154.4 158.5 161.2 162 162.5 162.8 160.2 156.6 156.9 156.9 156.2 155.8 155.3 154.1 153.8 154.2 154.4 154.7 155.1 155.1 153.4 154.7 154.2 152.8 150.5 151.3 149.5 147.8 148.9 146.7 144.9 143.9 141.6 139.6 139.2 139.8 139.3 138.8 138.3 138.6 138.2 139.4 140.3 141.1 141.7 142 142.1 140.4 137.2 138.4 139 138.5 137.8 135.5 136.3 131.6 130.7 131.4 131.5 129.4 128.7 127.9 126.1 124.3 123.7 123.5 122.4 121.4 120.2 118.8 118.5 118.5 118.5 118.6 118.8 119.2 119.4 119.6 120.6 121.8 122.1 122.4 122.6 123.7 125.6 127.6 129.9 132.1 136.6 139 143.6 146.4 149.5 151.3 153.6 154.9 156.7 157.9 159.2 160.5 161.7 163.6 165 166.3 167.3 169.7 170.8 171.6 172.7 174.1 175 175.6 176.4 176.6 176.8 177.7 178.9 181.9 185.9 191.6 197.6 201.2 203.9 205.9 205.8 180.8 208.4 211.7 213.5 220.7 224.4 227.6 231.4 233.5 236.6 242 243.1 246.1 251.4 259.4 272 293.3 311.8 330.3 348.1 372.6 390.7 399.4 408.4 416.4 419.8 425.7 425.9 421.9 413.4 409.5 416.7 427.2 434.2 437.2 442 447.9 448.2 440.4 430.8 423.1
174 176.5 177.7 177.7 176 175.9 175.4 172.7 171 171.7 175.2 175.4 175.4 175.4 176.8 175.9 175 174.2 173.8 173.5 171.9 170.7 167.4 166.5 166.9 163.8 162.9 160.7 159 154.7 149.6 152.4 153.5 151.4 153.4 152 155.5 157.9 159.4 159.7 160.1 158.4 154.8 156.9 155.1 153.9 153.4 152.7 151.9 152.5 152.5 151.5 151.7 151.7 150.7 152.1 151.3 150.7 149.1 149.6 149.5 147.5 147.6 147 146 145 142.4 141.8 138.5 136.8 137.2 136.4 135.6 136 135.3 136.1 137.2 137.6 137.9 138.8 139.1 142.4 140.7 136.9 142.2 140.4 135.8 133.1 131.6 133.1 132.6 128.4 128.9 128 127.5 127.1 125.5 124.1 122.7 122.1 121.5 120.8 119.4 118.8 119.5 118.8 118.7 118.7 118.9 118.9 119.7 120.7 121.5 123.3 124.2 123.4 123.5 125.1 127.3 129.2 131.5 133.6 136.4 137.1 142.4 145.4 146.9 150.3 153.3 155.6 157.2 158.5 159.8 161.1 163.1 165.1 167.2 169.1 170.8 173 173.6 174.5 175.5 176.3 176.7 177.6 178.2 178.7 179.2 180 181.3 183.1 186.3 191.4 197.7 202.5 205.8 207.9 208.7 191.7 187.3 212.1 214.5 213.5 213.2 218.4 222.6 227.5 230.2 236.4 242 248.8 255.8 264.3 278.3 300.9 321.4 352.9 374.8 388.7 398.7 404.4 411.1 414.4 415 414.1 411 409.6 406.1 405.6 403.1 408.2 417.7 418.1 414.8 417.2 416 412 410 407.3
171.7 173.4 175.2 176.7 175.2 173.9 171.8 170.3 169.2 169.1 169.5 171.6 173.6 174 174.7 174.4 173.5 173.8 173.8 172.7 172.1 170.1 166.9 165.5 164.7 163 160.3 154.9 153.3 151.3 149.2 148.8 148.9 146.9 146.7 147.6 151.2 154.3 156 156.6 158 158.1 154 156 154.9 153.1 151.6 151 150.4 150.1 149.4 149.1 148.2 148.2 147.8 147.5 147.6 147.4 147 145.6 147.9 147 146 146.3 145.3 144.9 142.4 142.3 140.8 139.3 135.6 134.6 134.2 133.2 132.8 133.5 133.5 133.7 134 134.5 138.2 135.5 135.5 136.6 137.4 138.4 136.7 135.8 128.1 131.6 130.2 127.4 126.9 127 125.4 126.1 124.7 123.4 122.1 121.4 120.9 120 119.4 118.8 118.9 118.8 118.9 119.4 119.6 119.5 119.2 120.5 121.9 123.5 123.9 124.5 125 126.5 128.8 130.8 133.1 135.9 139 137.8 143.9 146.3 147.9 150.3 153.1 155.8 157.8 159.1 160.5 162.4 164.7 167.2 169 171.7 173.9 175.8 176 176.6 177.3 178 178.6 179.1 179.9 180.7 181.9 183.3 184.5 185.8 187.7 190.3 196.5 202.1 205.9 207.8 209.8 211.2 189.3 202.9 201.5 215.6 223.4 228.1 230.4 233.3 234.9 235.8 235.2 246.4 257.8 269 286.9 312 336.6 367.1 388.9 397.8 399.3 400.3 402.5 404.8 406.8 410.7 413.8 411.8 401.2 398.4 394.3 394.4 395.9 402.3 403.3 400.7 400.7 399.1 396.7 397.8
170.4 170.1 170.4 172.6 173.2 172 169.5 169.6 167.9 168.5 169.1 168.7 169.8 171.4 172.6 174.1 174.6 172.5 173.1 173 171.6 170 169.1 165.3 163.3 160.6 156.3 152.9 154.3 154.2 152.3 151.9 150.5 146.6 145.5 144.1 146.2 151.8 153.9 155 154.9 154.8 152.4 154.2 153.6 152.4 150.6 149.5 148.4 148.1 147.3 146.9 145.9 144.8 144.3 144.5 144.4 144.3 143.8 143.2 144.7 143 145.6 145.1 145.3 144.8 143.6 141.3 142 140.8 138.7 137.8 134.9 134 132.5 130.9 130.8 130.1 130.7 136.8 133.7 134 132.7 132.7 132 130.1 130.2 127.4 128.4 127 126.4 125.2 126.1 125.9 124.7 124.5 123.7 122.7 121.8 121.1 120.5 120.4 119.3 119.2 119.4 118.7 119.2 119.6 119 119.4 120.4 120.6 121.1 123.1 124.4 125.2 126.5 127.7 129.7 132.1 134.5 137.3 140 141.5 144.1 146.5 148.6 150.6 152.7 155.8 158.3 159.7 161.8 164.1 166.8 169.3 171.5 173.3 175.3 176.7 177.6 178.6 179 179.4 179.8 180.2 181.5 183.3 185.3 187.5 189 191.5 192.8 193.5 195.9 201.5 205.5 208.6 211.1 211.9 210 187.7 191.5 196.4 209.1 222.4 225.9 233.7 234.6 230.3 233.6 247.9 259.4 265 285.3 316.7 339.7 377.4 385.5 386.5 388.9 392.2 398.1 398.3 395.4 395 399.2 405.3 405.9 399.2 393.5 386.6 383.7 383.7 387.4 387.8 389.8 390.2 391.7 387.7
175.6 171.3 168.1 168.4 170.4 169.5 167.9 168.8 166.3 166.2 166.4 166.2 167.1 169.2 168.8 170.7 171.7 171.5 173.5 172.4 166.8 165.2 163.3 160.4 160.3 157.4 155 161.9 159.4 158.4 157.1 153.8 152.2 151 151.7 150.9 143.2 148 150.1 151.9 153.9 153.7 152.4 149.6 150.9 150.1 149.4 148 147.2 146.8 145.9 144.8 143.5 142.4 140.9 142.6 142.7 142.3 140.3 139.1 140 140.1 142 142.4 142.8 143.2 143.3 140.9 141.6 141.5 140.4 138.9 137.3 135.3 133.7 132.4 130.4 130 132.6 132.9 132.5 131.2 128.1 126.8 126.7 126.3 126 126.5 124.8 124.7 123.5 123.4 124.1 124.3 123.4 123.3 123.2 122.4 121.5 120.8 120.2 119.6 120.2 119.8 119.9 119.1 118.7 119.5 119.5 119.6 120.4 120.6 121 122.7 123.4 124.7 125.9 126.6 129.4 130.9 135.2 137.9 140.3 142 144.2 146.4 148.1 150.6 152.6 155.4 158.5 161.4 163.6 165.8 168.4 171.1 173.1 174.9 176.4 177.5 178.5 179.5 179.6 180.2 180.7 181.4 183.1 186.6 189.7 192.8 196.1 198.2 199.8 200.6 200.5 203.7 205.6 208.9 211.2 212.2 213.6 214.2 205.9 198 192 205.4 213.8 223.5 226.9 226 228.3 238.5 250.2 262.3 281.4 305.8 332.7 368.2 381.7 377.5 373.3 370.3 370 381.3 394 391.3 384.6 382.1 382.2 391.1 388.6 382.3 374.6 372.5 371.4 374.3 379.4 382.9 383.3 384.5
174.2 174.8 171.6 168.3 166.5 167.5 167.8 164.9 164.6 163.5 164.2 163.8 163.7 167.5 167.2 168 169.2 167.3 166.5 165.5 167.5 165.9 163 162.9 162.4 161.6 156.8 160.2 163.1 162.9 160.7 158.7 154.5 152.1 150.2 149.9 143.3 143.5 145.7 148.2 150.2 150 150.2 145.1 144.4 144 142.3 142.7 143.4 143.6 144.7 143.6 140.7 140.9 138.2 140.6 140.8 138.5 137.5 136.7 136.4 137.3 137.9 138.8 139.3 139.5 139.5 137.5 140.2 141.3 140.6 139.5 137.6 136.1 134.3 132.4 131 130 132 131.2 126.8 127 126.2 126 125.2 124.6 125.5 122.9 123.2 122.3 122 121.8 122 122.2 122 122.1 122.1 122.1 121.2 120.6 119.9 119.5 119.6 120.3 120.2 119.2 118.6 119.2 119 119.3 120.2 120.6 121 122.1 123.2 124.4 126.6 128.4 131 131.2 132.7 134.8 139.9 142.1 143.9 145.8 147.5 150 152.5 155.1 159.2 162.2 165.5 167.6 169.9 171.8 173.7 175.2 176.5 177.6 178.6 179.8 180.1 180.6 181.3 181.9 184.8 188 193.1 198.3 201.1 203 203.8 204.9 205.3 206.9 208.5 210.1 211.2 212.9 214.4 216.1 214.1 212.6 208.2 197.6 196.9 211.8 215.6 219.3 222.6 228.8 243.4 256.4 274.9 301.5 330.4 366.7 373.5 372.3 368.6 362.5 357.4 358.4 363.2 371 376.6 377 368.6 371.2 373.2 373.5 373.6 365.8 365.3 363.8 365.5 368.9 374 377
168.4 170.6 172 167.3 163 162.7 161.9 161.9 164.7 164 160.4 163.1 163.2 162.9 164.7 165.8 166.7 165.9 167.2 168.7 170.3 171.1 169.5 166.7 162.5 161.7 160.3 163.3 166 164.5 163.2 161.2 158.4 156.5 153.6 150.2 146.8 141.5 141.9 143 144 144.3 143.7 142 138.9 138.1 137.1 137 136.5 137.7 136.1 135.4 134.7 133.9 132.7 135 136.6 135.5 135.2 134.9 135 135.3 133.9 134.3 135.1 136.1 135.9 135.1 136.1 137.5 137.7 137.6 136.8 135.5 134 132.8 131.5 130.6 130.5 128.5 127.5 126.9 127.1 125.5 125.2 125.2 124.7 123.5 122.7 122 121.6 121 120.7 120.4 121.2 121.1 120.7 120.3 120.8 120.7 120.1 119.6 119.5 119.6 119.8 118.7 118 119 119.1 119.8 120 121 121.7 121.9 123.1 125.2 127.4 130.6 132.8 135.9 138.3 139.1 136.9 137.3 140.2 143.3 146.4 149.3 151.7 153.9 157.9 161.6 164.8 167.9 170.3 171.8 173.2 174.9 176 177 178.3 179.7 180 180.7 181.4 182.4 185.1 188.6 194 199.4 201.9 204.6 205.7 207.4 208.4 209.5 211.1 212.5 213.5 214.6 216.8 217.8 219.5 219.4 221.1 219.8 221.1 215.6 209.2 207.8 219.4 228 238.6 248.6 271.6 298.4 325.4 350.9 366.3 363.3 361.2 359 353.9 353 356.2 355.8 354.1 352.9 356 355.6 353 355.7 364.6 364.6 363.3 361.6 359.2 360.9 361.6 363.6
165 165.4 164.2 161.8 161.8 160.1 159.2 157.3 159.7 163.6 161.5 161.5 162.4 160.1 162.8 163.3 163.3 164.2 164.8 165.4 166.3 168.4 168.3 167 165.5 163.7 161.3 162.6 165 165.1 164.7 162.8 162.4 160.8 158.2 155.1 151.9 146.2 141.9 140.6 139.9 139.6 139.3 138.8 138.6 138.4 140.3 140.1 137.9 135.6 136.4 137.6 138.2 136.9 133.6 131.6 131.8 132.4 133.1 133.4 134 132.5 132.6 131.9 132.4 131.7 131.8 132.2 132.2 132.5 133 133.4 134.2 134.5 134 131.8 130.1 129.8 129.9 127.9 127.7 129.2 129.5 129.1 127.9 125.8 125.8 124.5 123.8 122.8 121.8 121.4 120.6 120.3 119.8 118.8 118.9 119.4 119.2 119.6 119 119.1 119 118.9 119.5 119 118.8 119.7 120 120.1 120.3 122.5 123.8 125 126.7 128.6 131 133.8 136.5 138.1 140.6 141.4 142.2 143.5 142.7 142.5 141.4 147.1 150.3 153.5 156.7 160.2 163.4 166.4 169.1 170.9 172.3 173.8 174.9 176 177.5 179 179.8 180.6 181.5 182.2 185.3 188.7 194.3 198.9 201.9 204.6 206.9 208.5 210.1 211.3 212.4 213.7 214.8 216.9 218.5 220.7 222.9 224.8 228.1 229.2 227.7 228.3 230.7 215.3 208.8 219.4 228 240.4 261.3 285.5 313 329.4 344.3 358.3 355.8 353.2 350.8 348.8 352 351.2 348.3 346 342.6 339.3 340.3 342.3 350.1 356.7 350.3 357.8 359.3 354.2 356.3 355.3
162.5 163.6 162.9 167 165.1 161.5 163.8 161.7 157.5 157.2 156.7 158.9 159.3 157.6 161.5 160.6 161 161.4 161.8 161.6 163 163.3 162.3 163.9 165.1 163.4 161.8 162.3 162.6 164.2 164.5 164.6 163.6 161.7 160 157.9 155.4 152.7 145.3 148.5 142.6 139.1 138.3 138.2 139.2 141 141.2 141.4 139 137.2 134.9 134.4 135.3 134.9 134.4 131.9 130.5 131.2 132.1 132 131.8 131.1 129.9 129.8 128.6 127.9 127.4 126.9 127.4 126 126 128.1 130.1 131.4 131.6 128.9 129.4 130.6 129 126.1 128.5 129.1 128.8 129.4 127.5 127.4 126.9 125.1 124.5 123.4 122.8 122.2 121.8 120.4 120 119.9 119 118.4 118.4 117.9 117.7 118.1 118.5 119.1 120 118 118.9 119.2 119.6 120.1 122.4 125.3 127.7 129.9 130.9 132.8 134.8 137.1 139.2 141 142.4 143.4 144.3 145.2 145.9 146.8 148.1 148.9 146.1 148.3 154.5 158.2 161.1 164.1 166.6 169 170.4 171.8 173.3 175.1 176.5 177.3 178.4 179.4 180.7 182.1 184.6 188.3 193.1 198.1 202 204.9 207.3 208.9 210.2 211.8 213.2 214.2 215.9 219 220.1 223.2 224.6 229.5 231.6 233.9 235.5 234.8 238.8 234.1 214 214.9 220.9 233.1 249 267.9 294.5 313.7 323.6 340.5 352.7 350.5 347.5 344.1 344.2 345.5 343.9 342.2 339.1 335.9 333.7 330.6 330.9 335.7 337.7 344.2 353 351 348.2 352
159.5 160.6 161.5 161.9 162.5 162.3 161.9 162.2 158.6 155.7 151.7 153.3 153.6 156.4 157.5 156.8 157.1 157.4 157.7 157.7 158.9 159.6 159.3 159.8 161 160.4 160.6 163.6 164.1 166.1 165.2 164.4 163.3 163.2 160.2 158.3 155.9 154.8 152.3 149.2 147.2 143.9 141.5 141.7 139.9 139.8 139.4 139.7 140 138.9 137.6 135.1 132 131.2 131.7 133.8 129.8 130.1 130.8 130.8 131 130.3 129.3 129.1 128.5 127.3 126.8 126.1 126.2 126.6 126.6 126.2 125.4 127.6 129.7 129.3 128.9 128 125.9 127 128.1 127.6 127 127.5 126.7 126.5 126.4 124.9 124.7 124.5 122.2 120.7 121.4 121 120.7 120.5 120.2 119.8 118.5 118 117.7 117.5 117.6 117.8 118.4 117.9 118.3 119.4 119.2 120.8 124.5 127.4 130.4 132.7 133.7 135.1 137.4 139.7 141.3 142.6 143.9 144.8 145.4 146.3 147.5 148.6 149.5 151.7 153 153.1 155.1 154.4 155.9 159.2 162.5 165.5 167.5 169.1 170.4 172.3 174.5 175.6 177.1 178.4 179.7 181.1 183.5 186.9 193.1 198.1 200.9 203.7 206.2 208.4 210.3 211.6 212.9 214.7 217.7 220.1 222.3 224.6 224.7 229.8 234.5 238.4 241.4 241 243.7 244.5 233.1 215.5 214.8 223.5 238.2 250.3 271.5 293.5 306.7 320.3 331.8 339.9 342.1 341 335.7 337.5 337.3 334.9 334.5 334.2 331.5 328.2 323.9 322.5 324.1 322.7 327.6 334.4 338.2 334.3
157.9 158.1 158.5 158.3 159.2 160.1 157.9 157.4 157.6 156.4 154.6 149.8 146.8 152.2 153.7 154.1 153.5 152 153.3 153.5 155 155.6 156.3 156.7 156.7 157.6 159.3 163.5 163.6 168.9 166.8 163.1 160.2 160.3 159.6 158.3 156.5 155 153.3 151.3 148.7 146.4 144.4 144.5 143.6 140.6 135.9 136.6 136.9 138 138.7 139.4 138.6 136.9 132.5 130.2 129.6 130 129.9 130.2 130.4 129.6 128.8 128.5 127.7 127.6 127.2 126.9 126.6 125.7 126.9 126.5 125.9 127.5 128.8 126.2 126.4 125 126.1 125.5 125.3 125.8 125.4 125.5 125 124.2 123.8 122.9 123.7 123.2 122.4 121.1 121 120.3 119.8 120.3 120.1 120.1 119.2 118.7 118.3 118.1 117.5 117.5 117.5 117.9 118.3 118.5 119.7 122.5 126.2 129.6 132.6 135.2 136.1 137.2 139.1 141.2 143.2 144 145.3 146.1 146.4 147.3 148.4 150.1 151.5 153.3 153.8 155.8 157.7 158.8 160.7 162.3 162.2 161.4 163.2 165.6 168.4 170.3 172 173 174.5 175.9 177.3 179.5 181 184.4 190.7 195.3 198.3 202.1 204.6 207.2 209.4 210.5 211.5 214.8 218.7 219.5 221.3 219.5 224.1 232.5 233 234.2 239.2 244.4 246.9 250.7 248.6 230.8 225.9 221.9 226.3 237.9 250.9 266.2 291.3 301.1 308.6 318.9 325.1 328.5 328.2 330.6 330.9 330.7 329.5 330.4 329.1 325.4 321.3 317.6 314.9 312.6 310 311.9 311.5 312.5
155 155.9 155.6 156 157.9 160.2 157.6 152.8 151 149 151.1 149.4 151.7 145.1 145.8 146.3 146.1 146.6 148.3 149 149.9 150.6 151.3 152.3 152.2 153.7 157 163 158.6 160.2 165.7 165.6 157.3 156.2 157.6 156.7 156.4 154.9 152.7 152.3 150.1 148.5 147.3 145.3 143 141.4 138.3 134.3 133.6 133.4 134.5 135.8 137.4 137.3 136.5 132.1 129.4 129.4 129.1 129.2 129.5 129.3 128.2 127.9 127.3 127.2 127.1 126.6 124.7 124.6 126.3 126.5 126.1 128.7 127.2 125.9 125.5 125.1 124.9 125 124.3 123.6 123.4 123.6 123.3 122.4 121.7 121.5 121.3 121.2 121 120.6 120.9 120.9 120.7 120.5 120 119.3 118.2 117.6 118.1 117.9 117.7 117.4 117.2 117.7 117.6 118.4 120.6 123.8 128.1 131.4 133.8 135.5 137.4 139.6 141.2 142.4 145.1 145.8 145.7 146.6 147 148.1 149.2 150.6 153.5 155 155.6 157.5 159.3 161.5 163.5 164.6 165.2 165.6 164 166.7 167.4 168.3 169.3 171 172.6 174.5 176.6 178.2 179 182 186.4 191.9 195.8 199.2 202.5 205.1 207.9 209.2 210.3 212.9 216.3 218.3 217.1 217.4 219.9 222.9 228.8 232.1 235.7 240.7 247.1 260.5 257.8 239.4 240.5 236.8 229.3 225.3 239.3 253.6 277.9 286.4 291.7 300.8 313.1 312.7 312.3 316.5 319 321.7 324.5 323.9 324.6 324.1 321.2 317.2 312.4 308.9 306 302.9 304.9 305.7
153.3 153 153.9 153.5 154.7 154.9 154.3 152.6 151.7 145.7 143.6 143.5 143.2 143 143.1 141.9 140.3 140.1 141.4 141.2 142.2 144.3 146.6 148.7 148.9 149.9 149.4 152 151.2 152.5 153.9 155.1 150.3 147.5 152.3 154.6 155.2 153.3 152.4 151.3 149.7 149.4 147.4 145.9 144.3 141.8 138 136 133.7 131.3 129.8 130 131.1 132.7 133.9 134.3 131.8 128.4 128.4 128.4 128.7 128.2 127.6 127.3 127 126.9 126.7 125.7 124.5 124.8 125.7 126.3 128.7 125.7 124.9 124.2 123.9 124.4 124.5 124.6 123.9 123.3 123.1 122.6 122.2 121.8 121.7 120.8 120.6 120.8 120.8 121 121.2 121.2 120.9 120.5 120 119.2 119.2 118 117.8 117.6 117.2 117 117 117.2 117.6 118.2 121.6 125.4 128.2 131.2 133.4 134.4 136.7 138.5 140.5 142.3 143.4 144.3 145.5 146.7 147.8 149 150.3 152.1 154.1 156.2 157.5 159.3 161.6 163.5 165.8 166.8 167.3 166.9 167.4 168 169.6 171.1 172.1 173.4 174.7 176.1 177.8 179.7 181.9 183 185.4 185.8 188.6 191.7 197.6 201.8 204.2 205.2 203.1 204.8 210.6 211.7 214.8 217.8 220.4 223.4 228.1 236.8 242.8 245.8 253.3 272 273.3 252.4 254.5 249.8 245.4 237.4 228.4 247.2 263.5 271.3 278 284.3 293.5 299.7 304.7 303.2 304.2 305.3 307.8 311 314.9 316 317.2 315.5 312.1 307.4 303.4 301 302.5 302.6
152.4 152.1 151.3 151.3 152 152.3 152 151.2 147.2 149.7 148 147.2 143.4 144.7 147.3 145 144.5 141.5 140.6 137.9 137.8 138 139.7 143.7 145.4 147 150.7 144.6 145.6 146.6 147.5 146.8 148.5 147.2 142.1 145.5 148.7 150.1 150.8 150.6 148.6 146.3 145.8 144.7 143.4 143.4 139.4 139 136.7 131.1 129.6 128.9 128.3 128.1 129.6 131.4 130.6 128.9 128 128.1 128 127.5 127.2 126.8 126.7 126.7 126.5 125.7 124.8 124.9 125.1 128.6 125.9 123.4 121.9 122.1 123.4 123.8 124.2 124.2 123.4 123.1 122.8 122.6 122.1 121.2 121.1 120.2 121.2 120.6 120.4 120.5 119.5 119.5 119.6 120.4 120.1 119.6 119 117.6 117 116.5 116.4 116.9 117.1 117.5 118.2 119.4 122.9 125.3 128.5 130.2 131.7 133.4 135.7 136.9 138.5 140.5 141.2 143.5 145.3 147 148.3 149.7 151.5 153.4 155.7 157.6 159.3 161.1 162.8 164.5 166.9 168.2 168.4 168.8 169 169 170.5 171.8 173.1 174.3 175.7 178 179.7 182 184.2 187.1 190.5 191.2 194.5 196 195.9 195.2 198.4 202.9 203.8 206.9 213.1 216.9 220.3 222.3 226.9 229.7 231.1 234.6 240.4 246.5 260.2 284 289.5 274.1 270.5 265.9 259.4 252.7 244.2 232.2 236.8 245.2 256.8 276.6 279.9 285.8 294.3 297.4 298.5 297.3 297.1 298.6 299.5 301.6 304.4 305.6 306.1 305 301.8 298.8 296.6 296.8
151.6 152.7 151.5 149.7 149.2 149.7 150.2 148.8 149.1 151.8 150.9 150.2 147.9 148 147.4 144.1 143.8 142.2 141.5 142 139.5 137.4 136.2 137.7 141.1 142.5 143.7 146.1 146.4 144.9 142.3 145.4 148.4 148.2 144.5 141.1 139.4 142 147.4 146.6 142.1 141 142.4 141.6 141.7 140.9 139 138.4 133.8 133.4 135.4 129.1 128 127.5 127.8 128.7 129.6 129 127.8 127.9 128 127.4 126.9 126.6 126.5 126.6 126.3 125.6 124.9 125.5 128.5 124.8 124.2 123.4 121.6 121.7 121.8 122.7 123.1 123.3 123.1 122.9 122.6 121.8 121.5 121.3 121.7 122.1 121.4 120.2 120.2 119.9 119.8 118.2 118 119 119.5 119.1 117.8 117.7 116.6 117.2 116.5 116.6 116.9 118.2 119.1 121.2 123.1 124.8 127.9 129.5 130.8 132.6 134.5 135.4 136.6 138.7 140.3 142.6 144.7 146.7 149 150.7 153.1 155.1 157.7 159.6 161.7 162.7 163.9 165.5 166.8 168.1 169.2 169.7 169.6 169.4 171.2 172.6 174 175.3 177.1 179.9 182.1 185.5 188 190.1 193.6 196.6 197.7 199.9 201.9 199.7 205.9 206.8 210.8 213.9 215.8 214.9 219.1 222 227.2 230.6 235.4 239.2 242.7 251.7 266.7 288.8 304 299.7 291.4 288.4 281.3 273.7 261.9 254.5 249.1 259.2 249.7 255.3 271.3 276.9 283 283.3 290.7 291.5 292.4 291.6 291.6 293.7 294.6 295.2 295.7 296.2 297.3 296.4 295 293.2
150.4 150.6 149.5 146.9 145.6 145.2 144.9 147.5 149.2 149.3 148.8 148.1 147.4 146.2 145.1 143.6 139.7 138.4 138.1 138.4 138.4 138.4 136.3 135.2 136.1 138 139.6 139.3 138.7 138.5 138 140.9 142.5 142.5 140.3 141.9 143.5 137.6 138.2 138 137.3 135.7 135.1 134.5 136.2 136.1 136.8 135.5 133.6 134.8 133.8 131.1 131.1 130.7 130.8 128.2 127.8 127.9 127.9 127.6 127.8 127.2 126.8 126.3 126.2 126.4 126 125.4 125.6 128.5 124.7 123.6 123.6 123.8 123 122.8 121.9 121 121.6 121.7 121.2 121.4 121 120.6 120.3 120.7 120.7 121.7 121.5 121.1 120.6 119 117.9 117.3 117.4 119 118.8 119.2 118.2 116.8 116 116.1 115.6 116.3 117.1 118.2 120.7 121.5 122.2 125.3 127.4 128.6 129.8 131.3 133.4 134.4 135.7 137.2 139.9 142.6 144.9 147.1 150.8 153.8 155.1 157.6 160.2 162.9 165 164.8 164.9 166.1 167.3 168.6 169.3 169.9 169.7 170.3 171.6 173 174.4 176.1 178.4 181.9 184.9 189.3 192.8 195 197 200 201.3 202.5 204.3 206 202.2 210 211.1 214 217.4 220.3 219 222.4 227.2 232.2 239.9 245.5 254.2 264 277.7 294.8 319.4 328.8 318.6 315.2 307.7 299.1 289 276.1 267.3 276.2 267.4 273.4 271.3 262.6 272.1 278 280.4 280.9 285.5 287.5 287.7 288.2 288.7 288.8 289.7 287.2 286.9 288 288.4 290.9
145.8 145.3 144.9 144.2 142.9 141.7 141.4 141.7 145.1 146.5 146.5 145.9 145.1 144.1 142 137.3 136.7 136.1 136 137.2 136 135.3 135.3 132.9 134.4 134.8 137.2 136.6 141.3 137.8 136.6 137 137.7 137.5 135.7 133.4 136.2 137.9 135.3 134.1 134.2 133.7 132.3 131.3 131.5 132.2 133.3 132.5 133 131.7 130.9 131.5 131.6 132.4 132.5 132.1 130.3 128.4 127.9 128.2 127.7 127.3 126.7 126.1 125.9 125.9 126.6 125.4 128.2 125.5 124.2 123.6 123.4 123.6 123.1 123.1 123.7 123.6 121.8 121.5 121.2 122.2 122.3 122 121.8 120.7 119.8 120.2 120.9 121.2 120.9 119 117.3 117 116.8 119 118.6 118.2 117.8 116.2 116.4 115.9 117.1 117.7 118.3 118.6 120.1 121.4 122.6 124.8 127.1 128.2 129.1 130.1 131.7 132.9 134.2 135.9 139.7 142 144.3 147.1 150.1 152.9 156 159.9 163.2 165.6 165.8 165.4 165.1 166.5 167.9 169.1 169.9 170.5 171.2 171.2 172.3 173.8 175.2 177.3 180.9 185 189.1 193.6 197.4 199.9 201.3 202.8 203.3 204.5 206.3 207.9 205 205.5 213.5 216.1 220.1 222.3 225.4 228.7 228.7 233.7 239.8 248.4 258.5 272.2 292.4 311.6 336.6 344.1 350.9 344.8 341.5 329.6 309.3 301.1 292 286.2 278.4 277.6 276.5 276.4 275.9 277.7 276.7 277.3 279.1 281.4 283.4 284.7 285 285.4 285.3 285 285.2 285.9 284.6 283.4
144.9 144.4 142.6 144.6 142.7 142.2 142.2 141.1 140.4 142.1 142.4 141.8 142.5 141.9 139.8 137.4 135.7 134.1 134.1 135.1 135.4 132.8 133.3 132.2 135.3 133.5 135.1 135.8 135.6 136 135.8 136 136.9 139.3 141.9 136.8 134.9 132 132.5 133 131.9 131.5 131.4 130.9 130.9 130.1 129.5 128.6 129.5 128.2 127.2 127.3 127.8 128.4 130.2 130.9 130.4 129.6 127.2 127 127.8 126.9 126.3 126.1 125.9 125.5 126 128.1 125.4 124.2 124.3 123.8 123.5 123.5 123.9 123.3 122.5 124 123 122.5 120.5 122.4 122.8 122.5 122.1 121.4 119.7 118.6 118.5 118.7 118.5 118.9 117.8 117.1 117 117.2 117.1 116.1 115.9 115.9 116.2 117 117.5 119.3 119.5 119.8 121.3 122.6 123.8 125.6 126.7 127.5 128.7 130.2 129.8 130.5 132 134.6 138.4 141.5 144.2 147.4 150.4 153.9 157.1 162.1 164.9 166.2 166.1 166.2 165.6 166.6 168 169.2 169.5 170.6 171.2 172 173 174.7 176.7 179.1 182.8 186.9 193.1 196.9 199.5 201.5 203 204.6 205.4 206.5 208.3 209.9 211.5 206.7 209.3 214 219.6 223.4 227.4 229.9 233.4 237.3 245 255.2 267.8 283.8 303.1 324 361.6 361 351.8 348.4 343.5 332.6 328 323.4 311.5 303.1 292.5 286.5 285.2 286.4 282.3 283.3 282.3 280.7 281.7 282.2 282.5 283.4 283.4 283.5 283.3 283.5 283.8 283.6 282.8 281.7
141.5 141.7 139.9 140.9 139.7 140.9 140.6 139.2 140.3 140.2 139 138.3 138 137.5 137.2 136.2 134.2 134 133 132.3 132.3 131.4 130.7 133.4 133.2 134.4 134.4 134.2 134.8 134.9 134.7 135.1 135.5 135.1 137.5 138.3 134.8 132.9 131.2 130.3 129 128.5 128.2 129.3 129.3 128.2 128.4 129.2 128.5 128.1 127.8 128.4 127.3 127.2 126.9 128.4 127.3 128.1 126.2 127.8 126.6 126.9 126.2 126 125.8 127.3 127.7 125.5 124.4 124.4 124.4 124 123.7 123.9 124 123.3 122.8 123.4 122.9 122.4 120.6 121.1 123 122.6 121.4 120.2 120.1 119.9 119.7 119.2 119.4 119.2 121 118.1 117.7 116.5 115.8 115.9 115.8 115.6 116.1 117.6 118.4 120 120.5 120.2 121.2 124.6 125.9 126.9 127.2 128.1 129.3 129.4 129 129.2 130.3 133.1 136.5 140.9 143.7 146.9 150.1 153.6 157.2 161.7 164.7 166 167 166.9 166.3 166.8 167.8 168.6 168.4 169 170.6 171.6 172.7 175.2 177.7 181 184.1 189.4 195.1 198 200.4 202 203.9 204.7 206.4 207.8 209.1 210.4 212.1 214.1 212.4 212.8 216.3 219.8 222.8 229.5 234.8 238.8 249.2 260.2 280.9 297.8 315 340.6 368 371.4 364.2 354.3 347.8 342.3 333.9 327.8 322.4 314.8 308.3 300.1 299.6 298.2 295.2 291 287.3 288.6 291.3 289.8 285.8 284.8 284.5 283.2 283 282 281.2 282.1 280.6 280.2
136.1 136.4 135.9 137.8 136.8 133.9 133 135.3 138.3 138.4 138.9 137 134.1 130.2 130.9 131.3 133.7 133.4 133.5 131.5 132.1 129.5 130.1 130.7 135.2 135.5 135.6 135.3 134.5 134 133.1 133.5 133.6 133.5 132.7 132.9 132 130 129.1 129.4 129.4 129.5 129 128.5 127.9 127.4 127.4 126.7 127.2 127.1 127.2 127.1 126.1 126.2 126.7 126.2 126.5 126.2 125.7 126.5 126.4 126.2 126.8 126.9 127.7 126.8 125.2 124.5 124.4 124.5 124.5 124.2 124 124.9 124.7 123.1 122.6 122.4 122.5 121.5 121.2 119.6 121.3 121.8 120.8 120.5 121.4 120.1 120.5 120.5 120.6 119.1 119.2 118 117.9 118.8 116.7 115.7 116.6 116.1 116.3 118.7 120.1 118.9 118.3 119.2 122.2 126.3 127.7 127.6 127.6 127.6 128.2 128.7 128.5 128.3 128.9 131.1 134.4 138.8 143 146.5 149.9 153.5 156.9 160.9 164.1 165.2 165.8 166 166 166.1 166.8 167.2 167.4 167.6 169.1 170.4 171.8 174.2 177.5 180.8 185.9 190.8 192.6 196.5 198.4 199.7 202.6 203.9 207 207.9 209.4 210.8 212.8 215.4 217.5 216.1 216.3 219.8 224.9 229.2 234.2 239.9 247.8 260.6 281.3 306.3 331.6 361.6 378 378.8 373.1 363 356.6 350.4 340.5 333.9 327.6 320.8 315.1 309.6 306.8 303.9 298.5 296 291 296.3 294.4 290.6 289.2 289.4 288.7 285.9 285.1 283 281.7 280.6 278.8 277.2
132.9 132.5 132.3 132.6 131.8 129.5 128.3 129.2 129.9 130.2 131.9 133.4 130.6 130.3 130.9 129.2 127.4 130.8 130.8 131.9 129.6 127.2 128.3 130.4 133.9 135.3 136.2 137 135.6 134.7 135 133.8 133.4 131 130.5 130.3 130 130.5 131.8 135.2 132 130.7 129.9 129.8 130.9 131.1 129.1 128.7 126.8 126.3 125.8 125.6 124.9 124.8 124.4 126.7 127.1 125.7 127.2 125.9 125.5 125.9 127.6 127.5 126 125.2 124.7 124.2 124 124 123.8 124.2 124.5 126.3 125.3 123.6 122 121.5 120.4 121 120.4 119.9 118.8 118.9 121 121.3 120.9 120.2 119.6 119.2 119.1 118.2 118.2 118.5 119 119.1 118 117.6 118.1 118 115.6 117.1 118.2 117.5 118.7 120.9 124.3 127 127.2 127.1 127.7 127.6 128.5 128.2 128.1 127.9 128.2 130.1 132.9 137 141.2 144.3 148.6 152.2 155.1 159.3 163.3 164.3 163.5 164.1 164.8 165.2 165.4 166.3 166 166.8 168 169.3 171.1 173.4 176.7 181.6 187.4 193.8 198.3 199.4 202.6 203.4 204.2 205 206.7 208.5 209.8 211.7 214.2 216.9 219.5 221.2 221.8 224.5 225.6 230.8 234.5 240.9 249.9 263.2 285.1 310.9 335.7 366.2 389.5 384.6 384.1 387.8 376.2 360 350 338.7 332.8 326.1 318.4 320 315.7 313.6 312.4 299.3 308.3 306.3 301.9 295.9 296.4 295.1 292.2 289.6 288.1 285.5 283.5 282.7 280.8 279.4
131.7 131 130.6 132 131.9 132 134.3 132.5 129 125.1 124.7 124.8 127.8 131.4 129.1 125.3 125.1 128 130.4 129.1 127.2 126.5 127.1 128.1 130.4 132.6 134.5 135.1 134.8 134.5 135.3 136.3 136.3 135.4 134.3 131.8 130.3 132.5 133.2 133.4 131.5 132.1 131.3 132.3 132.2 132.3 131.2 129.6 128 128 127.7 126.9 125.3 124.6 124.1 125.2 126.4 125.3 132.6 125.7 126.9 126.2 124.9 125.6 124.6 124.5 124.4 124.2 123.8 123.7 123.2 123.3 123.9 124.4 122.8 121.9 120.1 118.5 117.2 117.3 118.9 119.3 119.2 119.9 120.6 119.5 119.8 119.6 118.4 117.9 119 117.7 118.3 116.6 117.4 118.7 116.8 117.4 117.3 116.9 115.7 116.4 117.7 119 121 122.9 125.6 126.5 126.5 126.5 127.4 127.9 128.2 127.8 127.6 127.5 127.9 129 131.3 135.6 140 143 147 150 153.2 157.7 161.2 162.7 161.4 161.3 163.2 164.9 164.9 165.6 165.5 166.5 167.4 168.7 170.3 172.6 177.1 182.5 188.6 194.2 199.6 202 204.1 205.5 206.5 207.1 208.3 210.1 211.4 215.2 218.3 220.7 223.1 225.1 227.1 228.3 229.9 233.5 239 244.5 253.5 265.4 288.8 312.6 335.7 363.4 390 393.9 381.2 384.5 386.3 382.3 363.7 351.4 341.7 332.2 323.6 317.5 314.9 312.3 310.9 312.1 313.3 311.3 311.6 304.7 304.4 302.2 300.3 298 294.7 288.7 287.3 285.6 283.3 281.6
133.9 133.4 131.7 132.1 133.6 133.9 132.7 131.8 131.3 126.3 126.1 123.9 124.5 126.6 125.9 123.9 124.1 123.3 125.4 125.9 124.7 125.9 126.6 129.1 128.7 130.6 131.7 133.5 133.9 133.8 134.1 135 135.8 134.8 135.4 136.5 134.5 133.5 132.5 133.4 134.4 134.9 134.2 132.6 131.7 130.2 130.1 129.1 128.6 128.7 127.7 126.6 125 125.2 126.1 125.7 126.1 126.5 126.6 125.2 125.1 124.8 125.6 124.3 124.2 124.1 124 123.6 123.1 123.7 123.7 123.1 122.5 122.2 121.8 121.3 119.1 117.3 116.8 117.1 118.7 120.6 118 119.1 120.3 119.3 117.9 117.6 117.9 118 118.8 118.1 118.7 117.3 116.7 116.3 114.8 115.2 115.4 115.3 116 117.9 118.2 121.6 123.2 123.9 125.7 125.7 125.8 126.2 127.1 128.1 127.8 127.4 127.2 126.6 127.4 128.7 129.8 132.8 139 142.5 144.7 147.6 151 155.7 158.4 160 159.7 159.6 161 164 164.3 164.8 165 166 166.7 167.9 170.6 174.4 178.2 184.8 191.8 197.7 200.9 203.1 205.2 206.7 207.8 208.7 210.6 211.3 213.7 216.7 218.8 220.7 224 226.9 229 231.2 232.7 234.5 239.4 246 254 265.2 285.7 313 336.1 358.9 386.4 393.8 387.8 378.2 375.2 366.7 361.2 353.3 350 341.8 333.3 326.8 322.3 316.5 321.9 324.2 324.4 321.8 320.6 318.2 316.8 313.4 310.2 305.9 296.1 299.2 295 292.9 289.1 284.7
133 135 133.6 131.7 132.6 131.6 130.9 130.3 126.7 130.8 131.2 129.5 123.6 123.8 124.4 124.1 122.8 121.2 121.8 123.5 123.4 124.9 125.9 130.1 128.4 128.2 127.8 128.8 132.2 134.5 135.4 135.1 135 135.3 136.4 135.5 134.3 133.5 134.7 135.6 133.7 129.6 126.8 124.9 124.5 124.5 125.1 125.3 125.4 125.4 125.4 125.7 125.8 125.9 125.9 125.5 124.2 126.2 127.6 125.1 124.8 125.5 124.4 124 123.7 123.3 123 122.7 123 123.8 122.9 122.2 122 122.5 123.8 121.4 118 116.8 116.7 116.8 117.3 120.2 118.8 118.3 118.9 118.9 117.6 117.7 117 115.7 116.2 116.9 117.3 116.6 116.1 117.2 115.1 115.1 115.4 115.9 116.9 117.2 117.5 121.6 124.3 125 125.7 126 125.9 126 126.4 126.9 127.1 127.1 126.5 126.2 126.7 127.4 128.2 130.7 138 141.4 143.5 146.6 150 152.8 156.1 157.4 157.6 157.9 159.3 162.2 162.9 163.3 164.2 165 166.7 167.7 171.1 174.6 178.5 185.4 192.6 197.9 201 203.2 206 208.1 209.3 210 211.4 212.8 214.3 215.9 217.9 221.1 224.9 226 228.7 231.4 235 238.9 242.2 248 256.8 267 285.4 310.8 334.5 360.4 389.1 397 396 385.5 381.3 378.4 363 349.8 343.1 339.9 337 332.8 327.5 323.4 320.5 322.3 322.9 322.5 323.3 323 321.6 318.3 314.2 306.8 304.3 303.8 303.2 301.2 294.8 292.7
128.6 133.5 133.8 132.2 131 129.8 128.8 125.9 125.5 127.7 128.7 127.5 125.1 122.9 122.3 121.8 121.8 120.6 120 121 122 121.7 122.1 124.2 124.5 126.2 129.7 132 131.1 134.9 136.1 136.1 135.3 135.5 135.9 135.2 135.1 133 128.1 123.8 123.9 126.3 132.5 135.1 135.4 135 135 133.9 134.5 132.9 131.1 128.3 125.4 125.4 124.1 125.2 124 131.8 124.9 125.1 126.5 126.8 124 123.9 123.4 123.1 122.8 122.5 122 122.5 121.4 121.1 121.2 121.3 122 119.2 118 117 116.8 116.8 118.7 120.2 120.4 118.2 116.4 117.7 118.1 117.8 115.3 115.3 115.2 114.9 114.3 114.3 114.8 115.7 115.5 115 115.1 115 116.2 117 118.9 121.8 124.4 126.2 126 127.2 127.4 127.9 127.2 127.2 127.1 126.1 125.9 125.9 125.7 126.3 127.1 129 135.2 139.1 142.2 146 148.2 150.8 152.3 154.3 155.9 156.6 157.8 159.6 160.7 161.4 163.2 164.7 166.6 167.6 171.3 175 179.2 184.7 192.2 197.1 200 203.1 206.2 208.1 209.3 209.1 211.9 213.2 214 215.2 217.6 220.3 223 224.8 228.9 231.6 234.8 238.7 243.8 251.6 265.7 282.6 296 313.6 335.5 363.6 392 402.4 400 394.2 381.3 368.2 362.2 361.1 347.7 340.2 334.7 331.3 328.6 326.7 324.2 324.9 324.5 324.2 324.4 324.1 323 317.8 311.9 317.9 317 312 308 304.4 301.4 298.1
127.8 130.3 131 131.1 130 127.9 126.2 127.7 129.3 125.1 123.9 124.4 123.1 122.6 122.6 122.1 121.8 121.2 121.7 120.2 120.4 121.4 120.9 120.5 123 123.3 125.6 126.6 129.4 133 132 134.9 134.7 134.5 134.9 132.3 124.3 123.1 127.3 132.2 136.8 138.1 138.4 136.8 137.2 138.2 137.5 138 137.1 134.9 132.3 129.6 126.8 125.3 125.4 124.4 126.7 124 124.3 125.1 126.2 127.1 125 123.9 123.2 123 122.7 122.3 122 121.9 121.6 121.2 121 120.9 121.5 119.6 118.4 117.8 117.7 118.1 120.7 122.4 121 117.2 115.4 117.5 115.7 113.7 116 116.5 117 116.5 117.1 114.6 114.6 114.6 114.2 115.4 115.7 115.4 115.4 117.1 120.8 123.9 125 126.1 126.4 127.5 128 128.4 128.4 128.2 128 126.6 125.3 125.1 125 125.3 126.4 128.4 133 137.1 140.3 143.6 145.8 147.4 148.7 150.5 153.3 154.9 156 158.1 158.6 161 162.3 164.5 166.3 168.6 171.5 175.4 179.8 184.8 190.6 195.6 198.6 201.6 204.6 207.2 208.3 207.7 210.4 209.1 210.2 212.9 215 217.4 221.2 224.2 227.8 231.2 235.8 240 244.8 251.8 265.4 284.4 300.5 316.1 336.6 365.6 392.8 398.7 397.5 391.1 383.4 371.6 367.1 368.3 374.4 359.3 347.6 337.1 329.1 328.1 329.1 329.7 328.4 327.5 326.2 325.4 320.9 321 325.8 325 320.6 317 313 309.6 306.1 302.5
125.9 129.2 128.5 128.1 127.7 126.5 126.9 130.8 130.7 129.9 126 122.6 122.1 124.1 122.8 122.7 122.4 122 121.7 121.1 120.5 121 121 120.1 120.1 122.2 121.7 121.9 122.6 124.9 129.3 131.3 132.5 130.8 123.8 122.4 127.1 132.6 131 132.1 139.3 139 137.6 140.4 142.5 143.3 143.1 139.4 138.1 135.4 133.2 129.8 128 127.6 127.1 124.7 125.1 125.6 123.3 124.1 125.2 125.9 124.8 123.5 122.9 122.7 122.7 122.6 122.4 122.2 121.8 121.3 121.6 122.2 122.2 120.8 118.4 118.3 118.7 119.8 123.8 125 120.6 118.5 116.6 114.3 114 114.6 116.7 118.5 118.4 119.3 118.7 116.1 114.9 113.8 114.2 115.3 116.4 116.5 115.8 117 121.9 125.5 127.3 126.5 127.4 128.1 129 128.3 127.5 127.3 126.8 126.4 125.1 124.4 124.4 124.9 126.6 128.1 130.7 134.6 137.9 140.6 142.5 143.9 145.4 147 149.4 151.8 153.3 155.4 158.5 160.2 162 164.1 166.2 168.5 171 176.1 180.2 185.2 189.3 193.8 196.8 199.9 202.3 204.6 202 207.3 211.5 211.3 210.4 211.7 214.2 216.8 221.1 224.7 227.6 230.7 234.6 238.6 244.3 253.6 270.4 285.5 301.8 320.1 338 363.8 394.1 401.7 399.5 395.7 389.8 377.4 380.7 369.6 365.9 372.8 362.5 351.6 341.5 333.9 332.4 334.9 335 333.3 330.5 328.7 325.9 328.3 328.4 326.2 323 319.5 315.4 312.3 308.7 305.5
125.6 125.2 124.7 124.5 124 124.1 125.1 127.3 127.6 124.8 122.6 121.6 122.1 122.4 121.9 121.1 121.1 121.2 121.1 121.5 120.8 120.7 120.7 119.8 119.5 119.6 119.4 120.1 119.7 120.3 121.8 122.7 124.8 122.3 125.7 132.9 131.3 129.7 129.6 130.3 133.5 135.1 134.5 140.7 145.7 145.4 144.6 143.9 142.5 139.7 136.2 133.9 131.6 127.8 126.4 125.2 124.9 120.5 122.9 123.3 124.4 124.9 123.7 123.8 123.2 122.9 122.7 122.6 122.4 122.3 121.7 121.2 121.1 122.6 122.1 121.3 120.2 119.2 117 118.4 122.7 120.6 117.2 116.6 114.1 113.4 113.9 114.2 116.5 117.4 117 119.1 118.6 116.8 114.8 115 115.9 116 116.9 116.4 115.6 118.3 123.5 126 127.6 126.5 126.9 126.9 127.3 126.4 125.9 126.3 125.9 126 125.1 124.1 124 125.6 127.2 127.9 129 132.6 135.6 138 140.1 141.5 142.4 144.1 146.1 148.9 151.1 153.5 156.5 158.9 161.5 164 166.8 168.8 172.5 177.1 181.7 185.4 189.4 192.9 195.6 197.6 198.6 198.6 205.9 208.7 211.8 213.1 214.9 216.3 217.6 220.4 220.8 224 226.9 230.7 234.5 238.6 244.5 252.3 259.4 278.1 301.8 320.8 340.6 367.6 391.7 400.2 399.6 398.5 394.8 387.6 376.5 376.6 369.7 360.1 359 356.5 349.7 342.5 337.9 336.7 334.5 333.5 332.8 329.7 331.4 331.3 329.9 326.1 323.4 319.8 316.7 312.9 310.7 307.6
124.9 124.7 129 125.3 124.2 124.2 123.2 123.2 122.9 123.5 123.8 122.4 122.1 121.1 121.6 121.5 121.8 121.9 121.8 122.6 121.4 121.7 122.6 122.3 120.2 119.7 119.6 119.4 118.4 118.2 119 121.3 122.2 126.2 129.4 127.6 128.3 126.9 129.5 128.3 127.6 127.7 129.8 135.9 143.3 144.8 143.6 141.1 139.1 134.5 134.2 134.1 128.6 127.7 126.4 124.1 123.1 122.9 122.8 123 123.6 124.1 123.7 122.8 124.4 122.6 122.4 122.1 122.2 121.9 121.7 121.2 120.9 120.9 121.7 122.4 120.6 120.7 119.1 115.7 116.2 115.7 116.4 115.2 114.1 112.7 113.5 113.9 115.7 116.5 116.7 117.9 118.4 116.9 114.9 115.1 115.9 117 117.1 117.1 116.3 119.2 122.8 124.8 126.3 124.6 124.2 124.5 124.7 124.5 124.9 125.2 124.7 124 124.2 124.4 123.9 124.8 126 126.8 128.6 129.7 132.6 135.7 137.8 139.6 139.7 140.4 142.9 147.3 149.4 151.8 154.5 157 159.7 163.4 168.6 172.9 174.7 178.3 182.1 185.5 188.4 190.8 192.2 189.9 197.6 201.9 204 207 211 212.4 214.8 217 219 221.7 223.9 227 229.1 233.3 238.1 243.4 249 254.3 264.5 279.1 302.6 322.9 344.7 380.5 400.6 404.6 406.8 405.8 398.9 396.9 388.6 379.6 378.7 378.7 366 354 349.3 346.4 342.6 339.2 335.8 334.1 332.2 332.3 335.6 336.6 333.4 329.8 327.6 323.6 319.4 315.5 311.9 308.5
126.3 124.9 123.7 124 125.1 125.1 125 123.7 126.1 124.8 122.9 122.1 121.8 121.8 122.4 124.9 126.1 125 126 126 124.3 126.1 125.9 124.8 122.4 120.7 120 120.4 120 119 121.4 120.5 122.8 126 125 126.3 125.6 123.6 122.7 125 124.9 125.5 127.2 134 134 136.8 136.4 135.2 134 129.8 128.8 128.2 128 125.8 125.2 124 123.5 123.4 120.2 123.4 123 122.3 123.3 123.3 123.4 121.9 121.7 121.8 121.8 121.5 121.4 121.2 120.2 119.3 121.6 122.9 120.5 119.2 117.4 115.6 115.1 116.3 114.3 113.7 113.1 112.7 113.5 114.4 116.9 116.6 117.3 117.8 119.1 116.8 115.1 115.5 114.6 117.1 117.3 117.3 116.7 121.1 124.7 125.2 125.4 122.1 121.6 122.4 123.2 122.6 123.1 123.5 123.8 122.6 122.6 123.9 123.9 124.1 125.5 126.8 128.1 128.8 130.6 133.1 134.4 135.2 139.6 141.2 144.5 145.8 147.1 150.1 152.5 154.8 157.5 163.5 169.4 175 177.1 179.3 182.2 184.5 184.5 183.5 189.2 194.4 196.9 199.2 201.2 202.5 210.1 212.5 215.1 217.5 219.6 222.3 224.9 227.1 230.1 234.1 239 243.7 250.1 258.1 268.7 289.8 307.6 330.3 357.4 392.3 409.1 412.3 412.6 410.4 405.1 400.1 395.5 389.4 383.2 371.8 369.9 364.6 357 352.8 349.8 344.1 340 336.6 333.9 335.5 339.3 339.5 338.2 336.1 330.2 328.3 326.2 320.2 314.6 309.6
130.2 127.4 125.5 124.4 123.7 123.1 123.3 123.3 122.9 122.7 122.2 122.1 122.3 125.7 128.6 130 129.3 129.7 129.6 128 127.4 127.7 126.7 125.3 123 121.2 120.2 120.3 120.1 121.7 118.8 118.4 118.4 121.9 124.4 124.2 124 122.7 122.8 120.7 122.3 123.6 130.7 134.9 134.6 132.2 131.6 131.2 128.6 127.8 127.5 127.2 125.5 125.5 124.6 124.8 124.6 122.5 119.9 122.2 122.6 123.3 122.1 122.8 121.8 122 121.6 121.2 121.4 121.1 120.8 120.8 121.2 118.8 119.3 120.1 119.1 117.7 115.6 115.6 115.6 115 114.4 113.7 112.8 113.2 113.4 114.7 118.1 117.1 118.5 120.4 120.6 118.4 116.5 114.8 115 117.9 117.6 116.9 116.3 121.8 126.1 125.8 123.7 120.8 120.6 121.5 122 121.2 120.7 121.6 121.2 120.5 120.3 121.2 123.9 123.7 124.7 126.4 127.9 128.4 130 131.5 133.2 137.8 140.3 142.1 144.1 144.7 146 148.6 151.4 153.4 157.5 162.8 170.1 175.9 177.5 179.5 180.8 177.3 186.2 189.4 191.5 194.1 189.3 194.3 199.7 204.4 207.9 211 214.3 217.5 220.1 222.7 224.6 226.8 230.1 233.4 238.8 244.5 254.4 268.4 283.3 297.6 315.8 336.5 367.9 398.9 413.5 418.8 415.1 409.7 405 400.7 399.4 396 394.1 385.1 377.3 377.2 368.7 361 354.9 349.6 345.4 339.5 336.8 339.8 343.8 344.5 344.1 346 341.1 339.1 336.1 330.5 323.1 316.5
132.1 131.3 130.2 128 126.1 124.1 123.4 123.2 122.8 122.6 122.5 122.8 126.9 130.9 131.6 132.7 133 133 131.9 130.1 129 128.9 127.6 125.7 123.7 121.2 120.2 119.7 121.7 120.7 118.6 118.4 118.4 117.8 118 119.9 119.9 119.4 119.5 119.2 120 121 123.2 127.4 130.5 131.1 129.3 127.8 127.4 127 124.8 126.2 124.9 126.8 125.9 123.9 124.5 120.9 120.6 121.9 122.8 122.2 121.7 121.8 122.1 123 122.6 121 121.2 120.3 119.8 119.4 119.2 119.2 119 117.1 116.6 115.8 114.8 115.8 114.4 114.3 113.7 113 112.6 112.8 113.4 114.5 117.3 117.5 119.3 121.7 123.4 120.4 118.3 116.3 113 116 117.4 116.6 116.9 120.1 120.9 121.9 120.8 119.3 119.4 120.5 120.7 119.9 118.2 119.1 118 121.4 119.9 121.3 122.7 122.8 125.2 127.7 128.9 129.7 130.6 131.6 133.4 135.7 138.4 140.1 142 144.4 146.6 149.2 151.4 154.4 158.9 164.9 170.2 173.9 176.3 178.6 172.6 183.7 179.9 180.6 185.9 193.9 197.6 201.2 200.6 199.2 206.5 209 212 215.9 218.3 220.2 221.2 223.3 227.5 232 236.2 240.7 250.8 270.7 289.7 305.9 323.3 348.3 379.5 406.4 416.2 415 414.4 409.5 404.7 403.3 401.9 402.2 396.2 395.9 392.5 381.6 384.9 373.9 364 358.2 349.8 343.1 340.9 342.7 345.5 347.2 348.9 352.2 352.4 349.4 346 342.3 337 329.3
132.6 132.4 133.3 132.1 129.8 127.3 124.7 123.6 123 123.2 126.1 128.8 133 134.2 135.1 135.6 134.9 133.9 133.4 132 130.5 131.2 130 127.2 124.3 121.7 121.6 121.8 121.2 118.8 118.7 118.8 118.6 118.1 117.7 117.3 118.9 119.6 119.1 118 117.9 118.6 119.2 119.5 123 124.7 127.1 126.1 122.2 124.2 125.4 124.9 124.4 121.5 121.9 123.6 124.4 123 121.3 122.2 121.4 122.5 123.2 121.2 121.6 122.1 122.2 122.3 121.5 120.8 120.9 120.8 119.9 118.1 118.6 118.1 117.1 115.6 114.9 114.2 113.8 113.5 113 112.7 112.6 112.9 113.3 114.3 115.8 117.8 118.9 120.4 120.9 120.8 120.1 120.9 116.1 114.9 117.7 116.2 117.2 118.6 117.3 118 119.8 118.5 117.5 117.5 117.5 117.6 116.6 116.3 119.9 121.9 122.4 122.1 122.1 122.9 125.2 128 129.8 131.6 132.6 133.1 133.9 137.7 140.7 143.2 144.6 146.2 147.7 149.6 152.7 156.1 159.9 164.5 168.2 172.6 173.4 175.8 173.5 173 187.1 189.5 192.2 196.5 200.1 203.3 205.6 207.7 205 210.4 212.9 214.3 215.1 217.5 220 222.8 224.6 229.1 234.4 245.4 261.8 279.6 294.7 310.4 330.6 357.9 392.4 413.3 416.5 415.1 408.4 406.3 406.4 405.2 404.6 403.7 401.3 398 397.4 391.4 383.2 385.5 376.3 366.1 356.2 348.8 346.3 343 345.8 347.5 349.6 353.7 355.9 355.3 352 348.9 344.3 337.3
124.7 133.1 136.1 135.4 132.9 130.1 127.2 124.4 123 124.1 129.9 133.4 135.7 137 137.9 136.9 135.8 134.8 134.4 133.2 131.4 131.2 130 128.4 125.7 123.8 122.2 120.8 120.8 121.7 120.1 119.2 118.2 118.5 118.2 118.6 117.3 117.6 118.2 118.6 117.6 117 117.2 117.2 119.3 119 119.3 120.3 119.9 120.3 122.2 123.3 124.1 122.2 118.7 116.5 116.5 118.4 118.1 124.4 125.3 125.5 125.2 121 120 121.1 122.2 121.9 121.8 121.6 121.9 121.7 120.2 119 118.2 117.7 117.4 115.6 115 113.9 113.4 113.2 112.7 112.3 112.4 112.5 113 113.9 115.6 116.5 117.1 118.5 120 120.4 120.9 122.4 116.8 114.1 113.8 113.9 115.6 116.4 115.9 116.7 117.3 116.3 115.8 116.2 116.2 117.1 115.4 116.2 119.2 121.6 123.3 122.5 122.8 124.1 125.5 128.8 131.1 133.5 135.4 136.2 136.1 139.3 141.7 144.2 145.6 147.7 150.1 151.3 154 157.1 159.9 163.5 166.7 170 170.7 168.6 171 180.7 185.4 188.7 192.2 196.3 201.6 205.1 207.7 209 210 208.4 209.3 212 214.8 217.5 220.9 224.8 228.6 233.3 238.5 245.9 257.7 280.6 299.9 316 337.4 362.5 397.4 413.6 423.9 427.2 423.7 412.7 406.9 406.3 405.8 406 406 404.2 405.9 403.1 395.9 384.4 377.4 371 363.2 355.2 348.1 344.6 345.6 347.4 349.9 353 354.6 354 353.1 351.7 346.4 340.4
123.3 123.2 129.3 131.5 133 131.6 127.7 126.7 123.5 123.8 131 134.1 136.8 137.9 138 137.2 136.4 135.5 134.7 133.9 132.4 131.5 130.5 129.5 125.7 123 121.4 121.5 121 121 120.4 118.6 118.5 118.6 118 119.6 119.8 117.5 116.6 115.9 116.2 116 115.7 116.9 115.3 115.6 117.4 117.5 117.6 119.5 120.2 122.8 123.7 122.6 119.1 115.6 114.8 115.6 116.7 119.2 124.7 126.4 122.8 120.8 118.9 118.8 121.4 122.1 120.9 120.9 121.9 121.6 120.9 119.7 118.2 117.5 117.3 116.8 114.4 113.5 113.1 113.2 113 112.4 113.3 112.3 112.9 113.8 115.2 115.7 116.2 117.4 119.2 119.6 120.2 120.7 118.5 116.9 115.3 113.6 113.4 115.9 114.6 114.6 114.6 113.9 113.9 114.7 114.9 114.2 114.6 116.1 117.7 119.9 121.4 123 124.5 126.1 128.4 131.3 131.9 134.9 137.4 138.5 138.4 140.6 142.6 145.1 146.6 149.4 150.3 151.7 154.3 157.6 160.8 162.3 163 162 171.2 168.7 176.2 180.5 183.8 186.7 190.4 195.8 201.4 206.2 209.3 209.2 209.7 211.4 212.3 214.2 215.4 218.3 222 225.9 229.8 234.6 239.9 248.6 260.7 278.8 299.1 320.1 341 372.4 405.9 420.1 425.7 431.4 430.7 426.8 421.3 414.6 408 407.7 405.4 403.9 401.9 399.9 397.8 390.3 380.9 375 367.6 357.8 351.5 347.3 346.1 346.9 348.5 354.3 354.7 355.5 354.5 352.1 348.4 340.5
123.2 122.8 122.4 123.3 124.1 124.6 126.6 127.6 124.4 123.9 128.4 132.5 136.1 136.8 137.1 137.4 135.9 136.3 136.4 134.6 133.8 132.8 131.2 127.4 128 121.7 121.6 121.6 120.8 120.2 119.2 118.3 118.7 118.2 118.1 118.9 119.8 119 117.3 118.2 117 116.1 115 114.8 114.2 113.8 114.9 116.4 115.3 116.9 119.1 120.5 121.3 121.5 118.5 115.6 114.4 115 115.5 116.8 119.6 125.6 122.4 119.7 122.9 123.2 118.2 120.1 118.8 118.5 119.8 120.8 121 120.3 118.2 119.2 117.6 116 114.6 113.6 113.4 113.2 113 112.9 112.9 112.7 113.2 114.2 115.5 116.8 118.4 119.2 118.6 118.6 119.2 120.3 119.2 116.4 117 115.4 113.5 113.5 113.9 112.2 112.4 112.3 112.3 112.4 112.8 112.8 113.4 115.6 116.7 118.2 120.9 124 126.5 128.5 131.5 135.2 135.9 135.7 137.7 138.5 139.4 140.5 142.9 144.5 146.3 148.5 150.6 152.1 154.8 156 155.7 158.2 160.8 166.2 171.4 174 176.3 179.6 182.8 185.4 189.1 193.6 198.5 204.2 207.9 208.2 208.6 210.8 212.9 215 216.4 219.2 223 227.1 231.1 237.1 242.8 250.8 262.2 273.7 291.6 317.2 346.6 378.7 406.8 420.4 427.6 431.4 430.3 426.1 421.9 416.6 411.6 409 408.1 405.4 404 400.3 399.7 390 373.9 363.7 362.2 355.6 352.9 350 347.8 347.3 348.2 354.4 356.1 355.9 355.4 352.7 347.6 339.5
123.4 123.3 122.2 122.2 122.2 123.8 122 122.4 122.7 123.4 126.3 129.5 131.9 133.1 134.3 136 136.2 136.1 135.1 135.3 134.5 133.3 130 127.9 124.8 122 122.7 122.3 120.4 119 118.1 118.5 118.3 116.8 117.3 118 119.3 118.3 117.9 117.4 117 117.4 116.9 115.6 114.4 113.2 113.9 114 113 114.9 117.5 117.2 118.5 118.4 116.8 115.9 115.3 115.5 115.1 115.3 115.9 118.9 121.8 122.7 123 121 116.7 118.6 117 116 116.7 117.1 118.6 119 117.9 117.6 119 117.1 114.2 113.4 113.3 113.1 112.6 112.3 112.6 114.5 114.1 114.9 116.8 117 117.9 117.9 118.9 117.8 118.8 119.6 118.7 114.2 114.2 113.3 113.4 113.6 112.8 112.9 111.4 111.6 111.8 111.7 112 112.1 112.7 113.5 115.8 118.8 121.5 125 128 130.8 135.2 137.7 137.5 137 137.6 138.5 139.2 140.1 141.8 143.6 145.4 147.4 148.3 148.9 152 155.4 159 163.2 166.9 168.7 171.5 174.3 176.4 179.8 182.3 184.8 187.4 190.7 195.3 198.7 203.4 205.9 205.3 207.3 211.7 214.3 215.5 219.4 223 226.9 232.7 236.8 242.5 251.6 265.8 279.1 292.7 314 342.5 377.6 407.2 419 425 430.7 429.8 426.5 422.7 417.4 412.6 410.4 409 406.6 405.7 402.4 399.7 388.7 376.3 377.5 376.5 368.4 357.4 350.5 349.4 349.1 347.2 351.2 354.6 353.7 353.7 353.3 350.2 342
123.7 123.1 123.2 122.2 123.6 122.6 121.9 121.5 121.7 121.8 123.5 126.7 127.2 127.7 130.1 132.9 134.7 135.1 136.5 134.8 132.7 131.8 128.9 127.6 121.7 124 124.8 122.6 119.1 118 118.2 117.9 117.3 116.4 117.3 117.4 118.1 118.3 118.1 116.6 117.5 116.5 117.1 116.5 115.7 114 113 112.6 112.4 113.2 115.1 116.5 116.7 116.1 116.7 116.5 116.1 116.1 115.7 116.6 117.8 118.4 117.6 116.2 115.8 115.1 114.3 118.5 120.4 116 115.5 115.5 116.1 117.5 117.1 115.7 115.9 115.5 113.5 113.4 113.3 113.1 112.7 113 112.6 115.2 116.1 116.5 116.9 116.6 116.7 116 116.8 116.6 117.3 119 118.7 116 112.9 112.8 113.3 113.6 113.8 112.8 111.5 111.6 111.7 111.5 111.2 111.7 112.3 112.8 115.8 119.4 122.2 125.9 129.6 133.6 137.4 138.5 137.9 137.6 137.5 138.5 139.1 139.7 141 142.6 143.7 145.3 148 152.2 154.5 159.3 164.3 165.3 167.2 169.5 172 173.8 176.9 179.6 182 184.4 185.8 188.7 190 192.4 197.9 199.8 197.9 206 207.3 212.5 215.2 219.1 223.5 228.5 233.5 237.1 245.7 256.3 266.9 285 306.4 327 346.1 376.5 409.1 422.3 424.8 431.6 429.7 426.7 423.6 419.1 413.9 411.4 408.8 408.2 407.2 405.7 401.2 385.5 386.1 381.6 382.6 380.6 370.8 359.1 351.1 348.5 345 342.8 346.8 348.2 347.4 346.1 344.1 339
123.4 122.8 122.4 121.9 122.1 123.4 122.2 121.8 121.5 121.1 120.9 122.3 123.6 124.8 127.9 129.7 129.6 132.1 134.5 132.1 129.5 129.1 128.6 128.6 122.9 123.1 122.5 120.7 118.7 117.9 117.4 116.3 115.9 116 116.3 117.7 119.1 120 118.9 117.2 114.6 115.8 114.9 115.8 115 114.8 114.5 112.8 111.7 113 115.2 115.9 116 115.4 115.6 115.8 113.2 113.4 116.4 116.3 117.9 119.6 118.7 116.9 115.9 114.3 113.7 113.9 116.5 120.1 118.3 116.6 116.2 116.1 115.1 116.4 116.9 116.7 115.4 113.6 113.3 113.3 112.7 112.6 112.8 115 115 116.5 116.6 115.6 114.8 115.4 115.2 116.1 117.1 118.4 118.7 118.2 114.5 112.8 113.1 112.6 112.9 112.7 111.6 111.4 110.7 110.4 111.2 111.3 111.7 112.3 115.7 119.8 122.9 127.3 131.1 133.3 135.1 136 138.1 137.8 137.8 138.4 138.8 139.5 140.7 141.9 143.9 146.9 148.8 151 156.3 162.5 164.6 166.2 168.2 170.5 171.6 173.3 175.7 179 180.9 182.3 184.5 181.3 180.7 183.9 187 190.7 196.3 200.1 205.9 208.2 212.4 216.6 219.8 224.4 230.7 237.6 252.2 261.2 275.4 294.9 320.7 345.5 363.2 382.7 415.1 428.6 428 428.1 429.1 429.3 424.4 420.9 415.3 412.6 407.7 403.7 400.4 395 392.2 394.6 394.7 385.3 385.2 380.9 376.1 370.5 361.7 351.2 344 340.2 338 336.2 334.3 334.7 333.9 329.8
123.2 123.2 122.9 122.9 127.3 126.5 124.1 122.9 123.1 120.5 120.7 121.1 121.8 125.7 126.2 126.5 126.7 127.4 128.9 127.6 127.5 127.7 125.3 121.6 124.2 122.6 121.2 120.2 118.1 117.2 115.9 115.6 115.6 116.1 117.2 117.8 122 119.5 117.4 115.2 113.8 113 113.1 112.3 111.8 113.8 114.1 112.4 112 113 115.8 115.4 114.5 115.2 114.1 112.7 111.6 111.9 113.1 116.6 119.4 119 118.9 117.2 116.2 114.8 113.3 112.6 113.6 114.4 117.7 115.3 117.2 116.7 119.6 119.3 114.4 115.7 115.7 113.8 114.9 116.1 113.3 114.8 115.7 115.3 114.7 116.8 117.8 116.1 114.2 115.5 115.8 116.1 117.1 118.1 118.3 118.8 116.5 114.7 112.6 112.6 112.5 112.2 111.9 111.8 111 110.8 110.8 110.4 111.5 111.6 115.8 119.8 122.7 127.2 129.1 130.9 132.8 135.2 137.9 139 137.7 138.2 138.5 139.2 140.3 141.2 143.5 146.1 148.3 152.8 157.8 160.9 165.6 167.3 168.9 170.2 170 173.1 173.5 176.8 178.4 180.5 178 176.2 186.7 191.3 194.2 196.7 197.7 199 201.6 204.5 207.8 212.1 219.3 224.8 230.7 240.1 255.6 269.6 284.2 304.3 326.6 353.4 375.2 386.1 422.3 439.7 439.9 436.2 428.4 425.5 423.8 421.3 416.1 412.2 408.2 402.1 401.2 403 401.3 399.5 394.6 389.2 387.3 380.6 376.2 371.9 366 360.1 351.1 343.9 336.6 332.4 329 326.4 324.3 320.2
124.2 123.9 124.8 125.7 127.1 126.4 125.7 125.8 125.8 124.2 121.5 120.6 123.2 126 126.6 126.5 125.9 125.7 126.4 126 125.6 125.3 125 121.5 121.7 122.4 121.4 119.5 118.1 116.7 115.6 115.3 115.2 115.7 116.4 117.1 118.6 117.8 117.4 113.2 111.4 111.3 110.5 110.3 110 111.8 114.7 113.9 111.5 111.9 114.1 115 113.3 113.1 112.7 111.4 110.7 111.1 111.4 113.6 115.4 116.3 116.4 114.3 113 112.5 112.2 114 115 114.7 114.6 117.5 120 120.9 119.3 117.1 119.9 117.8 115.4 113.8 116.2 113.3 112.5 113.7 116.7 117.9 117 116.9 117.1 117.7 117.1 116.9 116.6 116.2 116.2 117.6 117.4 118 117.7 117.4 115.6 113.6 112.4 111.7 111.6 111.8 111.4 111.3 111.1 111.2 111 111.1 115.4 120.3 123 125.6 127.3 129 131.2 134.5 137.4 138.3 137.1 136.9 137.7 138.6 139.3 140.9 142.2 144.9 149.3 155.6 161.9 165.1 165.4 166.3 167.5 166.9 169.3 170.8 172.4 174.8 175.5 177.5 172.3 179.1 186 189.6 191.8 191.6 193.8 195.5 199.7 205.3 210.1 214.2 219.6 229.9 234.4 242.3 259.2 270.6 287.6 311.6 333.6 357 386.7 393.8 437.8 447.2 450.8 449.2 442.1 438.9 432 425.1 425 421 416.7 410.9 404.1 402.4 398.9 396.4 393.8 387.8 383 378.8 373.9 369.9 366.3 361.9 356.3 349.9 343.5 338 330.7 325.5 320.6 317.5
124.4 124.5 125 126 126.4 126.5 126.6 126.4 124.6 121.7 119.9 120.2 121.1 124.1 124.9 125.3 125.4 125.3 124.1 123.7 123.1 122.9 122.2 122.9 122.2 121.4 120.1 118.5 116.6 116.3 115.7 115.5 115.4 115.2 116.9 116.8 116.9 116.8 115.9 115.3 111 111.6 113.6 114.2 113.2 110.9 111.5 111.6 114.1 113.2 110.9 112.3 111.5 111.5 111.7 112 111.3 110.9 110.8 111.2 110.5 110.8 112.1 111.6 113.3 112.6 111.9 114.6 116.3 113.9 113.6 115.8 117.3 120 119.9 118.4 119.8 118.2 114.2 113.9 112 112.5 113.2 114.7 116.1 117.3 115.8 117.1 117.1 117.3 117 117.3 117 116.3 116.2 117.7 117.6 117.5 118.6 118.4 115.9 115.4 115 114.4 113.8 112.1 111.9 110.8 110.8 111.1 110.8 110 114 118.4 122.7 124.3 125.9 127.6 130.3 134.3 136.4 136.6 136.2 136.3 136.2 137.4 138.2 139.6 140.9 144.7 149.8 156.9 162.5 162.7 162.2 164 163 165.6 167.1 168.4 170.2 173.1 170.3 171.7 172.9 178.2 183 185.4 187.3 186.7 193.3 197.2 200.3 206.1 210.8 216 226.3 230.4 240.5 252.7 271.4 295.2 310.4 322.9 341.7 370 387.4 404.5 440.4 447.4 456.8 459.2 448.7 441.8 436.7 436.7 432.3 430.9 433 427.7 416.2 407.4 402.6 399.3 392.8 386.2 378.9 374.1 370.6 368.4 364.5 360.2 356.4 351.6 347.6 342.6 336.9 331.5 324.8 320.6
124.4 124.5 124.7 126.5 126.9 127.2 126.4 124 121.9 120.5 120.6 120.7 120.2 120.2 121.8 122.7 122.6 122.2 121.8 121.2 120.6 120.3 121.7 120.7 119.8 119.7 118.9 118 117.3 116.8 116.3 116 115.9 115.5 116.7 117.3 115.9 115.8 115.4 115.8 113.5 113.1 113.8 114.8 113.4 111.7 110.3 110.6 113.1 113.4 112.1 110.8 110.8 111.1 110.9 111.2 111.7 111.8 112 111.7 110.3 110.5 111.3 110.7 110.6 110.4 111 112.9 114.2 114.6 113.9 114.5 115.3 114.2 117.2 121.6 121.2 118.8 113.7 114.6 114.2 113.6 120.9 118.9 117.3 116.6 116.7 117.3 117.3 117.4 117.4 116.6 117 116.1 116.9 116.6 117 118.1 120.7 119.7 117.5 116.6 116.1 116.2 116.5 115.8 116 113.5 111.5 110.6 110 111.6 113.1 117.2 120.6 123 124.6 126.2 129.3 133 135.3 135.2 136 135.5 135.8 136.2 137.7 138 139.8 144.1 150.6 156.3 160.2 160.3 160.9 162.1 159.8 163.9 164.6 165.6 167.2 166.1 171.1 176 178.7 180.8 182.4 184.2 182 185.7 191.7 194.8 201.8 204.9 209.3 220.3 228.4 234.2 243.8 258.2 278.1 300.8 332.5 349.6 368.3 384.5 415.2 433.9 440.2 442.3 443.6 446.9 445.6 442 443.8 443.3 438.4 434.3 434 429.4 423.6 416.6 410.4 402 392.5 384.9 376 370.5 369 367.8 361 356.1 353.6 350.5 347.4 344.7 340.4 336.4 332.4 327
124.6 124.4 125.6 127 127 126.3 123.3 121.8 121.2 121.2 119.9 120.5 120.1 119.6 119.7 119.7 119.3 119.5 119.7 118.7 118 118.2 118.6 117.7 117.4 117 118.3 118.3 116.7 116.2 115.8 115.9 115.9 115.5 115 116.7 117 116 115.8 115.7 115.5 115 115.5 115.8 112.9 110.8 111 110.5 111.3 112.6 111.1 110.7 111 110.5 110.6 110.4 110.4 110.6 111 111 111.5 112.1 112.4 111.1 110.3 110.5 110.4 110.2 110.7 112.1 113.4 114.1 116 115.2 115.3 120 120.2 117.2 112.4 117.6 118.7 120.2 120.9 121.1 119.2 120.5 120.2 117.9 117.5 117.4 117.2 116.6 116.3 116.1 115.8 116 117.6 118.1 119.3 119.3 118.5 116 115.5 115 116.4 116 114.9 114.8 114.1 111.1 110.6 111.4 112.7 115.5 118.4 121.7 123.4 124.9 127.1 130.5 131.6 133.4 135.5 135.9 134.7 135.5 136.4 136.4 139 143.8 149.9 153.9 157.8 159.9 159.9 158.8 158.1 162.1 163 163.1 162.5 164.2 170 174.7 178.4 178.6 175.8 178 181.5 186 192.1 197.9 200.1 204.2 210.9 217.3 231.3 238.8 252.6 273.2 294.4 317.3 339.7 365 391.6 414.9 425.4 440.1 445.9 446.4 445 440.7 436.9 434.8 437.1 443.9 443.6 438.9 434.9 424.9 419.4 415.6 411.4 401.4 391.8 385.4 376.4 368.6 368.9 366.9 360 355.3 349.6 346.7 346.2 345.5 347.3 347 340.9 334.6
124.7 124.5 125.9 127 126.8 123.7 121.8 121.2 121.8 122.4 122.3 120.5 120.4 119.2 119.7 119.2 119.1 119.3 118.8 118.5 118.1 121.7 118.1 117.3 117.2 117 116.1 116.5 116.1 116.2 115.5 115.2 115.4 114.1 114.4 114.6 114.1 115.9 117.5 116.4 115.1 115.9 116.6 115 112.1 111.3 112.2 111 110.2 110.1 110.1 109.2 110.2 109.9 109.5 109.8 110 110.2 110.3 110.7 111.1 111.3 111.4 110.9 110.3 110.4 110.4 110.5 110.5 110.8 111.8 111.5 113.8 115.4 116.5 118.5 120.2 117.3 112.4 117.2 118.2 122.3 123.7 120.9 118.4 119.8 120.8 117.4 122.1 122.5 119.3 118.3 118.2 117.3 115.8 115.6 116.5 118.7 118 118.4 118.5 115.9 113.8 113.4 115.2 116 115.4 115.1 114.6 112.1 110.4 110.7 111.9 113.7 117.2 120.2 122.2 123.7 124.9 127.9 130.1 132.6 134.9 136 134.2 134.7 135.1 135.5 137.9 143.3 149.8 154 157.9 158.9 157.8 156.1 157 159.7 161 161.7 160.8 164.2 167.7 172.3 175.5 171.8 175.8 180.4 183.4 187.6 191.2 192.8 199.9 207 213.8 218.1 230.2 243.2 264.4 286.1 308.4 331.8 355 382.6 413.7 427.6 432.5 440.2 443.6 445.6 444.8 441.5 441.4 435.6 428.5 423.1 424.6 426.2 430.5 425.1 419.8 411.7 400.9 392.8 387.8 384 380.4 368.2 369.2 362.4 357 355.2 350.2 345.4 347 347 348.2 348.2 344.7 340.7
124.5 123.8 124.9 125.8 123.9 122.5 121.4 124.4 124.6 124.7 124.6 123.6 122.6 121.5 119.6 119.6 119.5 118.9 118.4 118.3 118.1 121.4 117.3 117.6 117.2 115.7 116.4 115.9 116.8 116.6 115.7 114.6 114.8 115.1 114.5 118.7 112.3 115.9 116.2 114.3 114.3 114.4 112.1 111.4 111.7 111.2 111.1 111.1 111 110.5 110.3 109.7 109.2 109 108.7 109.5 109.7 109.8 109.9 110.9 109.8 109.6 110.2 110.3 110.6 110.7 110.4 110.2 110.4 110.6 111.3 111.7 111.2 113.8 116.6 118.8 119.6 117.6 114.1 114.4 116.5 123.4 125 120.7 117.9 117 117.9 117.6 120.1 118.8 117.9 116.8 115.9 116.4 116.2 115.3 116.5 118 117.9 117.8 118.2 117.4 114.1 112.9 114.7 115.2 115.7 115.4 115 113.8 110.5 111 111.5 112.7 115.1 118 121 122.3 123.5 125.4 128.6 130.4 133.1 134.6 133.6 135.1 134.9 134.9 136.8 141.4 147.5 155.1 156 158.9 156 155.6 156.6 158.1 159.4 158.5 160.3 162 165.6 169 168.1 174.5 178 180.4 180.6 182 188.5 196.2 202.5 210.2 214.4 220.5 230 252 272.9 292.6 311.4 336 367.3 412.7 429.7 433.7 439.6 443.2 443.3 444.4 444.1 442 443.7 442.5 441.4 433.6 423.2 415.5 409 406.2 401.3 395.1 391.2 387.3 387.2 384.6 380.3 372.1 362.2 365.4 360.7 348.1 339.4 345.8 348.6 350.6 349.6 346.7 343.1 339.1
125.4 124.2 123.5 122.9 122.3 121.7 124.3 124.9 126.2 126.8 126.6 125.6 123.8 122.4 121.5 119 119.1 118.6 118.9 118.8 119.2 120 117.9 117 116.7 115.5 116.3 115.8 117.2 116.1 117.9 117.9 116.6 115.8 115.1 115.9 114.8 114.9 114.2 114.3 114.5 113.9 111.9 111.3 111.5 111.3 111.4 111.4 110.6 110.2 109.9 109.7 109.6 109.8 108.4 109.5 109.5 109.5 109.7 109.6 110.1 110.1 109.8 109.9 110.5 109.8 109.7 110.1 110.4 110.5 111.4 111.7 111.3 113 116.5 118.2 119 117.3 116 111.9 115.2 118.3 125.5 121.5 117.2 115.3 115.1 115.1 116.6 115.5 116 114.6 114.5 114.8 115.6 115.7 114.9 117.1 118.9 118 118.3 117.7 115.6 113.4 113.6 114.2 115.2 114.3 113.3 114.5 112.4 110.4 110.5 111.3 113.4 117.1 120.2 120.8 121.6 123.8 126.5 128.5 131.2 132.6 132.7 133.3 133.9 134.1 135 138.4 144.9 152.8 155.9 156 154.3 153.3 154.9 155 157.9 156 159.9 160.4 161.5 164.8 170.8 173.3 175.5 175.4 179.4 186.2 190.3 194.6 199.6 205.8 213.3 218.4 229.5 247 272.1 292.9 312.3 337.1 370.5 406.7 426.9 438 441.8 441.3 441.1 442.1 443.1 441.7 442.7 440.8 440 438.7 431.8 422.8 413.1 406.7 403.8 400.5 394.2 390.3 392.5 387.2 381.8 374.3 368.2 355.9 360.6 352.2 335.4 348 348.1 349.2 346.6 344.2 342 337.9
126.5 125.7 123.4 122.8 122.4 122.4 123.7 124.3 125.9 127.6 127.4 126.4 124.5 123.4 122.5 121.5 119.9 118.7 118.6 118.2 121.1 118.1 117.8 116.8 116.7 116.3 116.2 115.5 114.9 116.5 119.1 119.1 117.6 116.2 115.6 116.5 115 114.6 113.9 113.1 113.2 113 113 111.2 111.9 113.6 112.1 111.1 111.5 111.6 110.1 110.1 109.4 110.4 109.6 109.6 109.5 109.9 109.7 109 110.4 110.3 110.3 110 110.7 111 109.6 109.5 109.5 109.7 110.1 109.8 110.3 111.6 115.2 118.8 118.8 116.5 113.8 112.8 114.2 114.1 118.5 121.7 119.5 116.2 116.4 115.9 116.5 116 114.7 114.5 114.8 115.2 115 114.5 114.1 116.8 119.8 116.5 117.3 117.2 118 113.7 111.4 112.8 112.9 113.7 113.1 114.5 115.1 112.9 110.5 111 112.1 115.7 118 118.2 121.5 122.3 124.2 127.7 129.5 130.2 130.5 131.7 132.9 133.7 134.1 137.8 142.8 148 152.9 154.2 152.6 151.8 153 153 154.2 156.1 159.2 158.3 159.9 164.2 169.6 170.3 170.3 176.9 180.6 182.6 184.1 190.8 195.5 201.5 208.2 220.8 229.1 249.5 269 291.2 309.7 334.5 359.7 391.3 415.8 432.5 440.2 439.2 439 440.3 442 441.7 441.7 440.1 437.4 433.8 428.8 423.1 423.3 419 412.9 407.8 398.6 389.6 385.5 382.3 378 373.5 368.7 361.7 349.2 336.3 333.2 347.8 347.5 347.4 346.3 343.4 340.7 336.2
127.2 125.3 123.4 123.1 122.9 122.9 123.3 123.7 124.5 125.7 125.8 125.8 125.7 124.8 124.2 123 121.5 119.3 119 118.5 121.6 118.5 117.4 116.9 116.6 116 115.4 117 115.6 117.3 120.2 121.2 119.9 117.3 116.9 114.5 114.7 113.8 112.5 113 112.9 112.2 112.4 112.5 112.3 113.9 112.2 111.7 112.7 112.6 111.8 110.3 110 110.4 109.7 109.3 108.3 109.5 109.2 108.7 110.2 110.3 109.9 110.7 110.6 110 109.5 109.1 109.3 109.2 109.6 109.3 108.8 109.8 110.5 116.2 116.8 115.4 111.8 114.2 113.3 113 113.5 115.2 122.7 121.5 120.9 121.2 121.4 119.6 117.1 118.8 121.4 121.5 116.3 115.1 115.6 118.6 118.7 115.7 114.2 116.3 118.8 114.1 111.1 111 112.6 113.8 114.4 113.8 113.9 115.3 114.8 110.6 112.7 115.1 116 116.2 117.7 121.1 122.6 124.4 125.9 126.6 127.9 130.2 132.4 132.2 132.3 134.7 139.4 144.2 148.9 151.7 151.7 150.6 151.1 150.9 151.8 156.3 156.9 156.1 159.9 163.4 165.6 166.1 170.4 172.9 174.4 177.8 186 192.6 199.3 203 207.6 213.2 223.5 242.5 263.9 286 304.9 327.6 348.5 374.2 399.6 429 438.6 438.5 438.4 440.2 442 440.8 440.6 438.2 433.5 428.3 428.3 425.5 422.8 419.5 414.5 408.6 404.1 397.4 393 387.5 384.8 378.4 370.8 365.1 353.8 339.8 331.5 342.5 350.1 349 346.1 343.2 339.5 334.9
125.8 124.7 125.2 124.5 124.1 124.1 124 123.9 123.9 124.3 124.9 125.4 126.7 126.8 125.8 124.1 121.5 119.5 118.6 118.3 121.5 117.1 116.8 116.7 116.7 116.7 117.2 117.4 117.7 119.5 122.5 125.4 121.9 119 116.8 114.9 114.5 114.3 113.6 113.7 113.2 112.9 113.6 113.8 114 113.5 112.3 112.6 113.7 113.6 111.9 111.4 110.2 109.6 109.3 109.1 109.4 109.4 108.6 108.2 110.2 109.9 110.7 110.1 110 109.7 109.1 109.2 108 107.9 108.3 108.5 108 109 110 110.9 112 114.2 113.1 111.3 110.2 113.8 110.6 111.7 113 113.2 113.2 116.4 120.6 122.7 122 122.3 121.7 118.6 115.2 114.4 116.6 118.9 117.6 115.2 114 115.1 119.4 116.4 113.6 112.2 112.9 113.7 114.2 114 113.5 114.5 113.2 112.1 111.2 114.2 115.5 115.2 115.8 117.5 119.9 121 122.3 122.3 127.2 128.3 129.8 130.7 130.2 132.1 135 140.8 146.8 150.1 150.5 149.4 148.5 149.4 149.7 154.3 151.6 154.7 155.7 161 161.8 164.9 168 171.7 175.4 180.2 184.8 189.5 195.7 199.4 204.4 217.1 231.8 247.8 266.9 286.3 304.2 320.7 340.7 361.6 384.7 418 437.7 436.9 437.5 439.2 440.4 438.3 435.5 432.8 432.2 430.7 428.4 425.6 424.1 421.4 416.5 411.1 405.5 401.2 395.4 392.9 390.2 383.6 377.1 369.2 357.6 346.9 333.7 330.3 339.9 345.5 343 340 336.5 332.3
127 126.8 126 125.9 125.5 125.3 125.2 124.9 124.5 124 125 126 126.9 126.9 125.9 124.4 122.5 121 119.2 118.4 118.8 117.3 116.9 117.4 117.9 117.2 117.7 117.8 117.2 119.7 124.7 125.4 123 119.8 117.2 115.9 114.5 114.4 114.1 113.7 113.2 113.4 113.6 113.5 113.1 112.7 111.8 113.1 112.9 113.1 112.2 111.4 111.2 109.8 110 109.8 109.7 109.6 109 107 110.3 109.4 109.6 109.1 108.8 108.5 108.7 107.6 107.6 106.7 106.7 106.7 106.7 107.9 108.3 108.5 108.9 109.5 109.9 110.5 110.6 111.2 111.6 110.5 109.2 109.2 109.5 109.9 111.3 113.3 115.4 114.4 113.5 112.9 113.8 116.3 117.2 117.3 117.5 117.2 115.1 115 115.8 115.6 112.5 112.2 111.6 111.6 111.9 112.1 113.3 113 112.6 110.8 110.7 113.8 115.2 115.3 115.7 116 116.8 118.7 119 120.6 123 125.4 126.9 128.3 127.5 129.6 132.2 136.8 142.8 146.9 147.8 146.5 145.6 146 148.1 150.2 149.4 155.5 159 162 165.7 169.1 171.7 174.8 178.2 182.9 188.4 190.1 194.6 201.9 211.6 225.3 239.2 244.6 266.5 285.3 302.1 315.5 337 353.8 375.5 405.8 435.6 436.4 438.3 437.5 437.1 435.1 435.2 434.7 434.1 432.3 428 425.8 423.7 420 415.3 411 406.1 403.7 399.4 394.8 392.5 387.4 381.2 373.8 362.7 353.5 343.9 333.8 327.4 326.9 330.1 330.2 328.1 326.7
129.4 129 128.1 127.3 127 127.1 127.3 126.2 125.5 124 124 125.2 125.6 125.7 125.4 125 123.4 120.8 118.9 121.4 117.9 117.4 117.4 118.3 118.1 118.1 119 117.6 118.5 120.4 123.8 125.2 123.2 118.5 117.5 117.1 116.5 114.8 114.3 113.8 113.5 113.4 113.3 113.2 112.7 112.3 113.1 114.2 113.4 112.1 111.9 111.3 111 109.9 110 110.3 109.9 110 109.1 109.4 108.7 109 109 108.9 108.3 107.5 107.1 106.7 106.7 106.7 106.7 106.7 106.7 106.7 106.7 106.7 106.7 108.2 108.8 109.6 108.9 109.7 109.3 109 108.3 108.8 107.7 107.9 109.2 109.3 110.6 112.1 113 112.2 112.7 117.7 116.9 114.2 115.4 115.8 115.2 114.4 112.7 115.7 115.9 112 110.6 110.6 110 109.9 110.5 110.9 111.3 110.3 110.5 112.3 114 114.9 115.3 115.5 115.7 115.6 117.1 118 119.2 121 121.9 124.4 124.8 128.3 131.3 133.9 138.3 142.9 145.1 144 144.6 143.7 144.6 146.8 151.6 156 159 161.8 166.3 170.1 173 176.3 179.7 184 189.2 193 200.3 205.7 206.6 213.1 228.7 242.8 261.4 280.7 289.6 310.4 335.3 351.1 367.8 400.6 432.8 433.4 431.3 432.6 433.9 435.8 435.8 435.5 435.3 431.1 429.7 426.6 422.9 419.7 416 411.8 409.9 404.2 400.1 395.1 392.4 387.7 380.7 372.1 364 356.5 349.8 351.4 347.5 336.6 328.7 321.2 321.4 321
130.7 129.9 129 129.8 130.9 130.9 130 127.9 125.3 124.1 124.3 124.2 125.1 125.7 125.4 124.8 122.2 121.4 121.1 121.7 120.5 117.8 117.3 118.3 119.4 119.4 119.6 118.6 119.3 121.2 122.9 124.3 121.9 118.1 117.4 116.9 116.5 115.3 116.1 115.1 113.2 113 113.2 112.8 112.4 111.9 112.3 112.4 111.6 111.1 111.2 111 111 110.3 109.8 109.6 109.7 109.7 109.1 108.2 108.6 108.4 108.4 108.4 108.2 107.9 106.7 106.7 106.7 106.7 106.7 106.7 106.7 106.7 106.7 106.7 106.7 106.7 107.4 107.4 108.4 108.2 107.3 107.1 107.5 107.8 107.8 107.3 107.4 107.6 108.6 109.6 110.7 111.3 110 109.3 110.1 113.9 111.7 112.7 112.6 113.5 113.7 117 117.5 113.3 111.2 110.1 109.2 109.3 109.2 110.4 110.4 109.1 111 112.1 113.6 114.2 114.2 114.4 114.6 115.9 116.1 116.2 116.6 118.7 119.6 121.5 124.3 127.9 130.3 132.2 135.1 138.5 141.3 142.3 140.6 141.3 143.5 146.2 150.8 154.4 158.3 161.1 167.3 170.8 173.8 176.8 179.2 183.1 187.4 191.2 195.7 197.5 204.1 214.3 220.2 225.9 241.1 260.5 286.5 305.9 327.2 347.9 366 392.6 421.2 426.9 427.7 429 433.3 434.8 435.4 435.7 434.9 435 431 427.7 422.6 419.9 416.7 413.4 410.7 406.4 401.4 393.4 383.1 377.5 373.9 367.3 360.5 355.6 351.1 350.1 346.4 342.2 338.3 333.5 325.9 318.2
130.6 130 130.7 132.8 134.6 134.4 133.3 131 127.4 126.2 124.4 124.1 124.5 124.9 123.9 123.2 121.5 124.8 121.5 121.7 119.2 118.8 117.8 119 119.4 119.5 119.3 119 119.6 119.8 119.6 118.4 119.5 118.3 117.3 116.9 116.9 116.9 117.4 117.2 115.8 113.2 112.9 112.5 112 111.9 111.6 112.2 111.4 111 110.7 111.1 110.8 110.4 109.9 109.7 109.5 109.5 109.9 108.7 108 108.5 108.2 108.3 108.5 107.6 106.7 106.7 106.7 106.7 106.7 106.7 106.7 106.7 106.7 106.7 106.7 106.7 106.7 106.7 106.7 106.7 106.7 106.7 106.7 107.5 107.5 106.7 106.7 106.7 107.5 108.8 109.1 109.6 108.7 108.7 108.8 109.2 109.5 111.6 113.3 113.7 115.7 119.4 119.2 115.7 113 110.2 109.3 109.3 109.3 109.9 109.9 109.7 110.2 111.5 112 113.2 113.6 113.6 114.4 115.3 116.1 115.6 116.1 117.3 119.2 120.1 122.6 125.4 128.9 131.1 132.7 135.7 134.1 138.5 143.3 143.8 144 144.7 147.6 152 156.4 161.9 166.3 170 172.8 175.8 178.4 181.8 184.7 187.8 191.8 197.1 200.7 205.7 211.9 233.8 244 254.9 267.2 284.3 313.1 330.6 362.1 392.6 421.3 423.7 425 427.2 432.9 438.3 440.9 439.5 436.3 432.9 432 426.6 423.5 419.7 417.2 413.8 410.4 406 403.2 397.3 387.3 380 373.9 366.9 362.3 361.7 357.4 350.7 344.6 338.9 332.7 331.2 326.3 321.3
129.7 129.9 131.5 135.2 137.5 138.2 136.3 133.5 129.9 127.8 126 124.7 123.7 123.9 123 123 122.3 122.4 127.6 121.7 121.2 120.3 118 119.1 119.8 119.7 120.3 120.3 119.9 119.9 118.2 118.7 118.5 117.4 117.5 117.4 117.6 117.2 117.5 117.2 115.4 114.4 113 112.1 112.5 111.9 111.6 111.6 111.7 110.9 111.1 110.7 110.7 110.9 110.1 109.9 109.6 109.3 109.7 109 107.4 108.6 108.5 108.1 107.1 106.7 106.7 106.7 106.7 106.7 106.7 106.7 106.7 106.7 106.7 106.7 106.7 106.7 106.7 106.7 106.7 106.7 106.7 106.7 106.7 106.7 106.7 106.7 106.7 106.7 106.7 107.9 108 108.6 108.4 108.5 107.9 108.4 108.5 108.7 109.7 113.1 116.4 120 119.1 115.8 113.5 111 109.5 109.2 109.3 109.5 109.4 109 109.8 110.3 111.4 111.9 112.4 112.9 113.4 114.3 114.9 114.7 115.7 116.2 117.2 118.1 121.2 123.1 126.8 130.1 131.2 130.9 134.2 138.8 142.7 142.3 142.7 144.5 145.8 149.9 155.2 161 166.2 168.4 170.6 172.6 176.5 179.2 183.1 188.5 190.6 193 196.4 202.7 205.2 211.7 221.9 236.7 255 271.5 293.5 328.5 354.8 395.5 420.9 423.2 424.1 427.6 428 439.3 440.6 439.7 438.9 431.4 431.9 427.5 422.7 419.8 417.8 414.2 411.8 408.1 401.7 394.2 389.6 383.8 377.3 372.3 369.8 365 358.9 351.5 345.6 339.7 334.1 328.4 323.1 319.2
128.7 130 132.9 137.1 139.3 138.7 136.7 133.9 131.9 129.9 127.6 125.8 125.1 124 123.8 123.5 122.6 122.1 121.9 123.7 122.8 119.5 118.9 119.9 120.6 120.7 120.3 120.5 120.8 120.3 118.8 118.5 118.5 117.6 117.3 117 116.6 118 117.7 116.8 115.2 114.1 113.4 113 111.8 111.5 111.5 111.9 111 111.1 111.4 111.1 111 111.2 110.7 110.3 110 109.2 109.7 109.4 108.2 108.2 107.9 107.6 106.7 106.7 106.7 106.7 106.7 106.7 106.7 106.7 106.7 106.7 106.7 106.7 106.7 106.7 106.7 106.7 106.7 106.7 106.7 106.7 106.7 106.7 106.7 106.7 106.7 106.7 106.7 106.7 107.4 107.8 107.6 108 107.9 107.5 107.8 108.4 109 109 115.4 116 117.9 114.4 112.6 111.3 109.7 109.5 109.3 109.8 109.7 109.8 110 110.8 111.4 111.4 111.8 112 112.4 113.3 113.8 114.1 114.6 115.1 115.7 117.7 118.8 121 124.4 127.2 128.7 128.7 131.3 135.8 139.7 141.1 140.4 142.5 145.2 148.1 154 159.9 163.3 165.4 167.8 168.4 172.4 178.5 181.9 182.3 188.8 191 190.3 195.3 202 210.2 221.6 234 252.9 277.5 299.3 328 366.2 395.2 415 427.9 428.8 429.2 434.5 435.9 436.1 436 437.1 432.4 430.1 426.2 424.3 419.9 417.4 414.8 409.5 405.3 399.8 393.3 388.9 384.2 379.4 374.1 371 365.3 359.2 351.5 345.7 339.8 333.9 328.2 323.8 319.6
128.2 130.3 134.2 137.6 138.2 137.5 136.5 135.4 133.4 131.2 130.2 127.7 126.7 125.8 124.2 123.7 122.2 121 121.4 122.2 121.6 121.7 118.1 122 122.7 120.6 120.8 120.5 120.8 120.3 119.8 119.5 119.6 118.5 118 116.8 117.9 118 117.5 116.1 114.8 114 113.9 112.3 111.7 111.3 111.7 111.4 111.1 111.5 111 110.7 110.6 110.6 110.4 109.8 109.7 109.7 109.6 108.5 108.4 108.5 108 107.2 106.7 106.7 106.7 106.7 106.7 106.7 106.7 106.7 106.7 106.7 106.7 106.7 106.7 106.7 106.7 106.7 106.7 106.7 106.7 106.7 106.7 106.7 106.7 106.7 106.7 106.7 106.7 106.7 106.7 106.7 106.7 106.7 107.5 106.7 107.1 107.5 108.6 108.5 109.3 114 113.8 112.4 112 111.4 110 109.7 109.4 109.4 109.6 110 110.3 110 111.1 111.6 111.3 111.7 111.7 112.9 112.7 114.2 114.3 114.4 114.3 116.4 117.2 119.7 122.8 124.4 125.4 126.3 129 132.8 137.9 139 138.8 141.3 143.5 147.1 150.8 155.7 160.2 163 164.3 166.9 168.6 175.5 176.5 178.9 179.4 184.5 193.7 207.4 206.7 211.3 227.9 238.6 258.6 280.5 311.1 345.9 378.2 404.9 430.2 441.5 442 439.8 436.9 436.5 435.7 435 434.6 432.5 425.8 426.4 421.7 420.3 417.6 414.6 413.7 409 400.9 393.6 388.6 383.8 378.9 373.6 367.4 362.8 357.2 350.5 345.2 339.4 333.1 328.3 323.2 318.2
128.2 131.3 133.6 133.9 134.1 134.8 136 135.9 134.2 132 130.6 129.8 128.1 127.2 124.5 122.2 120.9 120.1 122.8 122.6 121.4 119.7 120.9 121.4 121.3 120.6 120.5 120.7 120.5 119.6 119.7 119.3 118.6 118.4 117.9 117.7 116.8 117.2 116.3 115.1 115.3 112.8 112.7 111.6 111.8 111.1 111.1 111.1 110.5 110.4 110.6 110.6 110.6 110.3 110 110 109.9 109.7 109.6 109.5 109.1 106.7 107.9 106.7 106.7 106.7 106.7 106.7 106.7 106.7 106.7 106.7 106.7 106.7 106.7 106.7 106.7 106.7 106.7 106.7 106.7 106.7 106.7 106.7 106.7 106.7 106.7 106.7 106.7 106.7 106.7 106.7 106.7 106.7 106.7 106.7 106.7 106.7 106.7 106.7 106.9 108.4 108.4 109.3 112.3 111 110.1 110.9 110.2 109.9 109.6 107.8 109 109.1 109.5 109.9 110.7 111.2 111.1 111.4 111.2 111.8 113 113.6 113.4 113 114.4 115.6 117 118.6 121.4 122.2 123.8 125.5 128 130.8 133.3 134.7 138.8 140.6 142 145.1 148.4 154.3 157.6 160 162.4 163.6 167 171.7 171.3 172.6 182.2 189.8 196.8 204.1 197.6 213.9 227.6 245.9 271.5 297.9 328.6 360.5 390.6 421.3 441.7 441.9 442.4 441.5 439.5 438.7 439.4 438.9 436.2 433.7 432.1 427.6 423.2 422.1 422.2 418.9 415.5 409.4 403.1 394.7 388.3 383.5 379.7 374.6 368.6 362.8 356.1 349.7 344.2 337.9 332.5 327.5 322.2 317
128.6 130.4 130.5 130.8 130.4 130.4 133.9 134.5 133.7 132.6 132.2 130.8 128.7 126.6 124.2 121.8 119.5 119.9 121.4 121.1 120.4 120.3 119.1 119.9 120.9 121.4 120.4 120.5 119.9 120 121.1 121.1 118.3 117.8 117.9 117.3 116.3 116.7 116.1 114.1 112.1 112.9 112.8 112.7 111.8 111.4 112.2 112.3 113.8 111.2 110.5 110.7 110.8 110.2 110.3 110.3 110.1 110 109.6 108.8 108.2 106.9 107 106.7 106.7 106.7 106.7 106.7 106.7 106.7 106.7 106.7 106.7 106.7 106.7 106.7 106.7 106.7 106.7 106.7 106.7 106.7 106.7 106.7 106.7 106.7 106.7 106.7 106.7 106.7 106.7 106.7 106.7 106.7 106.7 106.7 106.7 106.7 106.7 106.7 106.7 106.7 108.4 108.4 109.6 110.5 110.2 110.7 110.3 109.7 109.5 109.4 109.6 109.6 109.9 110.1 110.4 110.8 111.1 111.2 111 111.9 112.3 112.9 113 113.7 114 115.1 116.5 117.9 120 121.5 123.9 125.3 127.3 128.4 130.4 132.6 136.7 139.2 141.5 142.5 147 149.5 154.2 155.4 158.7 159.4 162.1 165.2 169.7 173.2 180.6 186 185.6 188.5 205.8 216.5 233.8 252.4 273.5 298.5 327 359.6 403.8 434.3 438.7 440.5 440.4 438.5 437.5 438.2 436.7 437.5 436.6 434.2 431.9 430.2 428 430.5 431.1 428.1 423.7 416.2 405.3 397.2 388.1 383.6 377.3 373.2 366.8 360.6 354 348.7 343 338.3 332.5 327.5 321.6 316.8
127.8 128.6 128.3 128 127.6 127.3 128 130 133.4 133.3 132.8 131.4 129.2 126.7 123.5 120 119.5 119.9 121.1 120.6 119.7 120.2 120.7 121.5 120.3 120.7 120.6 120.8 124 123.7 123.5 120.1 118.3 118.3 117.3 116.9 116.8 116 115.1 114.4 112 113 113.1 112.4 111.8 112 112.3 113.4 113.8 112.2 111.1 110.7 109.8 110 110.6 110.6 110.4 110.2 109.4 108.6 108.3 108 106.3 106.7 106.7 106.7 106.7 106.7 106.7 106.7 106.7 106.7 106.7 106.7 106.7 106.7 106.7 106.7 106.7 106.7 106.7 106.7 106.7 106.7 106.7 106.7 106.7 106.7 106.7 106.7 106.7 106.7 106.7 106.7 106.7 106.7 106.7 106.7 106.7 106.7 106.7 106.7 106.7 107.3 109.1 109.2 109 108.9 108.8 109.1 109.1 109.2 109.4 109.7 109.2 109.8 109.9 110.3 110.7 111 110.9 111.5 111.9 112.3 112.3 113.1 114.2 114.8 116 117.4 119.3 121.4 122.8 124.4 126.6 127.2 128.8 129.7 134.1 137.8 139.9 141.7 143.4 145.6 148.9 152.7 155 156 156.3 160.9 163.3 171.3 174.7 174.2 180.6 188.3 199.4 210.2 231.9 253.6 275.5 298.7 326.7 357.6 394.8 432.4 437.8 438.1 438.6 440.8 434.7 434.2 436.4 436.4 434.4 432.4 432.9 435.2 436.8 435.8 432.3 429.2 426 421.8 412.1 399.2 387 381.8 376.1 369.7 363.5 358 352.5 347 341.9 337.3 332.2 327.2 322.3 318.3
126.6 126.4 126.1 126 126.5 125.4 125.2 127 129.3 132.6 132.7 131.3 128.3 124.9 121.1 120.1 119.7 120.4 121.1 120.5 120.1 120.3 121.2 121.6 120.8 120 119.8 121.6 126.6 122.9 120 118.4 118.3 116 115.6 116.1 116.1 115 115 115 113 113 113.1 112.3 112.3 111.6 111.5 112.6 113.1 112 112.3 113.3 111 109.4 109.9 109.7 110.6 110.4 109.2 108.8 108.6 108.2 107.6 106.7 106.7 106.7 106.7 106.7 106.7 106.7 106.7 106.7 106.7 106.7 106.7 106.7 106.7 106.7 106.7 106.7 106.7 106.7 106.7 106.7 106.7 106.7 106.7 106.7 106.7 106.7 106.7 106.7 106.7 106.7 106.7 106.7 106.7 106.7 106.7 106.7 106.7 106.7 106.7 106.7 107.4 108.9 109.3 109 109 109 109.2 109.1 109.1 109.4 109.2 109.6 109.5 109.9 110.3 110.5 110.8 111.3 111.6 111.2 112.5 113.2 113.8 114.6 115.7 117.1 118.8 120.6 122.1 123.8 125.9 126.4 127.3 128.4 130.7 133.8 137.5 138.9 140.9 142.7 145.4 149.7 151.3 152.2 153.4 156.5 163.9 167.4 168.5 174.8 181.4 189 199.8 211.7 229.1 248.4 271.2 293.8 319 351.8 389.2 418.3 430.7 435.3 435.7 438.6 438.5 440.4 433.6 433.5 433.6 437.1 440.4 438.6 437.8 434.8 431.2 428.1 425.1 422 413.3 398.2 386.3 381.6 376.7 367.9 360.1 352.9 346.6 342.7 338.7 336.2 331.8 327 322.7 319.1
125.4 125.3 125.4 125.6 125.9 124.6 124.2 124 124 127.2 130.7 129.2 126.3 122.8 121.4 120.8 120.7 120.8 121.2 120.5 120.3 120.4 121 120.7 120.4 121.2 121.5 121.3 121.5 119.8 118.8 118.8 116.3 115.2 116.1 114.8 115.4 115.3 114.3 114.4 114.1 113.2 111.9 111.9 112.2 111.4 111.6 111.2 111.5 113.4 114 113.1 110.7 110.3 109.8 110 110.5 109.8 108.7 108.2 108.1 108 107 106.7 106.7 106.7 106.7 106.7 106.7 106.7 106.7 106.7 106.7 106.7 106.7 106.7 106.7 106.7 106.7 106.7 106.7 106.7 106.7 106.7 106.7 106.7 106.7 106.7 106.7 106.7 106.7 106.7 106.7 106.7 106.7 106.7 106.7 106.7 106.7 106.7 106.7 106.7 106.7 106.7 106.7 108.5 108.9 108.8 108.3 107.8 108.5 109.2 109.6 109.7 109.1 109.6 109 110 110.3 110.5 110.4 110.6 110.6 111.2 112.2 112.9 113.5 113.8 114.9 116.8 118 119.7 121.4 123.4 125 125.4 126 126.5 128.1 131.4 134.3 135.9 137 140.4 141.6 146.3 147 148.1 150.1 154.2 159.7 161.1 167.1 173.9 181.4 187.8 198 209 222.2 246 268 290.6 315.3 344.4 380.3 403.8 418 433.4 434.8 438.1 439 443.5 449.2 438.6 433.8 433.8 437.5 438.1 436.3 433.3 430.1 426.8 423.9 419.8 408.5 397.1 385.5 379.9 373.4 364.2 356.2 347 338.5 334.6 331.7 329.1 326.9 323.6 318.1 314.1
125.2 125.3 124.8 125.3 124.4 124.2 124.5 124 123.7 122.9 125.5 125.4 123.7 121.4 122.6 123.1 122.5 121.4 121.1 120.4 120.9 120.9 121.4 121.9 121.6 121.6 121.8 121.5 121.3 119.2 119.2 117.5 117.2 118.4 118.2 116.7 116.8 117.5 116.2 115.5 114.8 113.9 113.6 113 111.2 111.6 111.2 110.3 110.4 111.1 111.8 110.6 110.5 109.8 109.8 110.3 110.4 110.2 108.9 107.8 108 107.4 106.7 106.7 106.7 106.7 106.7 106.7 106.7 106.7 106.7 106.7 106.7 106.7 106.7 106.7 106.7 106.7 106.7 106.7 106.7 106.7 106.7 106.7 106.7 106.7 106.7 106.7 106.7 106.7 106.7 106.7 106.7 106.7 106.7 106.7 106.7 106.7 106.7 106.7 106.7 106.7 106.7 106.7 106.7 106.8 107.8 108.4 108.4 106.7 108 108.2 108.5 109 108.3 108.5 109.1 109.3 110.1 110 109.9 110.8 110.7 111.3 111.8 112.3 112.6 112.8 113 114.1 116.1 118 121.1 123.6 124.7 125.2 125.2 125.6 126.4 127.6 131.3 132.4 133.8 136.5 138.4 141 144.3 145.6 147.2 150.7 154.9 159.2 164.6 169.9 177.5 183.8 192.8 199.7 214.6 237 262.7 287.9 312.4 337.8 362.7 381.8 397.1 413.9 430.2 431 448.2 448.6 439.4 443.3 439.4 434.8 433.8 435.9 434.8 431 428 425.3 422.2 413.5 401.8 392 381.8 375.4 368.4 359.8 349.9 340.6 330.4 326.8 321.6 315.9 309.9 307.3 301.9 297.6
125.3 125.4 125.2 124.7 125 124.6 124 123.8 123.7 122.8 123.1 122.8 124 124.9 125.9 125.2 123.5 121.8 121.1 121 121.2 120.7 121 122.4 122.9 122.7 122.6 121.4 121.1 119.1 117.1 118.8 118.6 118.9 118.6 116.4 116.4 117.1 117.2 117 115.4 115 114.6 113.6 112.7 112.4 111.1 111.4 111.1 110.6 110 110.4 109.8 109.6 109.8 110.1 110.3 111 109.1 108.2 107.7 107.8 106.7 106.7 106.7 106.7 106.7 106.7 106.7 106.7 106.7 106.7 106.7 106.7 106.7 106.7 106.7 106.7 106.7 106.7 106.7 106.7 106.7 106.7 106.7 106.7 106.7 106.7 106.7 106.7 106.7 106.7 106.7 106.7 106.7 106.7 106.7 106.7 106.7 106.7 106.7 106.7 106.7 106.7 106.7 106.7 106.7 106.8 107.8 106.7 107.7 107.8 108 108.3 108.8 108.8 108.9 109.2 109.6 109.8 109.9 110.5 111 111.1 111.2 111.4 111.6 111.9 112.3 113.3 114.7 117.4 120.6 123.2 123.6 124.1 124.3 124.9 125.7 126.7 128.2 128.8 131.7 134.7 136.6 138.9 142.3 144.1 147.1 149.8 152.7 157.5 162.3 167.1 173.5 180.5 187.1 195.4 210.6 229.9 255.2 281.1 305.5 327.9 345.6 361.3 375.5 387.1 402.1 416.7 425 434 440.5 447.7 447.1 444.3 437.5 434.8 433 430 425.6 423 419.7 405.7 392.7 381.7 371.6 363 353 347.1 338.2 330.2 322.3 316.5 310 303.7 298.1 291.5 287.7 283.7
125.4 125.4 125 124.4 124.4 124.1 123.7 123.6 123.5 123.4 122 122.1 124.4 126 126 124.7 121.8 120.8 121.1 122 121.2 120.6 122 122.3 122.6 121.8 122 121.3 119 118.3 119.4 119.6 119 119 117.8 118.3 118.6 119 118 118.2 116.7 115.5 114.4 112.2 112.8 112.4 112.3 112 111.4 110.7 110.7 110.9 109.3 109.3 108.8 109.9 110.5 111.2 109.3 108.3 107.7 107.8 106.7 106.7 106.7 106.7 106.7 106.7 106.7 106.7 106.7 106.7 106.7 106.7 106.7 106.7 106.7 106.7 106.7 106.7 106.7 106.7 106.7 106.7 106.7 106.7 106.7 106.7 106.7 106.7 106.7 106.7 106.7 106.7 106.7 106.7 106.7 106.7 106.7 106.7 106.7 106.7 106.7 106.7 106.7 106.7 106.7 106.7 106.7 107.7 107.8 107.9 108.4 108.3 108.4 108.5 108.6 108.8 108.9 108.9 109.3 110.2 110.6 110.9 110.9 111 111.1 111.1 111.8 112.5 113.8 115.7 119.1 122.3 121.9 123.2 123.7 124.7 124.9 125.8 126.5 128.9 130.7 132.8 135.2 137.3 140.4 143.1 146 148.7 152.1 155.4 159.8 164.5 170.5 175.2 180.7 190.1 205.9 223.5 249.6 275 297.7 317.4 332.9 346.3 360.2 377.3 386 400.7 417.2 429.4 437.7 447.7 444 444.4 441.5 437.8 432.9 429.4 426 420.1 409.9 396.3 382.8 370.4 361.3 350.7 341.8 334.4 325.4 317.5 310.5 304.7 298.9 291.9 286.7 282.5 278.4 274.9
125.5 125.2 124.9 124.1 124 123.7 123.5 123.4 123.4 123.3 122.9 122.2 125.1 126 123.4 121.7 122.5 122.2 120.9 122.2 121 120.8 121.7 121.1 121.8 121.6 120.3 120 118.5 118.2 119.1 118.9 118.7 118.7 118.3 118.3 118.5 117.6 117.5 118.5 117.3 115.2 113.7 113.9 113.6 112.4 113.8 112.1 110.9 109.7 110.9 110.4 109 108.8 108.7 108.6 109.2 110.5 110.9 108.7 107.4 107.5 106.7 106.7 106.7 106.7 106.7 106.7 106.7 106.7 106.7 106.7 106.7 106.7 106.7 106.7 106.7 106.7 106.7 106.7 106.7 106.7 106.7 106.7 106.7 106.7 106.7 106.7 106.7 106.7 106.7 106.7 106.7 106.7 106.7 106.7 106.7 106.7 106.7 106.7 106.7 106.7 106.7 106.7 106.7 106.7 106.7 106.7 106.7 107 108.1 108 107.7 107.8 108 108.2 108.3 108.3 108.8 108.6 109.3 109.7 109.9 110.1 110.5 110.8 110.1 111 111.3 112 114.1 116.4 118.4 119.9 121 121.9 123.1 123.8 124.1 124.8 127.1 128.7 130.5 132.5 134 135.1 138.4 140.6 143.5 146.8 150.3 152.3 156.1 160.9 165.4 168.6 174 186.5 200.5 216.4 240.6 265.8 286.5 294.1 320.4 335.3 347.5 366.4 380.2 395.2 413.6 422.5 423.9 429 433.1 438.9 441.6 439.1 432.4 424.8 410.6 403.6 391.9 379.2 365.3 356.2 346.6 337.1 332.5 326.2 319.4 311.3 303.9 296.8 290 284.3 280.4 276.2 271.7 267.9
125.3 125 124.7 123.9 123.8 123.9 123.7 123.4 123.3 123.2 123.1 122.1 121.6 122.5 121.3 122.6 124 122.8 120.8 121.2 121.1 120.7 120.1 120.9 120.9 120.7 118.9 118.6 117.6 118.4 118.7 118.7 118.6 118.9 118.6 118.4 118.5 118.3 117.7 117.8 115.9 114.5 116.2 114.9 114.2 113.9 113.6 111.4 110.1 109.8 109.4 109.1 108.8 109 108.4 108.5 107.9 109.5 109.3 108 107.6 107.1 106.7 106.7 106.7 106.7 106.7 106.7 106.7 106.7 106.7 106.7 106.7 106.7 106.7 106.7 106.7 106.7 106.7 106.7 106.7 106.7 106.7 106.7 106.7 106.7 106.7 106.7 106.7 106.7 106.7 106.7 106.7 106.7 106.7 106.7 106.7 106.7 106.7 106.7 106.7 106.7 106.7 106.7 106.7 106.7 106.7 106.7 106.7 106.7 106.5 107.3 107.1 107.3 107.5 107.9 108 108.1 108.7 108.5 109.1 109 109.4 109.5 109.6 110.1 110.9 111.3 111.6 112.2 114.3 116.6 117.4 119 120.2 120.4 121 122.2 123.4 124.7 126.5 128.4 129.3 130.4 131.6 133.3 136.7 137.7 142.1 143.9 146.9 150.8 152.5 156.9 160.9 167 173.3 180.7 196.4 216 232.2 249 259.1 276.1 291.6 324.7 341.8 360.6 378.1 401.9 411.7 416.4 415.4 412.8 411.1 418.7 419.9 413.6 402.6 394.9 380.8 374.9 364.8 356.5 347.3 337.6 335 329.8 324.6 317.9 311.5 305.1 298.3 290.7 284.2 278.7 274.6 269.7 265.2 260.7
125.1 125 124.6 124.5 124 124.1 124.2 123.3 123.2 123.1 123.1 122.9 121.8 122.9 121.4 121.7 123 121.5 120.7 120.8 121 121 120.8 120.8 119.8 119 118.7 118.2 119.7 119.4 119.2 119.4 119.3 119.4 118.6 118.7 118.9 118.5 117 115.2 115.6 116.4 116.4 116.6 114.7 114 112.5 111.1 110.7 109.5 109.1 109.5 108.9 108.1 108.2 108.3 108.6 108 107.3 107.5 106.8 106.5 106.7 106.7 106.7 106.7 106.7 106.7 106.7 106.7 106.7 106.7 106.7 106.7 106.7 106.7 106.7 106.7 106.7 106.7 106.7 106.7 106.7 106.7 106.7 106.7 106.7 106.7 106.7 106.7 106.7 106.7 106.7 106.7 106.7 106.7 106.7 106.7 106.7 106.7 106.7 106.7 106.7 106.7 106.7 106.7 106.7 106.7 106.7 106.7 106.7 106.6 106.7 107 107.5 107.8 107.9 107.9 108 108.5 108.7 108.5 108.6 109 109.4 109.6 110.6 111.5 112 112.6 115.2 116.5 117.2 117.9 119.1 119.4 120.7 121.8 123.2 123.8 125.3 126.4 127.7 128.8 129.5 131.7 133.1 136 139.6 142.2 145.8 148.6 149.7 154.8 158.4 163.4 170.6 178 195.5 206.2 211.3 224.2 235.7 255.5 291.1 318.9 339 357.8 376.5 394.4 405.2 405.2 396.2 395.3 394.4 388.6 381 377.3 373.7 368.2 361 356 350.6 344.1 338.7 333.5 329.5 323.9 317.6 311.2 303.9 297.3 290.9 285.2 279.6 274.3 268.1 264.2 260.8 257.2
125.1 124.9 124.5 124.4 124.5 124.5 124 123.2 123 123.1 123.2 123 122.8 122.2 122 121.5 121.2 120.7 120.6 121.2 120.9 120.7 120.3 119.9 119.6 118.4 118.4 119.2 120 119.5 119.3 119.2 119.1 119 118.1 118.6 118.4 118 116.9 117.4 117.4 116.7 116.3 116.3 114.2 112.9 111.3 110.4 110.3 109.2 109.9 109.3 110.2 109.2 109.3 108.5 108.8 108.5 108.3 107.9 107.6 106.9 106.7 106.7 106.7 106.7 106.7 106.7 106.7 106.7 106.7 106.7 106.7 106.7 106.7 106.7 106.7 106.7 106.7 106.7 106.7 106.7 106.7 106.7 106.7 106.7 106.7 106.7 106.7 106.7 106.7 106.7 106.7 106.7 106.7 106.7 106.7 106.7 106.7 106.7 106.7 106.7 106.7 106.7 106.7 106.7 106.7 106.7 106.7 106.7 106.7 106.5 106.8 107.1 107.5 107.6 107.7 107.9 108 108.2 108.2 108.4 109.3 109.1 109.5 109.6 110.1 111 111.9 113.1 115 115.3 115.9 117.6 118.6 119.4 120.6 121.2 121.9 122.8 124.5 125.7 126.8 127.3 128 129.4 131.3 134 138 141.1 142.1 143.5 150.3 152 155.5 162.5 168.3 178.8 187.3 191.9 199.4 215.9 230.6 255.6 281.5 303.9 328 348.6 365.3 381.4 392 394.4 388.4 380.1 374.4 366.9 358.7 356.4 356.8 356 354 350.6 345.7 339.5 335.1 330 324.5 318.7 312 305.7 299.6 293.8 288 282.5 276.9 271.8 266.7 262.9 260 256.3
125 125.1 125 125 124.5 123.5 123.3 123 123 123.1 123.2 123 122.5 122.4 122.2 122.1 121.8 121.3 121.3 121.7 120.1 119.9 120.1 119.5 119.1 119.1 119.2 120.2 119.7 119.8 119.7 119.3 118.5 118.7 118.2 117.9 117.1 117.7 117.3 118.2 116.7 116.5 115.5 115.4 113.5 111.8 110.7 110.2 109.7 108.7 109 109.2 108.8 108.1 108.6 108.4 108.7 108.2 108.1 107.9 107.6 106.8 106.7 106.7 106.7 106.7 106.7 106.7 106.7 106.7 106.7 106.7 106.7 106.7 106.7 106.7 106.7 106.7 106.7 106.7 106.7 106.7 106.7 106.7 106.7 106.7 106.7 106.7 106.7 106.7 106.7 106.7 106.7 106.7 106.7 106.7 106.7 106.7 106.7 106.7 106.7 106.7 106.7 106.7 106.7 106.7 106.7 106.7 106.7 106.7 106.7 107.3 107.1 107.7 107.2 107.7 107.8 108 108.1 108.1 108.1 108.3 108 108.6 109.2 109.6 109.8 110.5 111.3 111.8 113.6 115.2 116.5 119.2 119.5 119.8 120.1 120.6 121.3 122.7 123.2 124.4 125.7 125.6 126.2 127.1 129.4 132.7 136.2 138.3 141.5 141.5 146.1 148.6 152.9 160.1 167.3 172.5 186.2 192.5 196.9 205.4 227 245.7 264.1 288.4 311.3 333.1 351.7 366.1 374.2 374.2 372.5 364.1 359.8 354.7 350.5 349.7 351.6 351.3 348.2 345.1 342.2 339 332.8 327 321.8 316.2 310 304 298.8 292.7 287 282.4 277.1 273.2 268.6 264.3 260.1 256.5
124.4 124.4 124.9 124.8 124.4 124.2 123.8 123.4 123.5 123.1 123.2 122.7 122.2 122.6 122.3 122.3 122.3 121.7 122 120.2 121.4 121 120 120 120.4 120.5 120.1 119.9 119.6 119.6 119.7 118.2 118.5 118.4 118 118 118.2 118.8 116.7 117.4 116.1 116.8 117.7 116.6 115.4 111.5 109.7 109.8 109.9 108.5 109.2 109.5 108.9 108.6 108.9 108.4 108 108.2 108.3 107.4 107 106.7 106.7 106.7 106.7 106.7 106.7 106.7 106.7 106.7 106.7 106.7 106.7 106.7 106.7 106.7 106.7 106.7 106.7 106.7 106.7 106.7 106.7 106.7 106.7 106.7 106.7 106.7 106.7 106.7 106.7 106.7 106.7 106.7 106.7 106.7 106.7 106.7 106.7 106.7 106.7 106.7 106.7 106.7 106.7 106.7 106.7 106.7 106.7 106.7 106.7 106.7 106.7 107 106.6 107.8 107.9 108 108 107.9 107.9 108.6 108.4 108.9 108.9 109.4 109.7 110 110.3 111.3 112.7 114.9 117.5 120.2 120.5 119.3 119.3 120.1 121 121.2 122.2 123.7 124.9 124.1 124.5 125.1 126.4 129.4 133 135.4 137 139.7 144.2 148.8 151.4 154.9 160.9 173.9 179.6 179 192.5 205.3 218.5 225.2 245.6 271.3 295.3 316.3 337.5 350 360.6 361.2 359.2 355.6 352.9 349.5 347.3 346 347.7 345.5 342.3 339.2 336.4 334.2 330 324.5 319.3 312.7 306.5 301.2 297.3 292.4 287.4 281.5 276.9 272.8 267.8 263.8 260.2 256.5
124.8 124.2 124.4 124.2 124 124.1 124 123.8 124 124.3 123.7 122.1 122.9 121.7 121.7 121.7 121.6 121.2 122 120.1 123.2 121.2 120.3 120.3 120.8 120.4 120.7 119.8 119.9 119.7 118.8 118.3 118.7 119.4 118.4 118.9 117.7 118.1 116.5 116.6 118.1 118.2 117.1 115.8 114.9 110.9 110.2 110.4 109.5 109.1 109.5 108.9 109 108.4 108.5 108.9 108.5 107.7 107.2 107.6 106.7 106.7 106.7 106.7 106.7 106.7 106.7 106.7 106.7 106.7 106.7 106.7 106.7 106.7 106.7 106.7 106.7 106.7 106.7 106.7 106.7 106.7 106.7 106.7 106.7 106.7 106.7 106.7 106.7 106.7 106.7 106.7 106.7 106.7 106.7 106.7 106.7 106.7 106.7 106.7 106.7 106.7 106.7 106.7 106.7 106.7 106.7 106.7 106.7 106.7 106.7 106.7 106.7 106.7 106.7 107.7 108 108 107.9 108.2 108.4 108.5 108.2 108.5 108.4 109.1 109.7 109.8 109.8 110.5 111.4 114.2 117.1 120 120.9 119.3 118.7 119.7 120 120.3 121.7 123.1 122.4 122.9 123.3 123.7 124.7 125.9 128.3 132.1 133.9 137.9 141.8 145 147.6 151.9 159.3 166 176.3 188.3 194.4 199.8 203.6 218.2 228.7 250 279.7 302.1 322.8 340 352.1 354.4 354 352.2 350 347.6 344.9 342.8 342.9 339.6 336.5 333.3 330.7 328.5 324.4 319.8 314.7 309.2 303.3 298.2 294.2 289.9 284.9 279.5 274.7 270.3 266.7 262.7 259.4 255.5
124.6 124.1 124.6 124.5 123.9 124 123.7 123.5 124.7 124.9 124.2 123.2 122.1 122.5 121.7 121.5 121.8 121.1 122.8 119.7 126.3 120.1 119.2 121.3 121.9 120.7 120.5 120.5 119.3 119 118.1 117.9 118.7 118.6 118.7 119 117.6 117.5 117.3 118 117.7 117.9 117.4 116.3 114.5 110.2 110.6 110.1 108.6 108.6 108.1 108.7 108.5 108.6 108.6 108.5 107.9 107.4 108 107.6 106.7 106.7 106.7 106.7 106.7 106.7 106.7 106.7 106.7 106.7 106.7 106.7 106.7 106.7 106.7 106.7 106.7 106.7 106.7 106.7 106.7 106.7 106.7 106.7 106.7 106.7 106.7 106.7 106.7 106.7 106.7 106.7 106.7 106.7 106.7 106.7 106.7 106.7 106.7 106.7 106.7 106.7 106.7 106.7 106.7 106.7 106.7 106.7 106.7 106.7 106.7 106.7 106.7 106.7 106.7 106.7 108 108 107.9 107.9 108.2 108.4 108.4 108.2 108.9 109 109.4 109.5 109.7 109.7 110.6 112.5 115.6 119.2 120.4 118.2 118 118.4 118.8 119.7 120.8 120.9 121 121.6 121.4 122.8 123.9 125 127.6 130.2 132.8 136.1 138.2 141.6 145.7 151.2 155.7 162 172.6 184.8 184.9 189.3 200.5 207.5 217.5 239.7 265.2 289.5 311.8 328.3 344.6 349.6 349.5 349.2 347.9 345.9 343.3 341.2 337.4 333.6 330.1 327.5 324.1 319.7 316.3 312.6 309.1 304.2 299.7 293.7 290.9 286.6 281.9 276.6 272.4 268.6 264.8 260.6 257.4 252.4
124.5 124.4 124.4 124.3 124.9 124.8 124.5 124.3 123.9 123.6 123.8 123.2 122.2 121.8 122.1 122.4 122.1 121.9 124 119.9 126.6 120.4 118.7 119 121.3 120.9 120.5 119.7 119.5 119.2 118.5 118.1 119 119.4 118.6 117.8 118.4 118.8 117.9 118.2 118.2 117.3 117.3 115.5 113.4 111.8 110.4 110.1 108.7 108.2 108.1 107.9 108.1 108.9 108.7 108.1 107.8 108.1 107.3 106.7 106.7 106.7 106.7 106.7 106.7 106.7 106.7 106.7 106.7 106.7 106.7 106.7 106.7 106.7 106.7 106.7 106.7 106.7 106.7 106.7 106.7 106.7 106.7 106.7 106.7 106.7 106.7 106.7 106.7 106.7 106.7 106.7 106.7 106.7 106.7 106.7 106.7 106.7 106.7 106.7 106.7 106.7 106.7 106.7 106.7 106.7 106.7 106.7 106.7 106.7 106.7 106.7 106.7 106.7 106.7 106.7 107.6 107.8 107.5 107.5 107.7 108.1 108.3 108 108 109 108.9 109.3 109.9 109.4 109.6 111 114.1 117.7 119.5 117.5 117.3 116.8 118.2 119.1 119.1 119.7 119.8 120 119.7 121.4 123 124.4 126.6 128.5 130.4 133.1 136 140.3 145.7 149.9 152 159.5 167.2 170.6 180.3 186.1 196.2 197.1 206.7 223.1 243.5 265.5 299.4 323.1 339.1 343.6 346.1 344.9 344 342.2 340 336.4 333 328.1 323.8 321.7 318 313.9 309.6 307.3 303.8 300 295.4 291.6 287.6 283.6 278.6 274.9 270.2 267.2 263.9 261.5 258.2 255.4
122 121.8 121.5 121.2 120.6 120.6 120.4 121 119.4 119.1 122.8 119.9 122.3 121.6 122.6 123.3 124.1 121.6 127.6 121.2 121.3 126.2 119.5 117.7 121.1 120.6 120.3 120.1 120.3 119.5 118.7 118 118.6 119 119.2 119.1 118.8 118.6 118.4 117.8 117.8 117.1 116.2 115.1 113 111.2 111 110.1 109.6 108.9 108.4 108.4 108.6 108.8 108.1 107.6 107.8 107.9 106.7 106.7 106.7 106.7 106.7 106.7 106.7 106.7 106.7 106.7 106.7 106.7 106.7 106.7 106.7 106.7 106.7 106.7 106.7 106.7 106.7 106.7 106.7 106.7 106.7 106.7 106.7 106.7 106.7 106.7 106.7 106.7 106.7 106.7 106.7 106.7 106.7 106.7 106.7 106.7 106.7 106.7 106.7 106.7 106.7 106.7 106.7 106.7 106.7 106.7 106.7 106.7 106.7 106.7 106.7 106.7 106.7 106.7 106.7 106.9 107.2 107.6 107.8 107.8 107.5 107.4 107.5 107.1 108.4 109.1 109 109.6 109.3 109.7 111.7 115.2 118.4 117.7 115.7 116.1 117 118 117.7 117.8 118.2 118.7 117.9 119.4 121.9 123.9 124.9 126.6 128.7 130.6 134.4 137 143.5 145.4 149.7 155.3 160.5 169.2 177.6 183.9 186.8 187.6 199.3 210.4 238.3 267.5 291.2 315.3 336.1 341.8 341.2 340 341.7 338.7 335 331.9 326.2 324.3 319.6 316.7 313.6 309.2 305 301.9 299.2 295.5 292.1 289.3 285.2 280.8 277.2 276 273 269.8 266.2 262.8 259.2 254.8
121.8 121.8 121.2 120.8 120.3 119.9 119.6 119.6 119.1 119.3 119.3 119.2 119.1 119 119.2 120.5 120.9 125.4 127.5 122.2 120 125.9 123.7 120.9 120.6 120.5 120.7 119.9 120.1 120 119.8 118.3 119.1 119.2 118.9 119.4 118.9 118.7 118.3 118.5 117.8 117.8 116.3 114.3 113.5 111.7 110.6 109.5 109.9 108.8 109.3 108.8 108.1 108.4 108.1 108.3 108 107.5 106.7 106.7 106.7 106.7 106.7 106.7 106.7 106.7 106.7 106.7 106.7 106.7 106.7 106.7 106.7 106.7 106.7 106.7 106.7 106.7 106.7 106.7 106.7 106.7 106.7 106.7 106.7 106.7 106.7 106.7 106.7 106.7 106.7 106.7 106.7 106.7 106.7 106.7 106.7 106.7 106.7 106.7 106.7 106.7 106.7 106.7 106.7 106.7 106.7 106.7 106.7 106.7 106.7 106.7 106.7 106.7 106.7 106.7 106.7 106.7 107 107.8 107.5 107.6 107.9 107.2 107.8 107.5 107.8 106.9 108.4 109.1 109.1 109.2 110.5 112.9 117.2 115.8 114.8 115.4 116.2 116.7 116.6 116.8 116.8 116.3 115.6 118.9 121.3 122.1 123.5 125 126.7 129.4 132 134.9 138.8 142.1 148.6 151.5 157.2 163.6 174.4 179.1 177.5 191.9 205 216.1 228.3 254.8 282 309.3 332.4 339.5 337.5 335.5 335.8 333.9 330.4 325.9 323.2 318.9 315 312.6 309.2 305.7 302.3 298.3 296.4 294.6 292.6 290.6 288.4 285.8 283.7 280.1 276.2 272.1 267.7 263.2 258.8 254.4
122.2 121.5 121 120.5 119.9 119.6 119.2 119 119.1 119.1 119.1 118.8 118.9 118.6 118.3 118.4 120.3 120.8 125 126.1 119.6 125.7 121.1 121.2 120.7 120.8 119.9 120 120.2 119.4 119 118.8 119.2 119 119 119.3 118.3 119 118.8 118 118 117.4 116.8 115.5 114.2 112 111 110.5 109.3 110.2 109.1 109.1 107.8 108.3 107.3 107.8 107.6 107.1 106.7 106.7 106.7 106.7 106.7 106.7 106.7 106.7 106.7 106.7 106.7 106.7 106.7 106.7 106.7 106.7 106.7 106.7 106.7 106.7 106.7 106.7 106.7 106.7 106.7 106.7 106.7 106.7 106.7 106.7 106.7 106.7 106.7 106.7 106.7 106.7 106.7 106.7 106.7 106.7 106.7 106.7 106.7 106.7 106.7 106.7 106.7 106.7 106.7 106.7 106.7 106.7 106.7 106.7 106.7 106.7 106.7 106.7 106.7 106.7 106.7 107.3 106.8 107.4 108 108 107.6 107.5 107.8 108 108.6 108.3 109.5 109.6 109.9 112 115.4 115.6 114.1 114.4 115.2 115.1 116.1 115.2 115.5 114.2 116.3 117.6 119 120.5 122.5 123.6 125.3 128.1 130.4 133.8 136.3 141.5 144.5 149.6 153 158.7 162.1 169.7 183.6 187.2 191.1 204.1 228.6 256 280.9 307.8 329.9 336 337.8 336.3 334.1 332 329.1 325.7 324.1 320.2 320 317.9 317.6 314.9 311.5 309.7 306.3 304 303.2 299.9 296.2 292.5 289.1 285.5 282 277.5 273.3 268.5 264 259.6
120.3 122.9 120.5 120.2 119.5 119.5 119.1 118.8 118.7 119.4 119.7 118.2 118.6 118.8 118.3 117.9 120.5 119.7 119.8 126.7 119.6 125.8 118.7 118.1 118.7 120.7 120.3 120.1 120.1 120.3 119.1 119.5 119.9 119.6 120.1 119.2 118.9 119.3 119.1 117.5 118.1 117.8 117.7 115.8 113.5 112.1 110.7 110.8 109.3 109.7 109.9 108.8 109.1 108.2 108.2 108.1 108 107.6 106.7 106.7 106.7 106.7 106.7 106.7 106.7 106.7 106.7 106.7 106.7 106.7 106.7 106.7 106.7 106.7 106.7 106.7 106.7 106.7 106.7 106.7 106.7 106.7 106.7 106.7 106.7 106.7 106.7 106.7 106.7 106.7 106.7 106.7 106.7 106.7 106.7 106.7 106.7 106.7 106.7 106.7 106.7 106.7 106.7 106.7 106.7 106.7 106.7 106.7 106.7 106.7 106.7 106.7 106.7 106.7 106.7 106.7 106.7 106.7 106.7 106.7 106.7 107.2 107.4 107.8 107.9 107.5 107.6 107.7 108.2 108.2 108.6 109.7 110.3 111.1 113.3 114.9 113.7 113 113.1 114.3 114.2 114 113.1 114.7 115.8 117.2 118.6 119.5 120.8 121.9 124.2 125.9 128.6 130.6 135.6 139.4 143.1 146.1 151.2 158 165.5 165.6 171 182.8 194.4 202.1 222.1 250.7 278.3 304.6 321 327 332.4 334.6 331.1 328.4 328.1 328.2 331.7 332.9 334.7 334.4 334 330.3 323.8 318.6 315.8 310.8 307.3 303.4 304.3 303.7 301.1 298.3 294.3 288.4 281.8 275.4 270.3 264.3
117.4 117.4 117.4 120.9 120.6 119.4 118.7 118.6 118.4 118.4 119.9 119.4 118.6 118.5 118.3 118 120.3 119.7 119.9 120.8 120.8 122.5 119.3 118.5 118.9 120.1 120.4 120.4 119.8 120.3 119.7 119.5 119.7 119.3 120.3 120.8 119.4 119.7 118.6 118.7 118.8 118.4 116.8 115.4 114 112.8 112.4 110.5 110.3 109.7 109.4 109.9 108.9 108.3 108.4 107.9 108 107.7 106.7 106.7 106.7 106.7 106.7 106.7 106.7 106.7 106.7 106.7 106.7 106.7 106.7 106.7 106.7 106.7 106.7 106.7 106.7 106.7 106.7 106.7 106.7 106.7 106.7 106.7 106.7 106.7 106.7 106.7 106.7 106.7 106.7 106.7 106.7 106.7 106.7 106.7 106.7 106.7 106.7 106.7 106.7 106.7 106.7 106.7 106.7 106.7 106.7 106.7 106.7 106.7 106.7 106.7 106.7 106.7 106.7 106.7 106.7 106.7 106.7 106.7 106.7 107 107.3 108 107.7 107.9 108.1 108 108.2 108.5 108.7 110.2 110.2 110.1 111.3 113.8 113.4 112.5 112.9 114 113.8 113 113.6 113.7 115.3 116.7 117.8 118.5 119.5 120.8 121.7 123.8 125.6 129.2 133.3 136.6 139.7 142.8 147.5 151.6 158.2 164.4 172.1 177.8 188.4 205 225.2 248.7 279.7 301.4 309.5 315.8 320.5 322.3 322.7 319.5 320.1 325.2 329 328.3 329.5 328.7 326.6 324 319.9 316.5 310.1 307 308.8 314.1 314.1 315.2 312.7 307.6 301 294.2 287.8 279.9 272.7 265.8
117.4 117.4 117.4 122.1 120.7 120.3 118.5 118.5 118.2 118.1 119.1 120.1 118.2 118.1 118 117.8 119.1 117.9 117.8 118.5 123 118.9 118.3 117.3 117.7 119.8 120.1 120.7 120.4 120.6 119.7 120.2 120.2 120 121.1 121.5 120.2 119.2 119.8 120.1 117.7 117.2 115.9 115 113.9 112.4 111.8 110.8 110.2 109.6 109.5 110.1 109.2 109.5 108.6 108.1 107.9 106.9 106.7 106.7 106.7 106.7 106.7 106.7 106.7 106.7 106.7 106.7 106.7 106.7 106.7 106.7 106.7 106.7 106.7 106.7 106.7 106.7 106.7 106.7 106.7 106.7 106.7 106.7 106.7 106.7 106.7 106.7 106.7 106.7 106.7 106.7 106.7 106.7 106.7 106.7 106.7 106.7 106.7 106.7 106.7 106.7 106.7 106.7 106.7 106.7 106.7 106.7 106.7 106.7 106.7 106.7 106.7 106.7 106.7 106.7 106.7 106.7 106.7 106.7 106.7 107.3 107.7 107.7 107.9 108.1 107.8 107.8 108.3 108.6 108.7 109 110.4 109.8 110.4 111.5 112.1 111.9 112.9 113.8 113.3 113 113 113.7 114.9 116 116.7 117.4 118.3 119.3 120.5 122.1 124.9 127.5 130.3 134.2 137.5 140.4 143.7 149.1 155.3 164 174 185.4 192.6 207.6 228.2 253 280.5 294.7 299.7 302.8 305.8 306.5 308.4 309.4 313.3 314 313.4 315.2 319.3 322 324.1 321.8 317 315.8 313.8 318.9 325.4 320 315.3 317 315.5 309 301.4 295.1 286.9 278.2 266 257.8
118.2 117.4 117.4 121.8 120.7 120.4 120 118.9 118.5 118.1 118.9 119.8 117.9 117.8 117.6 118 119.3 117.3 117.8 117.4 121.2 118.6 120 117.5 117.3 115.4 115 119.8 119.5 119.2 120 120.4 119.7 120.7 123.1 122.2 120.7 119.2 118.8 118.5 118.4 116.7 115.1 113.6 113.5 112.1 112 112 111.1 110.4 109.9 109.2 109.8 108.8 109.3 108.4 107.7 106.9 106.6 106.7 106.7 106.7 106.7 106.7 106.7 106.7 106.7 106.7 106.7 106.7 106.7 106.7 106.7 106.7 106.7 106.7 106.7 106.7 106.7 106.7 106.7 106.7 106.7 106.7 106.7 106.7 106.7 106.7 106.7 106.7 106.7 106.7 106.7 106.7 106.7 106.7 106.7 106.7 106.7 106.7 106.7 106.7 106.7 106.7 106.7 106.7 106.7 106.7 106.7 106.7 106.7 106.7 106.7 106.7 106.7 106.7 106.7 106.7 106.7 106.7 106.7 106.7 107.3 107.2 107.7 108.1 108.3 108.1 107.8 108.4 107.7 108.5 109.1 109.7 110.3 111.1 111.4 112.2 114.5 113.3 112.5 112.1 112.8 113.6 114.6 115.1 116.1 117 117.5 118.5 119.7 120.9 123.1 125.7 128.3 130.8 133.5 135.7 141.7 149.3 154.5 161.7 165.3 177.4 193.1 207.4 223.4 247.7 272.5 286.5 291.9 294.5 296.1 294.9 295 295.2 295.8 296 296.9 301 309 315.1 319.7 321.3 320 323.5 321.3 316.8 311.1 310.5 308.6 306.8 307.6 304 297.7 290.5 281.2 268 256.8 249.9
119.1 117.4 117.4 118.8 120.4 120.5 120.3 119.3 118.4 117.4 118.1 119.1 118 117.7 118.6 118.1 119.6 117 117.3 117 116.7 119.9 120.1 117 117.1 117 116.2 115.5 117.4 118.2 118.2 119.3 119.7 119.4 122 122.7 121.6 119.4 118.4 118.8 118.1 118.8 115.9 113.5 113.4 112.4 112.1 111.5 111.3 110 110.2 109.8 109.9 108.9 108.6 108 107.6 107.2 106.7 106.7 106.7 106.7 106.7 106.7 106.7 106.7 106.7 106.7 106.7 106.7 106.7 106.7 106.7 106.7 106.7 106.7 106.7 106.7 106.7 106.7 106.7 106.7 106.7 106.7 106.7 106.7 106.7 106.7 106.7 106.7 106.7 106.7 106.7 106.7 106.7 106.7 106.7 106.7 106.7 106.7 106.7 106.7 106.7 106.7 106.7 106.7 106.7 106.7 106.7 106.7 106.7 106.7 106.7 106.7 106.7 106.7 106.7 106.7 106.7 106.7 106.7 106.7 107 107.3 107.7 107.8 108 108 107.5 108.2 108.2 107.8 109.2 109.6 109.9 110.7 110.9 111.8 112.6 113.1 111.8 112 112.8 114 115 115.9 116.1 116.6 116.9 117.3 118.4 119.8 121.4 123.1 124.8 126.4 128.6 131.4 135.6 142 147.8 152.7 164.4 176.3 179.5 193.2 217.9 238.4 261 276.5 283.2 286.2 285.6 284.6 281.9 279.5 276.8 280 281.1 283.1 286.2 287.4 286.4 293.5 303 302 295.3 287.2 286.3 280.4 280.5 283.9 283.1 278.2 271.3 265.3 258.2 252.4 245.9 239.2
119.6 117.4 118.2 117.3 117.3 117.5 117.4 117.5 117.7 118.9 117.1 118.3 118.1 118.9 118.7 119 118.4 117.6 117 116.8 116.5 119.7 118.3 117.8 116.6 116.7 115.9 115.2 115.8 117 118.4 118.8 119 118.7 118.7 121.6 121.8 120.5 119 119.2 118.6 118.5 118.1 115.5 113.6 113.1 112 112.3 111.9 109.8 109.3 109.1 109.9 108.9 108.5 108.4 107.4 107 106.7 106.7 106.7 106.7 106.7 106.7 106.7 106.7 106.7 106.7 106.7 106.7 106.7 106.7 106.7 106.7 106.7 106.7 106.7 106.7 106.7 106.7 106.7 106.7 106.7 106.7 106.7 106.7 106.7 106.7 106.7 106.7 106.7 106.7 106.7 106.7 106.7 106.7 106.7 106.7 106.7 106.7 106.7 106.7 106.7 106.7 106.7 106.7 106.7 106.7 106.7 106.7 106.7 106.7 106.7 106.7 106.7 106.7 106.7 106.7 106.7 106.7 106.7 106.7 106.7 106.5 107.6 106.6 107.8 107.7 107.8 108.2 108.1 108.1 108.7 108.9 110 110.3 110.6 110.8 111 111.1 111.4 112.5 113.1 114.1 114.6 115.7 115.5 115.6 115.9 116.1 117.2 118.5 120.3 121.2 122.2 123.2 125.3 127.8 131.2 134.6 139.2 143.5 152.7 161.9 170.9 184.8 205.7 226.4 245.1 261.9 274.3 277.2 277.9 275.5 271.8 268.8 268.4 265.3 265.2 264.5 260 260.5 260.3 260 259.8 264.6 265.9 266.6 269.3 265.6 267 257.2 254.4 252.6 248.5 243.2 239.6 236.2 231.2 228.2
119.4 119.3 119.3 118.4 118.1 118.2 118.6 118.5 118 117.4 117.8 117.5 118.5 118 118.4 118.5 118 117.6 117.1 117 116.8 116.8 118.6 118.2 116.2 116.4 116.2 114.9 114.4 115.3 117.5 118.2 117.5 117.7 118.8 117.8 118.8 119.1 118.7 120 121.5 122.1 120.6 117 113.7 114.3 113.3 112.5 112 110.5 109.7 108.7 109 108.9 108.8 108.4 107.8 108 106.7 106.7 106.7 106.7 106.7 106.7 106.7 106.7 106.7 106.7 106.7 106.7 106.7 106.7 106.7 106.7 106.7 106.7 106.7 106.7 106.7 106.7 106.7 106.7 106.7 106.7 106.7 106.7 106.7 106.7 106.7 106.7 106.7 106.7 106.7 106.7 106.7 106.7 106.7 106.7 106.7 106.7 106.7 106.7 106.7 106.7 106.7 106.7 106.7 106.7 106.7 106.7 106.7 106.7 106.7 106.7 106.7 106.7 106.7 106.7 106.7 106.7 106.7 106.7 106.7 106.7 107.1 107.1 107.7 107.9 108 108.1 107.9 107.8 108.9 109.4 109.9 110.1 110.3 110.5 110.4 110.8 111.1 110.4 112.8 113.5 114.2 115.2 114.6 114.3 114.1 115.4 116.4 118.2 118.8 119 119.9 120.7 123.1 124.8 127.2 131 134.2 138.1 145.5 154.6 165 174.7 191.2 210.8 230.3 250.3 267 271.5 272.4 271.7 267 264 261.1 258.2 256.1 252.8 249.3 246.7 244.6 241.8 238.3 237.2 238 238.7 239.1 238.9 238.1 238.9 234.8 230.5 229.4 227.8 227.5 225.8 223.8 221.8
120.6 120.4 119.9 119.2 118.5 118.5 118.6 118.6 118 117.4 119.9 118.7 116.2 116.1 117.5 117.8 117.6 117.5 117.3 117.2 116.4 116.1 117.1 118.1 115.8 115.9 114.6 115 115.4 114.9 115.1 115.4 115.3 115.3 117 117.2 116.9 116.9 118.8 119.7 123.1 122.1 120 116.8 113 113 113.4 113 112.4 111.1 109.5 110.6 109.8 109.7 109.1 108.7 107.8 107.4 107.4 106.6 106.7 106.7 106.7 106.7 106.7 106.7 106.7 106.7 106.7 106.7 106.7 106.7 106.7 106.7 106.7 106.7 106.7 106.7 106.7 106.7 106.7 106.7 106.7 106.7 106.7 106.7 106.7 106.7 106.7 106.7 106.7 106.7 106.7 106.7 106.7 106.7 106.7 106.7 106.7 106.7 106.7 106.7 106.7 106.7 106.7 106.7 106.7 106.7 106.7 106.7 106.7 106.7 106.7 106.7 106.7 106.7 106.7 106.7 106.7 106.7 106.7 106.7 106.7 106.7 106.7 106.7 106.8 107.8 107.8 107.7 107.7 108.1 108.1 109.1 109.1 109.8 109.9 109.7 109.9 109.9 110.7 111.4 112.8 114.3 115 115.2 114.2 113.8 113.1 114.6 115.9 116.2 117.2 117 117.4 119.7 120.2 122.2 124.1 127.9 131.3 137.1 147.4 155.7 159.5 166.6 179.5 197.7 216.9 235.4 253.8 262.7 264.2 264.7 261.6 257.9 253.6 250.5 247.7 244.8 243.2 241.3 239.5 236.8 234.3 231.9 230.4 229.5 230 228.8 228.6 226.9 224.6 224.9 224.6 223.3 222.6 222.4 221.6 220.1
123 121.5 120.4 119.7 118.9 118.4 118.5 118.6 117.8 121.7 120.6 120.9 116.1 116.1 116.3 116.4 116.9 116.3 116 116 115.8 115.7 115.5 118.5 116.2 115.1 114.9 114.2 114.9 114.1 114.2 114.1 113.1 113.5 113.8 115 115.5 115.6 115.7 118.4 120.9 119.6 118.6 118.5 116.3 112.5 112.8 113.5 113 112.5 112.2 110.4 109.3 110.1 109.9 108.7 108.8 108.1 107.3 106.7 106.7 106.7 106.7 106.7 106.7 106.7 106.7 106.7 106.7 106.7 106.7 106.7 106.7 106.7 106.7 106.7 106.7 106.7 106.7 106.7 106.7 106.7 106.7 106.7 106.7 106.7 106.7 106.7 106.7 106.7 106.7 106.7 106.7 106.7 106.7 106.7 106.7 106.7 106.7 106.7 106.7 106.7 106.7 106.7 106.7 106.7 106.7 106.7 106.7 106.7 106.7 106.7 106.7 106.7 106.7 106.7 106.7 106.7 106.7 106.7 106.7 106.7 106.7 106.7 106.7 106.4 106.9 106.7 107.7 108.1 108 107.8 107.6 108.7 109.1 109.6 109.6 110.2 110 110.2 110 110.1 111.9 113.4 114.6 114.8 114.5 113.7 113.2 113.7 114.7 114.9 115.2 115.2 116.3 117 117 118.6 121.5 124.5 128.7 134.1 140.9 143.4 156 167.3 172.8 182.9 203 223 239.3 250 256.2 254.7 252 249.2 244.7 241.5 238.6 235.6 234.1 232.7 233 230.8 229.6 228.7 227.4 225.9 224.9 224.9 224.7 223.5 222 221.8 221.7 221 220.2 219.9 218.6 216.9
126.9 125.4 123.5 121.1 119.2 118.4 118.4 118.5 119.6 116.4 116.4 116.4 116.7 116.1 116.1 118.6 115.6 115.3 115.1 115.3 115.2 115.5 114.8 116.6 116.3 114.8 114.7 114 114.1 113.3 113.5 112.8 112.5 112.3 112.5 112.9 112.3 113.3 113.4 115.3 118 120.2 119.6 118.2 116.6 116.2 115.6 114.8 113.7 112.7 112.5 112.3 112.2 112.3 111.6 110.3 109 108 107.7 106.7 106.7 106.7 106.7 106.7 106.7 106.7 106.7 106.7 106.7 106.7 106.7 106.7 106.7 106.7 106.7 106.7 106.7 106.7 106.7 106.7 106.7 106.7 106.7 106.7 106.7 106.7 106.7 106.7 106.7 106.7 106.7 106.7 106.7 106.7 106.7 106.7 106.7 106.7 106.7 106.7 106.7 106.7 106.7 106.7 106.7 106.7 106.7 106.7 106.7 106.7 106.7 106.7 106.7 106.7 106.7 106.7 106.7 106.7 106.7 106.7 106.7 106.7 106.7 106.7 106.7 106.7 106.5 107.2 107.8 107.7 107.5 107.6 107.8 108.8 108.7 109.3 109.3 109.7 109.8 109.9 109.8 109.6 109.3 111 112.1 113.3 114.6 113 112.7 113 113.3 113.3 113.5 113.9 114.6 115 115.3 116.4 119.4 121.5 126.4 128.3 134.6 143.3 151.1 158.1 167.2 174.1 187.6 205.9 222.6 232 237.7 238.5 236.5 235.7 232.3 230.2 228.4 226.3 224.1 224.7 221.1 219.7 219.6 220.8 219.7 219 215.5 216.5 216.3 218.1 216 217.2 216.3 215.7 214.5 213.5 212.5 211.2
128.6 127.8 126.8 124 120.7 119.3 118.3 118.3 122.4 116.4 116.4 116.4 115.9 115.9 119.8 120.6 119.8 114.9 114.3 114.3 115 115.1 114.2 114 117.6 114.3 114 114.1 113.6 113.5 113 112.4 112.4 111.7 111.4 111.2 111.5 111.7 112.5 112.1 112.9 118.8 118.5 118.6 117.4 115.2 114.3 113.7 113.5 112.8 112.5 112.3 112.3 112.3 112.2 109.7 109.3 108.1 107.4 106.7 106.7 106.7 106.7 106.7 106.7 106.7 106.7 106.7 106.7 106.7 106.7 106.7 106.7 106.7 106.7 106.7 106.7 106.7 106.7 106.7 106.7 106.7 106.7 106.7 106.7 106.7 106.7 106.7 106.7 106.7 106.7 106.7 106.7 106.7 106.7 106.7 106.7 106.7 106.7 106.7 106.7 106.7 106.7 106.7 106.7 106.7 106.7 106.7 106.7 106.7 106.7 106.7 106.7 106.7 106.7 106.7 106.7 106.7 106.7 106.7 106.7 106.7 106.7 106.7 106.7 106.7 106.3 107.1 107.7 107.7 107.6 107.7 107.9 107.9 108.9 108.8 109.4 110 110.1 109.5 109.6 109.3 108.4 109.5 110.3 111.3 112.6 113.1 111.9 112.3 112.1 112.1 112.3 112.5 114 113.7 113.8 114.2 116 118.6 122.4 123.7 130.2 135.3 142.2 147.5 158.5 160.2 171.5 185.4 197.2 210.1 215.8 217.4 219.6 219.7 217.6 216.1 216.1 217 218 215 210.7 208.2 207.5 209.4 208.6 207.9 205.3 206.2 205.6 205 203 204.1 205.9 206.8 206 206.4 205.8 204.5
127.9 127.9 126.5 124.6 123.7 121.6 118.9 118.5 116.8 116.4 116.4 116.4 115.9 118.1 121 120.7 120.2 119.3 116.2 114.8 114.4 114.3 113.8 113.9 115.8 115.9 113.4 113.4 113.5 112.6 112.5 112.1 112 111.7 111.5 110.9 111.5 111.2 111 110.9 110.6 111.6 114.2 116.8 117.7 115.1 113.8 113.5 114.6 113.4 112.7 112.9 112.9 112.5 111.2 110 109.3 107.9 107.3 106.8 106.7 106.7 106.7 106.7 106.7 106.7 106.7 106.7 106.7 106.7 106.7 106.7 106.7 106.7 106.7 106.7 106.7 106.7 106.7 106.7 106.7 106.7 106.7 106.7 106.7 106.7 106.7 106.7 106.7 106.7 106.7 106.7 106.7 106.7 106.7 106.7 106.7 106.7 106.7 106.7 106.7 106.7 106.7 106.7 106.7 106.7 106.7 106.7 106.7 106.7 106.7 106.7 106.7 106.7 106.7 106.7 106.7 106.7 106.7 106.7 106.7 106.7 106.7 106.7 106.7 106.7 106.7 106.4 106.8 107.7 107.7 107.7 107.9 108.3 108.1 108.9 109.4 108.6 109.5 109 109.5 109.7 108 109 109 110 110.3 110.5 111 111.8 111.2 111.4 111.4 111.5 113.8 112.4 112.5 112.6 113 114.4 117.2 119.7 124 128.7 133.9 140.5 142.6 155.2 157.7 164.6 175 185.6 191.9 199.1 201.1 202.7 200.9 200.7 200.8 203.7 203.8 200.4 195 196.1 197.7 197 195.1 196.5 196.1 195.7 197.1 196.9 195.3 194.3 194 193.4 194.5 196.4 198.3 197.9
126.2 125.7 124.6 124.4 124.2 123.5 121.8 119.9 118.1 118 117.2 116.2 116 121.4 121.1 120.7 120.1 118.8 117.9 115.3 114.3 113.7 113.3 113.3 112.9 116.9 113 112.9 112.5 112.4 111.7 111.4 110.9 110.5 110.5 110.8 110.5 111.1 109.9 110.8 110.3 110.4 110.2 110.3 110.5 111.9 109.4 109.8 110.7 113 112.4 113 112.6 112.3 110.5 109.6 108.9 108 107.5 107.1 106.7 106.7 106.7 106.7 106.7 106.7 106.7 106.7 106.7 106.7 106.7 106.7 106.7 106.7 106.7 106.7 106.7 106.7 106.7 106.7 106.7 106.7 106.7 106.7 106.7 106.7 106.7 106.7 106.7 106.7 106.7 106.7 106.7 106.7 106.7 106.7 106.7 106.7 106.7 106.7 106.7 106.7 106.7 106.7 106.7 106.7 106.7 106.7 106.7 106.7 106.7 106.7 106.7 106.7 106.7 106.7 106.7 106.7 106.7 106.7 106.7 106.7 106.7 106.7 106.7 106.7 106.7 106.3 107 107 107.4 107.7 108.1 107.7 107.5 107.8 108.1 108.9 109.1 109.1 109.1 109 109.1 108.5 109.2 109.5 109.9 110.1 110.2 110.9 110.2 110.6 110.6 110.9 112.5 111.3 111.1 111.1 111.4 112.1 114.4 116 116.7 121.7 124.9 129.9 135.6 142.7 146.8 151.4 156.7 162.3 171 185.5 189 191.7 187.5 186.2 189.1 187.7 185.1 182 180 187.2 193.4 191.3 188.1 190.7 191 192.7 194 193.8 193 193 191.5 190.7 191.6 191.2 190.2 191.5
125.8 125.6 125.3 124.8 124.2 123.6 123.2 123.3 122.8 120 117.9 117.7 121.5 121.5 121.2 120.8 119.7 117.9 116.1 115.2 114.5 114.2 113.6 113.2 112.6 115.1 114.5 112.4 112.3 112.7 111.6 110.7 110.6 110.3 110 110.4 110.5 110.2 110 110.4 110.2 109.9 109.4 109.1 108.5 108.4 108.1 108.5 108.8 109.2 109.2 109.5 110.4 111.4 111 110.2 109.4 108.2 107.9 107.6 107.1 106.7 106.7 106.7 106.7 106.7 106.7 106.7 106.7 106.7 106.7 106.7 106.7 106.7 106.7 106.7 106.7 106.7 106.7 106.7 106.7 106.7 106.7 106.7 106.7 106.7 106.7 106.7 106.7 106.7 106.7 106.7 106.7 106.7 106.7 106.7 106.7 106.7 106.7 106.7 106.7 106.7 106.7 106.7 106.7 106.7 106.7 106.7 106.7 106.7 106.7 106.7 106.7 106.7 106.7 106.7 106.7 106.7 106.7 106.7 106.7 106.7 106.7 106.7 106.7 106.7 106.7 106.4 107.5 106.5 107.5 107.9 107.9 108.1 108.1 107.9 107.8 108.6 109 108.9 108.8 108.8 108.9 108.4 109.1 109.5 109.9 110.2 110.3 110.6 110.1 110 109.9 110.6 111.3 110.5 109.8 109.7 110.6 111.2 111.7 112.7 114 116 118.5 121.1 127.6 131.1 139.4 142.1 147.7 152.6 160.9 168.9 169.9 171.5 175.9 177.7 177.9 176.8 174.3 173.8 171.1 181 183.8 184 182.7 186 186.3 187.6 187.3 186.4 186 186.9 185.7 185.8 188.1 189.3 189.8 188.1
125.4 125.2 125.2 124.6 124.1 123.3 122.9 122.8 122.6 122.2 122.2 122.6 121.7 121.2 121.6 120.3 120.2 117.9 116.2 115.3 115 114.5 114 113.5 113.2 112 116.6 113.7 111.9 112 112.1 111.4 110.2 110.5 111.3 110.5 110.2 110.5 109.7 109.5 109.8 110.3 109 108.7 108 107.6 107 108.2 107.9 108.3 107.8 107.9 108.4 109.4 110.1 114.6 109.9 108.7 108.4 108.2 107.4 106.8 106.6 106.7 106.7 106.7 106.7 106.7 106.7 106.7 106.7 106.7 106.8 108.1 106.7 106.7 106.7 106.7 106.7 106.7 106.7 106.7 106.7 106.7 106.7 106.7 106.7 106.7 106.7 106.7 106.7 106.7 106.7 106.7 106.7 106.7 106.7 106.7 106.7 106.7 106.7 106.7 106.7 106.7 106.7 106.7 106.7 106.7 106.7 106.7 106.7 106.7 106.7 106.7 106.7 106.7 106.7 106.7 106.7 106.7 106.7 106.7 106.7 106.7 106.7 106.7 106.7 106.6 107.5 107.3 107.7 106.6 107.6 108 107.9 107.8 107.7 107.7 108.8 109 108.9 108.7 108.6 108.7 108.9 109.4 109.5 109.7 110.1 109.8 109.8 109.4 109.3 109.8 109.6 109.7 109.1 110.1 110.9 111.1 111.6 111.8 112.3 113 114.1 115.6 118.9 124.2 127.8 133.7 140.5 147 152.9 157.3 158.6 160.5 163.1 164.4 166.7 166.6 165.4 165.7 163.3 174.4 176.5 175 176.2 177.2 178.5 179.3 179.2 178.7 181.4 182.1 181.4 181.6 179.4 182.1 183.8 184.1
125 125.1 124.9 124.5 123.8 123.2 122.8 122.7 122.3 122.1 121.9 121.5 121.1 121 120.9 120.8 120.7 119.8 116.7 115.6 115.4 114.9 114.4 113.9 113.5 112.7 113.5 116.3 113.5 111.7 111.5 111.3 111.3 111 110.8 110.4 111.3 111 109.6 109.6 109.6 109.6 108.8 108.4 107.7 106.3 106.7 106.7 106.7 106.7 106.7 106.7 106.9 107.2 108.4 110.6 113.6 110 109.2 108.3 108.2 107.6 107.4 106.7 106.7 106.7 106.7 106.7 106.7 106.7 106.7 106.7 106.7 107.4 111.2 107.4 106.7 106.7 106.7 106.7 106.7 106.7 106.7 106.7 106.7 106.7 106.7 106.7 106.7 106.7 106.7 106.7 106.7 106.7 106.7 106.7 106.7 106.7 106.7 106.7 106.7 106.7 106.7 106.7 106.7 106.7 106.7 106.7 106.7 106.7 106.7 106.7 106.7 106.7 106.7 106.7 106.7 106.7 106.7 106.7 106.7 106.7 106.7 106.7 106.7 106.7 106.7 106.7 107.2 107.3 107.4 107.6 107.7 107.8 107.7 107.6 107.6 107.8 108.3 109 108.9 108.8 108.6 108.5 108.7 108.9 108.9 109.3 109.6 109.2 109.4 109.2 108.5 109.7 109 110 110.6 109.9 110.7 111.2 111.5 111.6 111.6 112 112.2 113 114.8 117.2 121.7 125.2 133.1 138.8 142.1 145.8 150.3 153.3 155.8 155.9 157.8 158.3 158.6 157.1 160.4 164.7 166.7 168.4 168 169.1 170.3 171.6 172.9 173.6 175.4 177.3 179.1 179.6 178.5 169.9 171.1 173.7
124.7 124.5 124.1 123.7 123.6 123.1 122 122.7 122.3 122 121.8 121.4 120.9 121 120.9 120.7 120.5 120.4 118.4 116.4 115.8 115.1 114.7 114.3 113.5 112.5 112.4 116 111 111.5 112 111.9 111.6 111.2 111 110.3 111.2 110.1 109.7 109.2 109.9 108.6 108.2 107.8 106.7 106.7 106.7 106.7 106.7 106.7 106.7 106.7 106.7 106.7 106.7 108.3 108.9 109.5 108.1 107.6 108.3 108.5 107 106.7 106.7 106.7 106.7 106.7 106.7 106.7 106.7 106.7 106.7 106.9 110.2 109.6 107.5 107.3 106.8 106.7 106.7 106.7 106.7 106.7 106.7 106.7 106.7 106.7 106.7 106.7 106.7 106.7 106.7 106.7 106.7 106.7 106.7 106.7 106.7 106.7 106.7 106.7 106.7 106.7 106.7 106.7 106.7 106.7 106.7 106.7 106.7 106.7 106.7 106.7 106.7 106.7 106.7 106.7 106.7 106.7 106.7 106.7 106.7 106.7 106.7 106.7 106.7 106.7 107.6 107.3 107.4 107.5 107.7 107.6 107.8 107.9 108 108.1 107.8 108.7 108.9 108.7 108.6 108.5 108 108.8 109 109 109.3 108.4 109.2 109 108.9 108.9 111.5 112.9 112.1 112.4 113.1 113.6 112.5 111.9 110.9 111.1 110.8 111.7 112.7 114.2 117.9 121.3 125.1 129 131.1 133.5 137.7 141.7 146.1 148.5 148.5 151 151.3 149.2 154.4 159.2 160.8 160.5 160.8 161.3 162.1 165.6 166.8 165.4 167.2 169.7 172.4 174.4 174.3 167.7 173.4 172.4
124.6 124 123.6 122.1 122.1 121.6 122 121.9 122 121.8 121.5 121.4 121 121 120.7 120.4 120.2 120.1 119.7 117.2 116.3 115.3 114.6 114.2 113.4 112.6 112.3 111.7 115.6 113 111.1 111.7 110.7 110.7 110.1 110.9 111 110.3 109.2 109.7 109.6 109.2 108.9 108.4 106.9 106.7 106.7 106.7 106.7 106.7 106.7 106.7 106.7 106.7 106.7 106.7 106.7 106.7 106.7 106.7 107.3 107 106.7 106.7 106.7 106.7 106.7 106.7 106.7 106.7 106.7 106.7 106.7 106.7 108.3 108.7 107.8 106.9 106.7 106.7 106.7 106.7 106.7 106.7 106.7 106.7 106.7 106.7 106.7 106.7 106.7 106.7 106.7 106.7 106.7 106.7 106.7 106.7 106.7 106.7 106.7 106.7 106.7 106.7 106.7 106.7 106.7 106.7 106.7 106.7 106.7 106.7 106.7 106.7 106.7 106.7 106.7 106.7 106.7 106.7 106.7 106.7 106.7 106.7 106.7 106.7 106.7 106.7 106.7 107.2 107.6 107.6 106.1 107.7 107.7 107.9 108 107.9 108.1 108.2 108.9 108.7 108.6 108.8 108.4 109.2 109.2 109 109 109.4 109.2 109.2 109.7 109.7 112.2 114.1 113.6 113.8 114.3 114.3 114 112.6 111.1 110.6 110.4 109.9 110.4 111.9 114.3 118 118.6 123.7 125.2 126.7 126.8 128.8 131.2 133.2 134.6 135.6 138.4 137.4 140.9 147.8 151.4 154 154.1 154.5 155.9 157.7 157.8 158.4 159.7 161.5 165.1 167.4 167.1 162.5 165.6 164.7
123.3 123.9 123.5 122.4 121.2 121.4 121.3 121.6 121.7 121 121.1 121.2 121 120.7 120.4 120.1 120 119.9 120.1 117.9 116.9 115.9 114.9 114.6 114.1 113.9 112.9 111.9 111.8 115.1 111.2 110.8 110.1 110.2 110.4 110.3 110.9 109.6 109.4 110 109.2 109.8 108.5 107.9 106.9 106.7 106.7 106.7 106.7 106.7 106.7 106.7 106.7 106.7 106.7 106.7 106.7 106.7 106.7 106.7 106.7 106.7 106.7 106.7 106.7 106.7 107.5 106.7 106.7 106.7 106.7 106.7 106.7 106.7 106.7 106.7 106.7 106.7 106.7 106.7 106.7 106.7 106.7 106.7 106.7 106.7 106.7 106.7 106.7 106.7 106.7 106.7 106.7 106.7 106.7 106.7 106.7 106.7 106.7 106.7 106.7 106.7 106.7 106.7 106.7 106.7 106.7 106.7 106.7 106.7 106.7 106.7 106.7 106.7 106.7 106.7 106.7 106.7 106.7 106.7 106.7 106.7 106.7 106.7 106.7 106.7 106.7 106.7 106.7 107.4 107.4 107.4 107.4 107.6 107.7 107.9 108 107.5 107.6 108.6 108.6 108.7 108.9 109 108.9 108.8 109.2 108.7 108.8 109 108.7 109.6 110.2 110.5 113.8 114.4 114.7 114.9 114.8 114.6 114.4 113.9 111.9 111.2 110.6 110.5 109.8 109.9 111.4 113.6 115.9 120.9 122.5 123.8 123.6 124.4 124.9 126.1 128.2 128.3 130.3 132.4 133.7 134.6 136.2 139 141.8 145.6 147.5 149.1 150.4 151.2 150.8 154 158 159.1 158.3 155.5 156.8 158.4
125 124.8 124.7 123.4 122.7 122 121.3 121.3 120.6 121 120.3 120.5 120.1 120.4 120.1 119.9 119.8 119.9 120 120.1 117.6 116.8 116.1 115.7 118.1 117.4 114.4 112.2 112.2 114.7 113.9 112 111.3 110.3 110.5 110.3 110.2 109.6 109.8 109.7 109.4 108.9 107.7 107.2 107.7 107.1 106.7 106.7 106.7 106.7 106.7 106.7 106.7 106.7 106.7 106.7 106.7 106.7 106.7 106.7 106.7 106.7 106.7 106.7 106.7 106.7 106.7 106.7 106.7 106.7 106.7 106.7 106.7 106.7 106.7 106.7 107 106.7 106.7 106.7 106.7 106.7 106.7 106.7 106.7 106.7 106.7 106.7 106.7 106.7 106.7 106.7 106.7 106.7 106.7 106.7 106.7 106.7 106.7 106.7 106.7 106.7 106.7 106.7 106.7 106.7 106.7 106.7 106.7 106.7 106.7 106.7 106.7 106.7 106.7 106.7 106.7 106.7 106.7 106.7 106.7 106.7 106.7 106.7 106.7 106.7 106.7 106.7 106.7 106.5 107.2 107.2 107.3 107.4 107.7 107.8 107.7 107.1 107.8 107.7 109.1 108.7 108.4 108.9 108.6 108.6 109.3 108.8 108.5 108.7 109.4 109.9 110.4 112.3 113.9 114.7 114.9 114.9 114.8 114.8 114.6 114.2 112.8 109.6 109.4 110.3 109.4 109.9 110.1 112 114.1 117.3 119 120 120.6 121 120.9 120.8 122.6 123 124.1 127.2 128.7 129.5 129.3 130.3 131.5 134.8 138.9 141.8 143 142.8 147.4 150 151.2 152.4 151.5 150.7 153.6 153.3
125.8 125.6 125.3 124.4 122.8 122.1 121.5 121.2 121 120.8 120.6 120.3 120 118.7 118.4 118.7 119.5 119.7 119.7 119.7 118.6 117.8 117.9 119.9 118.6 117.1 114.1 111.8 111.5 111.4 114.6 110.1 110.1 110.3 109.7 109.5 109.9 108.6 109.6 109.3 108.8 108.7 109.1 108.7 108.5 107.5 106.7 106.7 106.7 106.7 106.7 106.7 106.7 106.7 106.7 106.7 106.7 106.7 106.7 106.7 106.7 106.7 106.7 106.7 106.7 106.7 106.7 106.7 106.7 106.7 106.7 106.7 106.7 106.7 106.7 106.7 106.7 106.7 106.7 106.7 106.7 106.7 106.7 106.7 106.7 106.7 106.7 106.7 106.7 106.7 106.7 106.7 106.7 106.7 106.7 106.7 106.7 106.7 106.7 106.7 106.7 106.7 106.7 106.7 106.7 106.7 106.7 106.7 106.7 106.7 106.7 106.7 106.7 106.7 106.7 106.7 106.7 106.7 106.7 106.7 106.7 106.7 106.7 106.7 106.7 106.7 106.7 106.7 106.7 106.7 107.5 107.5 107.5 107.6 107.7 107.9 107.8 108 108.1 109 109.9 108.8 108.4 108.7 108.4 108.5 108.9 108.9 108.3 108.6 109.8 111.2 112.7 114.2 114.8 115 114.9 114.8 114.8 114.7 113.7 112.5 110.3 110.2 109.2 110.4 110.5 110 111 110.6 112.8 114.7 117.2 117.3 116.8 116.1 116.3 116.3 116.6 117.8 119.1 120.8 123 124.2 123.8 124.3 125.2 127.1 129.9 130.6 132.6 135.4 137.7 138.5 140.2 143.5 143.6 145.3 146.3 143.4
126.3 126 125.1 124.8 123.7 123.2 122.5 121.8 121.2 120.7 120.5 120.4 120.3 120 119.8 118.9 117.1 117 117.7 117.2 118.7 119.8 119.3 117.1 114.6 113.2 111 112.1 111.3 111 110.6 114.8 111.1 110.2 110.5 110 110.3 109.6 109.2 109.5 109.6 108.9 108.7 109.6 107.1 106.9 106.7 106.7 106.7 106.7 106.7 106.7 106.7 106.7 106.7 106.7 106.7 106.7 106.7 106.7 106.7 106.7 106.7 106.7 106.7 106.7 106.7 106.7 106.7 106.7 106.7 106.7 106.7 106.7 106.7 106.7 106.7 106.7 106.7 106.7 106.7 106.7 106.7 106.7 106.7 106.7 106.7 106.7 106.7 106.7 106.7 106.7 106.7 106.7 106.7 106.7 106.7 106.7 106.7 106.7 106.7 106.7 106.7 106.7 106.7 106.7 106.7 106.7 106.7 106.7 106.7 106.7 106.7 106.7 106.7 106.7 106.7 106.7 106.7 106.7 106.7 106.7 106.7 106.7 106.7 106.7 106.7 106.7 106.7 106.7 107.5 107.4 108.1 107.6 107.7 107.7 107.8 107.9 108.2 108.5 109.1 109.2 108.5 108.4 108.5 108.1 108 108.7 109 109.1 109.7 112.1 113.8 114.7 115.5 115.2 115.1 114.9 114.7 114.2 110.8 110 110.7 109.5 109.4 110.4 108.9 109.8 111.5 111.7 112 112.1 114.1 115.1 114.3 114.3 114 113.9 114.1 115.4 115.6 115.3 116 118.6 119.6 119.8 120.3 120.9 121.1 121 123.3 126.1 128.1 130.2 130.6 131.8 130.2 131.1 132.8 132.6
126.7 126.5 125.9 125.8 124.7 124.1 123.6 122.9 122.3 121.8 121.2 120.5 120.2 120.1 119.9 119.8 118.6 117.4 117.1 116.2 114.9 114.9 113.4 113.6 117.8 117.1 116.3 114.9 113.6 112.2 111.8 113.2 114.1 110.8 110.6 110.3 109.9 109.6 109 109.4 109.7 109.2 108.6 106.7 106.7 106.7 106.7 106.7 106.7 106.7 106.7 106.7 106.7 106.7 106.7 106.7 106.7 106.7 106.7 106.7 106.7 106.7 106.7 106.7 106.7 106.7 106.7 106.7 106.7 106.7 106.7 106.7 106.7 106.7 106.7 106.7 106.7 106.7 106.7 106.7 106.7 106.7 106.7 106.7 106.7 106.7 106.7 106.7 106.7 106.7 106.7 106.7 106.7 106.7 106.7 106.7 106.7 106.7 106.7 106.7 106.7 106.7 106.7 106.7 106.7 106.7 106.7 106.7 106.7 106.7 106.7 106.7 106.7 106.7 106.7 106.7 106.7 106.7 106.7 106.7 106.7 106.7 106.7 106.7 106.7 106.7 106.7 106.7 106.7 106.7 107.8 107.3 107.2 107.6 107.6 107.6 107.7 107.9 108.2 108.6 109 109.3 108.3 108.1 108.4 108.7 108.3 108.7 109.8 111.6 112.5 114.4 114.8 115.3 115.1 114.3 114.5 114.1 113.3 111 110.9 109.9 110.9 108.7 109.5 110.3 108.8 109.5 109.7 110.3 110.4 110.5 112.5 112.3 111.6 111.4 111.5 111.7 111.7 113.5 112.9 112.4 111.3 112.7 115 115.7 116.5 116.4 116.5 117.8 118.5 120.3 122.6 124.3 125.2 126.9 127.1 129.7 128.9 128.8
126.9 126.8 126.7 126.4 125.7 124.9 124.6 124.1 123.4 122.5 121.7 121.7 121 120.3 119.9 120 119.6 119 119.1 118.9 118.2 117.9 113.6 116.7 118.4 118.1 117.7 116.5 115.1 113.3 112.7 113.6 114.5 111 110.7 113.4 109.3 109.1 108.6 109.1 108.3 106.7 106.7 106.7 106.7 106.7 106.7 106.7 106.7 106.7 106.7 106.7 106.7 106.7 106.7 106.7 106.7 106.7 106.7 106.7 106.7 106.7 106.7 106.7 106.7 106.7 106.7 106.7 106.7 106.7 106.7 106.7 106.7 106.7 106.7 106.7 108 106.3 106.7 106.7 106.7 106.7 106.7 106.7 106.7 106.7 106.7 106.7 106.7 106.7 106.7 106.7 106.7 106.7 106.7 106.7 106.7 106.7 106.7 106.7 106.7 106.7 106.7 106.7 106.7 106.7 106.7 106.7 106.7 106.7 106.7 106.7 106.7 106.7 106.7 106.7 106.7 106.7 106.7 106.7 106.7 106.7 106.7 106.7 106.7 106.7 106.7 106.7 106.7 106.7 106.8 107 107.1 107.3 107.5 107.6 107.7 107.9 108.3 108.7 109.1 109.2 108.5 108.3 108.5 108.6 108.7 109.5 111.1 112.2 112.4 113.6 114.5 114.7 115.2 114.5 114.2 110.6 110.2 110.7 110.6 110.1 109.9 109.6 109.7 110.2 108.7 109.3 109.5 109.8 110.4 110.3 109.9 110.3 110.5 110.5 110.6 110.8 111 111.1 111.5 111 110.9 110.8 111.7 113.4 114.9 113.1 113.2 114 115.5 116.5 116 117.8 119.5 119.9 120.5 122.2 124 123.5
127.2 127.1 127.1 127 126.5 125.6 125.3 124.8 124.1 123.4 122.5 122.6 122.2 121.4 121.3 120.3 119.9 119.9 120.1 119.7 118.9 114.9 115.7 118.6 118.3 118.8 118.8 117.2 115.4 113.9 113 113 113.4 114.5 111 110.3 109.5 109 108.9 108.8 106.7 106.7 106.7 106.7 106.7 106.7 106.7 106.7 106.7 106.7 106.7 106.7 106.7 106.7 106.7 106.7 106.7 106.7 106.7 106.7 106.7 106.7 106.7 106.7 106.7 106.7 106.7 106.7 106.7 106.7 106.7 106.7 106.7 106.7 106.7 106.7 106.7 106.7 106.7 106.7 106.7 106.7 106.7 106.7 106.7 106.7 106.7 106.7 106.7 106.7 106.7 106.7 106.7 106.7 106.7 106.7 106.7 106.7 106.7 106.7 106.7 106.7 106.7 106.7 106.7 106.7 106.7 106.7 106.7 106.7 106.7 106.7 106.7 106.7 106.7 106.7 106.7 106.7 106.7 106.7 106.7 106.7 106.7 106.7 106.7 106.7 106.7 106.7 106.7 106.7 106.7 107.1 107.1 107.4 106.6 107.5 107.6 108 108.4 108.8 109.1 109.2 108.9 108.5 108.5 108.6 108.7 109.6 111.9 112.4 112.4 113.6 114.8 115.1 115.1 114.8 114.6 112.4 110.4 110 110 109.2 109.6 109.6 109 109.9 109 108.8 109.3 110.9 110.3 110.1 110.1 110.2 110 110.1 110.6 110.2 109.7 110.1 110.5 110.4 110.4 110.3 110.8 111.5 113.3 112 112 112.1 113.6 113 113 113.2 115.4 116 116.8 117.4 118 116.9
127.4 127.3 126.9 126.5 127.2 127.7 125.6 125 124.6 124.2 123.4 123 123.3 122.7 121.9 121.5 121.5 120.2 119.7 119.3 118.9 114.6 118 117.9 117.9 117.8 117.8 117.4 115.6 114.6 113.8 114.6 112.7 114.2 112.7 110.5 110.4 109 108.9 108.8 106.7 106.7 106.7 106.7 106.7 106.7 106.7 106.7 106.7 106.7 106.7 106.7 106.7 106.7 106.7 106.7 106.7 106.7 106.7 106.7 106.7 106.7 106.7 106.7 106.7 106.7 106.7 106.7 106.7 106.7 106.7 106.7 106.7 106.7 106.7 106.7 106.7 106.7 106.7 106.7 106.7 106.7 106.7 106.7 106.7 106.7 106.7 106.7 106.7 106.7 106.7 106.7 106.7 106.7 106.7 106.7 106.7 106.7 106.7 106.7 106.7 106.7 106.7 106.7 106.7 106.7 106.7 106.7 106.7 106.7 106.7 106.7 106.7 106.7 106.7 106.7 106.7 106.7 106.7 106.7 106.7 106.7 106.7 106.7 106.7 106.7 106.7 106.7 106.7 106.7 106.7 107.6 107.6 107.6 107.5 107.4 107.7 108.1 108.4 108.7 109 110 109.7 108.6 108.5 108.6 108.8 109.9 112.4 112.7 113.1 113.4 113.7 113.4 114.3 113.9 112.9 110.7 110.6 109.9 109.9 109.4 110.5 110 109.2 109.4 109.1 109.2 109.4 109.9 109.3 109.2 109.4 109.7 110 109.8 110.4 110.3 109.8 110.2 110.1 109.2 109.4 109.8 110.1 110.2 111.9 110.9 110.9 111.4 111.6 112.2 112 112.7 113.9 114.4 114.2 113.7 113.2 112.9
127.4 127.2 126.7 126.1 126.5 126.1 125.3 126.2 124.6 124.2 124.2 123.1 123.1 122.9 122.8 122.1 121.9 121.2 120.2 118.7 115.3 119.4 119.2 118.9 118.5 118.5 118.6 118 116.5 116.4 116 113.8 113.2 113.1 115.4 110.1 109.6 109 108 107.9 106.7 106.7 106.7 106.7 106.7 106.7 106.7 106.7 106.7 106.7 106.7 106.7 106.7 106.7 106.7 106.7 106.7 106.7 106.7 106.7 106.7 106.7 106.7 106.7 106.7 106.7 106.7 106.7 106.7 106.7 106.7 106.7 106.7 106.7 106.7 106.7 106.7 106.7 106.7 106.7 106.7 106.7 106.7 106.7 106.7 106.7 106.7 106.7 106.7 106.7 106.7 106.7 106.7 106.7 106.7 106.7 106.7 106.7 106.7 106.7 106.7 106.7 106.7 106.7 106.7 106.7 106.7 106.7 106.7 106.7 106.7 106.7 106.7 106.7 106.7 106.7 106.7 106.7 106.7 106.7 106.7 106.7 106.7 106.7 106.7 106.7 106.7 106.7 106.7 106.7 106.5 107.5 107.7 107.7 107.5 107.5 107.7 108.1 108.4 109.1 109.7 110 110.2 107.9 108.7 108.8 108.9 109.9 111.8 112.7 113.5 113 113.2 112.9 112.3 110.7 110.3 111.4 110.7 109.2 110.1 110.2 110.3 109.6 109.3 109.3 108.8 109.1 108.9 109.4 109.3 109.3 109.3 109.6 109.8 109.1 109.6 109.8 109.8 109.7 109.5 109.1 109.3 109.6 109.4 109.3 110.6 109.9 109.8 110.5 110.6 110.8 111.6 111.4 111.8 112.8 112.7 112.4 111.7 111.4
127.2 127 126.4 126.1 125.9 125.3 125.2 124.5 124.9 123.8 123.4 123.2 122.8 122.5 122.4 122.6 122.2 121.4 120.6 117.2 119.6 120.1 119.6 119.4 119.2 119 118.3 118.4 117.4 116.3 115.7 115.8 114.8 113.4 113.4 115.2 110.8 109 108.5 108.3 108.1 106.7 106.7 106.7 106.7 106.7 106.7 106.7 106.7 106.7 106.7 106.7 106.7 106.7 106.7 106.7 106.7 106.7 106.7 106.7 106.7 106.7 106.7 106.7 106.7 106.7 106.7 106.7 106.7 106.7 106.7 106.7 106.7 106.7 106.7 106.7 106.7 106.7 106.7 106.7 106.7 106.7 106.7 106.7 106.7 106.7 106.7 106.7 106.7 106.7 106.7 106.7 106.7 106.7 106.7 106.7 106.7 106.7 106.7 106.7 106.7 106.7 106.7 106.7 106.7 106.7 106.7 106.7 106.7 106.7 106.7 106.7 106.7 106.7 106.7 106.7 106.7 106.7 106.7 106.7 106.7 106.7 106.7 106.7 106.7 106.7 106.7 106.7 106.7 106.7 106.7 107.3 107.3 107.4 107.5 107.6 107.8 108.1 108.8 109.5 109.9 110.1 110.1 108.9 108.9 108 109 109.9 111.4 111.8 111.6 111.2 111.1 111.7 110.8 110.3 109.3 110.3 110.9 109.7 109.3 109.1 108.8 109.6 109.3 108.8 108.2 109.1 109.2 109.2 109.4 109.4 109.4 109 109.6 109.6 109.2 109.5 109.5 109.4 109.2 109 109 109.2 109 108.8 109.1 109 108.4 109.6 109.7 110.2 110.5 110.3 110.9 111.2 111.3 111.2 110.5 109.7
126.5 126.4 126.4 126.3 125.7 125.3 124.7 124.1 123.6 123.2 122.9 122.9 122.6 122.1 122.1 122 121.1 120 117.5 120.1 120.6 120.7 120 120.2 119.7 119.1 118.3 118 117.6 117.3 117.2 116.4 116.1 114.5 113.4 116.4 111.4 109.9 109 108.7 108.8 106.7 107 106.7 106.7 106.7 106.7 106.7 106.7 106.7 106.7 106.7 106.7 106.7 106.7 106.7 106.7 106.7 106.7 106.7 106.7 106.7 106.7 106.7 106.7 106.7 106.7 106.7 106.7 106.7 106.7 106.7 106.7 106.7 106.7 106.7 106.7 106.7 106.7 106.7 106.7 106.7 106.7 106.7 106.7 106.7 106.7 106.7 106.7 106.7 106.7 106.7 106.7 106.7 106.7 106.7 106.7 106.7 106.7 106.7 106.7 106.7 106.7 106.7 106.7 106.7 106.7 106.7 106.7 106.7 106.7 106.7 106.7 106.7 106.7 106.7 106.7 106.7 106.7 106.7 106.7 106.7 106.7 106.7 106.7 106.7 106.7 106.7 106.7 106.7 106.3 106.8 107.1 107.2 107.4 108.2 107.6 108.1 109.1 109.8 109.6 110.3 110.2 109.5 108.8 109.4 108.9 109.6 110.5 111.2 110.7 108.7 108.7 109.6 109.7 109.8 108.8 109.7 110.3 109.6 109.7 108.9 108.8 108.7 109 109.2 109.1 109.2 110.2 108.7 108.6 108.9 109.4 109.1 109.2 109.2 109.2 109.2 109.4 109.3 108.8 108.2 108.6 108.8 108.6 109 108.9 108.8 108.6 108.4 108.2 109 109.4 109.6 109.9 109.2 109.9 110 110 109.7
127.2 127.2 126.9 126.3 126.2 125.2 124.4 124.2 123.8 123.2 122.5 122.6 122.3 121.6 120.7 120.6 120.7 120.2 118.2 120.4 120.8 120.9 120.7 120.3 120 119.4 118.8 118.6 117.6 117.4 117.3 116.8 116.5 115.7 114.7 115.6 110.7 111.3 109.8 108.9 108.6 108.1 107.6 106.7 106.7 106.7 106.7 106.7 106.7 106.7 106.7 106.7 106.7 106.7 106.7 106.7 106.7 106.7 106.7 106.7 106.7 106.7 106.7 106.7 106.7 106.7 106.7 106.7 106.7 106.7 106.7 106.7 106.7 106.7 106.7 106.7 106.7 106.7 106.7 106.7 106.7 106.7 106.7 106.7 106.7 106.7 106.7 106.7 106.7 106.7 106.7 106.7 106.7 106.7 106.7 106.7 106.7 106.7 106.7 106.7 106.7 106.7 106.7 106.7 106.7 106.7 106.7 106.7 106.7 106.7 106.7 106.7 106.7 106.7 106.7 106.7 106.7 106.7 106.7 106.7 106.7 106.7 106.7 106.7 106.7 106.7 106.7 106.7 106.7 106.7 106.7 106.9 107.2 107.5 107.4 107.8 108.2 108.5 109.5 109.4 109.6 110.4 110.9 110.4 109.5 109.1 109.1 110.2 109.8 109.1 110.4 108.6 108.7 108.9 108.5 108.4 109.2 109.4 109.4 109.9 108.9 108.9 108.8 108.7 108.6 109.3 108.9 108.8 109 108.7 108.6 108 108.4 109.4 108.7 109.1 109.5 109.8 109.5 109.2 109 109.2 109.1 109.1 108.2 109.9 108.6 108.3 108.1 108.1 107.9 108.3 108.5 108.7 109.3 108.9 108.9 108.7 109.3 109.5
127.8 127.7 127.3 126.3 126.4 125.7 125.1 124.4 123.9 123.1 122.6 122.9 122.6 121.8 121.8 121.9 121.5 121 118.5 120.8 121.2 121 120.7 120.1 119.9 119.3 118.8 118.5 118.1 117.6 117.4 117.2 117.2 116.5 112.2 114.6 117.5 114.3 112.1 109.8 109.3 108.8 108.2 107.8 106.7 106.7 106.7 106.7 106.7 106.7 106.7 106.7 106.7 106.7 106.7 106.7 106.7 106.7 106.7 106.7 106.7 106.7 106.7 106.7 106.7 106.7 106.7 106.7 106.7 106.7 106.7 106.7 106.7 106.7 106.7 106.7 106.7 106.7 106.7 106.7 106.7 106.7 106.7 106.7 106.7 106.7 106.7 106.7 106.7 106.7 106.7 106.7 106.7 106.7 106.7 106.7 106.7 106.7 106.7 106.7 106.7 106.7 106.7 106.7 106.7 106.7 106.7 106.7 106.7 106.7 106.7 106.7 106.7 106.7 106.7 106.7 106.7 106.7 106.7 106.7 106.7 106.7 106.7 106.7 106.7 106.7 106.7 106.7 106.7 106.7 106.7 106.4 106.8 106.9 107 107.5 108.1 108.3 109.3 108.9 109.7 110.5 111 111.6 110.7 110.2 109.5 109.3 109.5 108.5 108.4 108.7 108.7 108.5 108.4 108.4 108.6 108.9 109 109.3 109.1 109 109 108.9 108.8 109.9 108.7 109.3 108.7 108.5 108.4 108.5 108.6 108.5 109.1 109.5 109.6 109.7 109.3 109.2 109.2 109.2 109 109.1 109.1 109.2 107.9 108.1 108.2 108.4 108.4 108.1 108.1 108.2 108.4 108.2 108.2 107.9 108.4 109
128 128 127.8 127.4 127.1 125.8 125.2 125 124.4 123.9 123.5 123.9 123.3 122.6 122.7 122.4 121.9 120.4 119.7 121.4 121.1 120.9 120.6 120.1 119.7 118.9 118.9 118.7 118.1 119.8 119.1 118 116.9 117.5 116.6 115.1 115.9 115.9 114.1 112.4 111.2 109.7 109 108.9 108.7 106.9 106.7 106.7 106.7 106.7 106.7 106.7 106.7 106.7 106.7 106.7 106.7 106.7 106.7 106.7 106.7 106.7 106.7 106.7 106.7 106.7 106.7 106.7 106.7 106.7 106.7 106.7 106.7 106.7 106.7 106.7 106.7 106.7 106.7 106.7 106.7 106.7 106.7 106.7 106.7 106.7 106.7 106.7 106.7 106.7 106.7 106.7 106.7 106.7 106.7 106.7 106.7 106.7 106.7 106.7 106.7 106.7 106.7 106.7 106.7 106.7 106.7 106.7 106.7 106.7 106.7 106.7 106.7 106.7 106.7 106.7 106.7 106.7 106.7 106.7 106.7 106.7 106.7 106.7 106.7 106.7 106.7 106.7 106.7 106.7 106.7 106.4 107.5 107.6 107.5 107.6 107.6 107.8 108.2 108.8 109.2 109.3 110.1 111 111 111.4 111.6 111 109.4 109.1 109 109.3 109.2 109.5 108.1 108.7 108.7 108.9 108.8 109 109.2 109.1 109 109 108.7 108.6 109.3 109.3 108.5 108.5 108.5 108.6 108.6 108.6 108.3 108.6 109.3 108.9 108.9 109.3 109.2 109.1 109 108.9 108.6 108.7 108.4 108.4 108.4 108.6 108.6 108.5 108.1 107.8 107.8 107.7 108.4 108.3 108.3 108.3
127.9 127.7 127.8 127.7 127.4 126.3 126.4 126.4 125.9 125.2 125.2 124.7 124 123.5 123.7 123.1 120.9 120.9 121.5 121.6 121.3 121 120.7 120.3 120.1 120.4 119.8 119.2 119 118.7 119.1 119 118.9 118.3 117.2 116.7 117.1 118.7 115.2 113.7 112.9 111.9 110.5 109.9 109.9 108.8 108 106.7 106.7 106.7 106.7 106.7 106.7 106.7 106.7 106.7 106.7 106.7 106.7 106.7 106.7 106.7 106.7 106.7 106.7 106.7 106.7 106.7 106.7 106.7 106.7 106.7 106.7 106.7 106.7 106.7 106.7 106.7 106.7 106.7 106.7 106.7 106.7 106.7 106.7 106.7 106.7 106.7 106.7 106.7 106.7 106.7 106.7 106.7 106.7 106.7 106.7 106.7 106.7 106.7 106.7 106.7 106.7 106.7 106.7 106.7 106.7 106.7 106.7 106.7 106.7 106.7 106.7 106.7 106.7 106.7 106.7 106.7 106.7 106.7 106.7 106.7 106.7 106.7 106.7 106.7 106.7 106.7 106.7 106.7 106.7 106.7 106.7 107.1 107.6 107.5 107.5 107.4 108.2 108.1 108.1 108.3 108.8 110 111.3 112.2 112.7 111.3 109.5 108.9 109.3 109.8 110.1 109.9 109.5 109.3 108.5 109.2 108.5 108.7 109 109.2 109 108.8 109 108.4 108.7 109.9 108.6 108.4 108.4 108.7 108.6 108.6 108.2 108.6 108.5 109.6 109.5 109.4 109.3 108.5 108.5 108.6 108.6 109.2 108.9 108.5 108.4 108.6 108.5 108.2 107.9 107.7 107.7 107.9 108.2 108.1 108.3 108.3
128.3 128.2 128.2 128.3 127.6 126.9 127.1 127.2 125.4 126.5 125.2 125.1 124.9 124.3 124.6 123.3 120.8 122.5 123 122.2 121.8 122.4 122.2 122.1 121.6 121.2 120.6 121 121.7 121.6 121.2 120.9 120.5 119.7 119.4 119.3 117.7 118.2 116.7 115.5 114 113.1 112.6 112.2 111.2 109.6 108.9 108 107.7 106.7 106.7 106.7 106.7 106.7 106.7 106.7 106.7 106.7 106.7 106.7 106.7 106.7 106.7 106.7 106.7 106.7 106.7 106.7 106.7 106.7 106.7 106.7 106.7 106.7 106.7 106.7 106.7 106.7 106.7 106.7 106.7 106.7 106.7 106.7 106.7 106.7 106.7 106.7 106.7 106.7 106.7 106.7 106.7 106.7 106.7 106.7 106.7 106.7 106.7 106.7 106.7 106.7 106.7 106.7 106.7 106.7 106.7 106.7 106.7 106.7 106.7 106.7 106.7 106.7 106.7 106.7 106.7 106.7 106.7 106.7 106.7 106.7 106.7 106.7 106.7 106.7 106.7 106.7 106.7 106.7 106.7 106.7 106.7 107.3 107.8 107.7 107.6 107.6 107.9 107.9 108 108.1 108.1 109.3 110.9 112.3 113.2 110.9 109.2 108.8 108.7 108.6 109.1 110.1 110 109.1 108.3 108.9 109.3 109.3 109.3 109.1 108.5 108.8 109.2 108.9 108.6 108.7 108.7 108.5 108.3 108.4 107.6 108.1 108.4 108.4 108.6 108.7 108.7 108.4 107.8 107.9 108.7 108.3 108.2 108.4 108.1 108 108.4 108.6 107.9 108.1 107.9 107.8 107.8 107.9 108.1 108.4 108.3 108.1
128.1 128.2 128.7 128.6 128.5 128.2 128 126.9 127.6 127.2 126.3 126 124.9 124.6 124.8 121 124.1 124.2 123.7 123.8 123.7 123.6 122.9 122.5 122.4 122 122.1 122.3 122 122 121.9 121.2 121.1 120.7 120.2 120.3 119.4 118.4 119.5 117.3 115.9 114.7 114.2 113.2 112.3 111.6 109.7 109.1 108.7 107.1 107 106.7 106.7 106.7 106.7 106.7 106.7 106.7 106.7 106.7 106.7 106.7 106.7 106.7 106.7 106.7 106.7 106.7 106.7 106.7 106.7 106.7 106.7 106.7 106.7 106.7 106.7 106.7 106.7 106.7 106.7 106.7 106.7 106.7 106.7 106.7 106.7 106.7 106.7 106.7 106.7 106.7 106.7 106.7 106.7 106.7 106.7 106.7 106.7 106.7 106.7 106.7 106.7 106.7 106.7 106.7 106.7 106.7 106.7 106.7 106.7 106.7 106.7 106.7 106.7 106.7 106.7 106.7 106.7 106.7 106.7 106.7 106.7 106.7 106.7 106.7 106.7 106.7 106.7 106.7 106.7 106.7 107.4 106.8 107.9 107.8 107.5 107.8 107.9 107.9 107.9 108 109.2 109 110.1 110.7 113.5 109.9 109 109 108.7 108 108.9 109.6 109.3 108.5 108.5 108.9 109.4 109.4 109.4 109.1 108.7 108.7 108.8 108.8 108.7 108.7 108.4 108.8 108.5 108.3 108.2 108.3 108.6 108.4 108.3 107.5 108.3 108.1 108 108.3 108.1 107.8 108.4 108.2 108.5 108.1 107.9 108 108.4 107.9 108.1 108 108 108 108 108.2 107.4 107.6
124.3 126.3 127.9 128.4 127.7 127.3 127.8 127.5 127.9 127.4 126.7 126.5 126.2 125.3 123.9 121.1 125 124.4 124 124.6 124.7 124.8 123.6 123.1 123.2 123.5 123 122.3 122 122 122.1 121.7 121.5 121.3 121 120.7 119.9 119.6 120 118.9 117.1 116.5 116.3 115.4 113.7 112.5 111.7 110.3 109.3 109.6 110.1 107.2 107.1 106.7 106.7 106.7 106.7 106.7 106.7 106.7 106.7 106.7 106.7 106.7 106.7 106.7 106.7 106.7 106.7 106.7 106.7 106.7 106.7 106.7 106.7 106.7 106.7 106.7 106.7 106.7 106.7 106.7 106.7 106.7 106.7 106.7 106.7 106.7 106.7 106.7 106.7 106.7 106.7 106.7 106.7 106.7 106.7 106.7 106.7 106.7 106.7 106.7 106.7 106.7 106.7 106.7 106.7 106.7 106.7 106.7 106.7 106.7 106.7 106.7 106.7 106.7 106.7 106.7 106.7 106.7 106.7 106.7 106.7 106.7 106.7 106.7 106.7 106.7 106.7 106.7 106.7 106.7 107.3 106.9 108 107.7 107.7 107.8 108 107.3 107.9 108.5 108.2 109 109.5 109.8 110.5 109.6 108.7 108.6 108.4 108.7 108.9 109 108.4 108.6 108.6 109 109.3 109.4 109.4 109.4 109 108.8 109 108.7 109.7 109.4 108.6 108.2 108.8 108.8 108.5 108.7 108.7 108.7 108.1 108.7 108.3 107.9 107.9 108 108 108.2 108.3 108.6 108.3 108.3 108 107.8 108.4 108.2 108.1 108.2 108.2 108.2 108.1 108.1 107.5 107.7
123.8 123.4 122.8 123 124.5 125.9 126.7 126.9 127.5 127.7 127.4 126.5 124.4 122.8 120.2 125.5 125.6 125 124.6 124.2 124.2 124 123.7 123.7 123.7 123.1 123.2 122.5 122.1 122.3 122.2 122.1 121.9 121.7 121.5 121 119.9 120 120.5 119.3 119.3 118.4 117.5 116.3 115.6 114.7 113.8 112.4 112 110.8 110 110.4 109.3 108.2 107.5 107.5 107.3 106.7 106.7 106.7 106.7 106.7 106.7 106.7 106.7 106.7 106.7 106.7 106.7 106.7 106.7 106.7 106.7 106.7 106.7 106.7 106.7 106.7 106.7 106.7 106.7 106.7 106.7 106.7 106.7 106.7 106.7 106.7 106.7 106.7 106.7 106.7 106.7 106.7 106.7 106.7 106.7 106.7 106.7 106.7 106.7 106.7 106.7 106.7 106.7 106.7 106.7 106.7 106.7 106.7 106.7 106.7 106.7 106.7 106.7 106.7 106.7 106.7 106.7 106.7 106.7 106.7 106.7 106.7 106.7 106.7 106.7 106.7 106.7 106.7 106.7 106.7 106.7 108 107.4 107.7 107.6 107.6 107.6 107.6 108.2 108.4 107.9 108 108.4 109.1 109.8 109.2 108.9 108.9 108.5 108.3 108.3 108.3 108.3 108.5 108.7 109 109.2 109.4 109.5 109.5 109.3 109.1 108.5 108.5 109.1 108.8 108.8 108.3 108.7 108.4 108.7 108.7 108.8 108.8 108.3 108.6 108.4 108.2 108.1 108.2 108.1 108.3 108.6 108.2 108.1 108.1 108.1 108.2 108 107.7 107.8 107.8 107.8 107.8 108.2 107.9 108.1 107.8
123.4 123.2 123 122.8 121.8 122.5 122.4 123.4 125.1 126.3 123.6 120.9 123.9 126.7 127.2 127.2 126.5 126.6 125.6 125.4 125.1 124.8 124.3 123.9 123.6 122.5 122.6 122.8 121.9 122 122.4 121.6 122 121.6 121 120.7 120.7 119.8 120.4 120.4 119.6 118.9 117.8 117.6 116.2 115.6 114.6 114.7 114.3 113.3 112.3 112.2 111.2 110 109.1 108.9 108.7 108.2 107.1 108.5 108.9 107.3 106.7 106.7 106.7 106.7 106.7 106.7 106.7 106.7 106.7 106.7 106.7 106.7 106.7 106.7 106.7 106.7 106.7 106.7 106.7 106.7 106.7 106.7 106.7 106.7 106.7 106.7 106.7 106.7 106.7 106.7 106.7 106.7 106.7 106.7 106.7 106.7 106.7 106.7 106.7 106.7 106.7 106.7 106.7 106.7 106.7 106.7 106.7 106.7 106.7 106.7 106.7 106.7 106.7 106.7 106.7 107.2 107 106.9 107.3 106.9 107.2 106.7 106.7 106.7 106.7 106.7 106.7 106.7 106.7 106.7 106.7 106.7 107.1 107.7 107.5 107.5 107.6 107.8 108.2 108 107.9 107.9 107.8 109.1 109.3 109.1 108.8 109 109 108.1 108.1 108.2 108.1 108.1 108.4 108.7 109 109.4 109.5 109.6 109 108.8 108.5 109 108.5 108.6 108.7 108.5 109 108.5 108.8 108.8 108.9 108.8 107.7 108.8 108.1 108.1 108.3 108.3 108.3 108.4 108.1 108.1 108.2 108.2 108.2 107.7 107.5 107.8 108 107.7 108.1 108.1 108 107.8 107.7 107.8
124.1 123.2 122.7 122.7 122.5 122.2 121.3 121.2 121.7 123.6 120.4 126.1 127.1 127.5 127.3 127.7 127.4 127.7 126.8 126.8 126.7 125.4 124.5 124.6 124.7 124.3 123.9 123.6 123 122.6 123 122.5 122.1 122.3 122.5 122.4 121.7 120.8 120.3 121 119.8 119 118.7 117.9 117.5 116.8 116.8 116.3 115.7 115.6 114.6 113.2 112.7 112.4 111.7 111.1 110.7 110.2 110.7 110.7 109 109.2 107.7 106.7 106.7 106.7 106.7 106.7 106.7 106.7 106.7 106.7 106.7 106.7 106.7 106.7 106.7 106.7 106.7 106.7 106.7 106.7 106.7 106.7 106.7 106.7 106.7 106.7 106.7 106.7 106.7 106.7 106.7 106.7 106.7 106.7 106.7 106.7 106.7 106.7 106.7 106.7 106.7 106.7 106.7 106.7 106.7 106.7 106.7 106.7 106.7 107 106.7 106.7 106.7 107 107.3 107.4 107.6 107.4 107.6 107.2 107.3 107.9 107.9 106.7 107 106.7 106.7 106.7 106.7 106.7 106.7 106.7 107.2 107.5 107.4 107.6 107.8 108 107.9 107.9 107.8 107.7 107.8 108.2 108.7 108.5 108.4 108.3 108.8 108.5 108.4 108.3 108.3 108.2 108.2 108.2 108.5 108.9 109.3 108 109.7 109 109.1 110.1 108.7 108.9 109.1 109.4 109.5 107.8 108.5 109.4 108.5 108.7 108.6 108 107.8 107.9 107.7 108.3 107.8 108.4 108.3 108.3 108.3 108.3 108.3 108.1 107.5 107.5 107.5 107.5 108 107.8 107.7 107.5 107.4 107.9
124.2 124.1 124.2 123 122.2 122.5 121.9 121.7 121.7 121 121.3 122.2 123.5 124.1 125.8 127.3 127.2 127.8 126.2 127.6 127.6 126.3 126.5 127.1 127.2 126.3 125.4 126.5 125.2 124 124.1 123.6 123.3 123.1 123 123.4 123.2 122.4 121.4 121.5 121.4 120.2 119.2 119.3 118.8 118.1 118 118.2 118.1 117.7 116.2 114.6 114.6 114.7 115.6 115.2 114.6 113.8 113.4 112.8 111.5 109.9 109.3 108.8 107.9 107.1 106.7 106.7 106.7 106.7 106.7 106.7 106.7 106.7 106.7 106.7 106.7 106.7 106.7 106.7 106.7 106.7 106.7 106.7 106.7 106.7 106.7 106.7 106.7 106.7 106.7 106.7 106.7 106.7 106.7 106.7 106.7 106.7 106.7 106.7 106.7 106.7 106.7 106.7 106.7 106.7 106.7 106.7 107.6 107.4 106.8 107.4 107.6 107.5 107.6 107.5 107.2 107.6 107.8 107.9 108 107.6 107.6 107.5 107.4 107.5 106.7 106.7 106.7 106.7 106.7 106.7 106.7 106.7 106.7 107.2 107.2 107.7 108 107.8 107.7 108.9 108 108.3 107.8 107.8 108.3 108.2 108 107.9 108.1 108.4 108.9 108.4 108.5 108.5 108.5 108.5 108.5 108.4 108.3 109 109.4 109.5 109.3 109.5 109.6 109.3 109.6 109.9 110 109.5 109.8 109.4 108.9 108.7 108.3 108.2 107.9 107.7 107.6 108 107.8 108.4 108.3 108.4 108.4 108.5 108.5 108 107.5 107.5 107.5 107.7 107.6 107.4 107.5 107.5 107.5 107.6
123.1 123.3 122.7 122.5 122.1 122.5 122.4 122.4 123 121.6 121.3 122.2 121.5 123.1 122.8 127.1 127.3 127.3 127.7 128.3 127.8 127.5 127.4 127.3 126.7 126.8 126.6 126.8 126.4 125.9 124.6 124.1 123 122.5 122.9 123.1 123.1 122.6 122 122 122 121 120.9 120.7 120 119.3 119.1 119.1 118.7 119.1 117.2 117.6 116.8 117.1 117.4 116 116.2 116.3 115.8 114.8 113.9 112.4 111.1 111.2 110 109.2 107.2 106.7 106.7 106.7 106.7 106.7 106.7 106.7 106.7 106.7 106.7 106.7 106.7 106.7 106.7 106.7 106.7 106.7 106.7 106.7 106.7 106.7 106.7 106.7 106.7 106.7 106.7 106.7 106.7 106.7 106.7 106.7 106.7 106.7 106.7 106.7 106.7 106.7 106.7 106.7 106.7 106.7 107.8 108.7 108.3 108.2 108 108 107.9 107.8 107.6 107.8 108 108.1 107.8 107.6 107.3 107.1 107 106.9 106.7 106.7 106.7 106.7 106.7 106.7 106.7 106.7 106.7 106.5 106.7 106.6 106.7 107.1 108.2 107.9 108.1 107.5 108.2 108.7 107 107.9 108.3 108.1 108.3 108.7 108.9 108.9 108.8 108.8 108.7 108.7 108.7 108.7 109 109.5 109.4 109.3 110 109.7 109.8 109.8 109.9 109.7 109.8 110 109.5 109.2 108.4 108.1 108 108.2 108 108 107.9 108 108 108.2 108.3 108.3 108.2 108.2 108.2 107.7 107.6 107.7 107.8 107.8 107.6 107.6 107.6 107.6 107.6 107.5
122.8 122.6 121.2 122.5 121.7 121.9 122.1 121.8 121.7 122.7 122.9 122.1 122.3 121.7 121.9 123.2 122.5 124 126.1 126.3 125.9 126 126.5 126.6 126.5 126.5 126.5 126.7 126 125.1 124.5 123.6 123 122.3 122.2 121.8 121.6 121.8 122.4 121.7 122.2 121.5 121.1 120.6 120.4 120.1 120 119.8 119.5 119.2 117.5 118 118.3 118.4 118.5 117.9 117.2 116.9 116.9 116.5 115.8 114.5 113.4 113.3 112.7 109.8 108.5 106.7 106.7 106.7 106.7 106.7 106.7 106.7 106.7 106.7 106.7 106.7 106.7 106.7 106.7 106.7 106.7 106.7 106.7 106.7 106.7 106.7 106.7 106.7 106.7 106.7 106.7 106.7 106.7 106.7 106.7 106.7 106.7 106.7 106.7 106.7 106.7 106.7 106.7 106.7 106.7 107.6 108.3 108.6 108.4 108.1 108.3 108.3 108.2 108.1 108 108.1 108 107.9 107.8 107.8 107.4 107.1 106.8 106.7 106.7 106.7 106.7 106.7 106.7 106.7 106.7 106.7 106.7 106.7 106.7 106.7 106.7 106.7 107 107.2 106.7 107.2 107.4 108.2 107.8 108.6 108.6 107.7 107.6 108.2 108.6 108.8 108.9 108.9 109 109 109 108.7 108.2 108.1 108.6 109.3 110.5 109.7 109.8 109.7 109.6 109.5 109.6 110.4 109.3 108.8 108 107.9 108.2 107.9 108.2 108.1 108.1 108 108.1 107.9 108.1 108.3 108.2 108.2 108.3 107.6 107.7 107.7 107.7 107.7 108.2 107.7 107.8 107.7 107.7 107.7
124.8 123.8 124 123 122.3 122.3 122.1 121.7 121.6 121.5 122 122.5 122 123 123.1 122.3 122.6 123.1 122.7 123.9 126 125.8 126.2 126.8 126.2 125.9 125.6 125.8 125.1 124.2 124.5 123.6 123.5 123 122.1 121.5 121.2 121.4 122.4 121.6 122.3 121 121.2 120.6 120.2 120.2 120.3 120.1 119.3 118.7 118.6 119.1 119.1 119.5 118.9 118.6 118.2 118 117.9 117.6 117.1 116.6 115.8 115.2 114.5 111.7 109.7 108.5 106.7 106.7 106.7 106.7 106.7 106.7 106.7 106.7 106.7 106.7 106.7 106.7 106.7 106.7 106.7 106.7 106.7 106.7 106.7 106.7 106.7 106.7 106.7 106.7 106.7 106.7 106.7 106.7 106.7 106.7 106.7 106.7 106.7 106.7 106.7 106.7 106.7 106.7 106.7 107.4 108.4 108.7 108.5 108.1 108 108.2 109.4 109.3 108.9 109 108.5 108.6 107.9 107.9 107.5 107.2 106.9 106.7 106.7 106.7 106.7 106.7 106.7 106.7 106.7 106.7 106.7 106.7 106.7 106.7 106.7 106.7 106.7 106.7 106.3 106.8 107.6 107.7 107.8 108.5 107.9 107.9 106.5 108 108.2 108.4 108.3 108.6 108.6 108.9 108.9 108.7 108.3 108.5 109.5 109.8 109.6 109.4 109.5 109.7 109.1 109.7 109.5 109.2 108.3 107.6 108.1 108.4 108.6 108.3 108.3 108.2 108.1 108 107.9 108.3 107.7 108 108.2 107.8 108.3 107.9 107.8 107.8 107.9 107.9 107.8 107.9 107.9 107.9 107.8 107.8
127 126.3 125.9 125.7 125.6 124.4 123.2 122.2 121.6 121.6 122.1 122.6 122 122.7 123.1 122.4 122.2 122.3 122.8 123.2 125.1 125.7 126.9 128.4 126.7 126.7 126.7 126.3 126.1 125.2 124.4 123.9 123.6 123 122.4 122.1 122.2 122.5 122.4 121.3 122.3 121.2 121 120.4 120.7 120.5 120.2 120.3 119.8 120 120.1 120.2 119.8 119.4 119.3 119 119 118.9 118.8 118.6 117.9 117.3 116.7 116.8 116.2 114.4 112.7 110.5 109.1 106.9 106.7 106.7 106.7 106.7 106.7 106.7 106.7 106.7 106.7 106.7 106.7 106.7 106.7 106.7 106.7 106.7 106.7 106.7 106.7 106.7 106.7 106.7 106.7 106.7 106.7 106.7 106.7 106.7 106.7 106.7 106.7 106.7 106.7 106.7 106.7 106.7 106.7 106.7 108.2 108.8 108.5 108.1 107.8 108.8 109.4 108.9 108.8 109.4 109.5 108.8 108.8 108.2 107.8 107.5 106.9 106.7 106.7 106.7 106.7 106.7 106.7 106.7 106.7 106.7 106.7 106.7 106.7 106.7 106.7 106.7 106.7 106.7 106.7 106.5 107.1 107.5 107.9 107.8 107.5 107.4 107.3 108 107.2 107.5 108.3 107.9 108.8 108.7 108.7 108.6 108.8 108.5 109.1 110.1 110.4 110.1 109.6 109.5 109.2 108.8 108 107.9 108.3 107.3 108.1 108.2 108.5 108.3 108.3 108.3 108.2 108.1 108 108.1 108 108.2 108.1 108 108.5 107.9 108 107.9 107.9 107.9 106.7 108.1 108.1 107.7 108.2 108.1
129.3 128.5 127.6 126.3 126.3 125.2 125 123.1 123 122.2 122.9 122.4 121.5 121.8 122.4 122.4 122.4 122.7 123.1 123.6 123.9 125.5 126.3 127.2 127.3 127.3 127.4 127.1 126.7 126 124.9 124.5 123.8 123.7 123.2 122.2 122.8 122.3 121.1 121.8 122.1 121.8 121.4 120.2 120.2 120.6 120.4 120.6 120 119.9 119.6 119.7 119.8 119.2 119.1 118.4 118.3 118.2 118 117.9 117.7 117.3 117.4 117.4 117.1 116.6 116.4 115.2 110.9 109.3 107.9 106.7 106.7 106.7 106.7 106.7 106.7 106.7 106.7 106.7 106.7 106.7 106.7 106.7 106.7 106.7 106.7 106.7 106.7 106.7 106.7 106.7 106.7 106.7 106.7 106.7 106.7 106.7 106.7 106.7 106.7 106.7 106.7 106.7 106.7 106.7 106.7 106.7 106.7 107.8 108.7 108.4 108.4 109.2 109.6 110 109.4 109.3 109.5 110 109.4 109.2 108.7 107.9 107.1 106.7 106.7 106.7 106.7 106.7 106.7 106.7 106.7 106.7 106.7 106.7 106.7 106.7 106.7 106.7 106.7 106.7 106.7 106.7 106.8 107.4 107.2 107.2 107.2 107.2 107.1 106.7 106.6 107.1 108.4 108.1 106.8 108.6 108.5 108.4 108.2 108.7 108.5 109.3 110 109.8 109 108.7 108.7 108.5 108.3 108.1 108.2 107.4 108 108.2 108.6 108.3 108.3 108.3 108.2 108.1 108 108.3 108.4 108.4 107.9 107.8 107.9 107.9 108.2 108.1 108 107.9 107.5 107.8 108.2 108.2 105.7 108.6
131.8 130.5 128.2 127.6 126.8 128.2 127.5 125.1 125.1 124.7 123.7 122.9 123.5 123.3 123.5 123.1 122.8 123.2 123.6 124.1 124.7 124.2 126.3 127.3 127.9 127.9 127.6 127.2 127.2 126.4 125.6 124.7 124.2 124.2 123.4 123.3 123.1 122.7 121.5 121.5 121.5 122.6 120.3 120.7 119.6 119.7 120.2 120.2 120 120.1 119.4 117.9 118.1 119.1 119.2 119.1 118.7 118.7 118.7 118.4 117.7 117.9 117.5 117 117.1 117 116.5 115.4 113.9 111.5 108.9 107.4 106.7 106.7 106.7 106.7 106.7 106.7 106.7 106.7 106.7 106.7 106.7 106.7 106.7 106.7 106.7 106.7 106.7 106.7 106.7 106.7 106.7 106.7 106.7 106.7 106.7 106.7 106.7 106.7 106.7 106.7 106.7 106.7 106.7 106.7 106.7 106.7 106.7 106.7 106.7 107 108.3 109.1 108.7 109.1 109.7 109.2 110 110 110.2 109.7 109.8 109.1 108.4 106.7 106.7 106.7 106.7 106.7 106.7 106.7 106.7 106.7 106.7 106.7 106.7 106.7 106.7 106.7 106.7 106.7 106.7 106.7 106.7 107.2 106.8 106.7 107 106.9 106.9 107 106.9 107.2 107.6 107.7 108.9 108.4 108.3 108.2 108.3 108.4 109.2 109.8 109 108.9 109 108.7 108.7 108.4 108.4 108.1 108.1 107.8 107.8 107.3 107.4 108.6 108.4 108.3 108.3 108.2 108.1 108.4 107.9 108.2 108 107.7 107.8 107.8 107 107.5 107.8 108.2 108.5 106.6 107.9 108.4 108.2 107.9
134.9 133.7 131.4 131 131.7 132.1 130.6 128 127.6 125.2 125.9 126.7 123.3 123.9 126.7 125.5 125 124.7 125.8 126.1 126 124.9 124.9 126.1 127.5 127.9 128 127 127.5 127.1 126.5 125.6 124.7 124.9 124.9 124.1 123.4 123 122.7 122.6 122.1 122.5 120.9 121.5 120.5 120.5 119 119.4 120.6 120.8 120 118.6 118.7 118.5 117.9 117.8 117.5 118 118.2 118.4 117.9 117.1 116.7 116.3 117 116.3 116.7 116.2 114.3 112.4 109.2 107.9 106.7 106.7 106.7 106.7 106.7 106.7 106.7 106.7 106.7 106.7 106.7 106.7 106.7 106.7 106.7 106.7 106.7 106.7 106.7 106.7 106.7 106.7 106.7 106.7 106.7 106.7 106.7 106.7 106.7 106.7 106.7 106.7 106.7 106.7 106.7 106.7 106.7 106.7 106.7 106.7 106.7 106.7 106.7 106.7 106.7 107.2 106.7 108.7 108.9 110.2 113.2 112 109 106.7 106.7 106.7 106.7 106.7 106.7 106.7 106.7 106.7 106.7 106.7 106.7 106.7 106.7 106.7 106.7 106.7 106.7 106.7 106.7 106.7 106.7 106.3 106.8 106.8 106.9 106.4 107.3 108.7 108.6 108.4 108.5 108.2 108.2 108.2 108.3 109 108.3 109 109.2 109.2 108.9 108.7 108.6 108.4 108 107.7 108.7 108.8 108.6 108 107.9 108.1 107.7 108.3 108.2 108.2 108.1 108.3 107.9 107.9 107.9 107.7 107.7 107.8 108.1 108.1 108.5 105.7 107.6 107.7 107.7 108 108.3 108.2
139.4 138.2 137.7 137 134.6 133.3 133.4 131.4 129.5 128.9 128 123.5 123 123.6 126.3 126.7 127.4 125.8 126.4 126.5 127.8 127.5 126.9 125.9 125.7 128 128.6 128.4 126.9 126.9 127 126.5 125.1 124.8 126.4 124.3 124.7 124.4 123.9 122.9 122.3 122.4 122.5 122.6 122.6 122.2 121.2 121.3 121.1 120.5 119.7 119.2 119 118.9 118.1 117.2 116.1 116.4 116.9 117.6 117 116.2 115.9 115.5 114.2 114.6 114.6 114.3 113 111.3 108.9 107.4 106.8 106.7 106.7 106.7 106.7 106.7 106.7 106.7 106.7 106.7 106.7 106.7 106.7 106.7 106.7 106.7 106.7 106.7 106.7 106.7 106.7 106.7 106.7 106.7 106.7 106.7 106.7 106.7 106.7 106.7 106.7 106.7 106.7 106.7 106.7 106.7 106.7 106.7 106.7 106.7 106.7 106.7 106.7 106.7 106.7 106.7 106.7 106.7 108 108.6 109.6 110.6 110.3 109.1 107.7 106.7 106.7 106.7 106.7 106.7 106.7 106.7 106.7 106.7 106.7 106.7 106.7 106.7 106.7 106.7 106.7 106.7 106.7 106.7 106.7 106.7 106.8 107 106.7 106.6 106.7 107.8 108.3 107.7 108.8 108.7 108.7 108.4 108.9 108.8 108.2 108.5 108.7 108.4 108.4 108.2 108 108 108.8 108.7 108.5 108.6 108.6 108.3 107.8 107.9 108.1 108.2 107.6 108.1 108 108.3 108 108 107.9 108.2 108.8 109.2 105.9 108.6 108.5 108.3 108.2 107.9 107.6 108.3 108.4 108.5
139.9 140.5 140 138.9 136.8 135.6 134.7 133.4 131.5 131 130.3 123.9 123.1 124.1 126.1 127.5 127.9 127.7 126.3 126.4 128 128.9 128 127.5 126.3 127.1 128.7 129 128.8 127.4 126.8 125.7 125.1 125.7 125.5 124.9 124.4 124.4 123.9 124.3 124 123.3 122.6 122.4 122.6 122.5 122.2 122.5 122.6 122.5 121.9 121 120.5 119.9 119.2 119.2 118.5 117.3 116.1 116.4 115.1 115.1 114.6 113.8 112.5 112.7 112 111.6 111 109.6 108.9 108.3 107.6 106.7 106.7 106.7 106.7 106.7 106.7 106.7 106.7 106.7 106.7 106.7 106.7 106.7 106.7 106.7 106.7 106.7 106.7 106.7 106.7 106.7 106.7 106.7 106.7 106.7 106.7 106.7 106.7 106.7 106.7 106.7 106.7 106.7 106.7 106.7 106.7 106.7 106.7 106.7 106.7 106.7 106.7 106.7 106.7 106.7 106.7 106.7 108.2 108.1 108.6 108.5 108.3 108.7 106.8 106.7 106.7 106.7 106.7 106.7 106.7 106.7 106.7 106.7 106.7 106.7 106.7 106.7 106.7 106.7 106.7 106.7 106.7 106.7 106.7 106.5 106.5 107.1 106.9 107 106.8 108.2 108.2 108.1 108.4 108.4 108.9 108.1 108.7 108.2 107.8 107.1 107.2 108.3 107.9 108 108.8 109 108.9 108.7 108.5 108.4 108.3 108.2 108 108.1 108.2 108.4 108.1 108 106.9 108.4 108.3 108.2 108.2 107.7 107 108.4 108.6 108.2 109 108.8 108.6 108.4 109 109.2 108.9 108.8
143.5 143.4 142.4 142.5 140.4 136.8 135.9 135.9 135.6 134 132.3 125.3 124.1 124.5 125.7 127.8 127.7 128.1 127.7 127.4 129.4 129.8 128.7 127.4 127.3 126.2 126.6 127.9 128.4 128.4 127.7 126.8 125.8 126.6 126.1 125.7 125.3 125.2 125 124.1 124.3 124.7 122.5 122.8 123.1 123.3 123.3 123.1 122.5 121.6 121.2 121.2 120.2 119.6 120 119.4 118.9 118.9 118.1 117.4 115.7 115.5 114.8 113.9 112.7 112.5 112.6 112.8 112 110.1 108.9 108.4 107.7 107.5 107.1 106.7 106.7 106.7 106.7 106.7 106.7 106.7 106.7 106.7 106.7 106.7 106.7 106.7 106.7 106.7 106.7 106.7 106.7 106.7 106.7 106.7 106.7 106.7 106.7 106.7 106.7 106.7 106.7 106.7 106.7 106.7 106.7 106.7 106.7 106.7 106.7 106.7 106.7 106.7 106.7 106.7 106.7 106.7 106.7 106.7 106.7 107.6 107.6 108.1 106.7 106.7 106.7 106.7 106.7 106.7 106.7 106.7 106.7 106.7 106.7 106.7 106.7 106.7 106.7 106.7 106.7 106.7 106.7 106.7 106.7 106.7 106.7 106.7 106.8 107.9 107.9 108.2 108.5 107.7 108 108.6 108.4 108 108.5 108.6 108.3 108.1 108.1 108.2 108.2 108.4 108.4 107.4 108.6 108.9 108.9 108.8 108.6 108.3 108.6 108.9 108.4 108.3 108.5 108.2 108 107.8 107.7 108.9 108.6 105.7 107.7 108.6 108.1 108.6 108.8 109 109.1 108.9 108.8 108.8 109.3 109.8 109.6 109.1
147.3 146.7 147.6 147.1 145.9 141.1 137 136.6 136.3 135.2 136.3 134.7 125.7 127.5 128.4 129.9 130.9 129.6 129.3 128.8 128.8 128.5 128.3 128.8 127.8 127.7 125.4 125.4 126.9 126.5 126 126.1 126.8 127.2 126.3 126.1 125.9 125.4 125.3 125.5 125 124.8 122.3 124 124.1 124.2 123.1 122.8 121.6 121.6 121.4 121.4 120.8 120.8 120 119.9 119.3 118.7 118.9 117.6 115.8 115.5 114.6 113.9 113.6 113.5 113.2 112.5 112.7 110.9 108.9 108.5 108 107.6 107.6 107.8 107.7 107.1 106.7 106.7 106.7 106.7 106.7 106.7 106.7 106.7 106.7 106.7 106.7 106.7 106.7 106.7 106.7 106.7 106.7 106.7 106.7 106.7 106.7 106.7 106.7 106.7 106.7 106.7 106.7 106.7 106.7 106.7 106.7 106.7 106.7 106.7 106.7 106.7 106.7 106.7 106.7 106.7 106.7 106.7 106.7 106.7 106.7 106.7 106.7 106.7 106.7 106.7 106.7 106.7 106.7 106.7 106.7 106.7 106.7 106.7 106.7 106.7 106.7 106.7 106.7 106.7 106.7 106.7 106.7 106.7 106.7 106.7 107.2 107.7 108.7 108.3 108.4 107 107.8 107.9 107.9 107.9 108.2 108.1 108 108 108.1 108.1 108.3 109.3 109 108.6 108.4 108.7 108.9 108.9 108.9 109.3 109.5 109.6 109.3 108.5 108.5 108.1 107.9 108.7 106.2 107.9 107.8 108.3 108.4 108.4 108.5 108.7 108.7 108.7 109 109.3 109.2 109.4 109.6 109.8 109.5 109.3
150.6 150.4 150.7 150.4 148.8 145.5 142.5 141.9 141.9 142 141.8 140.9 135.4 131.1 130 131.4 134.6 133.3 131.5 130.1 129.5 129.3 128.7 128.5 128 127.7 128 126 124.5 126.4 125.5 125.3 124 123.7 124 125 125 124.8 124.9 125 124.6 124.6 124.1 124.8 124.6 123.7 124.2 123.6 122.2 123.4 123.2 122.6 121.9 120.8 120 120 119.6 119.2 118.8 118.4 116.4 115.3 115 114.7 114.3 114.2 114.1 113.4 113.7 111.9 109.9 108.3 108 108 108 108.3 108.8 106.8 106.6 106.7 106.7 106.7 106.7 106.7 106.7 106.7 106.7 106.7 106.7 106.7 106.7 106.7 106.7 106.7 106.7 106.7 106.7 106.7 106.7 106.7 106.7 106.7 106.7 106.7 106.7 106.7 106.7 106.7 106.7 106.7 106.7 106.7 106.7 106.7 106.7 106.7 106.7 106.7 106.7 106.7 106.7 106.7 106.7 106.7 106.7 106.7 106.7 106.7 106.7 106.7 106.7 106.7 106.7 106.7 106.7 106.7 106.7 106.7 106.7 106.7 106.7 106.7 106.7 106.7 106.7 106.7 106.7 106.7 106.6 107.9 109.1 108 108.3 108.3 107.8 107.9 107.9 107.9 107.9 108 108 108 108 108 108.1 109.1 109.2 108.9 108.7 108.8 109 108.5 108.7 108.7 109.2 109.3 109.1 110 109.9 107.8 106.4 108.2 108.4 108.6 108.3 108.4 108.8 108.8 108.5 108.7 108.8 109.1 109.8 109.6 108.7 109.1 109.4 109.8 109.8 110.1
