ncols 200
nrows 200
xllcorner 340000
yllcorner 770000
cellsize 50
290.5 300.9 311.2 325.7 338.9 348.2 360 376.1 387 397.3 406.3 413.8 412.5 422.4 433.8 439 434.3 432.5 435.3 436.7 438 442.7 447.4 453.1 460.1 466.3 473.8 481.1 484.8 477.2 489.5 494.8 495.9 497.9 492.8 442.2 429.8 413.8 402.5 392.3 372.9 357.1 343.4 338.2 327.9 318.5 312.5 307.2 302.9 297.7 285.9 277.5 270.6 270.6 270.6 270.6 270.6 270.6 270.6 270.6 270.6 270.6 270.6 270.6 270.6 270.5 271.8 275.9 279.5 282.9 286.2 287.7 289.5 291.2 291.8 292 292.9 292.5 291.4 291.5 292 291.3 290 288.9 286.4 284.2 280.8 277.8 274 269.5 265 263.7 262.2 260.7 259.4 258.4 257.4 256.5 258.6 259.6 254.1 252.3 251 247.4 245.6 252.2 252.8 254 255.2 261.5 261.1 263.8 264.1 265.1 264.2 270.1 269.2 269.7 270.2 272 272.5 272.5 272.8 273.7 274 276 277.8 279.9 282.5 287.1 290.2 291.5 293.1 296.6 299.2 299.7 300.6 302.6 305.7 307.9 304.2 304.4 303.7 309.2 307.5 300.7 304.7 296.9 292.9 288.7 288.1 286.7 282.9 278.2 272.6 271 272.2 267.4 260.7 259.5 255.8 254.9 255.4 255 255.1 256.2 256.6 254.6 247.8 242.8 234.7 231.8 224 221.3 218.1 216.9 218.4 212.5 209.4 203.2 202 198 197.7 203 213.2 212.9 217.3 222.8 223.9 225.2 227 229.2 229.1 232 234.1 233.6 235.5 238.6 241.1 241
279 284.1 297.3 310.5 318.1 333.5 338.8 349.6 362.1 368.6 375.6 382.7 386.6 392.1 398.4 404.8 408.9 404.6 410 417.4 418.2 423.4 429.4 434.4 440 447.1 452.9 450.3 443.2 453.4 460.8 472.1 473.4 473.3 420.3 406.2 396.3 387.7 371.6 357 342.3 331.6 322.2 313.1 306.1 296.7 292.7 287.7 284.4 279.7 270.6 270.6 270.6 270.6 270.6 270.6 270.6 270.6 270.6 270.6 270.6 270.6 270.6 270.6 270.6 270.6 277.1 281.1 284.5 288 290.7 293.5 295.4 297.7 298.4 299 300.1 299.9 298.9 297.3 300 300.9 301.2 300.9 298.2 293 288.4 283.2 278 274.1 270 267.9 265.5 262.9 260.8 259.7 258.3 257.2 256.2 256.5 254.5 256.9 252.7 253.6 241.7 246.8 256.7 257.1 258.8 260.5 260.4 262.1 262.8 266.7 264.4 268.2 268.5 269.6 269.8 271.3 272.6 272.5 271.5 271.6 272.5 274.3 276.9 279 282.4 283.9 287 290.4 293.3 298.5 299.3 303.6 306.3 309.1 309.6 311.9 312.2 314.2 312.3 311.5 310.8 307.8 304.3 304.4 301.4 300.5 296 289 287.1 281.5 275.4 270 262.5 260.7 261.2 255.8 254 247.8 249.5 251.6 248.4 250.1 251.5 251 250.4 247 235.7 231.9 226.3 222.5 219.4 218.5 212.3 211 205.9 203.5 200.5 199.4 197.5 199.8 209 210.4 213.3 215.9 221.8 221.1 221 224.1 225.1 225.2 229.1 232.7 233.4 233.2 235.3 235.4
278.8 278.5 283.2 293.2 307.3 315 324.6 333.1 339.3 347.5 354.1 356.5 359.3 364 368.9 371.5 373.9 380.5 383.5 388.3 391.5 399.6 405 408.1 413.2 418.3 422 419.7 420.6 426.2 433.1 436.8 435.7 403.7 384.3 374.7 368.1 358.1 348.6 334.5 318.1 309.9 300.4 294.2 292.2 281.1 272 270.6 270.6 270.6 270.6 270.6 270.6 270.6 270.6 270.6 270.6 270.6 270.6 270.6 270.6 270.6 270.6 270.6 270.6 276.3 281.4 287.9 293.8 296.9 299.5 302.1 303.3 304.7 305.9 306.8 307.8 307.5 306.9 305 307.7 308.2 311.9 313.2 310.7 304.6 297.9 291 285.1 280.1 275.5 272.3 269 265.5 263.6 262 260.2 257.7 255.7 253 256.3 253.4 252 250.3 244.4 242.4 257 256.5 256.7 258 259.5 261.9 261.7 266.7 262.8 267.2 268.8 270.4 270.7 269.8 271.7 271.8 271.1 270.5 271.2 273.7 275.9 277.5 279.5 282.5 286.2 289.9 292.5 296 301.5 305.2 309 313 316 319.7 323.4 324.5 323.8 322.5 320.6 319.3 317.3 314.7 312.3 309.2 303.9 297.9 293 285.7 279.4 269.6 267.2 265.9 265.1 262.7 259 254.8 245.7 243.5 243.9 243.5 242.5 244.5 244.8 245.3 239.9 236.6 229 226.8 220.8 215.8 212.4 211.2 204.7 202.9 200 198.9 197.8 205.7 209.4 209.4 210.8 212.5 214.5 217.7 218.4 219.2 225.3 221.4 226.2 229 230 231.2 230.4 231.8
278.6 278.4 278.5 282.2 292.5 301.7 310.5 316.4 325.6 330.5 334.4 338 340.9 343.3 346.5 348.8 352.3 357.9 360.5 362 363.1 366.6 371.4 374.8 380 383.3 386.9 391.6 392.5 387.1 387.9 382.2 367.7 355.5 348.1 344.2 339.5 332.1 319 312.2 301.5 291.6 287 281.9 277.2 270.6 270.6 270.6 270.6 270.6 270.6 270.6 270.6 270.6 270.6 270.6 270.6 270.6 270.6 270.6 270.6 270.6 270.9 280 286.2 290.3 294 298.6 304 308.3 310.1 313 313.9 314.2 315.4 316.2 315.9 314.9 313.9 311 316.2 319.9 325.9 329.8 331.6 320.9 310 300.4 293 287.5 282.1 278.4 272.5 269.7 267.3 264.9 260.7 259.3 257.8 253 251 250.7 250.9 249.3 246.8 240.3 244.6 255 256.4 257.5 259 261.6 260 265 263.3 262.6 267 269 270.7 268.3 270 270.4 270 271 269.6 272 274.7 276.4 278.3 280.8 284.2 288.9 291.3 294.7 300.1 304.9 309.6 315.2 319.4 323 326.4 328.5 329.7 329.4 328.6 328.3 326.9 325.2 322.2 318.1 312.5 305.2 297.3 288.8 281.7 274.2 266.6 261.7 261.2 261.1 259.6 257.3 249.2 242.6 240.9 241.1 239.3 236.4 240.2 239.8 240.2 235.8 230.4 230.6 224.6 217.5 213.7 210.6 209.3 200.7 199 198 197.2 196.7 205 207.2 209.4 210.1 210.1 211.1 215.2 215.3 218.1 219.5 221.6 227.3 228.4 228.3 227.6 227.2
279.1 278.4 278 278 280.7 289.1 297.1 304.4 305 311.4 316.7 320.5 322.7 324.7 327.8 330 333.6 337.4 338.6 337.1 336.5 337.6 341.1 343.2 344.7 347.4 352 362.9 366.7 350.8 342.9 337.5 331 324.6 319.2 317.3 311.9 300.2 293.1 290.1 287 280.7 272.2 270.6 270.6 270.6 270.6 270.6 270.6 270.6 270.6 270.6 270.6 270.6 270.6 270.6 270.6 270.6 270.6 270.6 270.6 278.5 285.7 290.3 296.2 301.8 305.6 309.5 314.6 320.1 327.2 331.1 338 339.9 337.8 330.6 325.4 323.3 322 320.2 324.8 332.1 338.4 347.8 353.7 351.2 337.8 320.1 306.4 295.7 289.8 285.2 279.3 274.3 271.3 267.1 262 258.8 257.7 254.2 253 251.2 249.6 248.5 245.5 240.8 243.2 252.3 254.1 254.8 255.7 257.3 259.4 262.4 258.6 262.5 263.6 266.7 268.4 268.1 267 267.4 270.1 271 271.2 269.7 273.3 275.1 276.6 279 283.2 286 288.3 293.2 299 305.1 310.6 316.5 321.5 326.4 330.7 335 337.1 338.7 339.6 339.9 339.7 337.9 333.7 327.4 319.7 310.3 301.3 292.3 283.9 275.8 267.7 263.5 256.9 255.9 254.9 253.6 251.9 247.1 240.5 237.1 238.9 237 233.1 234 232.7 231.2 229.5 229.8 227.7 222.6 217.7 214.2 210.9 205.2 198.4 197.9 197.3 192 203.5 203.7 206.6 208.2 209.6 208.9 209.7 215.8 214 215.5 218.4 222 223.9 223.6 222.4 225.6
277 276.7 277.8 277.4 277.3 276.9 284.8 291.5 288.9 296.1 300.7 303.4 302.8 306.4 310.2 314.3 315.7 317.9 321.3 321.4 320.4 320 320.5 319.9 320.2 320.4 322.6 325.3 332.1 325.5 312.1 306.5 303.9 300 295.7 294 289.2 281.9 279.7 278.4 275.3 270.6 270.6 270.6 270.6 270.6 270.6 270.6 270.6 270.6 270.6 270.6 270.6 270.6 270.6 270.6 270.6 270.6 270.6 273.9 280.7 288.6 296.3 302.4 308.3 313.5 317.7 323.3 330.3 341.3 351.2 359 369.8 370.5 363.4 349.4 341.4 330.3 329.3 327.8 332.6 339.4 348.5 359.1 367.8 375 370.5 358.9 331.9 311.7 302.2 291.2 284.7 279.5 274.9 270.3 265.8 261.7 258.4 254.9 253 251.3 250.3 248.7 245.4 241.5 242.2 245.1 250.8 252.2 253.5 255.2 258.4 257.6 255.8 261.1 260.3 263.8 264.8 265 264.3 265.8 268.5 270 270.7 268 272 273.3 274.8 277.2 279.9 284.6 285.8 290.5 297.3 304.2 311.3 317.3 323.9 331.3 337.2 341.3 343.6 345.5 348 350.9 352.1 350.9 347.6 340.6 332 321.2 308.5 299.1 287.6 278.8 269.7 259.8 255.6 250.4 250.3 247.7 245.8 242 240.5 237.8 228.5 231.2 227.9 228.4 226 224.2 227.8 226.3 225 222.3 219.8 215.1 211 208.8 199.8 197.5 196 191.4 198.4 203.8 205.9 206.1 208.8 208.3 207.9 209.8 214.8 213.1 216.1 218.4 219.3 221 220.7 218.5
278.4 277.3 276.7 276.8 277.2 277.2 276.5 275.9 276.4 279.1 284.7 287.4 289.9 291.4 295.7 298.7 297.4 300.7 304.9 303.2 303.5 303.9 304 302.6 301.2 300.2 298 302.7 299.7 298.1 293.1 286.8 283.1 278.9 276.4 277.6 277.2 270.6 270.6 270.6 270.6 270.6 270.6 270.6 270.6 270.6 270.6 270.6 270.6 270.6 270.6 270.6 270.6 270.6 270.6 270.6 270.6 270.6 278.6 285 291.3 299.9 307 313.3 319.8 325.4 332.9 340.9 353.4 363.4 378 387.4 394.1 393.2 384 367.5 355.7 341.9 336.8 336.9 338.6 346.1 356.8 367.9 377.4 384.8 380.6 369.4 353 335.2 319.8 303.9 294.8 286.2 280.1 273.1 268.5 265.1 261.1 258.5 255 252 250.2 248.9 247.2 242.4 240.1 248.8 249.6 251 252.4 254.6 255.9 256.3 254.3 259.5 258.6 261.2 262.9 263.4 263.3 264 266.6 269.6 269.1 267 270.5 271.6 272.7 275.5 278.5 281.8 283.6 289.8 296.6 304.3 313.1 320.5 328 337.1 343.7 348.5 352.6 355.5 357.2 361 365.3 363.9 361.9 355.7 345.2 333.8 322 309.6 296.4 283.9 273.2 261.9 254.3 249.7 247.1 245.4 244.8 244.1 238.7 232.8 227.2 224.4 218.8 217.1 221.8 219.1 221 220.7 220.4 220.2 218.9 216.1 212.2 209.6 203.9 197.5 195.8 195.8 195.6 199.1 199.8 204 205.5 206.4 206.7 207.6 209.7 213.3 210.4 215.8 215.2 216.2 216.8 218.4
285.2 277.2 276.4 276.9 277 277 276.4 276.1 276.2 275.7 274.9 275.9 277.6 283.8 284.9 287.2 283.8 285.4 286.6 287.8 289.1 290.9 290.1 286.9 286.6 283.5 282.3 282.3 281.8 280.4 277.1 273.9 273.8 270.6 270.6 270.6 270.6 270.6 270.6 270.6 270.6 270.6 270.6 270.6 270.6 270.6 270.6 270.6 270.6 270.6 270.6 270.6 270.6 270.6 270.6 270.6 270.6 281.7 289.4 297.2 304.5 311.7 318 325.3 332.9 340.4 347.9 358.2 369.1 382.3 396.9 402.8 406 402.2 387.5 376.1 362.8 348.3 343.6 343.4 344.9 351.7 363.3 375.4 384 389.8 383.8 368.8 359.3 351 335.4 320.5 306.2 292.6 283.9 275.2 270.5 266.8 263.6 260.5 256.4 253.4 251.3 249.3 248.9 241.4 238.3 248.7 253.2 251.2 251.8 251.7 252.2 255.3 253.3 257.8 257.5 258.5 259.8 261.2 261.8 262.5 263.2 267.9 267.1 264.5 268.4 270.1 270.8 272.4 275.5 279.6 283.8 290.2 297 306.5 316.3 328.4 338.6 345 350.3 355.9 359 361.8 365.7 370.3 371 369.5 365.4 359.3 351.1 341 328.1 314.6 305.3 292.9 280.4 268.7 254.5 250 247 246.1 244.5 243 241.1 237.8 235.9 232.6 227.4 222.2 219.8 212.7 215.4 216.4 216.7 216.1 215.5 214.8 212.2 209 211.6 203.2 195.7 195.5 188.9 195.9 197.3 201.4 203.2 204.2 203.2 205.2 206.2 208.5 207.2 208.1 210.1 212.3 210.9 214.4
294.5 283.6 276.1 277.8 277 276.5 276 276.1 276.1 275.6 275.1 275 274.5 274.5 274.6 275.1 274.5 274.8 275.7 275.3 277 275.5 274 276 275.1 273.9 272.2 271.4 270.7 270.6 270.6 270.6 270.6 270.6 270.6 270.6 270.6 270.6 270.6 270.6 270.6 270.6 270.6 270.6 270.6 270.6 270.6 270.6 270.6 270.6 270.6 270.6 270.6 270.6 270.6 270.6 284.3 294.7 302.8 310.9 317.6 325.6 331.6 340.9 350 357.5 368.3 380 389.8 398.5 407.9 411.5 407 399.9 390.4 381.9 370.6 355.5 349.5 349.2 353.7 361.6 371.8 381.6 385.6 389.3 386.8 378.3 367.7 359.2 344.7 326.2 314.2 300.5 287.7 279.5 274.2 268.9 266.2 263.4 258.2 255.7 251.9 249 246.6 243.3 238 246.9 248 254.8 252.8 251.6 251 254.3 250.5 254.6 255.3 256.2 258.1 259.6 260.1 261.3 261.3 260 263.8 261.2 265.5 269.1 269.8 270.6 274 277.7 283.7 290.3 297.8 308.5 321.2 334.1 344.9 351.4 354.6 357.3 362.3 367.4 372.4 376.9 377.9 373.6 367.4 361.3 354 343.1 332.7 322.4 309.8 298.3 286.3 273.2 263.4 254.4 249.9 247 244.6 241.1 241.1 238.2 233.2 231.2 228.4 225.3 221.3 216.1 211.2 211.6 214.4 214 211.9 213.2 210.5 210 211.8 204.7 195.2 195.1 191.8 194.2 195.2 195.4 197.3 200.2 197.8 201.5 205.2 205.8 208 205.8 205.7 207.2 211.9 212.4
306.4 293.4 280.5 275.9 275.9 275.7 275.8 276 275.8 275.7 275.3 275 274.7 274.4 274.6 273.9 273.7 273.6 273.3 273.1 272.9 272.5 272.7 272.5 270.6 271.1 272.3 270.7 270.6 270.6 270.6 270.6 270.6 270.6 270.6 270.6 270.6 270.6 270.6 270.6 270.6 270.6 270.6 270.6 270.6 270.6 270.6 270.6 270.6 270.6 270.6 270.6 270.6 270.6 279.1 289 299 307.9 316.4 324.3 331.5 341.3 351.2 366.5 374 378.3 388.8 396.5 402.6 405.4 416.4 419 412.7 403.6 394.7 384.8 374.2 362 352.9 358.6 363.4 371 377.1 381.5 387.3 386.8 382.3 374.9 369.3 359.1 343.7 329.3 315.3 302.3 291.4 281.7 274.7 270.9 266.8 264 262.2 256.4 254.7 249.6 246.5 242.6 237.6 243.8 245.5 251.1 252.2 252.2 250.4 252.9 248.7 253.5 250.9 254 258.6 259.1 257.9 257.9 260.8 259.3 259.8 259.9 264.6 268.2 268.3 268.5 271.9 277 282.7 289.8 300.5 313.2 326.3 337.8 347.1 352.9 356.3 358.3 362.5 368.9 373.4 375.4 375 372.4 367.1 359.7 351.7 341.8 333 323.9 314 303.1 291.3 279.6 270.6 264.4 256.5 249.2 244.7 242.8 241.9 240.3 237.8 233.1 231.2 226.4 223.6 218.7 215.9 215.2 211.7 208 210.5 206 208.6 207 207.6 204.6 193.2 193.8 192.9 188 193.5 195 194 193.4 193.8 193 198 205.2 203.2 203.4 204.6 205.5 211.3 213.4
316.4 305.5 291.2 284.4 276.4 275.5 275.3 275.7 275.6 275.4 275.4 275.1 274.8 274.4 274.5 273.9 273.7 273.5 273.2 273 273 273 271.3 272.4 271.3 270.6 270.6 270.6 270.6 270.6 270.6 270.6 270.6 270.6 270.6 270.6 270.6 270.6 270.6 270.6 270.6 270.6 270.6 270.6 270.6 270.6 270.6 270.6 270.6 270.6 270.6 270.6 273.2 287.7 297.5 306.2 314.7 322.7 331.2 339.2 351.1 369.5 383.6 400.4 407.1 408.9 413.5 415.6 413.8 417.4 419.7 423.8 416.5 406.1 397.6 387 375.2 367.3 361.3 368.6 376.2 381.4 383.1 382.8 376.3 378.9 372.6 365.9 359.8 352.6 341.2 328.7 317.5 304.1 292 283.5 276.4 270.1 267 263.8 262.1 257.2 254.2 248.8 247.4 243.3 235.6 240.6 242 246.2 250.5 249.7 247.8 248 247.2 245.6 247.8 251.8 254.3 256.4 254.4 254.9 257.5 257.5 257.9 258.6 262.1 265.5 266.8 267.3 270.3 275.7 284.2 290.3 302.7 316.4 329.2 338.9 345.6 351.9 355.8 357.2 359.7 364.2 368.2 369.6 368.1 365.4 359.2 354.4 346.9 340.3 330.4 322 314.7 304.4 291.1 279.6 270.8 261.8 255.8 247.9 242.1 240.6 237.2 241.7 239.6 234.2 230.7 228.5 225.8 219 217.2 213.9 213.4 213 206.2 205.4 203.7 203.4 203.5 203.1 202.1 193.1 192 188.4 192.1 193.2 193.2 194 193.5 195.7 197.1 197.7 204.7 203.9 203.4 205.7 205.8 211.7
325.6 314.4 306.7 296.9 289.3 282.2 278.7 274.8 274.6 275.3 275.3 275.1 274.7 274.4 274.3 273.8 273.7 273.5 272.9 272.6 272.8 272.8 271.3 272.3 271.2 270.6 270.6 270.6 270.6 270.6 270.6 270.6 270.6 270.6 270.6 270.6 270.6 270.6 270.6 270.6 270.6 270.6 270.6 270.6 270.6 270.6 270.6 270.6 270.6 270.6 271.2 282.1 292.7 303.6 314.3 323.1 330.6 338 346.4 360.5 379.4 395.8 415.2 428.6 436.1 433 438.6 436.6 434 425 423.7 422 418.7 409.9 400 390.9 382.4 374.1 372.7 378.7 386.5 388 384.2 380.7 375.1 365.9 360.2 352.9 349.5 344.4 334.4 325.6 315.5 303.4 290.5 283.2 276.8 271.1 265.2 261.9 259.9 255.2 252.7 249.2 246.1 242.3 238.4 238.3 240 240.7 240.6 244.2 244.3 244.4 245.2 250.3 242.8 246.5 251.3 252.7 251.2 251.3 255.1 254.6 254.2 256.7 260.9 263.3 264.3 265.2 269.5 274.6 282.4 290.7 302.3 316.3 328.9 337.6 343 348.4 352.1 353.3 354.9 357.6 360.2 360.8 359.9 355.4 350.1 346.1 342.3 334.2 325 318.3 310.8 299.2 283.2 276.3 267.7 257.8 250.9 245 240.2 237.9 235.7 234 231.7 230.4 227.4 227.7 222.1 218.6 218 215.9 213.6 212.6 207.2 205.1 203.5 203.3 201.1 200.9 198.9 192.5 191.5 191.1 186.3 191.2 192.3 194.2 192.4 193.6 197.5 197 198.9 203.4 202.3 207.4 201.9 204.9
333.8 324.4 317.9 310.3 299.3 292.9 288.8 288.1 284.1 279.1 273.8 274.5 274.2 274 274.2 273.5 273.4 273.3 272.8 272.5 272.7 272.6 273.2 272.2 271.2 270.6 270.6 270.6 270.6 270.6 270.6 270.6 270.6 270.6 270.6 270.6 270.6 270.6 270.6 270.6 270.6 270.6 270.6 270.6 270.6 270.6 270.6 270.6 270.6 278.3 289.5 303.4 310.9 320.7 332.3 340.3 348.9 356 367.8 386.1 404.1 423.8 439.2 452 459.3 457.7 454.2 451.9 445 438.1 433.7 429.4 421.5 418.4 407.8 397.3 389.8 385.6 384.6 389.3 395.3 396 389.8 381 371.6 363.7 355.9 349.6 344.4 335.9 326.4 320.1 308.2 301.1 290.8 281.5 274.9 269.9 264.4 260.4 258 253.5 250.1 246.8 243.8 242.4 241.8 233.4 237.5 239.6 238.9 240.8 240.5 241.1 241.9 243.8 241.6 247.9 247.7 248.6 248.4 249.1 250.9 254.9 250.4 254.5 259.4 261.2 262.2 264.1 268.5 272.8 280.9 289.7 301.9 316.3 327.2 334.6 338.7 341.7 344.5 346.1 346.6 347.8 351 350.8 347.9 343.5 338.2 332.9 326.5 320.2 316.5 309.3 298.7 283 276.1 267.7 260.8 255.1 248.5 243.3 234.9 230.9 228.5 225.2 223.3 220 218.9 216.4 215.3 215.4 220.2 219.1 215.3 212 211 204.4 205 204.3 201.1 200.1 199.7 191.5 191.2 190.6 188.2 188.2 189.2 189.7 189 191.4 194.9 196.2 196.3 199.6 202 203.5 202.2 201.9
344.3 338.1 330.8 325.4 314 305.1 305.5 300.2 301 293.6 286.6 281.8 277.6 276.5 273.8 273.1 273.2 273.5 273.8 273.4 272.7 273 272.5 272 270.9 270.6 270.6 271.3 270.6 270.6 270.6 270.6 270.6 270.6 270.6 270.6 270.6 270.6 270.6 270.6 270.6 270.6 270.6 270.6 270.6 270.6 270.6 276 287.6 300.9 312.3 329.4 335.2 340.2 353.7 362.5 366.8 376.3 387.1 405.7 420.5 438.3 451.9 464.8 470.2 467.6 470.5 469 461.3 453.3 444.7 436.7 429 420.2 410.1 401 393.6 392.8 392.7 395.5 400.7 402.3 396.9 388.6 375.1 364.5 354.6 346 336.3 329 320.6 313.6 304.6 297.8 290 282.2 273.6 269.8 264.9 261.1 257.7 253 249.3 246.8 244.7 242.7 241.7 241.2 235.2 237.4 238.6 238.1 239.2 240.7 239.4 239.6 240.7 244.2 243.6 245.5 250.8 248.4 250.1 249.7 252.3 253.2 257.3 259.2 259.5 262.3 266.8 270.9 278.4 288.3 300 313.5 324.2 329.8 333.6 336.1 338.1 340.7 341.6 339.8 343.2 341.8 338.4 333.9 328.7 322.5 313.9 308.5 305 292.4 280.3 273.9 267.4 261.8 255.4 249.5 242.9 235.1 230 223.2 220.7 217.5 215.1 213.9 212.6 212.6 211.2 211.5 211.4 212.4 214 209.6 209.2 208.5 205.2 202.3 203.1 200.4 196.9 190.4 190.6 189.8 188.5 186.7 188.9 188.4 188.9 190.9 189.5 190.7 193.4 194.8 197.7 199.9 200.3 201.3
360.1 355.4 351.4 336.6 325.3 324.6 325.4 317.2 312.1 308 306 305 304.6 305.8 297.2 294.9 278 274.7 273.9 273.6 273.8 273.6 273.3 272.5 270.6 270.6 270.6 270.6 270.6 270.6 270.6 270.6 270.6 270.6 270.6 270.6 270.6 270.6 270.6 270.6 270.6 270.6 270.6 270.6 270.6 277.7 289.5 298.8 313.4 331.4 345.5 360.8 372.4 374.6 379.3 385.8 392.8 399.2 411.2 422.2 437.6 455.1 467.3 479.5 489.2 492.1 486.6 479.6 473 467.7 460.2 450.6 438.8 429.9 418.3 408.2 401.4 399.6 399.5 402 402.9 401.2 395.9 387.2 374 363.6 354.2 341.7 332.7 323.4 315.7 306.7 297.9 292.8 285 280.5 273.5 269.5 266.2 261.4 256.9 253.3 250.8 249.6 245.6 243.2 241.4 239.8 234.1 233.8 237.5 234.3 236.3 238.4 237.9 238.2 239.1 241.2 242 247 243.7 245.6 246.1 247.8 249 253 255.4 257.3 258.9 260.8 265 268.7 278 287 297.4 308.8 318.4 324.3 328.4 330.8 332.2 335.3 333.6 331.1 329.7 329.9 328.7 325.5 317.3 310.8 302.4 296.9 292.3 278.6 270.4 265.6 258.4 253 246.2 240.4 233.5 228.4 221.3 218.4 216.6 214 211.8 210.4 210.1 209 209.1 208.3 208.2 208.9 206.4 208.4 209.6 209 205.9 202.6 198.2 195.7 197.8 192.4 190 189.5 188 184.6 188.3 187.7 186.7 191 188.8 189.4 190.6 194.7 193.4 195.6 197.4 199.7
379.6 375.4 360 350.8 352 345.5 344.4 338.2 333.5 333.6 330.8 333.1 332.1 338.9 330.4 317.5 310 293.3 274.4 274.9 275 274.9 273.8 272.9 270.6 270.6 270.6 270.6 270.6 270.6 270.6 270.6 270.6 270.6 270.6 270.6 270.6 270.6 270.6 270.6 270.6 270.6 275.2 279.6 289.2 300.5 310.1 326.1 344.5 361.5 395.1 412.8 438.6 450.5 419.9 418.9 422.2 425.4 433.8 444.3 459.9 471.4 485.7 495.8 501.2 500.3 496.8 489.5 482.1 475.5 468.2 461.8 449.6 437.4 427.4 418.8 410.5 408.5 406.1 406.7 404.5 400.5 393.3 383.8 371.7 361.8 351 340 330.2 319.9 310.4 303.1 297.7 289.6 283.7 278.6 273.9 271.1 267.5 262.3 258.3 255.4 253.7 251.1 248.4 245.3 242.7 239.9 237.9 234.6 232.9 234.7 233.9 235 235.6 236 237.4 238.7 241.7 241.3 241.7 244 244.4 245.7 246.2 250.4 253.3 256.6 257.3 258.9 261.9 267 273.4 283.8 294.6 305.6 313.5 319 323 325.5 327.9 328.7 327.1 324.5 321 318.6 317.9 314.5 307.1 300 292 284.9 278.9 268.4 260.5 255.7 250.5 245.5 238 229.5 227.2 222.8 219.4 216.3 214.6 215.6 214.4 216.6 211.6 209.9 207.2 206.5 205.8 205.5 207.1 207.2 208.7 208.4 205.7 203.3 203 197.6 194.6 191.7 189.1 188.7 187.6 184.9 188 187.3 186.8 187.1 185.8 189.3 188.5 187.5 190.6 191.7 194.3 199.5
390.1 385.1 373.8 375.8 371.9 367.3 360.8 356.9 355.3 355.5 353.7 354.2 358.5 363 365.8 368.4 357.5 322.8 288.3 276.3 276.7 276.8 275.6 273.5 272.7 270.6 270.6 270.6 270.6 270.6 270.6 270.6 270.6 270.6 270.6 270.6 270.6 270.6 270.6 270.6 270.6 277.5 283.9 293.9 304.6 318.1 329.8 352.9 372.2 400.6 425 439 451.9 460.5 461.3 463.7 470.4 468.2 467.6 482.3 486.6 492.2 498.6 505.1 508.9 507.8 504.9 496.7 488.6 481.8 473.9 464.8 454.5 442.7 433.9 426.1 422 417.3 413.3 411.5 407.4 400.7 393.3 383.4 373.8 361.7 350.8 339.9 332.1 323.4 313.3 307 300.7 293.8 288 282.2 277.9 274.5 270.8 265.1 261 258 255.2 251.9 249.2 246.3 243.2 240.4 238.5 236 234.3 230.5 233.9 233.5 233.4 233.8 236.2 237.9 245.5 240.7 240.4 241.4 242.4 243.6 244.1 244.3 248.7 252 255.4 257.6 260.7 263.5 270.1 280.2 289.4 299.9 307 312.8 317.6 320.5 323.1 325 323.7 319.9 316.9 310.7 306.6 299.8 293 286 279.1 274.1 267 259.9 250.3 244.7 240.8 234 229.9 227.5 223.1 221.4 219.3 215.1 215.9 217.8 216.3 214.1 212.9 209.9 206.9 205.7 204.9 206.1 204 204.3 204.9 205.6 204 201.6 201.2 198 196 193.5 194 188.1 187.1 186.1 186.9 186.5 186.2 186.4 185.8 186 189 188.2 190.7 187.5 191.9 193.4
392.8 388.8 387.4 384.2 381.6 378.7 375.3 373.4 374.3 373.5 375.2 376.4 381.4 385.9 380.8 374.6 356.8 329.2 305 290.4 279.8 278.9 277.3 275.8 273.7 271.6 270.6 270.6 270.6 270.6 270.6 270.6 270.6 270.6 270.6 273.1 276.3 280.6 283.2 284.2 288.8 296.1 303.2 304.6 317.1 330.5 347.8 366.8 387.8 408.3 424.3 436.3 449.6 459.6 467.5 474.7 487.1 492.5 502.4 507.5 510 511.2 512.1 514.6 513.4 510.5 503.9 496.2 490.2 482.9 471.9 463.2 454.2 446.6 439.1 433.1 428.8 422.6 419.6 416.1 411.3 404.8 396.9 386.6 376.8 365.9 354.8 344.5 336 328.2 319.6 313.3 306.5 300.5 295.4 288.4 282.8 279 276.4 270.6 265 260.7 257.6 254.1 250.7 247.6 246.3 241.7 239.7 237.3 235.7 233.5 230.3 230.9 231.3 232.7 235 236.8 243.8 240.4 240.1 239.3 240 241 243 246 244.1 249.7 252.6 255.2 258.8 263.7 266.8 276.3 284.2 294.4 301.2 306.5 310.8 315.1 320.3 320.1 319.4 315.4 311.6 304.6 298.7 291.6 282.7 274.7 269.1 261.5 252.9 249.9 244.1 236.7 234 229.4 224.9 223.4 221.1 219.3 216.4 215.1 215.5 215.2 212.3 209.8 212.5 207.4 203.8 205.3 204.8 205.1 201.7 202.1 201.8 201.4 202.4 200.6 201.5 196.7 194.5 193.3 191.1 190.1 189 186.2 184.9 186.2 185.9 185.5 185.6 185.9 187.2 187.3 188.7 186.9 187.4 187.4
394.5 394.1 393.8 390.4 389.3 388.2 387.8 387.6 389.1 389.6 392.7 394.1 395.7 399.4 388.9 370.9 341.9 332.5 319.8 299.9 285.8 283.3 278.9 276.1 274.2 272.8 272.1 270.6 270.6 270.6 270.6 272.3 274.1 278.1 280.2 284.2 287.2 291.2 295.6 301.2 306.3 313.5 317.9 318.8 328.6 343 354.6 370.8 393.2 408.8 424 436.6 449.1 458.9 469.5 478.2 489.8 504.4 512.5 520.9 526.7 527.2 523.7 520.5 516.3 508.7 499.7 492.8 485.6 477.1 468.8 460.7 454.5 449.7 443.7 439.1 433.1 429.4 426 421.3 416.7 411.6 403.2 392.8 383.6 373.2 363.6 355.2 346.6 339.4 330.3 322.3 315.3 308.8 301.6 294.3 288.6 284 280.5 276.2 270.3 265 260.3 256.7 253.1 248.9 244.5 242.4 239.9 237.4 236.2 234.3 232 231.6 231.9 231.9 232.8 237.2 237.6 242.2 242.2 238 238.1 239.5 241.3 243.1 241.6 246.3 249.3 252.9 257 262.5 265.8 273.3 279.5 288 295.7 299.6 303.7 308 311.2 311.8 310.8 310.8 304.5 298.5 292.6 283.6 274.2 268.1 260.4 249.6 244.6 241.1 237.8 233.3 229.1 225.8 223.3 221.7 219.4 217.7 215.8 215.2 216.7 212.9 208.6 208.7 206.6 205.3 206.2 203.3 202.2 201.8 201 203 201.9 201.3 198.5 199.7 197.2 194.9 188.7 185.2 184.1 183.7 183.4 183.1 182.7 183.1 185.7 185.4 184.8 184.9 187.6 189 186.6 186.2 186.6 184.8
397.4 397.7 398.2 398.2 396.8 396.2 396.8 399.2 401.6 406.5 413.6 410.7 406.3 399.3 383.4 361.8 344.1 332.3 321 304.1 289.2 288.4 284.8 283.9 285.3 283.9 281.8 278.8 277.1 276.6 280 280.5 285.8 290 292.1 295.4 298.8 302.5 307.7 314.5 320.9 326 331.4 332.4 339.6 350.4 361.4 380.9 399.6 413.9 426.5 439.9 451.1 461.1 473 482.7 495.6 506.3 516.4 525.6 531 534.2 530.6 521.1 514.1 505 496.1 489.2 482.1 473.2 466.1 460.9 455.9 451.3 445.1 442.7 439.4 436.7 434.8 431.2 427 421.9 412.4 402.6 393.8 384.8 375.3 366.6 357.4 348.5 339.6 330.8 322.4 315.7 308.3 300.8 293.5 288.9 284.8 280 274.6 268 263.1 259.2 255.4 249.9 246.3 243.5 240.5 238.3 236.3 235.3 233 231.7 229.8 231 231.1 235.9 235.8 237 238.1 236.8 236.8 236.7 237.5 240.8 239.1 243.2 246.8 250.7 254.3 261.8 264.2 268.4 272.7 279.4 287.9 290.5 293.8 298 301.9 302.1 301.3 299.3 295.7 290.3 282.6 277.6 269.9 261 251.8 247.8 240.7 235.8 233.8 230.1 225 223.5 220.1 219.1 217.9 215.5 211 214.8 209.9 206.3 205.8 206.8 201.5 200 200.5 202 199.1 199.7 200.8 200.8 200.8 200.1 197.4 197.7 194.9 190.2 186 190.3 191 191.4 190.1 189 188.4 186.4 182.1 181.5 182.2 186.6 186.4 185.9 188 185.6 184.9 184.7
403.1 403.5 403.9 404.6 403.9 405.3 408.4 413.2 419.8 422.2 423 416.1 407.3 394.3 373.9 356.2 347.1 333.1 316.6 298.8 297.7 303 300 297.3 297.4 294.6 293.2 294.6 293.6 300.5 300.6 296.1 300.9 302.9 305.4 308.5 312.4 315.3 319.8 325.9 330.9 336.5 342.1 346.2 344.3 356.7 367.7 389.3 405.4 419.7 432.3 444.3 455.3 466.9 477.1 488.2 499.7 508.8 520.4 530.6 538.6 538.8 533.1 523.7 515 504.6 496.2 488.3 479 471 466.6 462.2 456.8 454.3 452.8 451.2 450 448.3 445.6 442.2 437.7 432.3 423.5 414.6 405.1 395.8 386.4 377.3 368.5 358.6 349.5 339.8 330.4 321.4 313.5 305.7 299.3 294.6 289.9 284.9 279.7 272.6 266.1 262.3 257.5 251 247.7 243.9 242.2 239.9 237.2 235.2 235 230.6 229.7 231.4 230.2 229.6 234.3 233.8 236.8 234.8 236.5 235.6 235.6 236.5 237.8 238.5 243.1 248.6 251.7 257.1 261.8 263.3 265.6 273.9 279 283 284.8 286 289.8 291.6 290.2 287.6 285.7 281.7 278.1 271.5 266.2 256.1 250.8 242.7 235.5 230.1 227.4 222.1 220.8 218.7 217.1 213.7 212.6 210.2 210.8 209.5 209.5 207.6 206.8 200.2 201.9 200 199.4 200.4 198.9 199.6 199.6 197.6 195.9 197.4 194.4 191.2 190.4 185.5 193.1 194 196.5 194.2 194.1 193.7 193.1 190.4 187.8 186.6 184.3 181.7 180.4 181.9 180.7 178.9 178.5 179.4
408.2 409.7 411.4 414.5 418.8 430.5 431.4 434.7 437.1 434.3 429.5 424.3 408.7 388.5 369.4 354 341.3 330 312.4 307.9 314.5 315.5 317 314.6 320.6 318 321.6 319.3 319.3 328 331.1 322.4 319.1 321.9 323.1 327.4 327.7 330.2 333.8 338.5 343.7 348.5 353.7 358.4 358.5 365.4 376.6 395.6 411.9 428.1 441.7 453.5 464.2 475.1 484.7 494.6 504 514.9 525.3 534.9 541.5 542.1 535.3 526.2 517.2 508.5 498.2 488 478.4 472.5 467.3 464 461.6 460.7 461.6 461.5 462.1 461.1 459.1 456.5 452.9 446.3 437.8 428.2 418.3 408.7 398.8 388.1 378.7 368.4 357.4 348.5 338.3 328.5 320 313.3 306.6 301.4 295.6 290.7 285.3 279.1 272 266.6 260.3 253.6 249 245.9 243 240.6 238.4 237 235.2 233 227.6 231.2 230.3 229.7 228.4 231 237.5 232.7 235.1 234.7 233.8 235.7 235.3 235.6 237.5 244.6 248.4 253.3 257.2 259.8 264.9 264.2 273.3 274.2 274.4 275.9 275.1 278.9 276.2 273.9 268.9 263.2 263.8 260.9 256.3 247.1 240.4 233.6 229.4 228.2 222.1 218.5 216 213.5 212.1 211.3 207 208.2 209.5 208 208.3 207.4 202.7 204.2 199.1 201 200.2 196.4 198.9 197.4 196.6 194.8 193.8 194.3 192.2 191.2 187.1 194.8 196.5 201.2 199.8 198.9 199.9 197.6 195.1 194.4 196 194 189.8 186.8 186.6 185.8 184.3 182.3 183 183.5
416.3 416.4 419.4 422.5 430.9 446.5 456.7 459.9 453.8 447 438.3 426.1 407.6 382 364.9 350.5 337.2 320.3 318.3 325.1 325.6 328 333.6 339.4 344.3 341.5 347.8 353.5 354.8 355.9 363.4 360.6 345.3 349.3 347.1 348.3 349.3 350 352.4 356.4 359.3 362.7 367.5 371.6 369.6 375.7 382.9 404.1 421.2 437.1 452.2 464.2 474.6 483.2 491.4 500.2 510.4 519.2 528.5 539 543.7 544.1 538.8 530.4 520.9 511.3 500.7 490.3 481.2 475.5 471.4 469.8 470.1 470.7 471.7 472.9 473.6 475 474.9 471.4 466.6 460 450.2 440.4 431.1 420.2 410.9 400.4 389.3 378.1 367.8 357.5 346.6 335.6 327.1 321.3 314 307 300.8 295.3 289.4 283 276.1 269.7 264 257.6 251.9 246.8 243.6 240 238.6 237 235.6 233.7 227 228.8 229.8 229.4 228.8 228.3 229 232.2 233.7 232.4 232.9 232.6 232.5 233.8 234.6 239.3 242.4 246.4 249.5 254.2 259.4 264.1 256.6 259.7 255.2 258.7 261.2 254.7 256.3 254.6 259.3 248.2 248.1 243.8 241.1 237.9 232.3 228.7 227.5 221.8 215.4 213.5 211.1 211.3 210.1 206.1 203.9 206.3 205.6 204.8 202.9 199.6 194.4 195.9 199.5 198.5 193.9 193.6 193.5 191.9 191.3 189.3 191.3 191.1 191.1 189.6 192.8 201.9 209.7 205.1 205.2 205.3 204.8 205.9 203.4 200.9 201.6 200.5 198 195.9 193.4 190.9 188.8 186.9 185.7 184.6
421.4 423.1 432.1 445.3 460.3 469.6 473.1 469.3 461.7 455.5 441.4 423.6 401.2 380.5 361.6 346.1 329.4 331 333.1 345.1 358 354.5 360.7 370.3 375.5 386.6 386.5 390.8 421.5 417.5 400.5 399.7 392 375.2 374.2 372.4 373.3 372.1 374.2 376.7 377 377.4 378.6 381.9 382.6 383.6 390.7 410.3 429.4 446.7 461.1 474 487.8 497.9 505.7 513 517 526.9 534.9 540.6 544.8 545.4 540.6 534.8 527.8 516.8 505.2 493.7 485.3 481.3 479 477.5 480.1 482.7 485.5 488.3 490.7 493.5 494.2 491.7 483.9 473.9 462.4 451.9 442.9 433.7 423.4 414.8 404.3 392.3 381 368.6 356.8 345.5 337.2 328.1 320.3 313.2 306.7 300.2 292.8 285.2 278.1 272.1 265.7 258.8 252.4 247.2 244.2 240.5 238.7 236.4 235.5 234.9 233.2 230.9 225.5 226.7 228.8 228.4 227.2 235.4 231.9 231.4 231.3 230.6 231.2 231.7 232.7 235.4 238.9 241 240.8 245 249 253.3 251.9 241.8 243.9 243.7 242.3 241.6 241.6 241.6 241 238.4 234.1 232.2 231.1 227.1 222.4 220.9 217.9 218.8 213.4 213.7 208.8 207.4 207.1 204.4 203.2 203.8 204.4 203.7 203 195.5 194.8 194.3 193.9 193.5 193 192.9 190.3 192.4 192.8 192.4 191.7 191.2 190.9 195.7 204.9 214.7 211.4 208.7 207.7 210.6 209.4 208.6 208.5 208.2 207 205.6 204.7 202.5 198.7 195 192.8 192.5 195.6 192.7
443.6 460.1 470.8 474.1 494.9 492.1 486.9 475.8 464.5 451.4 434.2 413.4 394.3 373.4 357.8 343.1 341.4 344.1 354.2 364.2 374.5 384.9 390 405.5 414 426.8 449.3 457.1 457.8 474.2 473.7 470.9 434.5 416.5 425.5 412.6 407.6 412.4 410.5 409.4 395.4 394.2 395.2 393.9 391 389.1 397.7 416.4 436.3 455.3 472.1 485.2 497.5 509.3 519.6 528.9 535.8 540.5 544.5 548.6 550.6 549.7 546.1 540.9 533.9 523.6 512.2 502.9 494.5 489.7 487.3 488.8 494 498.4 502.6 505.1 508.3 512 511.1 507.2 500.7 491.6 480.6 468.9 461.3 453.1 442.6 432.5 422.4 410.7 396.1 382.3 369.7 356.8 348.5 336 325.7 318 309.5 303.8 296.4 288.4 280.1 273.4 266.9 259.9 252.4 244 241.8 238.6 237.4 234.6 234.4 232.3 230.9 231.1 229.6 228 225.7 226.5 228.8 230.5 230.2 230.1 229.5 228.5 231.7 231.4 230.9 234.6 234.6 237 235.8 238.9 237.6 236.3 234.2 234.2 233.8 234.1 233.9 231.8 231.1 229.4 227.8 228 226.1 223.2 222.2 220.7 218.3 217.1 215.2 213.3 211.7 212.1 210.4 206.7 204.5 204.5 200.8 198 196.7 196.3 195.4 195.1 194.7 194.5 194.8 194.2 192.5 191.2 193.1 193 193.5 193.4 193 192.4 200.1 208.6 213.3 212 211.3 210.3 212 215.1 211.7 213.7 213 212.8 211.4 211.4 207.8 206.3 203.2 201.3 201.2 202.9 196.5 193.2
485.1 503.4 515.9 511.2 504.2 496.7 486.9 474.3 457.5 439 421.8 403 383.7 370.5 348.2 350.5 355.6 363 374.7 384.7 402.2 414.4 432.7 446.1 455.5 462.7 472.9 477.6 483 488.1 493.8 496.2 494 469.9 462.1 451.9 438.8 433.8 426.4 416.6 409.7 407.2 408.1 405.1 399.4 397.4 402.6 419.1 440.5 460 478.8 494.7 506.9 517.5 530.3 540.5 548.1 554.8 558.6 558.8 558.6 559.1 555.9 550.7 541.6 529.7 517 508.9 503.2 499.3 499.4 503.2 509.1 513.9 518.8 522.4 525.2 527.3 525.8 522.2 516.3 510.4 502.5 492.5 482.5 476 467.8 457.4 445.3 429.9 419 402.9 388.3 372.3 358.3 346.5 332.9 320.4 312.2 305 298.6 291 282.8 275.5 268.3 261 248.1 244.5 242.5 238.4 236 236.1 234 234.4 232.9 231.1 228.7 228.8 228.1 227.4 224.1 229.7 228.9 228.7 228.6 227 228.9 231.1 230 230.3 233.1 235.7 233.1 233.1 234.2 230.2 227.9 225.3 226 226.3 227.9 226 223.6 220.4 220 220.9 220.2 219.4 218.1 216.4 215.5 216.3 214.1 209.8 208.3 208.1 206.2 205.2 202.8 199.9 197.6 196.9 194.4 193.3 192.5 192.3 194.2 194.2 193.5 192.6 195.3 197.4 198.5 198.8 198.2 199.5 198.5 202.4 205.8 212.4 211.4 210.5 212.3 213.1 215.4 214.3 215.5 216.6 215 215.8 214.9 214.6 213.5 211.9 210.7 208.6 205.8 205.4 201.5 197.5
529.2 529.4 522.5 510.4 500.5 490.8 479.7 464.7 444.4 426.2 409.4 393 378 363.3 360.7 364.5 368.8 377.5 394.1 409.3 425.8 452.2 474.5 469 480.2 491.4 501.8 503.3 505.8 508.5 510 510.2 505.5 495.7 486.9 478.1 469.5 451.3 444.8 438.9 428.8 421.5 417.3 410.9 405.5 402.8 408.3 424.7 448.8 467.4 484.6 500.5 513.9 527.2 539.6 550.5 558.9 566.2 570.3 572.5 573.5 571.8 567 561.8 551.2 538.2 525.2 518.1 512.9 509.4 510.2 514.9 520.7 528.6 536.5 540.1 542.7 543.7 541.3 534.5 527.6 520.1 514 505.3 496.6 486.2 475.9 464.8 452 440.5 428.6 414.1 399.8 383.2 367.5 354.7 338.9 325.7 313.9 306.6 300.1 292.8 284.7 278.1 270.6 261.5 247.3 244.6 243.7 246.5 244.1 241.9 239.7 237.4 235.6 233.1 231.2 230.6 227.3 227.3 226.1 223.3 228.3 228.2 230.9 227 227 228.6 228.1 228.6 228.6 230.6 231.1 228.7 228.1 225.5 221.8 221.3 221 220.7 220.5 219.2 217.6 216.8 215.4 214.4 214.4 215.1 213.3 211.8 210.4 211.8 207.4 205.1 206.9 202.7 202 200.4 197.9 197.1 196.7 193.4 195.6 195.6 195.4 195.1 194.7 194.7 194.2 198 198.9 203.3 203.8 206.8 205.7 204.7 204.2 203.7 210.3 210.3 209.5 211.5 214.7 215.8 216.8 216.1 216.9 216.2 217.5 218.4 218 218.3 218.9 219.4 216.9 213.7 212.7 212.2 206.3 202.9
539.7 526.9 514.2 500.5 491.1 481.5 467.5 449 429.8 415.7 402.1 386.4 372.1 373.4 374.6 373.2 380.9 403.2 441 456.5 485.1 495.2 503.1 507.7 512 514.4 520.9 523.7 525.5 529.6 533.4 530 522 510.8 500.5 490.1 482.3 472.5 462.7 454 441.6 432.6 426 416.5 412.2 409.3 414.2 430.9 452.6 471.2 488.7 504.3 518.8 533.4 547.9 560.8 570.7 577.6 582.6 585.6 586.6 584.4 580.7 571.7 560.8 548.1 536.4 527.8 520.6 518.7 520.5 524.4 532.3 541 547.8 552.2 556.3 556.9 554.1 546.3 534.9 525.2 517.5 506.1 496 487.3 476.6 465.3 453.1 444.1 430.8 418.3 404.8 389.2 375.1 361 344.7 332.2 317.8 306.6 298.7 291.9 285.2 278.7 271.7 259.4 246.6 247.9 252.7 252.4 251.3 248 244.6 240.7 239 236.6 234.3 233.5 231.6 228.6 226.2 224.1 224 226.3 234.7 226.6 225.6 226.9 226 226.8 229.5 226.2 226.6 225.4 224.5 222.2 220.4 220.2 219.1 218.5 216.3 214.5 213.6 211.5 210.6 209.5 209.3 208.7 207.7 205.8 204.8 204.3 203.5 202.3 201.1 199.4 198.9 198.3 197.5 195 195.2 196.3 196.5 196 195.7 195.8 195.1 200.9 205.1 207 209.5 209.9 212 211 208.3 210.7 211.1 209 209.1 210.4 213.3 216 215.6 220.3 217.1 216.9 217.2 218.9 220.1 220.8 222.8 221.3 221.6 222.5 219.1 215.7 215.2 213.3 210 208.7
533.9 517.2 501.8 491.1 480.7 465.5 448.6 433.8 419.4 406.5 393.5 384.1 383.4 384.1 382.4 385.4 395.3 423.1 459.7 484.8 496.9 505 511.5 517 523.5 528.1 533.9 537.1 542.7 547.7 550.5 546.6 541.4 531 516.5 499.3 488.2 478.1 470.8 463 447 438.6 432.1 425 416.9 413.3 419.7 434.1 454.4 472.7 490.1 507.1 522.1 538.2 554.5 568.3 579.9 589 597.1 601.1 603.3 600.6 595.6 586.7 571.5 559.4 547.2 539.2 533.8 530.2 530.6 534.9 541.3 548.8 555.4 559.9 562.9 559.1 552.9 543.4 531.1 521.2 510.6 499.6 489.8 481 470 460.3 450.6 440.9 430.5 420.5 409.9 391.8 378.4 358.8 346.3 333.5 320.2 310 298.9 290.6 283.2 277.5 270.2 250.8 254.5 261 261.6 260.9 259.3 256.4 251 246.4 243.8 240.9 239.2 237.2 235.3 232 230 231.4 223.2 221.7 221.1 223.5 226.3 225.5 224.3 224.1 225.8 225.5 225 223.5 221.5 220.1 221.1 220.5 218.9 216.5 215.8 212.5 210.3 208.6 207.5 204.8 203.5 204.7 204.3 203.9 202.9 202.3 201.4 200.8 200 199.4 198.2 196.4 195.2 197.2 197.4 196.6 201.8 198.5 200.5 202.5 204 209.2 211.9 215 215.3 216 218.2 217 215.7 217.7 217.1 217.4 217.8 215.2 216.9 217 217.3 218.2 218.5 218.8 218.7 219.8 219.8 222.9 223.1 221.4 222.1 221.9 217.5 219.9 218.2 216.4 214.9 213.7
520.3 505.1 492.3 479.6 465.8 450.6 434.3 421.3 409.3 396.2 398.2 396.8 397.6 397 396.2 401.3 408.2 437.3 467.8 486.8 498.9 509.4 516.2 522.3 529.3 536.5 542.9 547.7 553.9 560.1 562.3 560.2 556.6 548.6 534 514.2 496.1 480.3 471.6 463.1 451.8 441.4 436.4 429.3 423.1 419.5 425.9 444.2 461.8 476.2 492.3 508.3 524.6 541.1 557.2 572 585.9 597.2 606.3 612.5 615.9 615.8 609.9 601.3 587.7 573 558.6 550.6 545.7 542.6 541.4 545.7 550.4 555.2 559.5 563.1 562.3 555.5 546.8 537.1 526.2 514 502.9 489 480.4 470.5 461 452.2 444.2 433.8 425.5 416.1 404.8 387.4 372.1 356.8 343.6 333 322.1 311 298.7 288.3 280.4 273.5 254.6 260 269.1 273.3 273.9 271.6 269.6 265.4 259.7 255.4 250.8 250.6 247.2 243.7 238.3 234.5 233.8 231.6 229.9 225 223.6 221.2 219.8 228.9 227.1 223 222 223.6 222.3 221.1 218.2 216.3 217.6 217.6 216.6 215.5 215 210.7 209 207.4 201.6 202 201.5 201.4 202.2 202 198.3 197.9 197.9 198 200.8 197.2 195.8 198.4 198.9 198.3 199.7 204.1 206.1 207 209.8 210.8 212.2 216.8 219.4 218.7 220.5 221.8 223.4 222.7 222.1 221.3 221.1 223.7 222.2 220.1 220.6 219.5 218.9 218.5 219.6 220.4 219.6 220.1 220.5 221.8 220.7 220 219.7 219.9 219.8 219.8 218.6 217.9 215.7 216.1
508.9 494.2 479.7 465.3 451.7 435.4 423 410.2 402.1 406.3 409.6 413 414.6 414.9 411.9 413.9 416.8 440.4 465.8 482.7 495.3 506.3 515.3 523.4 531.4 539.7 548.7 556.8 564.7 569.3 571.8 572.1 568.7 563.3 551.3 531.7 508.1 486.5 473.5 465 457 448.5 441.5 436 429.7 426.5 432.6 452.4 471.1 485.9 499.4 511.8 527.3 543.7 559 575 589.2 602.3 613.5 622.1 629 628.7 623.8 615.7 605.9 590.9 576.8 564.1 558.5 553.9 553.7 555.3 558.3 559.9 561.4 560.6 557.2 549.5 539 528.7 516.3 502.8 490.5 478.9 469.9 460.2 451.3 442.5 433.7 425.8 415.8 407 395.8 381.4 366.8 355.1 341 330 319.3 308.3 297.5 284.3 269.2 256.5 262.7 274.1 288 291.4 288.4 284.4 282.1 274.7 269.9 264.3 262.1 257.3 254.7 250.2 245.7 242.1 238.2 234.7 233.5 229.3 225 223.5 220.4 222.2 221 219.8 217.8 217.4 217.4 220.5 214.7 214.6 212.9 212.7 212.7 212.7 210.6 209.9 202.6 205.1 205.6 204.9 204.4 203.9 203.3 202.3 201 201.5 199.8 199.7 200.1 202 201.6 202.8 203.2 203.7 205.5 217.8 214.8 215.5 217.3 217.3 219.7 222.4 223.4 223.1 224.6 226.3 227.1 225.9 227 226.2 225.8 226.8 224.8 223.5 222.5 222.2 222.4 221.3 221 220.9 220.8 220.8 220.4 220.6 220.9 220.8 221.1 220.2 219.8 218.5 219 218.5 218.4 217
499.6 484.8 468.7 454 438.6 425.8 412.6 412.7 418.7 424.1 427.9 429.7 430.3 429.4 428.5 428.8 429.8 441.4 459 477.4 491.2 501.5 511.3 522 532.5 542.5 552.9 563.1 572.2 581 585.1 584.9 583.2 579.4 570.1 548 527.3 497.6 478.8 469.8 465.1 457.9 450.1 443.2 438.4 433.3 442.8 460.3 481.7 497.1 509.4 522.1 535.5 548.6 563.9 577.9 591.8 605.8 617.9 628.7 635.1 637 633.7 626.3 616.9 606.3 595.3 584.3 576.4 571.8 569.3 566.5 565 563 560.9 555.6 548.9 539.4 528.3 516.9 502.3 489.4 476.6 465.6 457.1 448.9 439.4 431.1 422.3 414.3 403.8 394.8 383.5 373.7 362.9 351 337.8 327.6 316.7 305.9 295.6 282.2 260.3 260.2 271.8 290.3 305.8 321.2 315.2 311.9 305.4 297.7 285.3 277.4 272.3 265.3 261.8 257.3 253.6 249.9 244.6 239.5 237.3 233.9 230 225.8 222.5 218 220.7 219.7 217.9 216.6 215.8 215.5 215.1 214.7 213.2 212.1 211.5 210.8 208.7 204.5 207.3 206.8 206.4 206.9 206.5 205.6 205.1 204 202.9 202.3 202.6 202.6 205.2 205.9 207 208.9 211.3 215.4 217 218.9 219.5 222.9 225.1 225.9 226.5 227.3 226.5 227.2 229.2 229.6 229.9 230.2 230.9 231.8 230.4 231.7 228.6 227.1 226.1 225.6 224.4 223.6 222.2 222.3 222.4 221.7 221.5 221.4 221.2 221.2 222 221.2 220.8 220.4 219.7 219.7 219.7 218.8
489.1 471.6 455.3 442.8 429.8 419.4 422.2 430.4 435.8 439.2 443.2 444.7 446.9 446.3 446.1 443.4 445.2 447.8 455.6 471.5 488.5 500.6 509.5 522 534.7 545.1 557.2 568.7 581.3 590.3 596.2 597.6 594.7 590.1 582.3 565.5 545.6 519.6 493.4 479.8 476 469 460.1 452.7 447.7 444 454.5 472.7 491 506.8 519.2 533.1 545.8 558.2 570.5 583.6 596.2 609.8 623.7 633.1 640.7 645.8 641.8 633.2 624.7 615.2 605.6 595.5 587.8 582 577.6 573.2 568.9 565 557.7 549.9 539.7 529 516.1 503 488.2 475.9 463.8 452.8 445.2 436.3 427 417.9 408.8 401.1 392.5 382.7 371.5 365.4 354.4 345.4 333.1 322.3 311.6 301.8 290.6 281.1 261.3 270.9 286.2 306.3 326.1 347.2 352.7 345.6 339 322.4 307 293.9 284.4 276.6 272 268.4 262.7 256.8 252.8 245.4 242.5 237.7 235 233.1 231.6 224.5 217.2 216.6 214.7 212.5 212.2 212 212.8 213.6 212 211.4 211.6 210.8 209.3 204.1 210.6 210.5 209.9 209.8 208.6 210.8 209.3 207.8 208.2 207.2 207.7 209.5 210.6 210.4 213.7 218.1 223.6 226.2 227.3 228.5 230.5 230.4 232.3 231.6 232 232.6 233 232.2 232 232.9 233.1 234 235.5 235.2 234.5 234.2 232.7 231.6 230.7 230.8 227.5 227.1 225.3 223.8 224 223.8 223.4 222.8 222.8 222.7 222.6 222.7 222.2 221.7 221.5 221.9 221.8 221.6
476.9 460.7 445.4 434 426.1 433.4 438.6 446.5 452.1 454.8 457.4 460.1 461.4 462.3 461.6 459.2 457.4 458.6 462.3 469.1 484.3 498.9 510.6 523.8 536.6 549 561.3 574.4 586.8 597.8 604.5 607 606.4 602.3 594.6 581.5 563.2 528.4 503.8 487.9 482.6 475.7 468.2 462.8 457.8 453.9 461.5 476.6 496.9 514.5 529.2 543.4 555.8 567.9 579 590.5 602.8 616.4 627.9 637 644.1 648 645.4 638 628.7 618.8 608.6 599.6 592.4 586.1 581.3 575.6 569.7 562.5 553.6 542.8 530.7 517.8 503.1 489.9 477.7 464 451.1 440.5 432 422.9 414.5 405.8 397.3 388.7 380.1 371.5 364.2 354.9 346.6 337.6 327.6 316.8 304.3 295.7 285.4 274.9 269.2 280.5 301.2 321.7 344.1 362.7 372.4 380.8 371.2 350.1 325.8 311.1 299.8 289.5 281.1 276.6 273.3 267.5 261.3 256.5 249.1 242 240.2 237.7 235.7 232.7 227.4 224 224.3 222.4 217.8 215.3 213.3 212.4 211.2 210.2 207.6 209.8 207.2 211.1 213.4 215.7 215 212.9 212.1 214.2 213.2 212 211.1 211.5 212.9 215.7 219.4 223.1 227.6 231.7 233.1 235.8 235.5 238.6 240 240.3 238.6 237.6 237.7 237.8 237.8 237.5 238 238.2 238 238.3 238.9 239.4 238.4 237.8 238.6 238.4 238.4 236.3 233.4 230.4 227.8 226 225.8 226 225.8 225.1 224.9 224.6 224.2 224.5 224.3 224.4 224.4 224 223.9 223.8
468.1 451.8 436.6 437.5 444.6 449.1 457.1 462.7 467.1 469.1 473.8 475.1 477.9 478.1 475.1 470.6 468.7 474.1 473.2 471.7 484 497 510.9 525.7 539.1 552.2 565.9 579.3 592.3 603.2 610.7 615.2 616.4 613.3 606.9 595.4 577.9 548.7 520.4 502.7 491.8 481.4 476.6 472.7 468 463 470.8 484.1 504.5 522.9 537.1 551.7 565 577.2 589.1 601.5 613.5 623.4 632.6 639.6 643.3 645.4 643.1 637.3 629.1 618.1 607.3 598.1 590.6 585.8 580.1 573.7 566.7 557.9 547.3 533.6 519.1 504.9 489.6 474.9 461.5 450.5 438.4 427.3 421 410.2 403.4 393.8 385.6 378.2 370.2 362.9 355.3 346.7 338.1 329.4 319 307.7 297.2 287.8 280.2 268 276.8 294.3 316 335.8 361.5 373.4 385.1 397.6 399.6 388.5 360.3 330.5 317.5 304.3 292.2 284.6 280.3 275.6 269.9 264.6 258.5 251.9 248 243.9 239.4 236.4 231.1 226.7 224 222.4 219.4 221.4 220.4 219.9 221.1 218.2 217.7 212.2 212.2 213.7 215.2 218.6 217.8 216.7 217.1 216.4 214.5 214.2 217.2 219.7 221.5 227.8 233.4 234.9 238 240.2 242.8 245.3 246.6 247.4 249.1 249.3 247.2 246 245 244.4 243.3 243.5 243.6 242.3 243.2 243.4 243.5 243.3 244 244.1 244.2 244 243.1 241.6 240.5 235 232.3 230 228.9 228.1 227.8 227.2 226.7 226.3 226 226 226.1 226.2 226.3 226.6 226.6 226.7
460.5 444.9 448.4 450.7 457.7 464.2 472 478.7 484.7 488.9 492.6 498.9 500.8 495.7 489 483.1 478.6 480.8 480.4 476.1 483.8 497.7 511.1 525.8 540.4 554.9 570.1 584.5 597.1 609.2 619.4 625.1 626.8 625.5 620.6 611.9 597.1 577.1 548.1 516.3 504.8 492.7 485.6 481.5 476.7 470.9 476.8 495.2 514.4 532.8 547.7 561.9 574.6 588.1 600.7 613.9 624.2 629.2 633.6 637.8 639.1 640 638.2 634 623.8 611.8 601.1 591.6 584.4 578.8 574.6 568.1 560.3 550.2 537.9 522.6 505.9 488.7 473.6 459.1 446.7 437.3 426.7 417.8 408.4 401.1 392.5 381.6 375.3 369 361.7 354.4 346.7 337.1 329.9 319.8 309.3 298.1 288.4 270.3 268.5 270.7 291.1 309.4 330.7 354.9 373.4 384.6 399.6 415 418.8 415.3 401.7 370.8 341.8 322.8 307 298.4 292.3 286.9 280 273.6 266 258.2 255.7 251.7 246.8 242.2 238 233.9 230.4 228.3 222.3 222.7 222.6 222.1 220.6 219 218.4 218 217.7 218.6 220.2 221.7 222.2 219.3 223.3 221.8 221.6 221.9 225.8 230.6 233.6 236.9 240.5 243.1 246.6 248.5 250.6 252.6 254.8 255.7 258.6 257.7 255.9 255.6 255.5 253.5 251.6 249.9 248.8 248 248.6 248.5 248.2 248.1 249.5 250.9 251 250.8 250.5 247.2 246.3 241.8 239.6 235.1 233.1 231.7 230.8 229.7 229.4 228.2 227.8 227.7 227.8 227.8 227.9 228.2 228.6 228.6
455.7 460.4 464.8 469.8 475.2 484.3 492.2 499.1 505.9 515.5 521.7 526 518.1 511.4 503.5 495.9 489.6 490.3 489.6 484 484.3 499.7 513 526.6 540.2 557.1 573.5 587.3 600.2 612.7 623.3 631.1 636 637.6 633.9 626.6 615.2 599.9 572.4 542.5 535.6 512.1 499.1 493.5 484.8 482.6 488.8 507 526.6 544.2 560.7 573.8 586.6 599.8 614.8 625.5 631.2 634.1 634.5 634.7 633.7 633 631 624.9 612.3 601.5 592.8 582.6 573.9 567.5 563.6 557.7 549.1 538.2 524.7 508.5 491.5 475.8 460.5 448.2 436.4 425.7 415.7 407.3 396.8 389.4 381.5 372.2 365.2 359.6 352.9 346 338.6 330 320.9 311.1 298.6 290.4 274 273.3 278.9 289.9 306 327.1 348.6 369 383 398.1 417.3 428.3 435.6 430.6 415.4 388.8 361.1 338.4 324.2 316.3 307.4 295.4 290.1 283.3 273.8 266.6 262.4 258.1 253 247.1 241.3 236.7 235.4 234.7 229.8 226.6 225.1 222.5 221.4 222.4 221.3 222.8 226.2 227.1 226.3 226.3 227.5 225.7 229.7 229.3 234 235.8 238.6 241.3 243.1 245 248.3 250.3 253.1 253.8 256.4 259.1 260.5 264.9 268.5 268.5 268.4 268.6 266.9 265.2 260.3 257.3 256.3 255.1 253.9 254.2 253.6 253.5 254.6 256 258.6 260.3 260.5 256.1 252.1 249.4 245.6 241.5 238.7 237.2 234.8 233 232.1 230.7 229.9 229.7 229.7 229.7 229.8 230.2 230.7 231
475.2 479.2 484.8 492.5 505.7 519.5 532.8 541.9 542.6 547.2 547.3 541.2 533 523.8 515.1 508 501.2 503 499.7 491.5 484.8 499.7 514.8 528 543.5 561.4 575.8 588.8 602 614.5 625.9 635.2 642.3 646.3 644.9 639.3 628.5 613.8 594 568.6 552 531.4 514.3 506.7 493.3 491.6 506.1 526.1 543.7 559.4 573.7 584.9 596.9 612 624.4 632.9 637 636.4 630.4 627.6 626.4 623.8 620.6 612.2 598.9 589.7 578.6 568.6 559.7 551.3 546.3 541.7 535.3 525.7 511.9 493.9 477.5 462.7 451.3 439.4 425.7 415 405 396.1 388.1 379.2 371.6 364.9 356.9 350 343.9 336.7 330.4 322.1 310.5 301.1 290.5 277.9 273.4 280.9 291.2 304.9 320.2 340.4 363.4 380 394.2 413 430.1 442 448.4 441.4 425.7 405.8 387.3 353.5 340.6 332.1 321.9 308.9 299.1 292.2 283.2 274 269.3 263.2 258.6 252.8 246.2 243 240.2 236.8 231.3 230.9 228.5 226 226.7 229.7 231.8 232 232.5 234.4 236.1 236.3 236.3 235.1 236.9 240.3 241.5 243.7 246 247.6 248.9 251.9 254.7 256.9 259.4 260.6 262.6 264.5 267.2 273.7 277.9 280.8 282.1 281.9 279.5 274.4 270.4 268 265.5 263.5 261 260.7 259.4 260.5 261.4 263.2 266.7 267.8 268.3 265.3 261.6 257.9 254 250.8 248.1 244.2 241 238.6 236.6 233.7 233.4 232.7 232.6 232.4 232.5 232.5 233.4 234.1
493.9 502.2 507.5 518.6 536.2 554.2 564.7 568.8 570.8 566.2 560.5 552 542.3 532.9 526 518.8 514.1 508.9 505.4 500.1 487.7 500 517.3 532 553.7 563.8 576.8 590.1 603.8 616.9 628.4 639.3 647.3 652.5 654.2 649.5 639.6 626.7 608.2 588 568.8 546.7 525 513.4 504.9 508.4 529.5 549.4 562.8 574.5 584.5 593.9 606.8 618.3 629.1 633.9 637.2 635.2 623.5 620.5 616.7 613 607.1 597.6 585 575.4 563.5 552.5 543 532.5 527.1 523.7 519.7 513 497.9 480.5 466 454.6 442.5 427.8 414 404.8 395.4 386.9 379.3 370.8 362.8 355.3 347 340.4 333.9 328.8 322.3 312.2 301.3 292.2 280.3 274.7 280.9 290.4 303.1 314.7 333.2 354.3 375.4 389.8 405.8 426.5 442.8 454.3 458 448.6 437.4 418.2 397.8 365.7 349.4 338.3 328.7 317 307.9 299.7 291.4 281.8 275.3 268.6 263.5 258.4 252.7 250.8 247.9 244.1 238 237.5 236.7 235.3 238.1 240 240.1 240.6 243.1 243.5 243.6 244.5 245.4 239.9 246 247.3 248.2 248.4 250.8 252.6 254.8 257.5 260 263.1 264.8 266.4 267.3 270.9 276.3 281.5 287.3 293 294.7 293.6 292.9 287.6 281 277.3 274.5 271.9 269.4 266.1 265.1 266.1 267.7 270.4 274.3 276.6 275.8 274 271.3 265.5 261.8 258.3 254.9 252.3 248.9 244.6 241.4 238.9 237.7 236.6 237.1 236.3 235.9 236 236.7 237.3
510.4 517.2 525.8 543.4 564.9 575.6 582.1 584.7 582.4 577.5 569.3 560.2 547.6 538.6 533.9 530.6 526.7 519.6 515.5 509.3 497 501.3 516.1 537.8 555 564.1 578 591 604.6 618.1 630 641 651 657.4 660.1 657.5 648.9 637.6 622.1 604.4 583.4 562.4 538.3 526.1 521.3 531.8 548.9 567.1 577.9 586.5 592.8 601.7 611.9 619.6 626 628.3 631.4 619 614.9 611.1 605 599.4 591.6 580.7 571.4 560.1 548.2 536.4 525.4 516.4 512 509.9 505.8 497.8 483.9 471.7 457.2 446.2 433.6 420.2 407.8 395.5 387.7 379.3 371.6 363.2 355.1 345.7 337.7 330.3 324.9 318.8 311.7 301.7 289.5 278.6 276.5 280.6 287.5 301.4 312.7 325.3 343.8 366.5 381.6 397.4 416.3 436.4 454.9 464.3 465.4 458 449.1 430.7 405 378.9 361.8 345.3 333.8 324.6 313.1 305.2 297.1 288.2 280.1 275.2 270.2 265.1 261.1 258 254.2 251.7 243.9 246.2 245 246 248.2 247.8 247.5 249.3 251.2 250.4 250.7 252.2 251.1 244.4 252.4 253.1 253.1 254.2 256.4 258.3 260.6 263.8 266.2 267.3 269 271.4 273.1 278.3 284.7 292 298 302 303.3 304.2 302.2 297.1 291.4 286.7 281.6 277.8 275.6 272.5 270.1 271.2 273 275.9 279.7 284.1 284.6 282.2 278.9 274.8 272.2 268.3 263.2 259.4 255.7 251.8 248.4 245.3 242.7 241 241.3 240.4 240 239.7 240.1 240.5
524.7 531.7 545.8 567.2 579.9 588.8 593.5 595.4 590.1 584.3 576.5 566 554.3 543.9 541.7 540.6 538.9 531.9 525.3 516.6 503.9 500.2 516.6 537.9 551.6 564.1 577.7 591.2 604.8 618.4 630.5 642 651.8 659.5 663.2 662.1 655.2 645.1 632.5 617.2 598.7 581.2 556.9 541.1 551.4 557.4 571.8 581.2 588.2 594 599.1 605.8 612.1 616.6 620.5 621.4 618.6 609.9 605.1 599.2 590.6 583.8 575.4 566.3 556.8 545 533.9 522.2 509.9 502.4 497.6 494.8 490.9 484.2 471.6 460.4 449 438.8 426.5 412.9 402.1 390.9 381.2 373.4 364.9 356.3 347.5 338.5 329.1 322.5 315.7 306.9 300.7 288.1 279.2 278.1 278.5 286.8 299.5 311.3 322.1 338 355.9 373.6 387.5 405 423.6 444.3 462.7 470.2 473.5 468.9 452.1 437.6 417.7 393.4 371.9 353.2 337.2 328.7 319.5 308.9 299.8 293 286.2 280.6 275.4 271 267.4 263.5 260.5 251.5 255.1 253.7 255.1 255.3 253.8 253.3 254.5 256.7 257.3 257.1 257.8 259.5 257.5 249.5 258.2 259.7 260.1 262.2 264.1 266.8 268.5 270.2 272.5 274 275.2 278.4 282.1 287.9 294.6 302.3 307.9 310.6 311.9 312.5 310.8 306 299.8 295.3 289.1 283.8 281.3 278.4 273.6 277.1 279.3 281.3 285.1 289.6 290.3 288.8 286.8 283.6 280.6 276.3 271.8 267.8 263.3 259.4 255.9 254.2 250.8 249 247.1 246.2 245.5 244.8 244.6 244.6
537.8 548.3 567 582 593 600.6 605.2 605.2 600.5 592.5 582 571.5 562.8 553.6 550.2 549.4 548.5 543.9 533.9 522.8 512.5 503.7 517.5 534.8 549.1 562.4 576.6 590.5 604.3 617.6 630 641 650.7 658.3 663.3 663.5 657.9 650.1 639.1 626.2 613 595.7 578.3 571.2 576.2 580.2 585.5 589.9 595.3 599.6 603.2 607.8 610.3 612.5 612.1 611.5 607.6 599.5 593.7 585.7 577.4 569.1 561.6 553.2 543.7 534.1 520.5 509.7 497.1 487.7 482.9 479.7 476.9 470.9 463 451.4 441.9 431.2 418.9 407.6 394.4 384.6 376 368.1 360.2 350.7 341.5 332 320.9 315 308.4 301 292.1 279.8 279 277.6 284.2 296.5 309.9 320.7 333.9 349.9 365.2 378.8 393.8 411.6 430.8 450.7 467.2 474.2 475.9 468.9 457.4 442.4 422.3 401.6 384.1 362 345.3 334.9 325.4 317.3 306.3 299.2 293.9 286.8 280.8 277.3 272.6 268.6 264.2 261.8 263 263.1 263.3 263 260.7 259 260.9 262.7 263.1 263.6 264.4 265.5 260.7 258.8 265 267.6 270.2 273.3 275.4 275.1 278.6 280.5 283.2 285.8 287.3 290.8 294.3 299.7 305.5 311.9 316.5 320 321.1 320.1 317.4 313.6 309 302.6 295.8 290.7 286.8 284.5 280.7 282.3 285.8 287.9 291.6 295.5 297.9 298.6 297.3 295.2 293.3 288.7 283.9 278.1 273 270.1 266.1 263.2 259.9 257.4 256.5 254.1 252.3 251.1 249.9 248.6
552.1 563.5 579 595.4 605.4 612.5 616.1 614.4 608.6 601.4 590.4 580.7 571.1 563.7 559.4 557.7 556.3 551.7 541.5 534.4 524.6 515 514.6 531.8 545.8 561.1 575.3 588.9 602.7 615.8 627.6 638.1 648.1 655.8 660.9 662.5 657.6 650.6 642.9 632.1 620.7 609.3 599.1 591.1 592 591.8 594.1 597.2 600.2 602.3 604.7 606.9 607 605.8 604.2 600.1 594.1 587.4 580.8 573.4 565.4 556.3 548.9 541.7 533.6 522 509.5 497.5 485.6 474.8 468.8 464.8 462.8 458 451.1 442.3 432.4 422.1 410 400.9 387.9 377.6 369.9 362.2 354.7 346.1 336.7 327.1 316.2 308.1 300.5 293.6 282.3 280.8 280.6 284.2 294 307.2 320.9 331.6 345.6 359.2 370.9 384.2 400.6 417.2 435.6 454.1 468.9 475.7 475.8 468.3 457.2 442.1 425 408.5 395 377.3 362.1 349.4 336.6 326.7 317.7 308.8 300.9 293.8 287.9 281.7 276.7 274.1 269.1 270.1 270.3 270.4 269.4 268.8 268.6 267.3 267.6 268.6 268.6 269.1 270.2 270.3 265 263.6 271.6 275.3 279.1 282.1 284.3 286.9 290.3 292.3 294.8 297.9 300.5 304.1 309.7 315.2 319.1 323.1 327 328.6 328.7 327 323.4 319.2 314.8 308.9 301.9 297.1 292.5 288.9 286.9 288.2 292.2 294.3 297.6 302.2 306.8 311 314.5 314.4 307.6 300.5 296.6 292.2 288.4 284.3 280.4 275.3 272.6 270.2 266.5 262.1 258.8 257.4 256.3 255.1
569.8 582.4 595.3 607.2 618.2 622.7 625.7 624.3 619 610.3 599.3 588.3 580.9 578.6 572.5 567.9 563.3 556.9 549.7 542 534 522.3 515.6 530 543.2 559.5 574.5 587.9 600.8 613.5 624.5 635.6 644.3 651.7 657.2 658.1 655.4 650 644.1 635.8 626.4 617.2 609.4 604.7 601.9 599.6 601 600.2 601.7 602 601.5 600.8 599.8 596.9 594.2 589 583.3 576.4 568.8 561.6 553.6 545.2 537.7 531.1 522.9 511.6 497.6 484.7 472.7 462.5 455.2 449.6 447.5 442.3 437.2 431.2 421 411 400.9 392.2 379.9 369.6 362.9 354.1 346.4 338.2 329.8 321.1 310.4 301.2 289.5 281.1 283.3 285.8 286.8 291.1 303.7 317.5 332 343.7 356.7 368.4 380.1 394.1 408.4 423.4 439.4 456.6 469.5 476.3 474.8 465.7 455 442.4 429.2 413.9 397.9 385.1 372.9 359.3 345.5 335.2 325.3 317.2 309 301.2 294.4 287.9 283.9 280.5 272.8 276.7 276.5 276.4 275.3 275.3 275.5 274.8 275 274.4 273.8 274.5 275.2 274.8 263.6 273.5 277.6 283.1 288.3 290.8 294.1 297.5 300.8 303.7 306.3 310.1 313.9 318.3 324.6 329.1 333.5 336.6 338.5 339 337.5 333.9 329.2 325.1 320.2 315 308.1 302.1 298.2 295.1 294.1 295.7 298.2 300.9 304.4 309.9 315.7 322.4 323.9 322.6 316.8 312.8 306.9 302.8 299.9 298.1 294.5 290 285.5 281.5 276.5 272.6 268.1 263.4 262.6 259.6
586.9 596 609.9 621 629 634.3 636.4 634 627.8 618.8 608.9 598.8 591.2 589.5 586.5 578.5 569.5 562.3 556.9 547 538.7 528.5 526.7 526.8 542.9 557.9 572.8 586.4 600 611.1 622.2 632.4 640.8 648.2 653.3 654.5 652 648 643.5 637.9 630.8 621.8 615.1 611 607.3 603.4 601.4 598.7 597.6 595.3 593.5 590.6 588 584.8 581.1 575.6 569.8 564 556.8 548.6 539.4 533 526.6 520.8 511.2 499.2 486 473.8 460 450.6 441.3 435.9 432.7 426.7 422.4 416.2 408.9 399 389.8 380.5 370.4 359.4 353 346 338 330.3 322.3 311.6 302.4 295 284.8 285 285.2 289.5 291.6 298.9 314 327.9 340 351.9 365.9 377.2 390.3 402.6 416.5 429.7 445.1 461.2 471.6 475.3 471.8 462.6 452.1 440.7 426.7 414.3 402.3 390.6 381.7 365.1 352.6 342.5 332.8 324.4 316.7 308.2 299.2 292.8 289.3 285 280.1 283 282.5 282.1 281.9 281.6 281.5 281.1 280.2 279.7 279.5 280.4 279.8 278.6 270.3 279 282.6 290.1 294.4 300.2 304.2 306.6 310.8 314.3 317.9 323.1 327.8 331.1 336.1 341.3 348 351.8 352.2 351.4 346 341.1 336.6 331.1 325.7 318.8 312.8 307.9 303.6 301.3 300.9 302.2 304.5 307.7 310.9 316.3 322.9 328.8 331 330 325 320.1 314.1 311.3 312.8 312.9 309.2 305.5 300.2 293 286.4 281.7 277.8 272.7 269.8 266.6
603 612.3 623.5 636.4 642.5 647 647.5 644.3 635.6 626.3 616.7 604.7 599.6 596.4 593.3 585.3 576.7 568.2 560.8 552.3 544 538.2 540 541.3 548 561.4 572.9 585.2 599.8 611.4 621.7 629.8 637.7 645.2 648.6 649.1 647 644.1 641.2 637.5 631.4 623.1 617.2 612.7 607.6 602.6 597.4 592.3 589 586 582.8 578.5 574.8 571.1 566.3 560.7 555.8 550.8 543.3 535.5 528 520.7 515.3 508.1 499.3 488.7 476.6 461.8 450.1 438.6 427 414.8 415 411.2 406.5 399.4 392.9 386.5 376.1 367.8 359.9 349.6 341.7 336.2 329.1 321.7 312.5 296.5 292.2 288.1 284.7 287.3 289.3 292.9 295.2 306.5 322 336.8 351.7 364.5 375.3 387.4 399.2 411 424.6 437.7 453.6 465.7 472.4 473.2 468.3 457.2 445.3 435.9 425.6 415.4 404.5 393.5 383.8 371.3 357.8 347.7 338.5 328.1 320.4 311.5 301.4 296.2 292.5 289.1 288 287.9 288 288.4 288.7 288.8 288.4 285.8 285.3 284.7 284.5 285.1 284.7 278.7 279.2 283.9 290.5 297.4 303.9 309.3 312.5 317.1 321.8 326.5 330.7 336.3 341.9 346.8 351.3 356.1 362.1 367.9 369.2 363.4 359 352.5 345.7 337.9 330.9 324.4 318.7 313.4 308.3 308.9 309.2 310.1 312.1 314 318.1 323.4 328.9 335.7 338.6 338 335 329.1 325.7 324.7 326.9 325.8 323.2 319.1 314 305.6 297.6 292.2 287.1 281.2 277.7 272.6
620.3 629.8 642.1 649.1 654.1 658.4 658.9 654.3 644.3 634 624.5 611.9 606.4 604.1 598.6 590.6 584.3 572.9 565.7 559.1 551.4 549.9 553.7 553.6 556 567.2 580.3 589.6 601.8 610.6 620.2 627.7 634.9 641.1 643.3 643.5 640.6 636.7 634 632.5 628 620.9 615.9 610.8 603.8 597.9 590.3 583.8 578.5 573.4 568.3 562.9 558.3 555.4 551 545.9 541.9 537.4 530.8 522.4 515.3 509 504.7 497.3 487.2 477.7 465.3 451.1 440.7 425.9 412.8 404.6 396.4 392.2 387.1 381.8 375.9 370.8 362.5 354.4 346.1 335.9 329.9 325.7 318.8 310.8 299.8 292.2 290.6 284.9 288.9 292 296.8 294.5 300 314 330.8 346.7 362.6 376.9 387.9 400.9 413.8 425.8 438.1 450.8 462.1 471.1 473.1 469.6 461.3 451.3 440.8 432.1 422.4 413 403.5 392.3 384.6 370.8 359.9 350.5 340.9 330.6 322.2 312.4 304.7 299.1 295.3 291.9 292.7 293.2 294 295 295.4 295.7 295.6 291.9 289.7 289.4 289.4 288.7 287.2 276.9 284.4 289.6 298.3 305.4 312.4 318.4 323.3 328.1 333.2 338.6 344.1 349.8 355.3 360.1 365.8 371.8 378.1 381 380.7 377.3 372.6 365.4 356.7 347.7 341 334.5 325.9 319.4 315.5 314.7 315.3 316 318.9 321.8 326 330.9 335.4 341.6 347.3 348.4 349.4 349.2 347.6 345.1 345.1 341.2 335.2 332.4 326.1 318.1 310.7 303.6 297.3 290 287.1 281.6
639.5 648.1 655.3 661.4 667.7 670 668.6 663.1 653.1 642.1 631.3 621.9 614.4 609.2 602.7 596.9 589.7 581 571.6 567.3 561.7 559.5 563.7 562.7 567.9 572.9 585.5 596.9 605.2 611.7 619.7 626.3 632.6 637.5 639.1 636.3 632.7 629.4 626.3 623.7 619.8 614.8 610.3 604.9 597.7 589.9 580.3 571.9 564.3 559.1 551.7 545.7 540.3 536.1 532.5 530.2 527.3 523.5 517.6 510 503.3 497.6 493.9 486.9 477.7 466.2 455.5 440.8 428.1 414.4 404 391.5 382.1 375.8 372.3 365.5 360.3 353.5 347 339.9 332.1 322.3 316.9 311.7 305.8 298.8 290.2 286.9 286.1 289.2 295.8 300.8 305.7 308.1 303.7 319.2 337.3 355.1 372.4 387.4 403.2 419.6 430.1 442.4 453.9 463.9 472.1 475.1 472.2 465.4 454.4 443.7 433.5 425.4 416 406.9 397.5 389.6 379.7 370.2 361.1 350.9 341.5 330.1 321.2 313.5 307.9 302.8 296.7 297.8 297.9 298.7 300.2 301.1 302 301.6 300.8 297.8 294.1 293.8 292.4 290.8 286.7 286.2 289.5 295.1 304.5 313.2 320.3 326.6 332.4 338.5 345.3 351.7 358.6 362.8 368.9 375 381.4 387.8 393.5 394.1 392.8 392.3 387 379 369.1 357.6 348.5 342.9 334.4 326.9 323.8 322.4 323 324.3 327.3 330.5 335.2 340.2 345 350.4 356 358.7 360.9 367.6 369.7 367 364.5 356.3 350.2 345.7 338.2 330.4 323 315.9 308.9 301.4 296.7 291.3
655 659.9 667 672.8 677.5 678.9 677.4 671.1 661.3 649.7 638.4 628.6 620.1 613.9 608.6 602.5 596.7 588.9 579.5 576.4 569.9 570.3 572.8 573.8 578.5 583.4 590.4 600.9 607.3 615.1 621.7 627.3 632.1 634.5 633.5 631.1 625.2 620.8 616.4 612.2 608.5 604.6 601 595.3 587.8 579.6 567.2 553.7 545.5 536.1 529.5 525.1 521.1 519.6 517.5 515.2 511.5 508.4 503 497.8 490.9 485.2 481.1 474.9 467.6 457.7 447.6 430.4 416.6 405.3 394.2 382 374.3 364.3 358.3 352.5 347.2 341.5 333.9 326.4 318.9 310.5 302.9 299.1 291.9 288.9 288.3 287.8 290.4 297.6 304 310.2 315.2 318 308.9 324.3 341.7 358.3 376.8 394.7 414.2 429.2 442.6 455.1 465.2 473.6 483.5 479.9 472 460 448 435.7 425.8 418.5 409.9 401 392.3 384 375.3 366.7 357.6 347.8 337 328.1 321.3 314.2 309.7 305.1 303.8 303.1 303.5 304.3 306.2 307.4 307.1 306.3 304.9 301.4 299.3 296.5 294.7 291.7 286.3 290.7 294.1 301.5 311.2 319.5 327 333.7 340.7 348.4 356.1 362.5 368.7 375.4 383.6 391.5 398 405 407.7 408.9 408.8 405.4 398.9 391.7 381.3 370.5 359.8 351.5 343.5 338.3 334.5 332.1 332.6 334.4 337.7 339.8 344 349.8 355.4 360 365.3 370.4 376 382 386.3 385.5 381.8 375.6 368.3 360.2 352.8 342.7 335.1 326.6 320.2 312 306.8 300.9
668.1 668.8 676.5 681.7 685.2 685.8 683.8 677.3 667.3 655.9 644.6 634.5 626.8 619.7 615.2 609.9 601.8 597.2 591.1 587.5 582.1 581.3 582.6 584.7 589.2 595.2 599.8 604.4 611 617.3 624 627.2 629.8 630.9 629.9 624.6 617 610.7 606.2 601.7 597.6 593 589.6 584.6 576.9 567.5 553.7 538.1 524.4 515.2 511.3 507.5 503.9 504.2 503.2 500.9 497.5 493.4 488.1 483.5 478.2 473.2 468.3 462.8 456.3 447.9 436 419.9 406.1 395.4 383.1 372.8 364.7 355.4 345.6 341.7 333.9 328.3 321.1 313.1 305.4 297.6 291 289.9 289.6 288.4 289.6 295.9 302.5 306.9 314.1 319.6 323.1 325.6 321.6 320.5 340.7 358.8 379.4 397.6 418.7 433.2 448.6 461.6 472.4 483.7 486.6 481.6 474 461.1 444.2 430.2 421 413.2 405.6 394.8 384.1 377.1 370.2 361.9 352.6 344 334.7 327.6 321.1 315.4 311.1 309.2 308.2 308.4 309.4 310.7 312.1 314.1 314.6 312.6 308.5 305.4 302.6 298.5 295.9 289.8 292.9 294.2 299 307.2 315.4 325.1 332.7 341.2 349.3 357.4 364.6 373.4 382.2 390.3 398.5 406.6 414.4 423.2 427.7 429 428.2 420.6 413.1 403.2 392.3 381.8 372.6 363.3 355.3 350.2 346.8 344.7 344.3 345 347.5 350.7 355.5 360.9 366.5 370.7 377.3 382.9 392.7 397.2 401.8 402.3 399 392.6 386.4 378.8 366.5 356 349.1 340 330.9 324.5 316.4 307.6
678.8 676.2 682.8 687.8 690.3 690.5 687.3 681.2 671.7 660.6 649.9 639.3 634.9 629.1 623.3 618.7 610.3 604.4 603.2 597.8 597.9 594.5 594.5 593 599.8 603.4 607.7 611.4 615.6 620.5 622.9 625.4 626.6 626.5 622.9 617.2 607.7 599.5 594.1 589.3 584.8 582.1 579.4 574.9 566.7 555.6 539 522.4 510 499 493.9 489.5 487.7 488.4 487 483.7 481.4 477.4 471.9 467.9 464 460.1 456.9 450.7 443.1 433.5 423.3 408.5 395.7 383.7 373.1 362 355.3 346.7 339.2 330.6 321.5 314.1 307.8 301 292.9 291.4 291.1 291 291.6 296.8 304.3 311.4 317.1 319.6 325.4 329 331.7 333.5 333.9 318.6 335.1 355 377.2 396.2 415.3 431.4 445.5 460 472.8 483.8 486.1 481.8 472.5 458.1 441.2 427.4 416.1 408.2 397.3 387.2 379.2 372.4 365.4 356.7 346.6 339.5 333.5 327.5 322.2 315.6 314.2 313.7 312.3 312.8 314.3 317.1 319.2 319.7 318.7 315.8 313.3 309.4 305.4 300.5 294.8 296.4 298 299.8 302.5 312 319.7 329.4 337.9 347.1 355.7 364.9 373.3 384.5 394.2 403.7 412.9 421 430.4 439.6 445.5 448.4 445.2 437.5 425.8 414.1 403 394.1 385.8 379.1 371.1 364.3 359.8 357.4 356.7 359.1 360.4 363.8 368.7 373.1 377.5 380.9 388.1 396.2 406.6 414 417.3 416.7 414.1 408.7 399.4 392.3 382 370.2 360.7 350.4 342.4 335.4 327.5 318.3
685.4 684.3 686.9 691 692.6 691.7 687.7 680.7 673.5 663.5 654.5 646.9 641.7 636.9 632.3 627.1 620.7 615.3 614.2 609.4 608 605.3 603.5 603.8 608.2 612 616.4 619.5 621.6 624 626.3 627.2 626 620.8 616.8 608.8 599 587.9 580.8 575.1 572.1 571.2 571.9 568.4 558.6 544.6 526.6 508.8 496.3 485 477.3 470.2 467.5 469.9 469.3 466.5 463.1 458.7 455 454.8 450.9 448 443.1 436.8 429.6 418.5 407 394.3 384.6 372.6 359.9 352.1 344.8 335.9 327.7 316 309.9 303.9 298.3 296.2 292.8 292.6 291.9 295.1 304.4 311.6 319.3 325.7 329.8 332.6 335.3 338.8 340.9 341.8 341.6 333.6 326.8 349 369.7 390.9 408 423.4 437.9 451.3 466.3 477.2 481.8 478 471.4 459.9 443 426.8 411.7 400 390.8 382 374.5 368.6 360.6 351.8 344.6 338.6 333.4 327.6 323.6 321.3 319.2 318.1 316.7 317.7 319.4 321.5 323.7 323.9 322.3 319 315.7 311.7 307.3 302.6 300.8 302.6 304.4 307 311.4 318.8 324.8 333.6 341.9 352.2 362.3 372.5 383.2 394.1 404.5 415.2 425 437.1 447.2 455.7 462.3 462.1 457.8 449.8 439.4 426.9 416.6 409.1 402.3 395.7 389.1 381.8 375 371.2 371.3 373.9 375.8 378.9 383.4 386.9 389.3 392.8 399.1 406.7 417.9 425.9 429.4 428.6 424.2 417.5 412.6 405.8 395.8 384.3 373.2 359.8 350.2 343.3 335.2 327.6
690.2 688.4 689.1 691.7 692.3 691.1 686.8 679.9 673.1 663.9 657.3 651.6 648.5 644.9 639.7 633.8 626.6 622.3 620.8 616.6 614.1 610.8 609 608.9 615.3 619.4 622.9 627.6 629.8 631.6 632.1 629.4 626.1 620.4 611.3 597.9 588.4 574.4 564.1 557.2 558.8 562.2 566.1 564.9 556.8 540 523.8 505.7 488.7 471.8 462.5 457.1 453.6 451.2 450.6 449.3 446.6 443.4 440.6 440.9 437.7 434.1 428.4 420.5 412.1 400.6 389.5 380 367.4 358.7 348.4 339.3 330.6 321.1 312 305 301.9 299.1 297.1 294.7 293.1 297.5 307.1 315.4 323.2 330 334.8 339.3 342.7 344 345.8 348.4 349.8 349.6 348.1 345.7 336.1 342.4 362.2 382.5 399 413.2 429.9 442.9 456.4 468.3 475.5 475.2 468.6 457.3 443.5 427.7 410.2 396.5 388.1 379.7 372.2 365 357.2 350.5 343.9 336.7 330.7 331 328.1 325.7 324.6 323.3 323.4 323.6 326 327.3 328.1 327 324.4 321.2 317.2 312.5 307.3 302.8 306.2 308.6 312.3 315.7 320.9 326.2 333.4 339.6 346.6 357.3 367.6 379.8 392.6 403.9 414.8 425.5 437.8 451.5 463.5 473.1 476.8 476.7 471.7 464 454.7 444.4 434.4 428.1 421.8 414.1 407.4 400 392.5 388.1 387.5 389.6 391.5 394.4 398.1 400 402.1 404.9 409.9 417 426.5 434.6 439.6 433.6 426.5 424.7 421.7 414.9 405.5 393.2 382.2 368.4 360.1 350.3 343.4 339.3
692.5 690.3 689.3 690.2 690.4 687.4 683.7 676.5 670.5 664.6 659.6 656.1 653.1 650.6 644.9 638.1 632 626.7 624.6 621.2 618.4 614.1 614.1 614.4 619.7 623.5 628 631.9 634.6 634.9 635.3 632.6 626.2 618.1 608.3 592.6 576.9 563 546.3 539.1 543.8 555.1 561.3 563.6 561.9 546.7 523.7 504.9 486.6 470.7 456.4 445.6 438.3 434.5 433 430.2 428.4 425.8 423.2 423.6 419.9 415.6 410.6 403.1 392.9 383.5 372.8 363.7 354.4 345.4 332.6 322.2 312.2 305.2 302.9 300.7 297.2 296.8 293.8 296.9 307 317 326.3 334.2 340.5 345.9 349.9 353.4 355.9 356.7 356.5 358.6 360.4 360.1 357 353.8 349.1 339.7 352.2 370 387.8 403.7 419.6 436.1 448.5 461.6 469.8 471.9 467.8 458.7 444.8 429 413.3 396.3 386.6 378.9 371.2 364.2 357.3 351.1 345.1 340.2 337.9 335.9 333.2 332.6 331.8 332.7 332.2 332.2 332.9 333.7 332.6 329.3 325.4 322.3 317.2 311.4 305.7 308.7 311.5 315.4 319.4 322.7 327.6 333.1 340.7 349.8 357.3 366.3 376.4 388.3 401.1 412.6 423.4 436.9 451.1 465.6 478.4 487.3 491.4 491 485.1 476.1 467.3 458.8 451.3 443.3 436.7 431.3 424.5 417.3 409.3 402.3 401.1 402.2 404.1 406.2 409.3 411 411.3 413.9 417.5 422.2 429.1 437.3 437 430 425.2 425.6 421.9 413.8 404.2 395.4 385.5 376.9 367.5 361.1 356.3 355.4
693.8 690.7 688.6 686.4 685.7 680.3 678.4 673.2 666.4 660.5 659.5 657.7 656.5 652.8 646.5 639.7 633.3 629.1 626.9 623.2 619.6 617.8 616 617.2 621.4 624.5 628.3 631 633.6 634.2 633.1 629.8 624.4 614.4 599.9 581.3 566.8 548 533.7 524.3 537.7 550 558.1 564.7 567.3 555.3 529.9 505.8 483 464.8 452.6 441.3 432.8 418.4 417 412.3 408.9 405.1 401.8 403.3 401.9 395.5 390.7 383 375 367.4 358.3 349.3 339 327.5 316 309.1 305.9 302.6 300.3 297 295.9 294.9 304.7 317 326.7 336.9 345.1 351 356.7 362 364.7 367.4 368.2 367.4 367.3 370.4 373.6 371.8 367.7 365.9 357.5 349 347.8 360.2 377.3 393.9 410.5 426.9 442.1 454.4 464.9 469.4 467.4 460.7 445.3 429.6 413.7 397.9 387.6 379.5 372.4 365.6 359.7 354.3 349 345.8 345.5 345.2 344.8 344.4 344.6 345.8 344.1 341.9 340.9 338.9 335.5 331.5 326.6 321.3 315.6 310.3 311.9 314.5 317.9 321.7 324.9 330 337.1 344.7 350.8 357.9 366.4 374.1 384.4 396.2 408 419.8 434.3 447.1 463.3 478.5 491.4 499.4 504.6 502.7 496.6 487 479.1 471.4 464 457.1 450.4 443.2 436.1 428.3 420.7 413.2 410.9 410.7 410.8 411 414.5 416.1 414.6 416.1 418.4 421.4 423.1 427.1 427.5 422.4 419.2 417.1 415.8 409.1 401.2 396.8 390.5 386.7 379.9 374.4 369.7 368.1
693.5 690.5 686.7 682.4 679.2 674.7 671.5 666.2 660.8 657.3 657.6 657 655.4 650.6 645.1 639.4 634 629 626.6 623.7 621.1 618.7 618.8 618.1 621 623.5 625.5 627.9 628.8 630 628.9 622.9 617.3 603.8 586.8 568.8 553.8 539 521 515.8 531.5 543.5 552.6 562.5 569.4 558.6 538.9 511.3 483.8 458.3 446.9 435.9 427.5 417.9 406.9 402.2 396.3 391.9 386.8 383.1 380.4 375.6 371 364.8 357.3 350.4 343.2 333.6 321.9 311.2 307.6 301.6 299.9 301.5 297.6 297.3 302.2 315.4 326.7 336.8 346.2 356.4 363.5 368.3 372.5 376.2 379.7 379.9 379.9 378.1 377.3 381.8 387.7 385.8 383.8 380.1 374.4 364.1 349.9 353.1 369.3 387.4 403.2 419.2 434.8 450.1 460.1 467.5 467.4 460.5 449.9 435.4 417.1 403 392.2 384.2 375.2 369.5 363.2 360.6 356.7 357.6 358.6 359.3 359 359.3 359.5 357.5 353.7 349.1 346.1 342.7 336.5 331.7 325.9 320.3 314.7 316.9 319.4 322.8 325.6 330 333.7 339.1 346.4 353.5 361.3 368.3 375.3 383.4 393.9 404.2 415.4 427.9 442.9 457.2 474.7 489.5 500.5 509.2 514.9 512.4 506.4 497.9 488.9 482.2 474.6 466.8 459.4 450.8 440.8 432.3 425.5 419.4 416 413.4 409.9 408.5 410.4 411.4 411.1 410.9 411.7 412.5 413.7 411.2 410.8 411 409.3 405.7 400.6 395.4 400.4 398.1 397.3 393.6 387.8 382 377.5 375.3
692.4 688.5 682.5 677.4 674.2 669.8 662.8 659.7 656.3 653.2 652.4 654.4 651.4 647.3 642.5 637.6 632.3 628 625.8 622.6 619.1 618.5 618.1 616.5 619.3 621 622.4 624.5 624.3 623.2 621.7 616.6 605.9 588.2 568.4 550.4 536.9 522.9 509 507.1 521.8 534.7 544.3 555.3 564.2 554.2 536.5 508.3 471.9 455.4 442 430.7 423.1 413.1 404.7 393.4 385.2 381.5 376 369.8 364.1 360 355.1 348.8 341.2 334.7 327 316.5 310.1 303.5 302 302.4 302.3 304.5 310.6 319.4 328 337.2 346.7 356.8 365.9 374 381.5 384.4 388.9 389.8 390.6 391.9 390.9 389.3 385.9 392.8 399.5 400.2 397.1 394.3 387.2 379.7 367.6 357.9 361.2 379.8 396.6 414.5 430.6 445.5 456.5 466 468.3 463.2 454.6 439.8 425.2 412.2 401.5 393.1 386.5 379.2 373.4 370.1 370.4 371.9 372.9 373.2 372.7 372.3 370.5 366 361 355.9 351.3 344.3 338.1 331.7 325 319 321.4 323.7 326.4 329.9 333.1 337.7 343.8 349.1 356.1 362.9 370.6 377.8 385.2 394.4 402.4 412.4 423.9 437 451.8 463.9 483.2 497.8 507.4 515 520.5 520.1 514.2 503.3 494.2 486.5 480.1 472.9 463.6 452.5 443 431.9 424.6 417.6 413.9 410.7 406.2 401.6 401.3 401 400.8 401.7 403.5 400.6 399.6 399.3 394 393.6 394.6 394.3 393.6 387 389.7 392.1 395.6 394.4 389.8 384.1 380.4 377.9
693.8 689 682.7 677.6 670.7 664.9 657 652.7 650.3 649.4 647.4 647.5 646.6 642.7 638.7 632.9 628.6 623.1 622.1 619.5 617.2 613 613.3 611.5 615.7 617 617.6 619.1 619 616.8 612.1 605.8 588.5 567.2 542.4 527 513.8 506.2 500.2 493.7 504.8 519.9 530 543.3 553.3 541.1 520.6 501.1 463.2 449.3 435.1 423.8 414.8 406 397.3 388.3 381 373.7 363.7 358.1 353.5 345.4 341.5 332.4 322.9 317.1 313.6 307.1 304.4 305 306.9 307.5 308.1 318.4 326.9 337.7 347.4 357 368.9 378.2 386.9 393.3 399.6 405 406.7 406 403 402 399.9 398.4 396.5 401.6 409.8 413.4 411.5 405.4 400 389.6 377.8 365.4 356.2 373.5 392.3 409.8 425.9 442.1 455.5 465 471.3 469.6 464 455.5 443.7 428.2 416.4 407.9 401.1 394.4 388.3 385.2 384.9 385.3 386.4 386.8 385.8 383.4 378.7 372.4 366.4 359.9 353.1 345.8 339 331.8 323 323.9 326.4 328.3 332.2 337.3 341.9 347.3 353.3 358.5 365.9 374.7 381.9 389.9 396.6 404.6 412.7 422.4 433.3 446 459.9 474.3 490.4 501.6 511 518 520.1 519.1 511.1 500.9 492.4 484.8 477.3 471.3 460.8 448.5 437.8 426.8 417.8 410.6 407.1 403.2 399.1 394 390.8 388.2 386.1 387.5 387.5 384.2 383.1 379.4 380.3 379.5 379.4 381.1 380.3 379.9 373.5 379.5 381 384.2 382.6 380.2 378.1 376.6
693.6 688.6 684.1 677.3 670.2 662.7 655.9 646.5 643 641.2 641.4 641.8 640.3 636.8 632.7 630 625 620.8 618.6 615.5 612.4 609.7 606.5 606.4 609 610.7 612.5 613.2 611.6 607.4 598.9 587.2 566.8 540.5 515.5 502 489.4 482.2 476.7 472.3 488.8 505.3 510.6 526.6 533.6 520.9 491.2 481.8 452.2 438.7 425.9 415.7 404.3 395.8 387.4 378.6 371.4 362.6 347.4 339.2 336.9 329.6 324.2 317 315.2 309.4 307.2 304.7 305.2 307.9 312.3 312.6 316.3 328.3 341.1 354 366.1 379.7 395.5 406.7 414.7 417.1 422.3 423.9 423.1 419.6 417.2 414.1 410.5 407.3 405 407.6 416.4 420.6 420.3 416 410.4 400.3 387.5 376.5 363.4 368.7 388.2 405.1 423.5 440.3 454.3 466.1 474.4 477.2 473.9 468.1 457.1 444.8 434.8 425.3 418.8 410.6 405.8 403.1 400.4 399.9 399.9 399.3 397.3 392.5 385.7 376.6 368.8 360.5 353.2 345.5 339.1 328.9 328.6 331.7 334.4 337.8 341.9 346.3 352.6 359.2 364.7 370.3 378.5 388.4 394 402.4 409.9 418.1 426.2 434.6 443.7 455.4 467.9 482.1 494.3 503.4 511.4 517 517.5 512.3 501.5 491.8 482.5 474.4 465.9 455.9 444.4 433.4 423.7 413.8 405.2 399.2 395.1 391 387.5 382.2 377.7 376.6 375 374.6 372.2 370.9 367.1 364.8 365.4 365.7 363.3 365.4 367.1 367.2 364.4 365.2 366.3 367.1 369.4 369.4 371.6 368.5
692.8 687.6 683 675.4 669.4 660 655.4 647.8 642.3 636.1 632.1 634.4 634.3 631.9 629.1 624.4 620.6 617.4 613.2 610.3 606.8 603.3 600 600.4 600.3 602.8 603.8 604.5 602.8 595.9 584.4 566.6 544.8 522.7 494.8 480.9 471.6 456.8 453.2 452.4 461.3 476.6 483.6 494.8 498.9 480.2 468.1 455.7 428.5 424.5 414.8 403.7 395.7 385.5 374.3 365.5 357.4 343.7 335.3 330.6 321.2 316.8 313 308.2 307.5 307 306.5 306.1 306.5 313.4 317.5 319.1 325.4 340.5 356.5 373.8 393.4 415.3 430.4 439.3 448.5 451.6 447.4 444.8 440.2 435.7 427.7 422.5 420.3 416.1 413.2 414.3 420.6 426.3 428.1 424.7 418.2 408.5 396.7 381.8 371.7 368.2 384.8 405.3 425.9 441.1 455.5 468.3 477.6 483 481.7 476.8 468.3 458.7 451.3 443.8 435.9 430.3 424.2 420.1 418.1 415.8 413 410.9 406.8 399.7 390.6 380.9 369.5 360.8 353.6 346.1 338.8 332.6 337.4 342.5 346.6 349.9 353.4 358.5 363.7 369.3 376 385.7 396.7 405 412.9 420.1 428.3 434.8 441.9 450.5 459.3 468.1 477.9 487.4 494.9 502.7 510.9 513.6 512 505 489.6 477.9 468.5 458.9 450 440.3 429.5 418.5 408.2 400.5 393.6 388.7 384.4 380.3 375.5 372.3 370.5 367.4 362.8 362.6 361.5 357.9 355.7 352.3 351.7 351.3 350 349.1 349.4 351.2 351.7 351.9 353.4 354.4 354.7 354 354.6 352.5
691.4 687.2 681 672.9 666.8 659.2 653.7 647.6 642 638.4 632.8 625.3 627.2 627.4 623.7 620.5 616.5 612.7 608.1 603.8 595.6 588.4 586.1 585.1 587.1 590.7 593.9 594.3 587.9 579.4 564.7 547.4 531.1 508.3 476.5 457.3 451.4 433.9 432.1 430 435 442.6 449.7 456.4 456.8 445.5 439 421.3 408.6 402.1 398 393.6 387.3 378 364.6 352.8 339.4 321.8 317.3 316.2 312 310.7 310.4 308.5 307.9 306.6 306.9 313.3 317.1 334.5 338.8 327.7 337.6 354.4 375.2 396 417.2 440.6 455.5 467.8 473.6 478.6 479.2 471.5 463.1 453.5 444.5 435.6 430.5 425.4 421.7 422.1 429.1 435.6 437.7 435.1 427.5 416.4 403 388.9 377.5 368 382.4 406.4 425.9 442.1 458.2 471.4 480.9 487 487.7 484.9 478.9 473.1 467.8 461.4 453.2 445.3 438.9 436.3 432.1 428.7 424.7 420.9 414.9 406.9 395.8 382.9 371 361.8 355.1 347.6 340.7 338.6 347.6 356.1 360.6 365.1 369.4 373 378 383.7 392.4 402.7 412.1 421.8 431.5 439.8 447.5 454 462.5 470.3 476.9 483.1 481.1 485.5 495 501.2 506.5 509.2 504.3 491.7 475.8 464.4 454.7 444.6 434.3 424.3 412.7 403.6 397.2 390.5 384.7 380.1 376.4 371.7 366.8 362.9 360.8 355.7 354.1 351.7 349.6 348.6 345.6 343.6 341 338.9 338.1 338.2 337.2 339.3 339.8 341.7 344.4 344.3 342.6 343 342.2 339.9
687.8 684.4 677.6 669.8 663.1 657.2 650.5 646.1 640.9 636.9 631.7 627.2 619 620.7 618.3 614.4 610.6 607.1 602.6 593.8 584.4 578 582.7 578.5 567.8 571.6 573.5 574.2 568.9 557.7 548.7 539.5 524.5 495.1 460.5 442 432.1 415.6 410.4 410.7 410.8 415.9 417.8 421.5 419.7 414.6 406.2 400 392.2 390.4 381.5 372.4 360.8 349.1 338.3 326.3 316.9 316.6 315.1 313.5 312.2 311.7 310.4 310.4 312.7 318.6 322.7 324.2 333.9 343 346 335.3 345.2 366.8 388.5 411.6 431.1 449.8 467 482.7 494.8 508.4 512.7 506.1 493.6 475.8 460.5 448 441.6 435.7 432.6 431.4 437.7 444.8 447.6 445.1 437.4 424 408.8 394.5 383.8 372.1 385.2 403.3 424.4 443.4 461.4 474.5 483.4 490.6 493.5 492.9 490.2 486.5 480.7 474.5 465.9 458.1 452.9 450.1 445.7 440.9 436.2 429.9 421.6 412.5 400.3 385.7 372.8 364.2 356 350.1 343.1 347.5 361.4 370.8 375.6 382.8 388.3 390.2 393.2 398.8 409.4 420.3 430 441.1 450.8 459.7 466.8 476.3 483.2 488 495.4 501.1 503.8 498.4 484.1 486.3 499.5 499.4 493 479.4 464 451.9 441.3 428.8 419.1 408.8 400.6 394 388.6 381.3 377.2 373.1 367.8 362.7 358.3 353.6 350.6 348.5 346.9 344.6 341.7 340.3 338.6 336.2 333 330.2 328.3 326.3 326.4 327.5 328.2 331 334.3 333.3 332.2 332.2 330.5 329.5
682.9 679.1 673.1 666.2 659.6 653.6 648.2 644 638.8 634.6 630.8 626 620.9 614.7 612.1 607.7 605.5 601.8 594.2 584.4 587.5 597.5 597.7 594.1 583.4 564.1 554.6 552.7 550.2 540.8 529.8 527.1 516.1 488.5 453.1 452.8 451.5 436.2 416.1 407.5 403.6 397.5 394.9 395.7 394.8 389.2 387.1 384.5 377.8 369.3 357 342.5 331.7 324.8 323 320.9 325.8 319.2 316 317.9 323.5 329.1 320.7 329.5 335.1 334.7 336.9 340.1 347.3 352.2 356.8 340.7 353 375.3 402 422.8 441 457.1 475.3 492 507 518.2 521.4 517.2 509.3 495.5 481.2 463.5 453.9 447.4 442.6 441.7 446.3 453.1 455.4 452.4 442.8 429.2 415.1 400.7 387.9 378.2 382.7 398.8 419.1 440.9 458.9 473.6 485 493.4 499.1 499.8 499.3 496.2 494.7 488.8 482.2 474.9 469.2 465.2 459.2 451.9 445 438.1 426.7 414.3 401.1 387.4 376 367.8 360.2 353 346.3 358.2 372.4 380.4 389.8 397.2 402 407.4 409 413.3 424.7 435.9 447.1 457.5 467.1 477.5 487 492.8 500 505.9 512.1 515.9 516.2 514.8 504.3 489.5 478.3 489.7 482.5 467.8 453.8 442.1 427.9 416.6 402.3 392.5 388 382.3 378.6 373.3 369.1 365.8 361.4 356.8 352.4 348.4 345.2 342.8 340.7 338.4 335.4 333 331.4 329.3 325.6 322.9 321.3 320 319.7 320.1 320.4 320.8 321.9 321.8 322.5 322.4 322.2 321.9
677.4 672.2 667.4 661.9 655.1 649.4 644.5 641.2 637.9 632.7 627.3 621.1 613.9 608.7 605.3 602.2 599.4 593.6 592.9 594.7 602.7 606.6 606.6 601.9 595.4 583.9 567.4 550.6 530.3 522.4 517.1 510.8 498.3 481.2 461.2 480.6 485.8 475.1 442.9 416.8 412.5 403.7 394.8 382.4 375.2 372.5 365.2 368.6 356 354.3 344 333.2 329.7 331.3 337.5 343.7 338.9 345.5 340.8 339.4 342.8 344.3 339.2 347 355.1 358.5 361.6 363.5 366.2 367.8 362.1 350 352.7 377.9 406.3 429.2 445.7 462.8 479.5 495.5 510.1 521.6 525.9 523.9 517.6 506.9 495.6 481.2 469 459.6 455.5 454 456.4 459.9 461.6 457.5 447.7 431.3 419.6 405.6 393.1 387.5 382.1 393.9 410.8 433 453.8 469.3 482.6 494.2 502.4 507.2 508.5 508.2 507.2 502.7 498.9 493.2 485.5 477.8 470.1 461.2 452.8 441.6 428.4 413.5 400.9 388.4 378.7 369.7 365.3 360.5 351.8 365.2 381.7 393.1 402.5 409.5 415.9 422.4 426.4 433.5 443.1 454.5 463.5 473.7 484.7 493.5 504.6 511.3 517.3 523.8 526.7 528.4 529.4 527.8 518.7 502.4 477.8 471.5 472.2 461 447.2 433.7 417 413.1 404.9 396.3 386.8 379.6 372.8 367.6 365.2 361.1 357.3 353.5 348.7 344.1 341.1 338 335.6 333.6 330.6 328.2 325.9 322.2 319.5 318 316.3 314.4 313.7 314.3 313.6 314.2 313.5 313.9 314.7 314.9 314.7 314.5
673.6 665.5 658.7 656.4 650.5 646.1 641.2 637.9 630 625.8 621.8 614.2 620.8 621.8 619.3 610.4 604.1 607.9 608.6 609.3 611.7 613.7 610 606.2 599.9 591.6 580.4 565.2 549 523.2 516.8 508.9 499 485 495.5 512.4 507.7 500.6 467.1 438.4 421.2 414.3 406.3 389.7 380.9 375.9 366.5 363.8 356.1 344.9 343.5 348.1 339.4 348.1 351.5 363.3 363.3 372.3 370.3 367.5 368.7 373.1 366.5 368.8 371 382.1 375 378.8 377.3 371.5 369.3 361.2 365.6 380 405.9 432.7 448 465.8 481.7 497.6 511.2 523.4 529 529.5 524.7 517.5 507.8 497.4 486 476.9 471.9 468.8 469.4 468 469.6 464.6 455.2 441.6 426.9 414 400.2 391.9 384.5 389.5 401.2 423.7 445.1 463 477.5 490.1 501.4 509.8 514.5 517.1 518.2 516.9 511.4 504.3 496 487.1 476.8 466 453.7 439.3 424.8 413.3 401 392.3 383.3 377 371.1 366.3 357.3 372.4 389.1 402 412 420.8 430.1 438.9 442.9 450.1 459 469.1 480.1 489.5 500.1 511 523 529 533.4 537.7 540.4 541.1 540.8 537.5 525.7 513 495.4 468.6 457.5 451.3 441.4 424.8 425.4 419.8 411.8 402.5 391.2 382.1 376.2 370.9 367.2 362.7 357.2 354 350.7 347.9 343.8 336.4 332.1 328.6 328.4 325.6 322.3 320.3 317.6 314.6 312.7 311.1 310 308.8 308.8 308.5 307.3 307.2 308.4 307.8 307.3 306.7
675.6 669.2 662.6 653.9 645.6 646.1 641.3 636.8 636.4 634.8 634 632.1 634.4 631.1 626.6 622.6 619.1 616.9 614.9 613.3 616.3 617.5 615 610.5 605.1 596.9 587.1 573 556.3 528.9 532.7 525.6 513.8 511.4 523.8 537.4 549.7 536.9 498.8 474.6 439.4 416.5 411.9 401.2 394.4 390.2 388.9 379.9 369.5 366.9 367.8 362.8 362.3 377.1 381.6 385.6 394.7 399.5 406.6 401.2 416.6 413.2 411.1 406.9 411.8 407.5 403.3 404.2 392.8 384.4 375.1 364.5 368.4 381.8 405.9 430.8 449.7 466.5 482.7 498.9 513 523 530.3 533.1 531.5 528.5 523 516.6 506.5 500.4 495.9 489.9 482.3 479.3 477.7 471.7 463.2 452.9 439.1 426 410.3 400.5 392.7 386.5 396.1 411.8 433.6 452.6 470.8 484.7 497.2 508.1 517.5 523.4 526.2 524.9 519.7 511.8 502.3 491.6 478.7 464.6 449.5 434.7 424.9 414.8 405.2 397 389.1 383.9 377.9 372.6 362.1 377.8 394.9 410.1 421.9 431.9 442.5 450.7 458.5 466.2 476.8 486.4 495.7 504.8 516.3 527.3 536.5 543.1 547.9 549 550.9 551.4 548.5 541.8 528.8 512.6 502.6 481.2 463.9 444.8 432.6 433.7 432.5 425.2 417.8 406.7 394.8 389.3 382.1 376.8 371.9 367.9 363.7 359.6 356.8 353.8 349.8 344.3 338.3 333 328.2 324.1 321.9 318.3 314.6 312.1 309.8 308.6 306.9 303.7 303.8 301.7 302.5 302.3 303.1 301.5 300.5 300.4
679 671 664.1 661.4 654.6 649.5 646.6 646.2 643.5 642.2 643.8 642.7 645.9 641.5 636.7 629.5 624.5 621.2 618.4 616 618.8 620.7 620.5 616.7 612.4 605.7 595.3 580.4 562.1 533.4 537 535.1 530.3 538 550.1 561.2 574.3 564.6 533.2 507.8 477.4 433.4 422.9 420.6 420.6 423.3 421.9 407.8 398.3 393.3 387.5 385.5 397.2 407.3 414.1 417.7 420.2 429 437.8 448.5 453.9 461.3 457.5 456.1 459.7 446.5 439.7 432.7 414.1 393.2 383.1 367.6 375.5 384.9 403.2 425.9 447 463.5 480.9 497.3 511.9 523.5 532.7 538 540 541 538.9 533.6 524 517.3 511.5 504.6 496.9 492.2 486.4 479.9 473.2 465.9 453.5 437.3 422.5 415.5 405.8 397.3 392.3 403.5 419.6 441.5 459.3 477.9 492 504.5 517.8 525.3 529.5 529.3 524.5 516.2 505.2 492.7 478.4 461.8 446.8 437.1 428.4 419.3 410.5 402.6 395.8 391.3 385.9 379 372.1 384.4 401.6 416.8 429.7 442.2 453.8 464.2 473.5 483.8 494.7 504.2 511.7 521.7 532.9 541.3 548 554.3 557.4 558.6 559.8 558.7 558.2 547 529.2 507.7 490.3 479.3 467.2 445.3 441.1 443.5 441.3 434.2 423.6 411.4 403.4 396.1 390.3 385.3 380.2 376.4 371.5 366.6 363.4 360.9 355.7 350.9 346 339.5 334.1 327.8 325.4 321.4 318.8 317 313.6 311.1 308.5 305.5 303.2 299.5 297.7 296.5 297.4 296.4 295.9 295.3
682.6 674.9 672.4 667.3 660.7 653.9 653.2 652.9 653.6 652.5 654 653.3 653.1 647.8 641 633.5 626.6 622.4 619.1 616.8 618.6 620.5 620.1 618.9 616.8 609.4 600 587.2 567.3 546.5 540.5 546.7 550.7 563.3 575.7 583.5 589.4 589.7 580.7 561.1 508.3 464.5 449.6 435.4 443.2 452.2 448.5 440.2 433.6 430.5 426.8 416.4 428 435.6 429.7 443 450.1 467.2 477.1 481.7 488.7 493 492.6 492.4 489.1 482.8 447.5 432 417.9 399.4 384.5 377.6 375 387.8 401 423 443.6 460.7 477.3 494.1 510.4 524.1 535.7 543.2 549.1 551.7 551.8 547.5 538.3 530.3 523.3 515.9 507.9 501.7 493.1 487.4 482 473.6 460.7 446.6 442.1 433.8 421.5 413.3 404.4 397 409.6 430.8 451.9 470.8 487.2 500.5 513.3 521.6 527.7 529.6 527 517.4 506.5 491.8 476.5 463.6 452.1 444.9 437.8 428.5 420.5 411.2 404.5 398.4 392.4 384.7 374.2 393.1 408.8 423 437.5 452 466.5 478.3 491.9 503.8 510.9 517.9 527.2 538.5 547.1 553.5 560 563.1 564.5 565.7 565 564.5 551.7 536 517.7 505.2 490.4 478.3 459.7 453.7 457.7 454.8 447.6 441.4 430.4 420.9 413.2 406.1 400.1 395.4 389.6 384.1 381.3 377.8 373.6 371.8 368.8 362 355.2 348.7 342.2 336.8 330.6 326.3 322.6 320.6 317 314.4 311.9 307.6 305.1 303.6 301.1 298.5 294.5 291.5 290.5 290.5
687.6 682.4 677.3 670.3 664.5 663.9 662 662.1 662 662.9 662.4 661.8 658.9 652.4 645.4 639.5 630.2 624.1 620.4 617.3 614.5 618 618.2 618.3 614.9 608.8 600.4 589.1 574 548.8 546.3 559.5 571.4 581 590.6 598.8 604.2 602.6 594.3 575.6 547.5 502.4 495.4 475.5 470.3 481.6 487 489.6 492.9 480.3 460.2 479.2 471.1 469.2 453.8 465.3 479.8 495 504.9 508.5 514.3 515.3 514.8 513 507.4 488.6 455.6 427.8 421.4 400 384.4 378.3 376.3 392.9 400.5 418.7 439.7 457.2 473.1 490.2 507.7 522.6 536.2 546.9 555 561.4 563.9 559.2 548.4 541.2 533.1 525.3 517.1 509.4 499.7 493.2 487 477 462.9 465.4 459.6 450.6 440.5 430.9 421.6 412.7 403.4 421.1 442.6 463.2 481.3 494.5 506.6 516.8 524.5 528.1 525.5 517.1 506.5 494.4 481.3 473.9 465.6 456.2 449.4 441.7 432.1 423.2 411.5 405.2 397.2 390.2 381.3 400 416.1 430.2 446.5 461.9 475.9 489.9 504.8 518.7 527.1 535.5 545.8 553.9 560.2 565.1 567.8 568.2 567.2 566.3 564.6 556.4 544.4 530.8 515.1 501.1 488.8 476.3 458.5 471.6 470.1 465.2 457.8 450 441.6 431.4 422.7 417 411.8 407 402 397.1 393 388.9 385.4 382.8 377.6 373.4 366.7 360.1 352.7 345.3 338.6 333.1 328.3 324.4 323.2 320.4 317.8 313.7 309.6 307.2 306.1 304.3 302.6 299.4 296.5 286.3
693.4 687.2 680.8 676 673.1 673.2 670.5 671.6 673 671.7 669.4 666.2 662.4 655.6 648.1 641.2 630.7 622.7 618.1 615.4 611 611.7 613.3 612.4 609.9 602.8 593.9 581.9 567.9 546.6 555.2 570 581.6 592 603.3 612.7 618.8 618.2 609 589.2 561.4 539.5 521.6 511.6 517.1 518.8 523.4 533.8 534.7 530.2 518.6 511.8 495 487.9 469.6 487.6 503.9 515.1 520.5 526 532.2 536.9 535.8 530.5 524.4 501.7 471.2 432.2 406.6 393 377.5 380.4 386.9 388.5 402 414.4 435.9 453.3 469.8 486 503 519.1 534.4 548 558.1 567.1 572.2 568.4 556 549 540.4 532.6 525.4 516.5 506 498.9 490.3 476.5 483 481.3 477 470.2 458.7 449.7 439.3 428.1 411.8 411.6 434.4 456.3 473.8 488 500.6 510.7 519.3 524.5 523.3 517.3 510.9 503.4 494.3 485.9 480.1 472.7 463.4 455.2 443.7 434 422.4 412 402.9 396.4 391.1 409.2 424.2 440.7 457 472.3 487.6 501.9 519.8 534.2 545.4 555 563.6 568 571.2 572.9 571.7 568.9 565.8 563 559.1 550 539.2 525.7 513.1 499.8 488.7 467.9 480.7 485.5 483.3 478.2 470.3 461.5 454.5 445.4 434.9 428 423.6 418.7 414.6 411 408.2 403.6 399.9 395.9 390.4 384.2 377.1 370.6 363.1 355.7 348.1 341.7 336.4 332 329.1 326.2 324.1 320.1 316.4 312.5 310.8 309.5 307.7 305.2 302.7 299
696.4 690.6 686.4 682.5 680.6 678.8 680.9 680.2 680.4 678 673.7 669.6 663.2 656.8 649.6 640.2 628.3 621.6 616.9 614.3 608.4 602 602 602.6 598.2 591.9 581.8 567.8 557.5 548 562 577.1 589.1 601.4 613.6 623.4 632.2 632.6 622.4 598.6 579.5 563 552.3 531.1 547.4 557.1 562.7 562.5 558.3 550.2 540.8 529.2 510.7 500.1 488.4 506.3 525 534.3 542.1 547 549.9 554.7 553.3 547.3 540.6 517 472 429.2 400 386.3 378.2 380.6 387.3 395.3 398.5 411.7 430.6 448.9 465.4 482.2 500.4 518.3 533.8 547.3 560.2 570.1 576.7 574.3 564.6 555.8 546.6 539.2 531.9 522 512.2 502.3 489.2 493.9 494.4 491.8 487.9 481.5 473.5 465.9 454.3 440 425.4 410.6 427.3 447.1 464.4 480.2 494.2 505.3 515.2 522.5 524.8 523.2 519.3 514.2 507.5 501.1 496.5 489.4 478.4 468.2 455.8 442.3 430.4 419.8 410 400.5 401.9 416.8 432 450.7 466.4 483.3 499.1 515.9 535 551.4 561.8 571.1 576 578.3 578.5 575.8 571.6 566.3 558.5 552.2 546.1 538.2 531.7 521.9 510.8 498.3 481.2 487.8 495.6 498.5 496.9 491.2 484 474 465.6 458 448.2 440.7 435.8 431.3 426.6 424.4 421.3 418 414.4 410.4 404.7 397.2 387.5 379.1 369.7 366.7 362.1 353.8 347.2 344.1 337.6 334.9 330.1 326.9 323.4 320.9 317.5 316.1 314.2 311.6 309.3 306.2
698.9 693.4 690.4 686.3 684.6 684.9 685.9 685.3 684.9 681.8 678.1 672.9 665.3 657.6 648.6 637.6 626.7 621.4 616.2 609.2 600.7 595.5 590.1 591.1 584.8 575.3 567.3 560.8 553.2 556.4 568 583.2 596.2 609 621.6 634.4 642.2 643.3 630.7 608.7 591.4 575.8 565.3 548 567 575.6 579.1 577.4 571.5 561.3 550.4 539.7 521.3 511.3 506.4 526.1 544.5 554.6 562.2 569.3 571.4 570.1 566.4 560.9 554.5 531.6 481.8 426.3 394.6 380.1 380.4 380.1 381.5 392.9 399.9 410.8 426 445.4 461.5 478.7 497 516.2 533.7 548.8 560.7 572.1 577.7 577.2 569.1 561.6 552.5 544.6 536.9 527.4 516.7 505.8 507.7 505.9 504 499.9 493 485.1 476.8 467.8 455.2 438.9 421.1 422.5 420.3 433.3 453 470.2 487.5 501.2 512.8 522.2 527.8 529.9 528.2 527 523.8 519.8 515.8 508.4 496.7 480.7 465.8 451.7 439.1 428 417.6 408.3 411.7 426.3 443.6 460.1 477.2 494.3 509.9 528.8 549.5 565.7 576.5 584 587 585.9 582.5 576.5 567.4 556.8 548.4 541.8 536.2 530.6 524.1 516.5 505.9 491.4 496.9 503.5 508.4 512.9 515.6 511.2 501.8 490.7 478.2 470.8 462.2 454.3 447.7 444.4 441.1 438.8 436 431.8 428.9 425.5 418.3 410.2 400.4 391 385.8 381.7 375.8 371.4 367 361.5 354.1 348.4 341.1 338 335.4 332.8 329 324.8 323.4 320.9 318.1 314.7
702.3 697.9 693 687.4 689.4 688.8 688.4 687.9 687 684.4 679.4 671.8 664.9 656.6 646.5 634 625.7 619.3 613.1 609.6 609.3 601.3 593.4 585.8 573.9 568 563.8 566 569 566.8 573.5 588.4 603.3 617 630.6 640.9 647.6 647.6 637.1 619.3 601.7 586.4 575.4 565.3 579.1 585.5 589.6 588.4 583.7 575.9 563.8 551.2 535.3 524.5 525.9 546.2 562.9 571.7 578.9 584.8 586.5 585.6 582.8 575.5 568.5 555.9 516.5 467.4 416.4 386.7 381.5 381.6 382.3 385.6 398.3 410.8 423.8 440.8 454.1 476.4 495.8 516.8 534.5 550.3 562.8 573.4 579.8 578.5 573.1 565.5 557.5 549.2 540.4 531.1 521.4 521.2 520.3 517.6 512.6 504.8 496.5 486.7 475.6 463.2 448.1 436.7 428.7 435.4 433.1 429.2 444.7 463.7 481.7 497.8 511.2 521.2 529.9 535.2 538.2 538.9 538.7 537.5 533.5 524.7 510.9 493.1 475.9 460.4 446 436.7 424.9 414.2 421 436 452.6 470 487.8 504.5 521.2 542.7 562.1 577 587.5 593.2 593.1 589.4 583.9 574.2 560.6 555.6 549.6 546.7 540.6 533.2 524.4 515 507.8 503.7 511.4 516.4 524.3 532.7 535.5 530.8 520.7 511 498.8 486.8 476 468.3 463 458.7 456 452.7 449.8 446.6 445.4 441.3 435.3 429.2 418.9 410.2 403.1 395.6 390.3 384.4 379.3 374 369.4 363.4 358.2 352.5 348.3 346.3 342.3 337.5 334.5 333.2 328.9 323.2
704.9 698.5 693.8 691 691 690.1 688.5 687.7 686.5 682.5 677.7 669.7 662.9 654.3 642 631.8 624.2 616.9 617.5 617.7 612.6 600.6 592.7 584.9 577.8 576.5 580.1 580.8 581.2 578.1 581.3 594.4 608.5 621.9 635 645.7 650.8 648.8 638 626.2 612.4 593.4 580.8 580.6 589.2 595.8 600.1 601.3 598.5 592.5 582.2 570 558.2 544.8 547.3 566.9 581 588.1 595.2 602 603.6 602.6 599.2 592.4 586.2 571.7 514.6 478.6 448.6 418.6 389.1 383.8 384.7 385.3 400.1 413.3 422.8 435.6 452.6 472.4 496.1 516.6 535.7 552.1 566.4 577.1 582.1 580.5 576.3 568.1 560.9 552.4 544.9 535.4 533.3 533.5 531.8 527 519.6 510.1 498.5 484.9 471.9 458.8 447.1 430.6 441 449.6 450.8 444.3 441.7 455.7 475.5 493.9 509.6 521.6 532.5 540.8 547.4 551.2 554.1 552.5 547.9 538.7 524.9 506.3 483.6 467 452.7 443.6 433.5 419.2 433.1 445.2 461.7 478.4 495.9 514.3 534.8 556 572.3 584.3 593.5 597.9 597.8 593 585.4 575.9 566.5 561.5 558.3 556.1 549.2 540.3 533.8 527.2 522.3 514.7 525.4 533.1 541.5 549 551.5 549.3 542.1 530.7 518.5 506.3 495.6 486.5 478.2 472.8 470.8 470.3 467.2 465.1 463.2 459.5 453 445.9 437.8 429.1 420.3 411.2 403.8 398.1 393.2 387.5 383.6 378 371.9 366.4 362.3 358.5 355 352.3 348.5 343.5 338.1 331.7
703.9 698.8 695.2 692 689.9 689.3 687.7 686.6 684.8 680 674.5 667 658 650.1 639.2 628.4 623.3 624.5 622.3 622 611 598.6 590.6 582.1 585.6 588.8 593 595 594.7 595.3 593.4 606 614.3 627.7 638.9 646.7 650.6 648.1 638.5 628 612.8 596.1 583.7 589.8 599.5 605.3 609.5 611.9 609.3 604.1 595.1 586.6 580.3 563.3 574.3 586.4 599.7 606.5 614.6 620.6 621.4 619 614.6 608 601.1 594.3 577.7 518.2 479.1 446.6 420 406 390 390.3 402 409.9 423.9 434 448.7 470.6 495.2 516.7 536.6 554.6 570.6 580.4 584 583.8 579.5 572.2 564 557.5 550.8 545.9 545.8 544.3 540 533.2 525.4 513.9 499.5 485 471.1 459.3 441.9 443.5 454.1 461.6 462.1 457.6 444.3 452.6 470.8 490.9 507.9 522.3 535.4 545.3 555.1 562.5 565.7 566.2 560.2 550.3 536.1 518.5 499.3 475.7 461.3 452.7 436.3 437.4 444.5 455.1 469.7 486 506.2 525.4 544.5 562.6 577 589.8 598 601.3 600.9 595.6 588 578.2 573.9 570.5 568.6 564.8 560 552.4 544.4 538 534.3 531.7 540.8 549 558.2 564.6 567.9 568.6 564.1 552.5 539.7 527 514.7 503.7 497.6 491.1 487.6 487.4 487.7 486.2 483.5 480.5 473.2 461.8 454.1 445.6 436.6 427.3 419 413.1 410.2 404.5 398.3 392.4 386.4 380.9 376.7 373 369 364.4 359.5 351.9 345.3 336.4
702.4 700.3 694.2 691.5 688.8 685.2 685.3 684.7 681.3 676.1 670.3 663.2 654.2 644.8 635.5 632.5 633.1 630.2 628.5 624.1 608.9 596.7 590 594 600.5 603.3 607.1 610.7 613 613.6 616.5 618.8 625.9 632.1 641 647.6 649.4 646.7 640 629.3 612.9 600.1 586.1 601 609.4 616.9 623 625.1 622.9 619.8 614 607.2 600.6 590.9 591.3 608.1 616.3 623.9 632.2 636.5 636.3 631 624.9 619.4 612.2 607.1 597.1 559.4 508.3 470.3 433.1 416 400.9 394.4 397.6 413.9 422.8 434.1 446.1 469.5 495.7 518.5 538.2 557 571.9 581.4 587 588.3 582.4 576.3 570.6 563.7 558.4 556.4 557 552.9 547.6 538.9 529 517.6 501.9 486.4 473.6 457.8 444.2 456.9 467.9 474.6 475.3 468.9 460.2 456.8 470.3 488.8 508 524.2 537.8 549.1 561 569.9 575.5 576.4 571.4 560.9 545 528.6 507.4 487.7 471.7 461.1 451.6 453.7 457.3 467.2 480.5 495.2 513.9 532.8 550.7 567.4 582.3 592.9 600.4 603.1 602.4 597.2 590.7 586.1 581.6 579.5 577.9 574 570 563 556.3 550.8 547.1 547.6 553.4 561.6 570 577.5 583.5 585.1 580.8 571.7 559.4 547.6 536 524.5 516 510.4 507 506.5 508.4 509.9 507.9 502.2 495.4 486.2 474.1 458 451 443.4 435.7 430.9 425.4 418.2 411.6 404 398.1 393 388.8 385.5 379.5 372.5 365.5 355 348 340.5
698.8 695.4 691 687.5 685.4 682.4 679.7 679 676.2 671.3 666.2 656.8 651.9 649.7 645.3 643.4 639.1 634.1 630.2 625.8 610.8 595.7 599.1 608.2 614.9 621.8 627.9 630.4 632.5 631.6 631.3 632.2 638 640.7 643.6 647.1 647.5 645.8 639.5 627.1 613.1 601.4 601.7 612.1 621.9 631 637.4 638.8 638.2 633.7 629.3 625.8 621.7 618.2 617.9 624.2 629 638.2 642.8 646 645.4 639.6 631.8 625.4 618.1 611.5 606.9 600.1 587.6 563.1 491.3 447.8 415 409.5 400.4 411.2 421.8 435.2 448 469.8 496.7 519.7 542.7 558.1 570.4 580.5 588.7 589.4 585.8 581.2 575 571.9 569.5 567.2 564.4 559.9 552.5 542.9 530.8 520.7 508 491.4 474.7 457.5 454.1 466.9 480 487.4 489.6 482.7 472.3 461.8 470.1 488.8 507.9 525.9 540.1 553.1 564.3 573.8 580.6 582.8 578.2 570.4 554.4 535.3 518.2 500.6 484.7 471.3 467.2 468.9 471.4 482.3 495.1 508.7 523.2 540.5 558.5 575.4 588.3 596.3 602.6 604.3 602.6 598.8 596.2 593.6 590.6 590.2 588.3 584.3 580.8 574.8 570 564 560 560.2 565.1 572 580.2 588.2 595.8 599.2 596.8 588.7 576.8 565 554.2 545.6 538.4 531.7 527.9 529.3 532.9 534.2 531.5 526.1 518.6 508.7 497 483.3 469.9 458.1 453.1 447.3 438.4 429.4 420.6 412.9 407.8 402.7 398.3 392.7 387.4 377.7 366 357.1 350.7 342
695.3 691.3 687.8 684.5 683.6 681.4 680.5 679.2 674.5 669 665.8 662.3 660.9 655.6 651.2 647.7 641.3 635.1 629.3 623.5 610 604.2 612.1 621.7 628.8 635.4 641.8 646.9 651.2 651.7 650.1 649.2 649.7 650.7 650.5 651.8 650.2 645.9 636.5 624.2 613.7 607.1 613.8 623.8 633 641.2 647.3 650.5 650.8 648.4 645 639.4 636.8 633.6 633.1 633.2 636.7 644.4 647.4 648.2 646.4 640.8 634.2 627.5 619.8 611.8 604.7 597.4 585 567 543.1 492.8 458.9 435.2 416.7 420.7 432 441.5 452.5 472.8 499.2 519.6 541.1 556.9 568.3 580.5 589 591.2 589.7 587.2 583.1 581.7 578.2 574.1 569.2 564 554.8 544.1 534.7 524.6 511.5 494.7 475.2 456.1 461.1 474.8 490.5 501.9 505 497.3 484.8 475.2 469.8 491.1 509.7 526.7 542.1 555.1 566.4 576.8 583.6 586.9 582.4 574.3 562.2 544.2 530.1 513.3 498.6 485.1 484.4 485.8 490.7 498.6 508.7 521.2 534.2 551.8 570.2 585.2 595.9 601.9 606 605.6 604.2 603.5 603.2 600.8 601 599.9 598.8 597.5 594.2 589.8 584.1 576.9 571.6 571.5 576.4 582.9 590.8 599.4 608.2 613.5 611.5 602.8 591.8 582.7 574 567.2 561.2 556.5 551.5 552.7 554.5 553.4 551.8 547.6 539.6 530 515.1 499.9 485.6 472.5 458.7 450.8 442.7 435.2 427.1 418.8 413.3 406.8 403.2 395 385.7 375.7 364.7 357.4 351.1 342.6
688.4 688.4 684.5 681.9 679.5 678.1 679.5 678.3 676.2 674.4 672.3 668.6 666 660.3 655.7 649.7 640.7 633.4 628.6 618.9 606.9 615.7 623.3 631.5 638.5 647.5 656.4 662 666.7 668.3 667.3 666.6 667.7 663.8 661.6 658.5 654.8 650 635.8 623.8 616.6 617.4 623.7 633.3 643.4 651.3 660.4 665 664.7 661.9 656.5 651.5 646.1 643.7 642.1 641.8 643.6 644.6 646 646.1 644.1 638.3 631.5 626 617.5 609.1 600.7 590.8 576.6 557.1 532.8 499.3 471.7 449.6 452.9 448.4 442.8 455 463.2 468.3 494.5 518.2 537.4 551.7 565.1 577.9 589.7 594.6 593.4 592.7 590.9 589.6 585.3 580 573.9 565.8 556.2 546.4 537.8 526.7 512.2 494.8 477.1 463.4 469.5 485.5 503.5 517.8 523.5 516.5 500.2 493.1 485.5 491.6 510.4 528.3 542.5 556.2 567.9 578 586.1 588.1 585.4 578.3 567.5 552.4 542.6 527.9 516.9 505.7 504.2 504.7 506.1 512.4 524.2 537.1 550 566 582.6 593.6 601.5 606.5 609.1 608.5 607.7 607.5 609.9 610.6 610.7 611.7 613.1 612.1 608.7 603.4 596.4 587.7 582.4 583.5 588.6 594.8 603.7 612.2 621 624.7 623.9 614.8 602.6 592.9 585.5 580.9 575.4 572.5 569.4 569 569.4 570.7 569.4 564.3 553.2 540.3 523.9 506.3 490.3 477.8 468 455.2 437.1 435.7 428.9 420.8 413.1 402.4 401.9 390.6 382.3 372.6 361.7 355.6 347.3 342
684.6 682.1 680.4 677.5 676.3 673.6 674.9 675.8 675.1 675 674.1 670.8 668.7 664.1 658.1 648.9 639.5 631.6 628.7 618.5 613.1 622.8 630.6 638.8 646.9 658.1 667.6 675.1 678.9 682.2 682.5 680.8 680.1 677 674.2 668.2 662.5 652.2 637.8 624.9 627.7 631.7 636.9 646.4 655 665.9 673.9 678.1 678.2 674.4 666.9 659.1 653.4 649.4 647.1 646 645.2 644.2 642.2 641.2 638.1 633.2 626.8 621 613.3 604.7 595.5 584.1 568.6 546.5 518.6 493.7 472.6 468.9 488 480.7 475.4 475.9 485.7 492.3 490.5 510.1 533.6 545 561.3 578.5 590.8 596.1 600 600.9 598.9 595.3 591.6 584 574.9 568.1 558.3 546.5 538.1 525.2 511.7 496.5 479.2 466.6 480.2 496.6 516.6 529.9 536.9 533.2 520.3 512 503 492.4 510.3 527.5 542.2 556.3 568.7 578.9 585.1 587.6 584.4 577.5 570.7 563.9 553.5 544.7 534.6 525 523.6 521.1 526.3 533.4 543.5 556.6 568.5 581.7 593.7 602.4 607.7 610.7 611.6 612 614.5 615.1 616.2 619.5 622.3 625.2 627.2 625.5 621.4 616 608.4 599.3 597 598.9 602 607.6 615.7 623.1 628.8 630.8 628.2 621 613.1 600.9 593 589.9 585.3 581.9 577.9 577 578.5 579.9 576.8 570.1 556.2 540.5 524.9 505.9 490.9 479.2 467.7 455.2 442.3 425.2 424.1 415.9 406.9 397.6 392 386.5 378.8 366.6 356.3 350 344.8 341
679.7 678.8 677 671.9 667.7 667.1 666.7 670.4 673.3 673.8 674.1 673 669.5 665 657.1 646.3 638 630.8 625.4 619.7 620.9 629.6 638.7 646.6 655.1 665.8 676.5 684.5 690 694 694.6 692.6 690.3 687.5 683.1 676.1 666.4 651.4 637.5 638.1 642.3 646.6 650.2 657.9 666.9 675.5 684.1 688.2 686.3 681.4 673.2 664.3 657 652.7 649.4 647.8 646.5 642.9 637.8 634.3 631.3 625.7 619.6 614.7 607.7 599.7 590.6 578 560.7 535.5 509.2 486 477.8 493 508.8 517.3 515.8 507.4 514.4 518.4 513.8 514.1 522.3 537.3 559.2 579.7 593 601.2 605.4 605.7 605.1 600.7 594 584.9 576.4 567.3 555 544.6 535.1 524.8 509.8 492.9 489.6 475.7 490.1 507.2 527.6 542.1 549.1 548.9 537.7 530.3 520.9 511.3 511.3 525.5 541.5 555.6 567.1 576.3 581.2 579.9 578.2 577.6 573.6 565.2 560.1 555.6 541.9 547.2 543.2 544.8 549.2 556.6 565.4 576.1 586 598.1 604.5 610.6 614 615.1 615.9 618.3 620.7 622.6 625.3 629.5 635.2 639.6 640.7 637.4 632.7 626.1 618.9 609.7 606.6 606.7 610.3 617 624 629.6 631.8 628.1 622.3 615 609.2 600.8 595.5 593.2 589.5 585.4 578.4 575.3 574.7 574.6 571.7 565.5 552.9 536.2 519.5 504.4 490.9 479 466.3 450 436.8 419.8 414.3 402.1 397 391.2 382.8 379.4 370.3 361.3 351.9 346.2 342.2 339.2
672.2 673.2 672.2 666.4 663.9 659.9 659.3 661.8 668.3 671.8 672.7 672.2 670 663.5 655 644.1 635.7 630.4 624 622.2 629 637.2 645.3 652.4 662.3 672.8 682.8 691.1 699.1 704.9 705.2 702.1 698.9 694.9 691 682.4 668 652.1 647.9 653.8 656.1 658.8 664.8 672.1 678.5 686.2 691.7 693.5 691 684.6 675.4 666.5 658.6 653.3 649.1 646.1 644.2 639.5 634.9 629.5 625.2 618 613.2 607.9 601.5 593 584.1 571.8 553.6 530.5 506.7 496.1 491.4 508 525.6 542.7 547.8 544.5 542.1 544.3 542.9 541.2 533.6 537.9 561.3 580.3 594.8 605 609.2 610.5 608.5 602.7 596.9 585.4 575.8 563.2 552.2 540.2 532.7 520.9 512.4 510 504 485.5 501.5 520.1 539 552.5 559.9 561.1 557.9 549.6 538.1 528.2 518.1 526.7 540.8 553.4 563 571.3 576.4 578.6 577.8 578.3 578.1 574 565.6 562.1 558.8 560.4 562.7 565.2 570.9 576.4 584.8 592.8 603.3 611.2 615.4 618.7 619.4 619.5 620.1 623.4 627.2 630.2 634.8 641.1 648.4 652.7 653 649.5 642.6 635.5 627.3 619.4 614 614.6 616.4 623.4 627.6 629.8 626.5 619.4 611.9 604.7 600 593.5 591.6 590.3 585.4 579.4 571.6 567.3 565.9 565.2 562.8 557.6 546.2 532.8 519.5 503.8 489.1 473.9 462.2 445 425.8 415.8 409.1 388.6 386.8 381.6 377 372.2 363.5 355 347.1 343 339.7 336.4
664.5 666.7 666.3 663.2 658.2 656.3 655.1 655.8 660.1 665.1 669 670.9 667.6 659.9 651.8 640.4 636.9 631.5 623.7 630.4 637.5 645.5 654.7 661.9 669.5 678.6 688.1 697 705.1 711.9 713.7 709.3 705 701.2 695 684.9 670.1 658.4 663 666 671.1 676 679.9 684.7 690.9 696.7 698.4 698.1 694 686.8 676.3 665 657.5 650.5 647.3 643.5 639.2 635.7 628.7 622.8 616.5 611.3 604.1 598.7 591 582 574.5 565.3 549.1 526.2 508.2 514.8 513.7 524.1 547.2 567.5 580.5 585.8 583.3 577.6 572.4 567.9 549.8 539.9 563.1 580.1 594.4 605.6 611.1 612.7 611.3 606.3 599.3 588.9 581.6 566.8 559.6 553.3 549 539.4 533.8 530.7 516.3 493.1 510.8 532 550.2 563.2 570.7 573.5 570.7 565.5 555 542.9 531.8 526.8 539.2 550.3 558.5 567 573.5 576.8 578.4 577.8 576.2 573 570.7 568.5 565.8 569.1 574.6 578.6 584.2 591.7 598.3 607 614.6 620 624.7 626.6 626.7 625.4 629.2 631.7 635.1 640.5 647.4 654 660 664.3 663.4 658.3 650.1 642 633.6 625.3 621.6 619.9 622.2 626 625.8 623.6 617.4 607.3 599.3 592 587.3 582.9 582 579.5 575.2 568.7 559.3 555.3 554.9 553.7 551.8 547.3 539.6 527.9 516.4 502.6 487.2 466.5 451.7 435.7 421.4 408.6 399.2 389.4 378.8 376 370 364.1 357.4 348.6 343.5 340.6 336.3 332.6
656.9 660.3 660.3 658.5 655 650.9 647.7 650.2 654.1 660.2 665.1 666 661.4 656.3 648.8 640.7 635.4 627.7 628.7 638.6 645.8 655.3 663.5 668.9 675.1 684 691.6 701 708.8 715.4 717.6 713.7 708.7 706.2 699.5 685.9 673.4 673.3 677 680.4 684.6 689.7 695.3 700.2 705.3 708.3 708.1 705.3 698.7 688.7 676.4 666.3 657.2 648.3 643.4 638 634.4 629.5 623.1 616.4 609 601.7 591.9 585.6 578.6 570.6 562.8 555.8 545.5 524.8 538.8 534.1 527.7 548 567.6 582.3 592.3 599.5 600.9 597.6 593 584.7 566.8 556.6 557.2 580.7 599.3 609.7 615 616.6 616.8 613.6 607.2 594 591 578.2 575.5 572.3 567.9 559.7 557.2 549.4 533.2 512.8 521.8 542.6 559.6 572.7 580.1 582.9 580.5 576.3 566.5 553.4 546 540.6 542.3 548.7 557.3 563.7 571.1 577.6 580 578.4 576.7 573 571.3 571.2 570.8 577 584.2 589.6 595.9 602.8 611.7 619.8 625.3 630.5 633.8 634.4 635.9 637.1 638.1 639.5 647 653.3 659.5 665.7 670.6 673.2 671.4 665.1 654.8 647.2 638.3 629.6 625.4 623.4 624.7 625 620.5 612.5 601.7 593.6 587 578.7 571.9 570.2 569.4 565.2 560 554.6 546 544.1 543 542.4 540.3 537.5 531.7 522.6 512.7 497.8 481.7 461.7 445.9 428.9 416.5 406 393.9 384.2 378.7 372.9 365.8 359.5 352.3 344.9 340.6 336.9 332.7 329.6
647.3 651.4 653.7 650.7 649.8 646.5 641.8 647 650.2 653.3 659.2 659.7 657.9 653.9 646.2 640.2 635.5 630.7 635.7 645.7 652.9 661.7 670.1 676.3 682.6 689.7 695.8 703.8 710.1 715.1 716.8 714.2 711.7 707.9 701.1 690.7 685.4 686.3 690.9 693.4 700.4 704.2 709.9 715.1 718 719.1 717.5 712.3 704.8 693.7 678.4 667.6 658.2 648.1 641.5 634.1 626 620 614.1 605.6 595.5 587.5 580.8 570.7 563 557.4 550 547.4 551.1 551.6 561.6 552.8 540.6 566.4 583.3 592.9 601.1 607.3 609 607.4 603.6 597.3 582.2 573.6 563.2 585.1 603 613.3 618.3 622.7 623.9 623.2 615.9 602.5 597.7 597.4 596.3 593.4 587.4 583.9 578.4 566.9 549 529.4 532.9 552.6 569.3 581 588.4 591.8 590.9 586.6 576.5 565.6 559.1 554.2 551.4 555.6 560.5 567.5 573.8 577.1 580.4 579.3 575.8 573.1 573 574.7 577.5 584.7 592.6 598.6 606.4 614.7 621.9 628.9 634.8 639.3 641.5 642.8 645.4 643.8 648.8 653.5 659.5 664.8 670.4 676 679.6 679.9 676.4 669.5 658.6 649.9 640.2 631.1 626.9 623.5 620.6 616.9 608.7 597.8 587.2 579.8 572.9 564.3 557.8 557.7 554.8 549.9 543.8 537 529.8 530.6 530.5 529.3 528.4 526.7 521.1 515.4 506 491.3 476.9 460 442.2 426.3 413.8 404.5 393.3 384.2 377.4 371.7 363.2 356.4 349 342.7 337.9 333.9 330.5 326.9
639 642.8 645.3 644.6 643.9 641.2 634.1 641.3 646 648.4 651.9 657 656.4 652.8 649.2 645.5 639.8 636.6 646.2 650.4 657.2 666 673 679.4 685.7 691.8 697.9 703.1 708.2 713 715 713.5 713.2 709.6 703.3 699.7 699.2 700.5 704 707.6 713.7 718.8 723.3 726.8 728 727.4 724.4 717.7 708.6 697.9 681.8 669.9 661.8 649.3 637.8 631.7 622.2 612.9 603.8 592.2 582.5 576.2 574.7 574.7 577.3 579.6 579.4 579.2 577.5 579.1 580.8 568.1 552.3 572.9 589.2 599.8 608.7 614.5 615.5 614.5 611.2 607.8 602 592.3 579.7 589.6 607.8 618.7 624.4 629.6 633.8 634 630.1 621.5 612.8 612.7 610.7 606.6 600.8 594.4 589.6 580.5 564.9 543.8 543 563.1 578.2 588.9 596.1 599.9 600.9 599.2 594.1 581.5 571.9 565.3 564.4 567.1 570.6 574.2 579.2 581.4 581 580.9 580.3 578.9 580.1 579.2 583.7 590.3 599 607.2 613.6 621 627.9 634.3 639.7 644.3 647.8 652.2 654.6 655.5 657.9 662.4 667.7 672.1 677.3 684.2 687.7 686.9 681.9 673.6 661.3 650.4 640.3 630.7 625 619.5 613.5 605.1 591.1 580.6 572.1 565.6 557.5 548.6 545.9 544.5 539.4 532.2 525.9 519.7 516.1 515.7 515.2 515.3 515.4 514 512.1 506.8 498.2 486.3 473.3 458.3 440.4 425 412.5 401.6 391.5 384.7 377.6 368.7 361.4 354.3 348 342.2 337.3 331.7 326.9 324.6
628.2 628 631.6 635 633.5 634.4 626.1 633.7 641.4 646 647.8 650 653.2 652 649.4 648.2 639.8 644.2 650.2 656.2 661.5 668.6 675.9 681.3 686.9 692.5 698.4 703.3 708.5 711.4 713.1 712.8 711.4 710 708.7 708.4 710.2 711.1 715.7 720.7 725.8 731 735 735.6 735 732.1 727.6 719.8 710.3 700 687.9 674.2 664.9 653.9 643.1 632.5 621.4 609.4 596.5 597.3 595.7 590.9 591.7 592.7 596.2 598.7 601.5 603.1 601.7 599.1 595 581.1 562.7 574.4 594.3 605.9 613.6 618.4 620.8 620.7 618.4 615.1 613.7 608.8 596.2 596.2 614.9 624.2 631.1 636.6 640.6 642.3 638.5 631.9 626.2 621.6 617.6 614.7 609.9 604.4 596 586.4 574.9 555.3 556.5 574.3 587.4 597.9 605.1 609.7 610 609.2 604.6 597.4 587 579.6 576.7 582.1 582.6 583.8 585.4 585.9 584.9 585 586.8 587.3 590 590.4 587.8 592.2 601 611.2 617.9 624.8 631.3 637.3 642.9 646.9 652.5 657.8 661 663.2 664.1 666.4 669.2 673 680 685.7 689.1 688.1 683.9 675 663.6 649.2 638.6 628.6 620.7 612.7 602.8 590.2 577 565.4 559 551.1 542.3 535 533.7 529.8 523.1 514.8 510.5 505.3 502.6 499.9 498.8 501.1 501.7 501.3 501.2 498.3 488.9 481.4 470.3 456.7 439.4 423.8 411.8 399.1 390 382.5 375.3 366.4 359.3 352.2 347.2 341.3 336.9 332.1 328.3 323.3
619.6 619.2 621.1 619.5 618.2 620.8 621.7 627.1 635 642.2 645.4 646.1 645.8 649.1 648 644.9 644 648.1 652.1 657.7 664.3 671.6 677.6 681.3 686 690.7 696.1 701.8 706.4 708.9 709.5 709.4 711.9 712 711.8 713.7 716.6 719.4 723.6 728.6 733.2 737 739.4 739.1 735.7 730.5 725.4 718.1 709.4 700.1 688.9 677.3 666.9 658.7 646.3 635.2 623.3 611.9 612 612.5 608 605.7 607.8 610.5 615 617.3 616.1 614.4 611.4 605.9 599.9 593.5 582.4 576.5 597 609.7 616.2 619 622.4 623.4 623.8 624.7 623.7 622.6 613.6 608 621.9 632.3 639.5 645.3 648.1 648.9 644.7 637.8 631.1 625.7 623.3 620.9 614.8 608.3 599.4 587.9 576.8 555.5 571.4 585.4 596.3 605.7 613.5 617.8 620.1 619.2 615.7 610.8 605.9 598.4 596 596.1 595 594.1 593.5 594.1 596.1 596.3 597.1 597.4 597 595 592.5 592.1 600.5 610.3 620.6 626.3 631.8 637.8 642.9 648.6 654.5 660.4 663.7 664.8 665.1 664.9 665.2 667.5 674.9 680.5 683.6 683.5 680.5 672.6 662.2 648.5 636.8 624.3 614.1 602.2 590.1 577.5 558.8 548.7 545.7 539.3 529.7 522.5 518 513.2 505.6 500.2 496.7 493 490.3 487.7 485.3 486.5 487.8 490.4 490.7 487.9 481.3 474 466.6 454.1 437.5 423 410 398.1 388.8 381.4 374.4 365.8 357.7 351.4 346.3 340.7 336.7 332.2 327.7 323.5
613.7 612 611.3 612.1 610 613.3 610.5 618.3 628.1 637.3 639.8 641.1 641.3 641.7 643.8 641.8 644.2 647.9 651.7 657.4 662.2 671.2 676.6 679.3 683.2 687.8 691.7 696.1 700.8 703.1 705.7 704.5 708.3 711.1 714.7 717.6 720.1 722.9 726.3 730.6 734.4 736.2 736.7 735.7 730.5 725.4 720.3 713.7 706.4 698.3 688.6 680 671.2 662.2 652 638.8 624.6 622.6 626.8 626 621 617.7 623.7 627.4 629.9 629.2 625.8 619.4 615.7 608.8 602.1 593.7 583.3 582 598.9 608.2 616 621.8 626 627.4 628.7 629.5 630.5 632.1 631 628.7 633.8 641.1 647.5 653 655.7 653.7 647.3 640.5 633.1 627.2 626.6 623.5 616.2 607.8 597.2 586.4 575.8 570 583.3 594.4 604 613.2 620.7 626.5 629.7 630.3 629.1 626 621.5 616.3 612.7 609.5 610.4 609.3 608.6 608.6 608.3 607.8 608 607.1 603.6 599.8 593.9 592.8 599.2 608 617.2 624.9 629.6 634.7 640.9 646.7 652.8 657.7 659.4 659.1 658.2 658.2 658.9 659.9 664.2 670.6 675 675.6 674.1 667.4 657.8 645 633.8 620.8 605.7 588.9 572.8 559.9 544.7 534.3 530.9 523.2 516.3 511.8 505.5 497.2 491 487.3 483.8 481.5 479 477.3 473.2 472.1 474.7 476.6 479.4 477.6 473.6 467.7 461.9 450.8 433.3 420.5 407.2 397.8 388.9 380.7 373 365.1 358.3 350.5 345 340.3 336.3 331.8 330.5 327.5
624.1 616.6 608.9 605.5 605.5 603.7 603 609.2 620.7 630.9 634.4 635 636 638.2 639.4 636.6 641.2 645.5 648.9 654.9 662.3 669.1 673.4 677.1 679.9 683.5 688 690.1 692 695 697.8 700.8 705.9 709.3 714.6 718.7 721.6 722.1 724.1 726.8 728.8 729.1 730.1 727.9 723.4 718.3 713 707.4 701.6 695.3 688.6 680.4 672.5 664.7 655.7 640.4 633.1 637.3 640.6 641.6 637.3 634.3 637.6 637.4 638 636.2 631.9 625.2 614.8 609.3 598.2 588.7 589.1 586.3 599.8 608.7 616.7 621.3 627.7 630.9 632.2 634.6 637.8 640.1 640.8 642.1 642 648.8 654.7 659 660.6 657.5 652.4 642.4 633.4 627.4 627.6 623.3 614.7 605.3 595.5 586.6 572.1 578.7 592.8 603.2 611.6 620.1 628.6 635.7 640 641.9 642.2 641.9 636.2 634.4 631 629.2 625.4 624 622.8 621.9 620.6 619.2 618.4 616.8 612.4 604.1 597.2 594.1 594.8 602.7 609.9 618.3 624.9 629.6 635.8 641.6 646.7 649.9 650.2 649.2 648.1 648.1 648.3 650.3 653.9 658.5 663.1 665 664.6 660.2 652.1 640.1 628.1 614.9 599.3 577.8 559.3 544.5 530.3 521.3 515.8 510.2 505.4 501.7 492.8 485.9 480.5 476.1 471.7 469.7 468.1 463.9 461.7 461 463 464.3 466.2 467.5 465.9 462.9 456.9 444.6 429.3 416.4 405.7 396.5 389 380.8 372.4 364.8 356.2 349.3 344.1 340.1 337.9 336.2 335.1 332
636.9 630.8 624.8 618.4 611.4 607 600.4 600.2 609.6 619 627.4 630.4 629.6 631.5 632.5 631 634.6 640.6 646.1 652.5 659.2 665.5 670.6 674.5 676.4 678.5 680.2 681.1 682.6 685.5 690.3 694.5 701.5 705.3 711.1 716.1 718.5 718.8 717.9 719.5 720.1 720.8 720.4 717.9 714.7 710.6 705.5 700.9 694.8 692.1 687.9 679.9 674 666.6 660.1 653.9 649.8 650.6 650.5 650.1 646.9 642.4 644.5 643 642.5 640.6 634.8 628.1 618.3 608.5 599.5 597 597.5 598.8 599.7 608.3 617.2 623.6 629 633.4 637 640.3 643.4 645.8 647.6 649 650.6 654.6 659.3 662.2 661.5 658.2 652.8 642.9 633.1 625.1 623 618.1 610.5 602.3 592.5 581.6 585.1 592.5 600.6 610.7 618.5 627.1 635.9 643.7 649.6 653.3 656 656 654.6 652.6 651.5 649.2 647.6 644.3 639.5 634.6 631.8 632.5 631.7 627.5 621.8 612.3 600.4 595.6 592.5 598.4 603.2 609.3 617.3 624 628.9 633.3 636.4 638.6 638.4 637.5 635.6 634.5 635.4 638.4 641.9 646.8 650.6 653.2 653.2 649.3 642.7 631.8 620.9 607.6 592.5 572.4 549.4 533 518.5 510.6 504.5 499.3 494.9 489.2 483.2 475.9 471.1 466.3 461 458.5 455.5 453.1 450.2 449.1 452.3 453.2 455.5 458.3 460.4 457 452.7 440.2 426.6 415.7 404 395.4 389 381 372.4 363.9 354.7 348.9 344.2 343 342.3 339.9 338.8 336.4
648.6 639.6 635.1 628.7 622.4 617.5 610.8 598.7 598.3 604.8 616.4 618.8 620.2 622.6 624.5 621.9 625 634.1 640.5 649.3 657 664.2 667.6 670.5 670.8 674.5 673.5 675 674.9 678 682 688.2 693.9 699.9 705.1 709.3 710.9 711.2 711.2 712.2 712.6 713.9 711.8 708.7 705.2 701.5 697 693.2 690 688.5 684.3 679.3 674.3 669 664.4 660.2 657.5 657.2 655.2 653.3 651 648.1 647.5 646.7 644.4 640.3 637.4 628.4 618.6 610.3 611.4 613 611.4 609.3 609 608.6 621.5 628 631.9 634.7 637.5 644.5 647.9 650.1 652.2 654 655.8 658.5 661.2 662.2 659.5 654.3 647.9 638.9 631.9 627.3 620.8 614.9 608.9 601.9 593.1 591.8 596.2 603.6 610.5 617.6 625.7 632.8 641.7 650.6 657.7 663.3 666.6 668.6 668.6 667.3 666 666 664.3 661.7 657.8 654.2 650.4 646.5 642.3 634.6 627 616.8 603.5 595 589.6 591.7 595.4 600.8 607.6 614.3 619.2 623.5 624.3 626 624.7 623.2 620.9 620 621.5 624.7 630 635.1 639 641.1 640.6 637 629.7 620.3 611 599 584.8 564.5 543.3 524.6 509.3 499.5 493.8 488 485.1 480.6 471.1 463.7 459.6 455.8 451.2 447.9 443.3 443.1 439.2 439.1 441.5 444 445.9 449.6 453.1 450.2 444.6 434.4 424.8 416.6 406.5 395.6 387.1 380.4 370.7 362.6 355 350.7 348.1 346.8 345.1 343.6 342.7 341.2
653 646 640.3 635.4 628.5 626.1 618.7 607.2 600.1 596.3 598.2 607.1 606.6 611 611.3 611.8 617.3 628.4 636.7 646.4 653.8 661.5 665.9 667.5 668 668.5 667.1 666.8 667.2 670.1 675.7 682.1 689.5 695.3 699.6 702.8 704.1 702.3 704.2 704.6 704.9 704.3 704 701.5 696.8 692.5 688.7 686.2 684.6 682.6 680.9 677.5 673.6 670.6 666.6 663.4 660.9 659.8 657.1 654.9 653.1 651.6 651.2 647.5 644.5 642.3 635.8 627.3 619.3 621.9 622.2 622.2 619.8 616.9 619.7 618.9 618.2 623.3 628.4 634.5 639.8 647.8 651 652.6 654.2 656.3 658.2 660.7 662.1 661.8 659.8 651.9 646.1 640.7 633 627.5 621.6 617.4 612.9 608.1 600.4 605.5 607.6 614.5 619.3 624.9 630.8 639 647.5 656.5 664.9 671.6 675.4 677.8 679 679.5 679 677.9 677.2 675.1 672.7 669.7 665.3 657.7 652.5 644.6 631.9 618.5 605.6 592.8 588.1 584.4 586.6 591.3 596.8 603.4 607.1 610.8 611.7 610.3 608.6 606.4 604.5 604.5 607.5 611.5 617.6 622.4 626.6 628.4 627.4 620.2 612.7 606.8 598.5 587.7 573.7 554.7 536 518.9 502.7 490.2 482.4 476.6 473.8 468 460.8 454.9 449.3 444 442.2 440 435.1 433.2 429.8 430.1 431.8 434.1 437.4 440.4 443.2 442.3 438.7 430.8 424.3 416.4 406.5 392.6 383.4 374.9 367.8 362.4 359 357.3 355.9 353.5 350.9 349.7 348.5 346.3
655.9 650.3 642.8 637.4 635 628.5 620.3 611.4 602.1 597.4 595.2 598.1 602.3 602.4 601.3 604.6 610.5 625.7 632.2 642.2 650.3 656.1 660.7 663.7 663.3 663.1 662.1 657.4 656.3 663.7 670 677.6 684.9 691.8 695.8 697.3 697.3 695.6 694.4 696.6 697.9 696.9 695.5 692.5 688 683.1 680 677.7 677.8 676.1 675.1 674.6 671.5 668.4 666 664.8 662.9 660.9 658 655.4 654.9 653.5 650.8 648.8 644.8 641.5 634 628.2 628 630 630.5 628.3 629.7 628.9 626.6 626.8 623.7 629.4 633.7 638.4 643.4 648.1 650.1 652.2 654.2 657.2 658.6 661.2 663 662.8 661.2 655.1 648.5 643.9 638.5 629.4 624.8 621.7 617.8 614.6 609.7 614.1 615.6 620.8 626 632.9 637.1 644 652.2 661.3 669.9 676.2 681 683.9 686.6 688.3 689.4 688.1 686.9 685.5 682.3 677.2 670.2 661.6 654 646.1 635 620.7 605 593.4 585.7 576.1 575.7 579.3 584.5 589.4 593.7 597.3 597.2 595.5 594 590.9 590.2 591.7 593.7 599.6 605.7 611.4 615.2 614.8 610.9 603 598.4 594.1 586.1 575.1 560.8 546 527.3 511.7 497.5 481.7 472.1 467.2 463.1 458.2 450.4 443.6 438.5 434.9 433.8 428.9 426.1 423 420.2 419 421.4 424.5 427.8 428.4 437.7 435.1 433.4 427.1 422.7 414.6 404.4 390.4 374.8 367.9 366.9 367.6 367.8 366.6 364.2 362.7 358.4 357.9 356.4 353.9
656.4 652 645.6 640.4 635.2 627.9 617.8 607.2 602.8 597.7 593.5 592.9 595.2 598 598.7 600.8 606.6 619.3 627.6 635.6 644.7 650.3 657.2 658 657.5 656.8 653.5 647.2 649.8 656.3 664 671.6 679.7 687.1 692.2 695.7 693.7 692.3 689.9 688.6 689.5 688.6 686.4 682.7 679.3 674.2 669.7 668.9 669.2 668.5 667.8 669.2 668.3 666.2 664.9 664.2 662.7 660.7 656.3 653.2 653.5 652.9 650.4 646.6 644.3 637.7 636 637.2 637.5 639.6 640 641.1 641 639.8 637.9 636.9 632.2 631 634.3 640.4 644.2 648.2 651.2 653 656.3 657.8 659.9 662.2 663.2 663.1 661.5 657.7 653.8 647.7 642.7 638.8 632 628 625.9 620.8 618 621.4 624.2 627.6 631.5 637.1 641.9 648.2 656.1 664.3 672.3 677.9 682.1 685.9 689.9 692.3 693.6 692.6 692.2 690.3 684.9 678.6 669.9 660.9 651.2 642.8 632.4 619.9 605.9 591.6 581.4 570.2 562.2 563.4 570.9 574.9 579.4 580.2 580.4 580.3 579.6 577.3 575.3 576.1 580.4 586.6 593.6 601 603.9 601.6 595.5 589.2 585.3 581.2 573.9 563.3 551.2 537.9 521.6 506.1 489.9 474.6 462.6 457.3 453.2 448.1 441.7 435.4 430.8 428.5 424.8 421.1 417.6 413.7 411.1 409.8 411.4 413.8 411.6 419.6 428.6 428 423.9 419.3 417.3 407.1 392.4 381.2 365.6 365.8 371 377.6 379.2 378 373.8 367 365.8 365.8 364.1 361
655.1 652.5 646.4 641 628.9 626.1 621.8 617.2 608.7 599.9 592.2 592.9 593.6 594 594.1 597.5 599.9 609.7 621 627.9 636.3 644.7 650.7 651.7 651.2 648.9 643.8 638.4 642.9 649.8 657.1 665.2 675.3 682.7 687.5 691.3 690.6 688.1 684.3 681.9 680.7 679.8 677.9 675 670.1 665.3 662.8 661 660.6 661.5 660.7 663.6 662.7 662.7 661.9 661.7 660.5 655.5 652.6 651 651 650.2 647.9 646.2 644.7 640.5 643.5 642.6 645.1 647.1 648.9 649.8 649.8 647.2 647 643.8 641.7 640.2 640.5 643.6 648 648.8 651.9 654.4 656.9 659.3 660.8 662.3 663.3 662.6 660.7 656.6 651.9 647.3 642.6 637.3 633.6 630.9 628.7 625.6 623.4 625.6 627.9 631.4 635.2 640.5 645 650.8 658.6 666.1 672.6 678.3 682.2 685.9 689 691.2 692.3 691.8 692.5 690.4 683.6 676.4 667.6 657.1 645.8 634.5 625 614.4 602.8 590.6 578 563.3 549.3 553.2 556.7 559.1 561.3 562.1 564.4 564.1 562.4 560.9 560.4 561.7 567.3 574.8 582 588.5 591.1 587.8 580.9 576.7 573.8 567.3 559.1 550.3 541.3 530.1 515.7 500.5 483.6 468.4 454.6 446.2 443 438.2 433.9 427.6 424.7 420.8 416.6 412.8 409.6 405.3 402.3 402.1 402.5 403.4 402.3 406.3 413 414 415.1 412.8 402.8 379.3 371.1 365.5 364.4 375.3 395 393.5 379.1 373.8 378.8 374.6 371.8 371.8 371.3 367
656.1 648.8 639.7 640.7 641 637.3 633.3 627.9 618.3 606.8 600.4 591 589.3 590.6 590.4 593.1 595.1 600.1 611.6 620.1 628.4 638.2 642.3 646 644 639 635.3 630.4 634.2 643 651.3 659.5 670.2 677.9 682.8 687.2 686.7 682.6 678.2 673 672.2 670.3 669 666.4 662 658.1 655.8 653.3 654.9 657.2 656.5 657.9 656.1 657.6 656.3 657.8 655.6 654.1 649.1 649.7 649.1 645.6 644.6 644.8 645 648.3 648 649.5 651.8 655 657 657.4 659.1 658.4 657.3 651.6 647.4 648.7 648.9 648.9 650 650.7 653.5 656.2 657.8 659.8 661.3 662.2 661.9 660.7 658.9 655.7 651.2 646.5 643.6 639.1 633.6 631.6 629.5 626.9 623.9 627.7 631.3 633.6 637.5 642.2 647.9 653.3 660.6 667.5 673.2 677.9 681.8 683.8 685.4 687.1 688.7 688.8 688.6 686.5 679.7 671.8 661.7 649.8 636.9 624.9 615.2 606.8 597.7 586.2 574.2 556.9 539.2 537.3 540.3 544.1 544.8 545.7 544.9 544.8 542.7 543 542.9 546.3 554.3 563.1 572.2 577.7 580.4 577.6 569.5 564.2 557.9 551.8 545.7 538.8 531 520.2 509.3 494.9 478.4 461.6 446.2 439.3 434.3 429.8 426 421.1 417.8 414.1 409.6 406.4 401.3 397 393.7 393.4 393.1 391.7 393.1 397.9 403 401.8 405.3 407.1 387.9 362.8 381.7 376.9 382.3 406.7 408.4 413.8 404.2 402.9 392.9 379.5 377.6 379.9 378.5 373.5
658.6 652.9 651.1 651 649.8 646.2 642.2 636.9 625 615.4 608.4 598.6 594.1 591.7 588 588.4 589.7 592.8 596.9 609.8 617 626.3 632.8 637.1 636.9 632.2 630 623.4 629.1 637.8 645.1 655.1 663.5 671.5 677.6 681 682 679.1 673.5 667.2 663.5 662.5 661.5 658 654.7 651.7 648.2 647.9 650.1 652.4 652.5 652.9 652.8 650.8 652.1 653.8 651.2 649.4 648 644.5 643.8 642.7 643.4 646 647.2 650.6 653.2 656.5 658.6 661.3 663.9 665 666.4 665.7 661.9 657 652.8 652.4 653.8 652.7 652.1 650.1 653.6 655.9 657.2 659.7 661.6 660.7 659.9 658.5 656.6 653.7 650.1 646.8 642.1 637.5 632.8 632.1 629.6 627.2 620.8 625.8 630.2 632.5 637 641.1 647.6 654.1 661.1 667.8 673.8 677.6 680 681 681 682.6 683.5 683.7 682.3 680.4 673.1 664.5 653.7 643.5 631.4 619.1 608.6 598.9 590 579.7 566.8 549.9 529.9 522.2 516.3 521 527.4 528 523.9 522.1 521.9 522.2 523.7 530.5 540.5 550.8 559.7 566.6 570.5 568.1 560.3 552 546.1 538.4 531.6 525.7 519.5 512.3 503.1 490.9 474.6 458.3 440.9 433.9 425.7 421.5 418 415.1 411.5 407.7 403.4 398.9 393.4 388.4 385.8 385 383.7 383.2 382.8 385.3 387.9 391.2 399.1 401.4 375.8 356.2 378.1 382.2 413.3 435.2 439.6 439 434.2 427.9 415.4 405.5 391.6 387.4 383.8 378.3
663.8 659.7 658.4 657.7 656.3 654.5 649.3 642.6 631 622.6 615.4 604.6 604 600.4 596.7 590.8 585.3 585.8 586.4 594.4 603.1 609.9 618.5 623.8 627 625.4 621.1 612.3 624 631.6 639.4 648.9 656.5 664.1 670.6 674 674.9 673.3 669.1 662 655.2 654 652 650.8 648.6 644.2 641.3 643.8 645.6 647.2 648.8 649 648 646.6 646.9 646.5 647.8 645.3 642.4 642.7 640.8 640.7 642.2 645.6 648.8 653.3 657.8 661.9 665.3 667.4 669.7 673.8 673.9 672.6 667.5 660.4 656.8 654.1 654.5 653.3 651.6 649.4 652.5 654.6 654.5 657.4 658 658.2 657.5 656.7 655 652.1 649.7 645.7 639.8 634.7 632.6 630.5 628.8 626 619.8 618.7 625.6 628.7 634.3 641.1 646.4 653.3 660.5 667.8 672.8 675.3 676.5 676.8 676.4 677.2 677.8 676.4 674.7 672.7 666.1 658.6 649.3 638.5 626.6 613.6 602.6 592.5 583.8 573.8 558.4 540.4 518.3 504.5 497.1 500.6 506.8 506 506 505 504.7 504.9 507.1 515.5 526.5 538.7 547.7 554.6 558.7 557.8 550.2 541 532.3 523.3 517.7 513.8 510 504.4 497 485.7 473.1 455.8 437.4 429.5 421.7 415.3 411 407.9 405.4 402.9 397.4 392.9 386.8 381.6 378.1 376.6 373.8 371.1 372.5 374 381.6 391.1 399.7 382.6 360 360.5 370.1 417.5 440.9 451.3 456.8 461.1 455.3 448.1 436 423 410 396 391 384.3
668.1 666.2 665.1 664.2 661.6 658.7 652.8 644.7 633.6 626.7 618.5 616.7 608.7 605.7 603.1 599.5 596.8 588.5 585.8 584.5 589 594.6 600.9 607.1 612.3 616 614 602.4 615.1 624.1 632 639.8 646.5 654.3 662.1 665.8 667.2 666 662.3 658.3 652.8 644.6 644.8 642.6 643.4 639.8 636.2 637.4 640.5 642.8 643.6 641.8 642.1 640.7 641.5 641.5 642.1 640.8 638.9 638.2 638.9 639.5 642 645.1 650.5 655.3 661.3 666.1 670.9 673.9 677.6 680.9 681.8 679.6 675.3 667.2 658.2 654.8 653 651.3 650.3 650.3 651.5 651.5 653.7 654.3 654.6 655.5 655.1 654.2 652.7 650.6 646.1 644.9 638.4 634.3 630.3 628.6 625.8 622.5 618.3 613.2 619.3 623.2 630 637.4 644.6 652.6 660 666.2 670 672 671.5 671 670.6 670.7 669.5 668.8 665.7 663.6 659.1 652 642.7 631.1 618.6 606.3 596.2 585.3 577.6 567.5 555.4 535.8 506.6 489.6 482.4 484.8 487.2 487.8 485.9 485.9 487.5 488.7 491.8 501.7 513 525 535.8 542.7 547.3 547.4 540.2 528.9 519.9 511.4 505.5 502 499.2 495.2 489.4 481.3 471.2 456.8 436.9 425.8 418.7 410.3 402.8 400.2 398.1 395.5 391.7 387.4 380.8 374.5 369.4 366.1 361.6 360.1 364.5 371.8 377.1 395 380.1 357 357.8 366.5 392.7 431.6 452.2 463 469.9 472.8 469.8 461.2 451.1 435.8 423.5 407.8 400.3 392.1
675.1 672.9 671.5 668.7 666.8 662.1 658 647.7 636.6 626.1 624.6 622.1 616.1 611.4 607.9 604.1 603.1 604 599 588.2 582.3 581.3 582.1 592 598.5 601.5 603.3 595.3 608.2 616 622.8 629.5 635.7 643.4 651.5 655.9 658.7 658.3 655.8 652.3 651 646.3 641 637.6 638.7 637.3 634.3 632.4 634.6 637.5 637.4 637.4 635.8 635.8 637.8 636.5 635.1 634.6 635.1 633.6 634.8 636.5 640.4 645.6 650.8 656.5 661.7 668.2 673.3 679.2 684.1 686 685.6 682.8 677.7 668.9 658.5 654.7 651.1 649 648 647.1 648.9 649.3 650.1 650.8 651.6 652.7 653 654.2 650.7 648.7 643.6 639 633 629.5 626.3 624.3 622.1 618.8 613.2 608 612.4 616.4 624.4 632.8 641.5 649.8 657.7 663.2 664.9 665.9 665.7 664 663.6 663.1 661.6 658.5 654.8 653.6 649.5 641.5 632.5 621.4 606.6 595.1 585.3 574.8 568.1 561.6 551.2 535.5 506.4 475.1 470.3 465.4 469.8 468.8 470.1 467.8 471 472.6 477.7 489.6 500 512.1 523.2 530.8 537.4 538.1 530.6 518.6 509.3 499.3 492.2 489.9 488.4 485.9 482.6 476.8 468.4 455.9 438.1 421.9 416.1 408.5 401 390.3 390.3 387.5 383.8 380.3 375.4 367.8 361.1 355.9 353.1 354.3 360.8 367.5 385.6 382.6 359.1 357.1 368.5 380.9 415 436.9 455.1 467 475.9 480.7 479.1 471.3 459.9 447 435.1 420.9 411.7 403.2
680.9 678.2 678.2 676.1 671.3 665.6 658.9 650.3 637.9 634.5 633.9 629.6 623.9 617.6 614.7 611 609.5 611.6 609.9 603.2 593.4 583.3 580.5 580.4 587 589.3 591.6 589.7 599 605.2 611.7 616.7 622.6 631.6 639.4 644 647.3 650.3 651.3 651 649.5 645.5 639.6 633.6 633.4 633 631.7 627.9 630 632.6 632.8 632.5 631.4 629.1 631 632.9 631.1 632.8 632.1 631.1 631 633.1 638.5 644.1 649.6 657.4 662.5 668.8 675.7 681.9 685.5 686.1 684 681.3 675.2 666 656.9 651.5 649 646 645.6 644.9 644.1 645 646.1 646.8 648.9 650.7 651.7 649.9 648.2 643.1 640 633.8 628.3 622.3 621 618 615.4 612.4 607 595.8 603.8 610.8 619.3 627.5 636.7 644.9 653.7 659.6 661.6 661.3 660 657.2 656.8 655.9 653.1 649 645 641.4 637.9 630 619 603.2 585.8 574.3 565.4 558.5 556.8 553.8 545.4 533.8 515.9 488.4 456.9 453.2 453.1 455.3 456.2 454.3 457.3 459.9 464.5 477.3 488.6 499.8 511 519.3 525.7 528.2 520.6 509.1 500 488.2 478.2 475.7 475.9 475 473.2 470.3 464.3 454.1 439.9 424.4 414.6 406.7 398.6 390.3 380.7 379.4 376.8 373 367.9 360.7 352.8 344.9 344.4 347.6 361.8 372.8 379.4 364.2 342.9 356.3 378.7 403 425.3 441.5 456.1 468 478.5 484.4 484.6 477.3 466.9 456.6 446.4 435.5 425.5 415.4
687.6 685.7 683.1 679.8 676.3 669.7 661.7 653.7 645.4 645.4 643.4 639.6 634.3 626.7 620.7 619.3 617.6 619.7 619.6 617.3 608.6 601.7 593 580.9 577.7 581.7 584.6 584.1 588.9 594 600.8 605.2 611.8 618.9 625.1 630.2 636.6 642.4 645.2 645.8 645.7 643.3 637.6 633.6 627.9 628.6 627.2 624.9 625.7 629.3 630.2 627.8 626.7 627.5 626.3 628.4 628.2 629.3 628.7 626.8 626.9 632.6 638.6 644.1 650.5 657.3 663.7 669.5 676.5 681.7 683.5 682.9 680.6 676.3 670.3 661.5 653.8 650.2 645.6 643.4 639.7 639.7 635.5 639.7 641.3 641.6 644.5 644.7 648.3 647 647.1 644.5 639.3 634.7 626.9 619.3 614.3 612.3 609 606.6 599.3 585.4 596.6 605.9 615 623.6 632.1 641.3 649 655.5 657.6 657.3 655.7 653.4 651.5 649.9 646.2 641.9 636.3 631.4 624.9 616.6 604 584.6 566.4 552.7 542.7 542.5 543.3 543.2 538.2 529.7 515.2 497.8 467.3 432.8 438 439.3 441.9 442.5 443.2 445.6 453.2 465 477.3 489.5 499.1 507.5 513 516.9 510.9 499.9 489.9 478.5 466.6 460 461.6 462.6 462.4 461.3 457.6 451.1 438.7 426.4 415.1 404.1 398 388.4 380.6 369.4 368.9 364.7 359.5 354.2 347.6 339.9 336.7 351.1 359.7 367.3 361.3 353.2 336.9 361.6 397.1 415.2 429 442.2 456.2 466.7 478.4 484 484.4 480.6 472.6 464.6 456 448 437.9 428.2
693 690.4 686.9 682.9 678.8 672.7 665.4 660.1 655.4 652.1 648.9 644.6 640.1 636.5 631.5 628.7 626.7 626.1 627.2 624.1 620.3 615.4 605.9 598.3 588.1 581.5 574.6 579.8 581.3 584.5 589.5 594.6 599.3 604.9 612 619.2 626.8 633.7 640 642.8 643 642.6 636.8 632.1 629.5 626.1 620.8 619.3 620.8 624.6 625.3 625.7 624.7 623.1 622.7 625.1 624.1 624.3 622.8 623.2 627 631.3 637.2 643.9 650.6 658.6 662.7 670.3 676.7 680.2 680.4 678.4 675.9 671.8 664.1 656.5 649.3 644.7 641.2 638.3 636.9 633.5 631.6 633.3 635.8 635.9 637.7 641.7 644 644.7 643.9 642.8 636.6 630.1 620 612.9 609 604.9 601.7 598.8 591.4 581.2 589.2 601 611 619.6 628.8 637.9 644.2 649.6 652.5 653.1 651.7 649.7 647.9 645.2 640.7 635.3 629.5 621.6 612.2 602.4 585.7 566 546.6 530.3 525.1 526.3 529.6 531 529 524.1 512.7 497.5 477.7 450.6 415.8 422.2 427.1 429.9 433 437.1 441.6 454.3 466.5 478.2 487.6 495.1 501.6 505.6 499.3 489.4 479.1 468.3 457.5 443.2 445 447.8 449.2 448.3 447.5 444.2 435.9 426.1 415 403.2 395 386.9 379.7 370.9 358.2 355.9 352.3 348.3 342.4 335.6 336 347.9 356.1 359.3 351.4 338.6 363.8 387.9 402.2 415.8 429.1 441.8 454.2 465.2 476.6 482.5 484.9 482.6 476.4 470.4 464.7 459.3 449 443.5
696.8 692.3 688.5 684.5 680.3 675.5 669.5 662.7 660.7 656.5 652.5 648.5 643.8 639.6 636.5 632.2 630.7 630.4 631.4 629.7 625.3 619.9 613.8 606 598.6 590.3 581.7 575.8 573.4 577.3 579.2 580 584.1 591.3 598 607.8 616.6 624.1 631.1 637.4 643.2 643 638.6 636.8 635 630.2 626.6 620.5 614.5 617.9 620.6 620.8 620.9 620.3 619.5 621.6 622.4 619.4 619.3 619.1 624.7 631.1 635.5 642.6 650.6 656 662.2 669.5 674.2 676 675.4 673.2 669.2 663.6 656.6 650 644.7 640 637.4 635 631.4 628.3 625.6 628.4 630.8 630.6 633.9 639.8 643.7 643.8 642.5 639.6 634.2 627.2 615.2 608.8 602.4 596.3 591.5 589.3 583.8 581.5 582.4 593.1 604.3 614 624.9 633.5 639.2 643.5 647.3 648.3 647.5 645.3 643.5 640.9 636.7 630.9 623.2 613.1 598.1 577.6 561.8 542.5 520.1 511.3 509.6 511.1 514.9 515.6 517.4 514.9 507 493.9 478.6 457.4 431.1 406.7 415.1 419.2 421.6 427.3 432.7 443.3 455 465.9 474.5 482.1 488.3 489.9 483.6 475.1 465.9 455.7 446.2 433.3 428.9 430.5 432.7 435.2 438.9 437.4 431.3 423.8 413.8 403.5 394.4 387 379.7 370.5 362.3 354.3 344.9 341.4 337.5 329.1 332.6 342.8 350.6 353.2 340 347.7 373.5 389.2 403 415.2 428.5 441 452.4 464.7 475.9 481.6 484.8 483.4 478.8 475 471.6 466.3 462.4 459.5
699.4 694.3 689.9 684.2 679.4 675 673.2 668.1 662.2 657.9 654 649.1 643.8 642.1 638.3 634.8 631.9 632.2 633.4 631.2 628.2 622.2 617.8 613.6 606.2 598.6 590.1 583.3 576.6 571.9 571.8 574.3 571.7 569 575.2 587.6 606.4 616.7 625 634.9 640.9 643.1 644.8 643.8 640.3 634.7 628.4 622.9 617 607.9 611.9 615.4 617.4 616.3 618.7 618.2 617.9 616.7 616.3 618 624.8 628.9 632.9 642.2 650.5 656.2 661.4 666.2 669.7 670.2 669.9 667.3 662.8 656 649.1 643.2 638.9 633.9 630.9 627.5 625.6 622.5 620.3 623.5 624.8 629.4 634.5 641.2 646 645.3 643 637.9 632.5 623.9 613 602.5 595.5 588.9 579.2 580.9 578.5 575.7 575.5 588 598.8 608.4 619.6 628.3 633.9 638.5 641.4 642.2 641.3 639.6 638.5 637 633 628.1 620.4 607.5 587.6 559 541 519 501.6 496.9 497.6 497.4 498 500.8 503.5 503 499 488.4 475.7 462.2 439.9 418.5 397 404.8 409.7 417.8 422.9 431.5 442.3 452.8 462.2 468.1 473.9 474.6 469.2 460.5 453.9 443.4 434.5 423.2 412.1 414.2 416.8 424.3 429.2 429.8 426.3 420.7 411.7 403.3 394.3 386.9 379.4 370.4 362.3 355 346.7 338 329.4 328.1 327.6 335.3 344.4 345.4 332.5 357.6 375.6 389.9 402.6 415 427.8 439.7 450.8 461.7 472.1 478.2 480.9 480.2 476.7 477.5 475.3 474 474 474.2
701.3 696.1 690.1 683.4 677.8 676.5 673.1 670.9 665.8 660 654.7 649.5 643 639.3 637.3 633.8 633 633.2 631.6 630.9 629.4 625.3 620.3 617.2 612.3 606.6 600.9 591.1 586.1 580.5 575.1 570.2 575 578.2 573.3 574.8 592.9 607.2 618.5 629.8 638.2 644.3 647.7 646.2 642.1 635.9 629.7 622.9 617.2 610.8 604.4 609.6 612 613.6 615.8 615.4 615.9 615.5 613.9 620.3 623.8 629 634.8 642.4 650 656.3 660.8 664.1 665.3 664.8 663.5 659.8 654.7 648.7 641.7 636.5 631.6 627.7 624.8 621.3 618.9 617.9 615 617.7 622.2 629 634.2 640.6 643.5 644.5 644.9 642 632.4 623.9 612.1 599.2 590.1 584 575.1 570.8 569.8 569.7 568.5 583.5 593.7 603.3 613.1 621.9 628.6 633 635.2 635.3 634.4 632.6 632.1 632.1 630.1 626.6 620.7 609.1 587.5 553.7 522 509.9 495.9 484.9 481.9 483.7 483.5 484.7 486.2 486.8 483.7 478.9 472 462.4 443.4 427 406.9 389.9 399.8 408.1 414.6 420.6 429.2 439.1 448.5 454.8 459.8 459.9 453.6 444.9 439.9 430.9 418.8 409.7 403.4 403.1 405.8 409.5 417.1 419.9 420.2 417.6 411.8 403.4 394.8 386.9 379.1 370 362.5 354.8 346.9 337.5 331.3 323.5 320.9 331.6 337.9 330.1 351.8 364 378 389.8 402.3 414 426.2 436.4 446.5 457.8 466.3 470.8 472.9 475.1 473 474.3 480.3 482.5 484.2 487.1
700.3 695.5 689.5 681.5 674.3 674 671.7 669.7 665 658.7 653.4 648.6 641.4 637.3 633.7 632.5 631.8 626.4 626.2 626.7 625.2 623.7 620.1 616.1 613.5 608.4 602.5 595.5 586.3 574.1 575.4 588.6 589.6 585.2 578.3 567.2 577.8 597 612.9 625.6 636.1 644.7 648.8 646.8 641.7 634.7 627.9 621.4 615.5 609 601 603.6 606.7 610.1 612.7 612.2 613.5 613.5 614.4 619.2 623.8 627.7 633.9 640.5 647.4 653.4 657.1 659.8 660.1 659.4 657.4 652.9 645.7 639.7 633.7 629 624.3 620.2 618.3 616 613.9 610.8 610 611.3 619.8 626.7 633.1 640.2 642.9 644.7 646.1 643.7 635.3 625.9 615.9 607.4 598.1 590.9 581.2 569.8 560 556.8 566 577.6 587.4 597.3 607.4 615.3 621.2 626.7 628.8 627.4 625.5 623.8 625.1 627 626.1 624.1 619.1 607.6 585.8 549.8 517.7 505.8 491.8 481.2 470.8 469.9 468.2 467 469.4 470 468.4 468.9 463.8 457.2 444.3 428.7 412.1 394 383.2 397.3 404.2 410.3 418.2 425.9 433.7 440.6 445.4 445.5 441 433.4 425.1 417.1 404.7 397.3 392.2 392.5 395.8 397.5 404 410.7 412.3 413 410.7 404.4 397.4 389.3 378.8 369.6 361.2 353.3 345 337.4 330.4 324 320.3 326.3 327.8 336.8 353.7 364.4 377 389.6 400.9 411.8 422.8 432.7 441.9 452 458.1 463 466.6 468.8 469.9 478.6 485.2 489.4 495.1 499.1
699.8 693.2 686.6 677.4 673.9 670.7 668 664.8 659.9 656.5 649.5 643.1 637.2 633.4 630.3 629.6 629.1 624.5 622.3 618.8 618.6 618.1 615.4 613.8 609.9 605.8 596.2 586.2 578.3 576.7 592.8 598.3 598.4 594.7 587.1 577.5 562.1 582.8 607.7 622.2 633.8 642.1 647.7 645.5 639.6 631.8 624.4 617.9 612.6 607.2 601 598.2 606.2 611 613.2 611.9 611 609.8 613.3 618.3 623.2 627.6 632.8 639.1 643.7 649.1 653.5 654.9 654.5 652.8 649.8 644.4 636.4 630.6 625.7 621.8 617.9 614.3 611.8 610.2 607.6 603.7 603.2 607.5 618.6 626.2 631.9 638.3 643 646.7 646.9 644.6 638.7 628.2 616.7 609.5 602.5 594.2 584.5 574.1 561.6 552.6 560.3 570.9 582.3 593.4 603 610.5 614.5 618.7 618.9 616.6 615.5 616.3 619.3 621.7 621.7 621.5 618.6 607.6 580.5 548.4 522 505.4 492.9 481.3 470.3 461.4 457 456.9 455.2 456.1 455.2 458.5 454.4 447.6 439.4 425.6 412.6 394.1 382.4 377.6 390.5 399.2 407 413.8 417.4 425.6 431.4 431.5 425.2 417.9 408.7 401 393.8 388 384.1 382.2 385.9 389.4 393.6 400.1 403.3 406.7 408 405 398.4 390.8 379.8 369.4 360.3 351.6 343.9 336.3 329.4 322.8 314 315.8 326.7 340.5 352.5 361.3 374.6 386.8 397.8 408.8 418.8 427.8 437 444 449.3 454.1 458.5 459.9 469.9 479.5 487.3 496.3 503.7 507.1
697.5 691.3 683.8 674.3 668.9 666.5 662.5 658.7 654.4 650.4 644.6 636 632.2 628.2 622.7 621.3 621.8 618.7 614.4 614.3 613.9 613.6 612.1 609.5 604.5 599.4 588.3 580.2 581.5 591.4 601.7 606.9 604.5 602.3 591.9 578.4 565.8 578.7 604 618.4 629.9 640.3 644.7 641.6 635.1 627.1 619.7 614 608.2 603.1 596.8 595.3 605 610.2 611.2 609.6 608.7 608.1 611.8 615.9 622.5 627.8 632.6 636.2 639.7 643.4 647 648.9 648.4 646.5 642.1 634.6 627.7 621.4 616.8 613.9 609.8 607.2 606.5 603.4 601.1 600.2 595.7 609.2 617.8 625.3 631.3 638.5 644 646.6 646.5 644.2 638.5 628 618.7 610.4 603.3 595.8 587.4 575.1 563.9 551.3 556.9 567.4 578.1 588.7 598.4 605.6 609.2 610.9 611 608.2 606.8 608.3 611.6 617.3 616.9 618.6 617.1 608.9 582.3 549.5 523 507.4 496.1 485.6 473.6 461.8 448.4 449.4 446.9 445.4 449.2 447.2 442.9 436.6 430.8 422.1 410.4 394.9 379.7 370.3 378.2 388.5 396.1 402.8 396.4 412.8 417.5 415.7 409.2 404.5 399.7 392 385.2 380.1 375.2 372.2 376.5 379.1 384.9 391.4 396.2 400.9 404.6 404.4 399.3 391.9 381.7 370.5 360 351.1 343.1 335.2 328.5 320.5 308.1 318.1 329 339.9 351.5 360.4 372.1 383.7 393.9 404.1 412.8 421.4 428.1 433.5 439.6 443.1 442.8 456.9 467.6 477.7 487.7 496 504.7 510.3
695.6 687.4 679.2 674.2 667.6 659.8 656.5 653.5 650.1 644.3 635.5 627.3 621.2 617.3 613.6 611.1 611 610.7 607.5 607.1 608 607.3 604.2 603.3 598.8 587.9 582 582.3 591.9 602.4 608.7 610.5 609.2 603.8 594.8 575.9 558.4 582 600.3 614.1 626.2 636.6 639.1 636.6 629.6 621.4 614.7 608.5 602.7 598.6 593.2 595.7 603.3 608 612.5 609.9 605.2 606.3 609.7 614.1 620.4 625.9 630.6 634 637.9 638.4 640.6 642.4 640.8 638.7 633.1 626.3 619.5 612.9 609.6 606 602.6 600.9 599.7 597.2 593.8 595.1 594.8 609.1 617.7 624.9 631.1 638.4 643.1 644.7 644.4 642.2 635.9 626.9 618.2 610.8 603.5 596 587.2 574.8 563.6 550.4 552.4 563.2 574.1 583.9 593.7 600.3 604.2 604.9 603.7 601.1 600.6 605.3 608.8 613 616.1 617.5 616.1 610.3 591.3 564.2 538.4 514.1 500.2 489.3 479.1 465.5 451.9 444.3 437.6 437 437 432.8 430.2 427.5 422.4 415.8 404.6 393.8 377.9 361.9 368.1 376.4 385 390.7 390.1 400.3 403.9 403.4 398.6 394 390.3 382.8 375.5 368.1 366 363.5 367.8 369 375.8 382.5 390.3 396.2 400.7 402.7 399.4 392.6 381.5 370.5 360 351.4 342.1 334 327.7 319.9 302.5 317.3 328.9 340 348.8 358.2 369.3 379.1 389.5 399.6 407.4 413.9 418.9 424.1 428.9 430.9 440.6 451.9 462.2 473 483.1 492.4 501.8 509.5
690.7 683.1 675.9 668.6 664.1 657.1 650 646.2 643.2 636.3 625 617.7 610.6 605.3 603.4 601.5 600.9 599.9 599.2 598.8 598 600.9 599.8 595.1 588.6 584.5 586.8 596.9 605.2 609.9 612.3 612.3 610.1 604.8 592.7 571.7 560.5 579.5 597.2 610.5 622.7 630.1 630.9 628.2 621.3 614 608.6 602.1 597.7 593.7 585.3 595.5 601.2 605.4 607.6 605.7 605.6 602.3 606.5 612.4 618.9 622.5 625.9 629.7 632.6 634.1 632.8 634.8 632.4 630.4 624.8 619.6 612.7 606.1 602.8 599.4 595.2 594.1 593.6 591.6 590.7 586.2 601 608 615.9 623.4 629.3 635.9 638.6 638.9 638.8 636.6 631.3 623.5 617.7 610.6 603.4 596.7 586.9 574.2 563.1 548.1 549.9 558.7 569.7 579.8 588.4 595.3 598.4 598.7 597.2 595 596.9 602.8 608.6 613.2 616.4 618.9 620.3 615.3 603.7 581.2 556.4 528.3 508 492.5 484.1 471.2 459.4 447.2 436.2 426.5 424.5 420.5 418.8 418.5 415.4 410.7 400.3 390 379.5 363.1 358 365.8 373.9 379.8 386.4 387.2 391.3 392.2 386.7 382.7 379.8 372.3 365.5 358.7 356.4 354.2 359.6 363.3 368 373.9 383.9 391.1 396.5 400.2 398.7 392.6 383.2 370.4 360.1 351.1 343.9 334.9 327.8 317.1 300.2 315.1 326.2 336.9 346.1 355.8 365 374.7 384.8 393.2 400.4 406.1 411.1 415 417.2 425.5 436 445.6 455.5 465.9 476.3 486.5 497.2 505.3
686 678.6 670.9 664.8 658.4 652.6 646 635.9 635.5 626.6 613.9 609.2 612.4 613.2 611.6 607.2 599.2 596.6 595 593.9 592.1 590.5 589.9 588.8 585.9 596.3 604.2 608.2 611.6 613.8 614.9 614.6 611.5 606.2 591.4 568.4 561.1 572.8 588.2 604.8 616.6 621.2 621.8 618.8 611.8 607.1 602.3 596.8 591.7 587.4 583.6 592 597.4 600.8 602 601.7 602.6 598.2 604.2 611 616.9 621.7 622.6 625.7 626.4 626.3 627.8 625.6 625.7 622.1 617 611.7 605.8 600.7 595.5 592.4 589.3 586.3 586.4 583.8 585.9 590.7 600 606.6 613.2 620.7 626.7 632.4 634.7 635.4 634.1 630.8 626 621 614.8 609.9 603.2 597.4 590.2 578.7 563.7 552.7 546.1 554.9 565.6 575.4 582.7 588.7 590.7 591.5 589.7 588.8 595 602 608.2 614.6 618.7 622.8 624.9 621.5 613.1 596.7 573.4 550.9 530.3 509.5 495.3 479.3 465.1 451 439.5 428.9 417.9 407.4 408.1 408.9 406.1 401.5 394.5 384.7 374.2 365.8 357.3 355.3 361.5 368 373.2 374.6 378.7 380.2 376.4 371.2 368.6 359.9 352.9 350.3 347.7 345.4 351.7 356.7 361.2 368.5 377.8 385.6 393.4 397.2 396.9 391.4 383.5 372.5 361.3 351.3 343.3 334.8 327.2 317 296.2 309.4 322.7 332.9 343.4 352.5 360.8 369.7 379.3 387.4 394.1 400.5 404.2 406.9 407.9 421.1 430.2 437.2 448.1 458.9 469.7 481.1 492.2 499.4
680.1 671.9 665.8 660.8 655.6 646.1 640 633.4 624.7 616.7 617.7 625.1 627.1 625.3 619.7 612.6 606.5 605.9 606.7 602.5 599.6 597.9 597.5 597.3 602.1 608.4 612.2 614 613.6 614.9 614.3 614.9 611 604.7 591.6 570.2 554.7 564.2 580.4 597 608.1 611.4 611.6 608.8 602.5 597.6 593.6 588.6 583.6 578.4 579.7 585.3 591.8 595.4 597 597.2 598.6 595.7 601.5 608.2 615.5 620.7 620.6 621.2 621.5 620.6 620.4 619.6 617.5 614.5 607.4 601.3 597.9 593 588.6 585.1 583.1 581.3 582.1 579.8 578.5 590.5 597.9 604.7 612.4 620.6 625.5 629.8 632.2 632.7 630.7 625.7 619.6 616.4 612.2 606.7 602.3 597.9 591.5 582.3 569 554.9 539.1 550.7 560.1 569.6 576.6 580.8 582.7 582.5 582.9 585 595 603.2 610.2 617.6 623.1 626.4 626.8 623.1 615.6 603.5 587 567.5 547.2 527.8 511.7 491.2 473 457 443.2 429.2 419.9 408.3 396.6 397.2 396.4 393.5 388 379.4 370.1 363.9 360 344.2 350.3 355 360.9 362 366.2 368.5 365.8 363 358.1 350.9 344.9 341.3 340 337.5 345.2 350 354.8 362.8 372.6 380.8 388.7 394 395.3 391 383.8 373.6 362.6 352.9 343.2 335.4 327.2 317 295.2 302 318.1 328.2 339.1 348.1 356.7 366.3 375.5 383.5 390.6 395.2 398.1 393.7 408.8 416.1 423.3 431.3 441.1 452.4 465.1 476.5 486.6 492.8
674 665.7 659.3 656.6 649.6 643.9 636.1 627.2 620.8 621.8 631.9 635.4 634.5 630.9 623.1 616.1 614.6 614.5 615.5 613.3 610.9 606.3 607.1 608.1 610.5 614.4 616.9 615.3 615.2 613.1 612.2 610.6 607.1 601.8 589.9 573.3 552.2 558.7 569.6 585.6 597 599.9 599 598.6 590.4 586.8 582.8 577.5 569.7 562.1 570.4 575.2 582.2 587.9 592.2 592.6 592.4 590.1 597.7 605.6 611.3 616.2 618.6 615.9 615.7 613 612.2 612.9 609 606.2 601.3 594.6 588.8 586.5 582.8 580 577.9 577.1 577.3 574 579.7 590.6 597.2 604.9 613.2 619.9 623.6 626.5 628.2 627.7 625.1 620.1 614.3 610.9 607.6 604.2 601.2 598.1 592.4 584 571.9 557.2 542.6 548 554.6 564 569.7 572.5 573.6 574.1 571.8 584.1 595.4 603.3 611.2 619.1 624.7 629.4 629.2 625.1 616.1 604 588.2 569.9 552.1 536.1 522.8 504.6 482.5 464.9 447.8 433.6 421.8 409.5 398.6 388 386.2 384.2 380.2 373.8 363.8 359.7 357.6 348.8 338.9 344.6 347.9 350.2 355.5 358.5 359 356.2 352.3 344 337.4 334 332.2 329.5 337.6 343.5 349.1 357.3 367.5 376 384 390.4 393.4 390.4 382.4 373.5 363.8 352.9 343.3 334 326.7 318.5 294.1 293 313.3 324.1 333.6 343.7 354.4 363.9 373.3 381.4 386.6 389.3 390.3 395 403.6 411.2 417.2 425.2 435.3 447.3 460 471.1 480.4 485.1
667.7 661.6 654.4 647.9 643.4 638.1 632.5 626.2 619.4 631.8 638.7 638.3 636 635.3 631 626.6 626.4 625.3 624.6 622.8 622.5 619.4 617.3 617.1 616.9 619 619.5 616.9 615.7 612 607.3 604.9 603.1 599.7 590.7 572.3 559.3 550.8 560.4 572.2 584 586.7 586.2 583.4 577.1 571.4 563.2 557.7 553 543.7 551.7 555.3 567.6 572 584 586.2 585.1 578.8 591.8 597 602.3 606.9 610.8 610.4 607.6 605.9 605.8 605.3 601.7 597.9 593.8 587.8 582.3 580.1 577.9 574.5 573.5 572.6 567.8 572.4 584 590.1 597.8 605.8 613.2 617.9 621 623.5 623.8 621.8 618.1 612.4 606.6 604.4 601.5 601.2 600.2 598.2 594.2 586.5 574.1 558.9 544 541.8 550.1 557 559.5 562.2 562.3 562.9 575.4 586.8 595.9 604.2 611.6 619.1 625.9 629.8 629.1 623.9 615.5 602.7 585.6 567.8 550.8 536 524.2 509.4 488.4 469.5 452.7 438.2 423.6 410.7 399.2 388.3 375.6 374.6 372.9 366.8 359.2 353.4 350.6 342.8 333.4 335 336.4 338.1 344.5 349.2 348.2 348.9 347 337.1 330.4 327.1 326 325.8 332.4 337.5 341.9 352.3 362.3 371.8 379.9 386.6 390.7 388.2 380.7 371.5 362.2 352.8 343.8 332.9 325.4 316.9 298.5 291.3 306.9 319.4 328.7 340.4 352.4 363 372.1 379.2 381 381.2 382.9 391.8 398.8 405.7 412.2 420.3 431.3 442.3 454.4 465.5 472.9 476.1
663.5 654.8 648 641.3 636.6 631.4 626.3 621.4 631.9 638.7 640.1 643.1 646.1 642.6 639.1 637.2 637 636.1 634.7 634.6 633 630.2 625.7 622.2 620.7 620.1 619.1 617.9 613.9 609.8 604.3 600.7 599.5 596.7 589.6 573.8 561.2 550.3 554.9 560.2 564.9 570.5 569 564.1 555.4 552.8 543.2 530.8 524.9 524.6 528.1 537.5 545.1 558.9 570.8 578.6 577.2 573.9 582.2 588.2 591.8 595.5 599.1 601.5 601.2 599.5 599.3 597 594 591.2 587.2 582.7 576.4 573.8 571.5 569.6 569.4 566 566.5 578.5 584.9 591.3 598.5 605.8 611.3 614.8 616.5 617.7 617.1 614.7 610.8 603.8 599.7 597.1 596.9 597.1 597.8 596.7 593.4 587.1 575.2 559.2 543.3 529.9 545 549.6 551.5 551.2 559.2 570.5 580.8 589.1 596.8 602.9 609.9 617.1 623.6 627.7 627.8 622.8 612.7 599.3 581.9 563.3 546 531.1 520.4 506.8 486.2 467.9 452.7 439.6 423.7 409.8 399 387.8 377.9 364.7 361.7 359.3 351.2 345.6 339.7 334.5 331.8 322.9 326.9 328 330.2 332.6 337.7 338.1 335.6 330 325.8 320.7 319.8 319.4 327.5 332.1 336.2 347.1 357.4 366.8 375.4 382.5 386.2 385 378.6 369 360.1 350.8 342.7 332.5 322.3 313.7 293.7 282.9 297 314.1 326.8 339.9 352.2 362.5 370.5 376.1 376.8 372.6 377 385.6 393.1 400 407.2 416.4 427.8 438.8 450.8 459.9 464.8 465.8
654.3 648.3 643.6 644.1 641.4 636.9 632.8 628.2 638.6 645.2 651 652 650.5 649.4 647.3 646.6 647.2 646.6 645.2 644 641.6 638.8 632 627.1 624.4 622.4 618.2 615.9 612 607.5 603.9 598.1 596 588.2 579.8 573 561.2 550.4 547.9 552.8 554.2 552.4 551.2 547.2 542.2 532.9 538.3 539.8 532.5 526.3 519.8 521.4 532.6 548.4 555 560 562.1 563.1 571.4 575 580.5 583.7 587 590.6 590.8 591.3 591.8 590.1 588.3 586.2 584.2 578.7 574.6 571.1 567.1 566.2 564.5 560.7 571.5 578.9 585.6 591.1 596.7 602.2 605.9 609.6 611.6 611.6 609.9 607.1 602.4 594.9 590.1 590.2 590.3 592.7 594.5 593.7 590.9 584.5 574.8 561.3 542.4 531.9 539.7 541.6 543.8 556.8 566.3 574.5 581.2 587.9 594.2 599.8 605.8 612.8 619.2 623.6 624.4 618.8 607.9 594.3 577.1 558.2 538.4 523.4 513 498.5 479.6 462.7 450.2 437.8 424.1 409.7 396.7 386.7 377.6 368 356.9 350.6 344.7 336.2 328.3 325.4 329.3 317 319.9 318.4 321.6 322.9 323.4 326.6 327.1 324.9 320.5 315.2 313.1 315.4 321.6 325.8 332 341.8 352.3 361.9 370.6 377.9 382.2 380.9 375.1 367 357.6 348.3 338.9 331.1 320.7 310.9 295.3 274.4 295.9 310.5 325.3 339.7 352.3 361.3 368.3 372 369.9 365.2 372 379.6 387.5 394.9 403.5 413.7 424.6 436.7 447.2 454.7 457.5 455
664.1 660.1 655.7 653.4 647.8 640.5 636.7 635.3 645.3 653.3 656.7 656.6 657.9 656.4 655.4 655.5 656.4 655.4 654.4 653.7 651 646.5 640.1 632.1 627 620.7 618.7 614.6 612.1 607.4 600.2 593.7 583.2 575 566.9 563 556.5 550.4 547.1 546.1 543.4 540.8 538.3 536.2 545.5 552.3 552.1 543.1 537.7 532.2 520 516.7 528.3 536.1 542.5 544.8 547.4 545.2 552 557.3 560.4 563.3 567.1 572.2 578.7 582.7 583.8 583.4 581.7 580.1 579.1 576.6 572.3 569.6 564.4 561.9 559.4 564.3 573 578.5 586.4 590.7 593.6 597.8 601.2 604 605.1 603.3 600.9 597.6 592.2 586.4 582.7 582.9 584.1 587.8 589.9 590.1 587.8 582.7 574 563.3 546.9 524.6 528.9 532.1 547 557.5 565.2 572.2 577.4 583.2 589.3 595.9 601.5 606.9 613.5 617.2 616.7 610.9 600.1 586.6 571.1 553.5 533.6 517.1 503.2 488.6 467.7 455.4 444.3 433.6 420.1 405.3 393.5 385.1 374.6 365.2 357.2 348.8 338.2 331.5 324.8 318.8 318.1 310.9 311.8 313.9 310.5 313.3 315 317.5 318.1 316.6 314 310.1 306.5 309.3 314.7 318.7 325.8 336.3 346 356.1 365.4 373 376.6 376.4 372.4 362.6 352.5 342.8 335.6 328.1 316.7 307.8 295.1 273 288.8 308.8 324.7 340.9 351.8 359.2 363.3 364.7 363.4 361 367.1 374 382.6 392.3 401.5 412.7 424.8 435.5 444.4 448.9 448.1 443.6
675.9 670.5 662.6 656.5 647.6 645.8 643 637.3 652.8 658.6 664 664.6 663 663.3 664.2 665.4 667.1 666.9 665.6 664 660.7 653.7 647.1 638 631.1 624.1 619.1 614.1 610.8 605.3 594 585.5 585.1 588.1 585 576.6 567.8 559.7 551.3 544.6 553 558.8 561.2 561.7 566.2 570.4 569.8 564.6 554.2 539.6 530 514.3 519.6 528.8 530.2 530.8 532.7 530.2 538.4 541.9 538.3 542 546.4 545.8 551.5 556.5 563.7 569.4 572.4 571.5 572.1 571 569.1 567.3 564.3 559.6 554.3 563.4 569.5 575.7 582.9 587.7 591.4 593 595.6 596.4 596.4 594.5 590.9 586.5 580.7 577 574.7 574.7 578.4 582 584.6 585.6 583.9 578.7 571 562.6 554 541.6 523 530 544 553 560.1 567.2 573.5 579.3 584 589.6 595.3 601.1 607.7 610.4 609.5 602.6 591.9 578.9 564.1 546.5 528.1 511.8 494.9 474 458.1 447.6 435.6 424.2 410.5 398.6 389.9 382.4 372.3 363.1 355.6 343.2 337.9 335.3 329.6 322.9 315.5 308 305 305.6 307.8 307 309.7 312.5 308.3 307.5 306.4 303.7 295.6 304.5 307.9 311.7 319.2 330.1 340.1 350.4 359.5 366.8 370.5 370.5 366.5 355.4 344.2 336.9 329.5 322.2 313.4 302.9 289.2 272.6 283.2 305.6 323.8 339.3 349.1 354.5 356.2 356.2 353.8 353 363.9 371.1 380.6 391 402.4 414.7 426.3 436.1 443.1 442.7 437.2 429.7
681.6 675.4 667.2 660 653.9 655 652.9 644.9 658.4 664.1 666 670.2 672.1 671.2 673.4 675.1 676.4 677.6 678.1 675.4 670 663 653.7 643.2 635.7 627.1 620.1 613.6 608.2 601.1 598.2 600 600.4 601.6 598.8 590.9 579.8 572 569 568.3 571.1 578.2 581 581.4 584.1 584.9 582.5 575.4 563.3 549.2 536.2 526.8 510.2 521 522.2 515.7 514.7 516.1 518.5 514.8 511.8 511.8 518.2 521.6 524.2 530.8 538.6 547.6 555.8 561.9 564.8 565.4 564.6 562.9 560.6 557.6 552.3 559.4 562.8 568.7 573 578 584.8 586.7 588 586.8 585.2 582.8 579.2 574.1 569 566.4 565.9 566.2 571.7 575.7 578.4 579.1 576.8 572.6 566.4 559.5 552 542.4 527.1 526.2 540.7 547.9 555.5 561.9 567.6 573 578.6 583.5 588.9 595.5 600.8 604.2 603 596.3 584.5 570.9 554.4 536 520 505.4 485.8 466.4 449.7 437.9 425.9 414.2 401.7 391.2 381.7 372.1 366.7 364.2 359.8 355.6 349.7 343.8 338 331 323.9 314.6 308.8 297.5 304.6 306.6 300.1 300.4 300.7 299.7 298.5 296.6 290.2 297.8 301.9 305.7 313.1 323.8 334.6 343.5 352.4 359.6 363.6 363.8 357 348.8 337.2 328.8 322 315.7 308.8 299.2 281.2 267 287 308.8 324 336 343.8 347 346.7 345.2 343.2 351.1 361 370.8 381.4 393.4 406 418 428.9 437.6 439.9 435.7 427 416.9
688.5 682 675.4 667 665.2 664 660.5 655.2 663.4 667.5 672.5 676.3 676.9 677.9 680 683.5 686.3 688.9 687 682.8 677 668.3 658.9 647.3 639.3 630.3 620.4 613.1 606.2 606.4 608.4 609.9 611.6 611.5 610.2 605.7 596.6 589.2 587.6 589.8 592.8 596.6 600 600 599 597.6 592.2 583.5 570.9 559.6 546.3 536.1 524.9 505.2 508.3 509.3 502.3 501.9 499.4 496.8 494.8 493.5 490.9 490.2 494 505.3 512.9 520.8 531.5 547.6 554.7 558.2 559.7 558.9 555 551 548.7 550.1 552.5 559.5 562.6 565.9 572.8 575.9 577.9 576.7 571 568.7 565.8 561.4 557.9 555.5 555.6 559.2 565.4 568.5 570.8 571.4 569.5 565.1 559.6 553.7 547.6 539.2 521.6 522.9 533.8 543.6 549.2 554.2 560.9 566.8 571.9 578 584.4 591.2 595.6 598.3 595.3 588.4 576.8 560.1 542.9 527.5 512.1 496.8 474.6 457.6 441.3 428.2 413.4 401.5 391.9 393.8 389.7 387 381.4 376.4 371.9 366.5 358.9 355.4 349.4 339.9 332.2 324.4 312.8 305.6 294.6 300.1 299.7 292.9 293.2 292.4 291.1 289.3 283.7 291.7 295.2 299.5 306.4 316.1 326.6 336.4 344.2 351.7 356 354.1 349.3 343.6 332.3 321.8 314.6 308.9 303.1 293.7 273.9 273.3 294.4 310.2 322.4 329.8 335.1 336.1 336.3 337 336.3 350.1 359.8 371.2 384.9 398 411.4 423.3 433.3 439.3 435.6 427.2 415.4 401
697.7 691.5 685.4 678.4 673.8 670.2 664.8 665.6 666.7 671.7 676 677.4 681.5 683.2 686.4 689.1 692.3 693 692 688.5 681.3 672.5 662.7 651.5 643.3 635.2 625.4 617.4 613 613.3 617.1 618.5 620.3 620.3 620.5 620.2 616.8 611.7 609.8 611.1 614.5 619.4 620.9 619 615.9 610.8 604.4 594.7 583.5 571.7 559.1 548.3 537.5 525.7 509.9 503.7 505.9 501.8 490.9 485.3 481.1 475.7 472.3 472 479.4 483.8 492.2 498.6 511.9 524.5 534.4 543.5 550.7 554.4 549.5 543.3 538.6 535.6 537.8 537.5 543 546.8 552.3 557.9 558.9 561 558.7 554.5 551.3 549.2 545.1 544.1 545.5 552.3 556.8 560.3 562.4 562.4 559.8 556.5 551 545.9 541.5 535 519.8 513.3 528.7 537.8 543.9 549.8 556.3 562 568.2 576.6 581.2 586.8 590.1 592 588.4 580.5 567.6 550.3 534 521.4 507.1 488.9 464.8 450 433.7 418.5 413.5 410.8 408.7 405.6 402.1 398.3 394.7 387.7 382 378.6 373 367 359.7 352.3 343.5 335.8 325.1 319 306.3 288.3 289.8 290 288 286.5 285.6 284.3 279.6 286.4 288.5 293.1 297.5 307.1 318.2 328.1 335.8 343.2 347.1 345.9 341 334.6 326.3 315.6 308.4 302.6 297.5 286.1 262.7 277.5 296.4 307.5 317 321.2 324.7 326.4 327.5 325.4 337.6 348.3 362.8 375.8 390.4 404.2 417.7 428.1 437.6 437.7 429.7 415.7 401.8 386.5
704.2 698.9 691.5 684.7 680 675.4 669.1 672.5 674 674.4 677 681.5 683.7 687.2 689.3 690.9 694 694.2 693.1 690 684.7 675.6 666.8 657.7 648.7 642.3 632.9 624.5 621.9 621.1 623.6 625.7 626.6 627 627 631 630.6 629 629.7 632.1 635.4 637.2 637.3 635.2 630.4 623.6 617.1 609.2 600.1 586.6 573 565.7 559.2 549 541.8 537.8 531.3 527.1 524.7 519.4 513.8 504.4 493.7 469 462.6 473.7 475.2 478.7 485.8 492.3 505.7 519.4 535.2 542.4 544.6 536.6 522.5 513.6 520.2 516.7 518.7 524.5 529.4 533.4 540.2 542.1 541.7 539.1 537.1 534.8 533.3 533.2 536.8 542.5 547.7 550.8 551.8 550.8 549.6 547.1 542.8 538.1 532.4 526.4 511.8 507.1 520.2 530.9 541.5 548.4 555 560.8 566.4 573.3 577.4 582.2 584.8 586.3 581 573.2 559.5 544.6 531.5 517.9 500.2 480.1 458.6 443.3 434.8 432.3 429.2 427 423.9 422 418.1 413.9 409.6 403.9 397 392.8 387.2 380.4 373 363.3 353.5 343.9 336.5 325.9 314.8 306 289.2 282.1 281.8 279.5 276.9 277.4 272.7 281.5 283.1 286.7 292 300 309.6 318.8 327 333.3 335.6 336.7 332.8 327.3 319.7 309.4 303.1 297.7 292.5 283.3 260.8 280.1 294.6 301.2 306 312.6 316.6 317.7 317.4 330.3 341.1 352.8 366.5 380.7 395.1 410.2 422.4 432 439.6 435.3 421.6 405.7 389.5 376.4
709.1 704.7 698.6 689 685.2 678.6 676.2 678.9 679.7 677.5 677.3 681.4 684.7 686.6 688.8 690.8 693.1 694.1 693 689.8 684.9 678.3 671.8 662.9 656 649 641.6 636.8 632.9 630 629.7 631.9 633.3 632.5 635.4 638.2 637 639.6 641.7 644.2 647.4 648.5 647.2 645 639.7 633.7 626 618.8 611.2 603.1 592.2 587.3 583 575 568.7 565.2 562 556.3 550.5 548.5 540 526.4 506.9 485.1 463.7 466 471.6 466.5 468.5 469.4 486.9 499.5 521.6 528.3 533.3 535.4 524.6 500.5 502.5 501 496.8 496.7 503.2 506.5 510.8 512.2 514.8 519.5 521.9 516.3 518.3 519.4 525.9 531.1 535.6 537.4 538.7 538.2 537.9 536.2 532.8 529.3 524.2 512.5 500 508.1 526.4 535.1 543.3 548.5 554.5 559.9 565.6 570 573.7 578.8 579.7 580.7 575.8 569.4 555.5 541.9 528.8 508.3 487.7 467.5 458.9 452.7 449.8 448.1 444.5 442.4 440.4 437.6 434.9 430.5 426.5 420.6 415.1 409.7 402.7 394.9 386.3 375.9 364.9 352.5 342 332.1 323.2 313.6 305 297.7 291.3 284.8 273.4 270.3 270.4 271.7 277 280.1 285.5 291.7 300.1 307.4 315.5 322.3 325.9 326.2 325 320.3 312.1 304.2 298.1 293.2 288 279.6 257.7 279.1 288.3 295.6 301.5 305.9 305.7 310.8 322.9 332.9 344.6 356.3 370.7 385.1 399.2 413.7 425.9 434.8 436 428.3 414 398.4 379.1 366.7
712.2 707.3 701.9 692.4 686.4 685.3 684.5 684.7 683.4 681.3 679 679 682.4 685.2 686.4 690.1 690.5 691.7 691.7 687.7 684.2 679.8 675.8 669.2 663 657.4 652.6 648.7 643.3 638.1 637.5 638.3 639.4 639.9 642.1 645 644.4 645.8 647.7 651 653.6 654.9 654.2 650.1 644.1 638.5 631.9 624.4 616.7 608.7 603.2 598.6 595.6 591.9 589.3 586.5 584.1 580.4 575.7 569.5 558.4 541.3 521.6 493.1 468.6 455.1 462.6 467.8 457.2 455.7 459.8 475.2 508.7 519.2 507.8 516.7 513.4 484.6 479.6 486.2 484 477.7 476.7 474.4 477.2 482.6 487 492.4 497.2 494.5 495.4 502 511.1 517.1 521.5 523.5 525 526.2 526.2 525.9 524 519.4 514 499.1 503.3 519.1 531.3 540 545.4 549.6 554 558.6 562.7 567.6 570.7 573.5 575.3 576.5 573.1 565.4 557 547.1 531.8 516.2 500 484.1 474.6 467.5 467.3 466.2 463 461 457.8 454.2 451.8 447.5 442.7 437.7 432.8 425.1 418.5 409.3 398.6 388.1 376.9 364.4 347.4 336 326.1 316.7 309.7 302.3 296.5 291.4 284.2 275.4 265.2 266.3 270.5 274.4 278.4 283.5 290.2 298.4 305.8 312.5 317.7 319.5 319.7 314.9 306.9 299.4 292.5 287.7 283.8 277.7 253.4 275.2 283.6 289.5 293 293.1 302.7 316.7 323.6 333.4 347.1 359.8 374.1 388.3 401.9 415.5 426 431.3 426.3 418.1 406.7 389.3 371 356.3
715.8 710.8 704.7 692.3 693.2 691.8 690.9 690.1 687.2 685.2 683.7 679.2 675.9 679.8 683.2 683.5 685.9 688.6 686.9 684.8 682.5 679.5 676 671.2 668.2 663 659 655.7 651.6 648.5 645.3 643.9 644.3 645.5 646.1 647.4 649.1 648.3 650.2 652.7 655.8 656.9 655.8 652.5 647.2 640.9 634.2 627 619.3 611.3 605.4 601.2 598.1 596 593.4 590.6 588.1 585.7 581.7 575.4 561.4 546.1 522.4 500.2 477.3 449 451.9 453.2 448.5 442.9 450.3 456.1 483.9 502.6 510.5 502.8 492 483.1 450.9 457.1 457 453.5 448.6 451.7 457 461 464.6 468.7 471.4 474.3 477.3 485.9 494.1 502.7 509 512.5 516.4 518 519 518.1 515.4 511.1 497.3 499.2 510.4 523.4 533.4 540 544.5 548.3 551.5 556.4 560.2 563.4 568.1 572.4 573.6 574.3 571.9 567 561.9 555.5 543.7 529.2 517.8 503.8 495 487.7 487.5 485.9 483.5 480.5 476.9 473.1 470 465.5 460 454.5 449 442.8 433.9 423.9 412.7 402.1 387.1 368.8 354.2 340.5 328.6 319.8 312.5 306.1 299.8 295 287.6 280.6 273.6 261.1 261.9 268.5 272.4 275.8 282 288.4 294.9 302.2 308 311.2 312.2 308.9 303.9 296.4 288.6 283.9 280.6 274.4 254.1 268.1 277.3 281.9 279.3 296.8 315.3 321 328 336.9 347.9 360.5 375.5 389.5 402.7 416.1 419.4 420.9 415.1 408.2 394.6 377.1 360.3 343.7
716.1 711.7 706.8 703.5 701.9 700.1 697.9 695 694.5 691.4 688.8 683.6 676.9 673.6 675.3 679.7 680.5 682.8 683 681 679.1 676.8 674.5 672.6 669.2 666.2 662.6 660.4 656.7 653.8 650 647.6 646.4 646.6 646.8 647.5 647.7 647.7 649.4 651.5 655 656.1 655.2 652.2 646.9 640.5 634.3 627 619.2 611.5 605.4 600.8 597.9 594.9 591.7 588.8 585.5 582.3 578.8 572.8 561.6 542.9 522.7 504.5 487.3 462.8 437.2 438.9 454.2 451.1 432.7 443.2 456.4 484.3 506 509.8 494 469.2 452 427.1 430.3 431.7 431.9 432.2 434.9 438.1 443.8 449.1 454.8 459.7 458.2 470 483 491.9 500 505.5 510.6 511.2 512.6 510.7 507.1 494.9 481.4 498 517.9 528 533.9 538.7 541.6 544.8 547.8 552 556.4 560.6 565 570.4 572.5 575.2 574.5 573.2 571.2 565.7 559.2 551.4 538.6 526.7 517.3 509.2 510.3 508.5 505.2 501.9 498.2 494.8 490.2 485.2 479.6 472.8 465.6 457.5 448.3 437.7 426.7 416.2 401.6 380.2 360.2 345 331.5 323.1 315.8 308.4 302.1 296.7 290.5 284.6 278.2 271.1 260.9 257.7 265.6 269.3 272.1 278.9 285.6 292.3 297.9 299.6 302 301.7 298.8 293.7 286 280.6 278.3 276 264.4 259 271.5 269.7 281.4 293.6 304 316.2 326.1 335.4 346.6 359.3 373.8 387.6 400.3 410.7 411.2 410.6 400.1 394.6 383.2 366 348.6 333.6
719 716.9 716.6 714.9 711.5 709.3 706.5 704.3 701.7 698.7 694.5 687.1 682.2 672 667.8 670.6 675.8 675.6 676.4 676 675.3 675.2 672.8 671.9 669.9 667.6 668.4 663.3 659.9 657.5 653.4 650.2 647.3 647.5 646.2 645.6 646.9 647.4 647.5 648.6 651.2 652.7 652.1 648.7 643.9 637.1 630.7 624.5 618 610.6 604.5 598.9 595.7 591.7 587.5 582.9 579.6 576.5 572.9 567.5 558.4 547.7 532.6 517.2 499.9 483 460.5 440.9 429.8 440.5 438.3 426.9 436.5 467.6 493.7 501.1 499.4 469.8 437.8 422.9 408.3 415.1 411.9 411.9 418 415.7 424 429.7 436.8 445.4 445.3 456.9 473.2 484.6 492.2 496.2 502.2 504.3 504 502 487.8 470.5 493.9 510.5 522.8 529.2 533 534.9 537.6 540.3 543.4 546.4 551.6 557.3 562.7 567.3 570.9 574.4 576.9 579.3 580.8 577.5 573.6 569.6 561.2 549.3 540.5 534.4 535.3 534.7 532.1 527 524.9 522 516 510.7 503.3 493.3 483.6 475 464 451.1 438.9 425.2 408.9 390.1 369.5 349.3 336.4 324.3 316.4 309.6 303.2 297.8 292.6 287.1 281.4 275.1 267.4 256.8 256.3 261.5 266 270.3 275.3 279.8 283.6 289.2 291.7 292.6 291.6 289.1 283.9 277.9 273.1 271.2 265.3 251 261.2 262.5 276.8 288.4 298.7 311.7 322.1 332.4 343.7 357 371.2 384.2 395.3 401.9 400.4 397 388 381.1 369.1 352.3 337.3 326.4
724 722.3 724.4 722.5 721.1 720.4 717.3 715.5 710.9 704.4 700.1 693.3 687.4 678.7 668.1 663.3 663.7 667.9 669.1 669.1 670.5 670.1 669.4 669.1 669.5 667.8 667 665.8 662.4 658.5 654.9 651.4 647.7 643.6 642.9 644.2 644 645.8 645.5 645.3 647.9 648.8 647.1 644.5 639.8 632.5 625 618.7 612.3 607.1 600.9 594.4 588.9 582.2 575.3 572.1 569 567.5 564.6 563 559.2 554.9 547.2 535 520.8 506.3 479.6 461.6 442.5 426.9 419.3 414.4 424.3 445.3 464 476.5 478.6 473 449.3 421 406 397.7 397.5 400.2 399 398.4 405.1 414.2 421.7 427.4 433.1 445.9 461.3 474.3 483 485 489.7 493.6 494.6 492.7 465.8 481.7 500 515 522 526.3 527.5 529.8 531.7 535.1 536.2 540.7 545.3 551.2 557 562.3 568.8 573.1 578.2 581.2 584.1 585.4 583.9 581.9 578.2 573.6 564.9 561.4 560.3 561 559 554.3 550.4 547.3 541.5 534.8 527.3 517.5 504.6 494.3 483.9 467.1 450.3 431.7 413.8 394.7 376.3 356.8 341.9 326.1 317 309.8 303 297 292 287.5 282.4 276.9 270.6 263 253.6 253.1 259 262.1 265.3 267.6 272 276.7 278.2 280.3 282.8 282.5 280.1 275.4 270.2 265.2 262.3 240.9 247.2 257.5 270.2 282.4 293.9 305.1 316.6 327.9 339.9 353.6 367.6 379.2 388.1 391 387 380.8 376.2 367.8 356 339.6 327.2 317.9
728.1 729.1 731.2 731 732 730.7 727.8 724.3 718.3 712.5 706.2 699.2 690.2 683.4 676.8 668.9 658.6 659 659.3 660.8 663.4 664.2 667.4 667.2 667.1 667.6 667.6 666.9 663.9 659.5 656.9 651.2 646.6 641.9 640.5 640.5 641.1 641.2 642.6 642.4 642.4 642.4 641.4 639.1 634.9 628 619.8 613.2 606.3 601.2 595.8 587.3 577.5 568 563.1 558.7 555.9 556.9 556.8 556.9 556.4 553.4 548.6 542.8 532.7 520.7 502.8 489.8 476.4 461.6 447.5 424.4 409.7 420.1 434.7 446.6 451.3 452.5 450.6 449.8 414.3 398.1 391.8 383 385.1 385.4 389 395.9 403.3 406.4 418.8 433 443.1 460.4 471.1 477 480.9 483.1 484.3 483.5 455.5 484.2 499.2 510.9 517.8 520.2 520.7 522.2 524.4 527 528 531.7 536.1 542.7 550.3 556.9 563.3 568.6 574 580.3 584 588.5 590.2 591.3 590.4 586.8 584.4 581.7 579.7 577.1 573.8 568.6 564.9 561 554.6 548 538.8 528.9 515.1 501 488.1 471.8 456.5 439.3 418.7 399.8 380 363.1 346.8 328.5 318.1 309.4 301.3 294.8 290.7 286.7 282.2 277 271.2 264.9 257.3 248.8 248.1 254.6 256.8 258.7 261.7 264.7 267.5 270.4 273.8 276.4 275.6 272.7 268 263.7 260 247 241.3 249.2 263.4 276.2 286.6 296.8 311.7 323.1 334.8 350.2 361.6 373 379.3 381.3 375.9 370 363.8 352.7 339.6 325.4 315.9 305.6
732.3 735.7 737.6 740.9 742.3 741 737.1 730.9 724.6 718.1 710.1 702.9 694.1 685.6 680 674.9 667.2 656.1 653.4 653.7 655.3 656.8 662.3 662.6 663.8 666.7 666.7 667.2 663.5 659.4 655.1 649.7 644.8 639.6 631.4 635.9 635.6 637.2 637.3 638.5 638.4 638.8 636 633.3 630.2 624.3 616.7 608.3 599.6 594.6 589 578.4 568.2 562.4 556.6 550.7 546.2 546.6 548.4 549.2 549.3 547.9 545.6 542.5 538.1 531.8 520.3 510.7 496.2 481.1 464.6 438.7 408.5 404.7 409.3 414.8 423.8 427.4 430.2 431 425.5 408.1 390.4 382.2 376.2 374 375.4 377.6 380.9 388.3 402.8 416 432 447.3 457.8 467.8 474.5 476 475 474.7 446.1 476.1 492.4 504.5 512.9 514.3 513.2 513.1 515.2 517 519.6 520.8 526.8 534.7 542.3 549.5 556.3 562.3 568.9 576.3 582.4 587.5 591.9 595.7 597.2 595.7 595 593 591.3 589.1 583.8 577.7 570.4 564 558.2 548.4 538.9 526.2 512.9 500 486.5 471.8 457 440.5 419.8 401.1 381.9 364.7 349.1 332.7 318.3 308.3 299.6 292 286.9 284.4 281 275.9 270.2 264.4 259.1 254.1 246.4 246.1 251.1 252.1 254.4 256.5 259.1 261.1 263.6 267.5 269.3 268.7 265.6 261.8 257.4 251 235.5 241.2 255.1 267.4 279.5 291.2 304.2 316 330 345 356.9 368.1 370.4 367.5 365.7 358.8 352.4 339.4 326.9 313 302.2 292.7
737.5 741.1 745.1 749.5 751.6 749.7 744.5 738 730.2 722.5 714.5 706.5 697.5 687.9 680.8 676.2 670.2 661.2 651.6 647.9 648.1 650.2 655.5 658.1 662.1 662.5 664.5 664.5 663.3 659.9 654.3 649.8 643.7 636.2 622 624.1 628.5 630 631.1 632.2 633.3 633.6 632.5 628.6 625 619 611.5 603.3 593.4 588.6 581 569.4 564.2 558.4 549.1 538.9 533.8 529.2 529.1 533.9 536.7 537.2 538.5 537.8 537.3 533.8 524.7 512.8 502.6 488.6 471.7 444.1 421.2 403.5 394.2 396.7 400.7 403.5 407.9 407.2 404.6 397.9 386.8 381.8 373.9 372 368.9 370 371.7 377.5 383.1 398.4 414.4 432.4 448.1 461.5 463.5 465.3 466.1 464.8 440 468.4 486.6 500.8 506.8 506.4 505.7 502.7 504.1 506.2 508.5 512.4 518.8 526 532.9 540.1 547.6 554.1 561.3 568.9 576.6 583.2 590.6 595.3 599.5 600.8 599.7 599.1 595.6 592 586.9 579 569.7 561.2 553.3 542.8 531.2 519.7 505.6 493.2 482.2 466.9 449.3 434 417.8 399 382.9 365.2 350.4 335.1 318.2 307.6 297.7 289.7 283.7 279.8 277.6 273.7 269.1 263.6 257.7 253.3 248.9 241.1 239.2 244.7 245.1 248.5 249.4 250.8 253.7 256.8 260 262.3 260.8 260.3 256.8 253.2 244.4 233.1 246.1 262 273.4 285.5 297 310.3 323.9 337.6 349.1 359.6 364.3 361.4 356.2 347.9 343.3 332.7 315.7 302.5 292.4 285
741.2 746.9 753 757.9 759.5 756.6 750.5 742.9 734.2 725.5 717.1 708.6 699.4 689.1 681.6 676.2 670.5 662.5 653.5 645.7 644.1 646.2 649.9 653.1 658.2 660 661.5 661.4 659.7 657.6 652.1 646.7 640.8 634.3 627.9 609 616.6 624.3 626.3 627 628.1 628.7 626.7 622.7 620.2 614.4 606.7 598.3 589.4 583.6 576.4 565.3 559.5 552 552.2 553.1 548.5 541.4 529.8 515.2 513.6 514 520.6 525.4 528 529.5 519.1 510.3 499.1 484.8 465.8 443.6 424.7 407.2 397.7 389.8 388.8 389.6 388.8 388.4 389.4 386.1 378.9 374.8 372.5 370.8 368 367 366.7 368.1 369.1 376.6 393.5 413.3 430.4 440.4 450.3 454.6 456.9 453.2 431.3 461.8 482 494.7 501.8 500.5 497.2 494.4 493.9 496.5 500.3 504.1 510.1 516.3 522.9 530.1 537.7 544.8 552.6 561.2 570.5 578.2 586.8 595.3 598.2 600.1 600.6 599.2 595.4 590.3 584 576 566.3 556.4 546.7 535.1 522.2 509.5 495.6 481.6 469 455.1 440.7 425.8 411.4 396.1 381.3 364.8 350.2 332.7 318.2 306.7 295 287.3 281.2 274.4 273.1 270.8 266.1 261 255.3 249.9 244.6 233.8 238.1 237.5 233.9 236.4 235.7 238.5 243.8 246.4 249.7 253.5 256 257 254.4 251.7 246.4 233.1 239 256.6 267.3 277.9 289.6 301.8 315.6 328.5 340.2 349.1 354.3 355.8 351.2 342.2 333.6 324.5 309.5 296.3 286.7 279.8
747.2 753.5 760.5 764.6 765.6 761.4 754.5 746 736.8 727.2 718.8 710 699.8 691 681.2 674.7 668.7 661.6 652.8 645.5 639.8 642.5 646.2 649.1 652.9 656.2 657.7 657.9 656.4 653.8 650.2 644.9 639 633 626.3 612.7 603.4 615 617.9 620.2 620.9 621.3 620.1 618 614.4 609.2 602.5 593.4 585.7 580.1 575 568.8 562.4 560 560.4 560.2 559 553.4 546.5 532.2 512.9 485.8 494.5 503.5 508.3 506.1 503.7 494.6 485.2 473.2 465.6 446.9 431.8 414.7 399.2 398.6 390.3 382.1 383.2 380.3 377.6 372 370.8 367.2 365.5 363.9 362.6 361.1 364.8 364.7 364.2 364.2 373.8 388.2 409.1 424.3 434.8 440.8 441.9 433.8 428.1 458.7 478 488.4 494.1 489.7 486.3 484.8 486.1 488 490.9 494.6 500.4 506.8 513.1 519.8 526.5 533.5 541.9 552.2 563.5 573.6 583.9 591.6 594.7 596.9 596.8 594.9 590.9 585.6 579.4 571.6 561.7 550.2 539.4 525.2 510.5 496.5 481.3 466.2 453.2 441.4 426.5 414.8 401.9 389 374.5 361.5 348.1 328.5 314.7 304 293.6 286.2 280.5 272.4 268.3 266.7 261.8 256.1 248.9 239.3 239.5 239.1 238.2 237 235.7 231.3 233.8 233 233.1 237.1 239.7 243.8 247.3 250.1 250.5 246.5 245.6 230.8 235.1 255 263.5 271.7 283.5 294.3 305.2 319.1 327.8 338.4 345.7 345.2 342.8 337.4 330.4 319.3 307.1 294.6 284.7 276.5
752.9 759.8 766.5 770 769.7 764.4 757.1 747.7 738 728.2 718.3 709.4 699.5 689.4 680.6 672.4 665.7 658.6 649.1 644.4 639.5 637.8 643.7 647.1 650.2 652.9 654 655.2 654 651 646.5 641.7 634.2 628.5 622.7 613 589.6 601.1 609.5 614.5 616.6 616.7 615.2 612.6 608.9 604.3 598.1 592.5 584.7 579.2 572.6 568.7 565 565.4 564.7 565.1 562.2 557.2 547.4 530.3 510.1 488.3 475.3 480.4 486.3 482.5 480.8 474.7 468.1 461 452.7 440.2 421.3 426.7 433.5 418.1 407.4 402 387.6 377.7 374.7 373.8 374.6 372.3 369.4 365.5 364.4 361 361 361.4 361 360.7 360.3 368.6 387.1 404.5 416.2 424.6 427.3 417.7 424.5 457.3 473.4 481.3 486.6 484.3 481 478.3 477.3 479.5 482.2 485.7 490 496.8 503.4 509.6 516.2 524.4 534.4 545.7 557.9 568.9 579.8 585.8 589.3 590.8 589.9 586.8 583.6 578.5 572.9 566.1 556.6 544.7 531.6 515.6 500.3 482.9 466.1 449.2 437.8 426.9 414.1 403.1 391.7 379.1 370.5 356.5 343.2 327.5 311.9 301.8 293.3 285.6 279.4 268.9 261.2 259.5 255.2 247 235.6 241.5 243.9 246.6 239.8 237.9 236.7 234.6 230.6 232.2 231.5 230.1 230.5 235.7 238.7 244.2 245.5 245.3 247.6 229.2 236.2 252 259.2 265.9 277 285.1 293.7 305.5 317.2 327 335.4 337.4 336.5 332 324.6 317.1 307.9 295.8 284.4 274.7
758.2 765 771 774 772.3 766.2 758 748.3 738 727.2 716.6 707.1 697.6 687.3 677.7 671.7 663.1 654.9 648.8 641.9 638 633.7 639.9 644.3 649.7 650.3 652.1 653 651 648.3 642 637.4 631.7 625.7 618.5 610.5 592.3 585.5 599.3 606.9 610.8 611.9 609.8 607.8 604.1 600.2 595.1 589.4 583.7 579.3 575.1 570.5 569.6 571.2 569.6 569.6 565.4 557.4 541.4 518.6 499.2 481.1 467 462 461.7 459.9 460.2 452.4 447.1 440.9 439.4 438.5 441.5 458.9 472.3 462.3 430.6 417.2 411.8 399.7 394.4 397.8 399.4 393.9 388.4 376.3 365.2 359.6 359.9 359.3 358.6 358 358.9 360.2 369.6 385.8 402.4 409.6 410.8 403.7 431.6 458.6 476.6 475 479.4 481.1 474.3 471.7 470.7 471.1 474.9 479 481.9 487.5 494.3 500.8 509.7 519.6 530.8 542.9 554.1 565 573.9 580 583.1 582.5 579.5 576.8 574 570.7 565.6 559.4 550.8 539.1 525.4 508.4 488.5 468.8 451.6 437.6 425.9 413.3 400.4 391.2 381.7 372 362.5 351.3 338 321.6 309.6 301 292.2 284.8 278 269.2 262.7 254.4 239.5 241.6 244.3 250.1 253.9 253 248.8 245 241.9 240.2 236.7 235.2 235.9 230.3 229.3 224.7 233 236.9 242.6 245.2 245.4 228.5 237.5 247.1 254 259.9 267.8 275.8 284.8 294 307.3 314.5 320.6 326 326.9 323.7 317.8 311.8 307.2 299.4 287.1 273.5
762.3 769.3 774.1 774.4 772.3 766.2 757 747.4 736.3 725.1 713.9 704.1 693.4 683.7 673.9 667.5 660.9 651.6 645.3 640.4 636.2 628.5 636.5 643.5 647.1 648 649.6 648.7 648.5 643.4 639 632.4 626.1 619.1 614.9 604.9 592.3 576.3 583.9 596.7 602.4 603.2 602.3 601.3 599.3 595.4 592.7 588.5 583.2 582.4 576.5 574.1 573.8 575.1 574.8 572.2 565.2 552.8 531.6 506.5 488.3 470 473.2 471.1 467 467.7 468 469 467.2 464.4 462.3 458.2 471.2 484.6 484.9 471.6 454.2 441.4 431.4 424.3 423.5 430 437.3 439.1 424.9 402.1 380.8 364.8 357.2 355.7 355.9 355.1 356.6 356.4 359.3 368.2 383.6 393.2 393.6 414.8 440.1 462.9 481.7 483 473.7 471.7 467.4 464.9 462.5 462.6 467 471.5 474.8 480.5 487.9 495.7 506.6 517.6 528.5 539.1 550.9 559.7 566.3 571 572.7 571.9 569.3 567.1 564.9 562.1 557.6 552.6 544 532.8 517.1 498.3 476.3 457 440 427.6 416.1 403.9 391.4 381.7 372.1 363.9 355.3 342.8 329.1 317.6 308.4 300.2 291.2 283.8 276.8 268.7 262.7 254 242.5 246.3 254.8 257.2 258.3 257.5 254.6 251.9 247.5 245.3 245.1 244.3 241.7 238.3 231.5 228.7 223.5 228.4 234 241.8 240 224.9 230.5 239.9 247.5 254.4 260.8 266.4 276.2 284.2 293.7 300.9 306.6 309.4 312.7 313.8 311.2 307.9 303.6 298.8 289.7 274.6
765.6 772.8 776 775.4 771.2 764.6 755.3 744.8 732.7 721.2 709.9 699.5 689.2 678.6 670.3 663.2 657.1 647.2 640.8 636 633.3 626.8 631.5 638.6 641.3 643.3 644.9 646.2 643.7 640.6 634.5 625.2 621.2 615.6 608.8 601.3 594.1 582.9 567.4 580.6 593 595.6 594.7 593.3 591.5 588.5 586.2 583.4 580.5 577.8 576.3 577.2 578.3 577.7 575.8 570.6 560.6 543.8 519.7 499.5 480.6 472.1 481.2 484.8 483.2 493.4 494.5 496.6 494.4 492.4 489.6 476.3 496.2 510.9 510.6 495.8 477.8 464.7 457.5 455.4 458.8 471.2 478.3 482.6 461.7 434.6 404.4 383 363.9 355.4 353.5 350.7 352 356.1 353.7 359.8 367.6 374.7 390 413.3 435.4 466.6 485.6 485.4 477.6 466.7 459.5 457.3 454.8 454.7 458.5 463.6 468 473.7 482 492.5 503.8 514.7 525.4 536.1 546.2 552.9 558.1 560.6 561.7 560.1 558.5 557.3 555.4 553.5 550 545.4 537.4 525.6 509.8 490.9 467.4 447.7 429.6 416.3 404 391.4 380.9 372.7 363.3 354.6 345.9 334.9 324.3 315.1 306.8 298.4 289.5 282.8 275.4 268.7 261.7 246.5 245.5 254 260.6 262.5 261.5 260.5 258.3 256.2 252.5 249.8 249 247.8 245.6 242.9 239.6 232.9 227.7 222.2 225.5 228.3 240.1 230.4 226.8 233.8 240.6 247.9 253.5 258.4 266.7 274.2 280.9 287.3 293.1 294.8 299.8 303.7 301.6 299.9 297.8 295.3 290.7 277.1
767.7 774.7 776.1 774.4 770 762.5 752.5 741.5 729.4 716.5 705.5 693.7 684 673.5 666 659.5 653.6 644.1 639.9 633.6 629.6 624.4 628.2 632.6 636.2 637.9 641.3 639.5 638.7 637.3 631.9 625.7 618 611.5 605.7 599.8 586.9 575 563.7 569.5 581.2 589.4 588.9 587.1 583.8 580.7 577.6 576.5 575.7 575.8 577.1 577.1 577.3 577.8 573.5 565.8 553.6 533.3 511.4 491.9 474.9 480.4 489.2 491.5 513.2 523.6 524.9 522.5 521.3 520.5 516.5 503 521.2 528.7 530 523.8 510.7 496.3 487.3 487.4 494.1 508.7 518.1 527 517.4 458.7 425.3 400.9 379.2 363.8 354.4 351.4 349.7 354.4 354.4 353.4 358.4 362.6 385.2 406 432.1 459.4 474.8 478 473.9 465.5 459.9 453.7 450.3 448.8 449.4 455 460.5 467.5 477.5 488.8 499.8 510.8 521.2 530.5 539.7 545.6 548.8 549.4 547.3 546.6 545.9 545.1 545 545 544.6 540.3 533.1 521.4 505.4 483.9 462.5 440.8 423.4 409.9 396.2 384.9 374.9 366.3 356.3 348 338.7 329.6 320.8 311.5 303.2 296.3 288.7 281.7 275.1 268.4 260.1 246 246.3 257.6 263.9 267.1 267 265.5 263 260.7 258.2 255.6 254.3 251.9 249 246.8 244.5 241.5 235.9 230 222.5 223.8 223 222.8 223.1 226.8 233.2 240.9 247.5 252.5 258.5 264.5 269.6 275.4 282.2 286.4 290 290.5 293.2 290.8 292 291.6 286 277
767.2 773.2 774 772 767 758.5 748.6 736.8 724.8 712.4 701.1 689 679.4 666.3 660.4 654.6 648.4 643.7 637.7 632.2 627.7 623.4 623.7 628.9 632.5 634.8 635.9 635.5 634.6 633.8 628.9 623 615.8 610.9 605.3 598.3 589.9 583.5 574.1 558.7 568.4 577.6 582.2 580.4 578.9 575 570.7 570.5 569.8 572.2 571.9 572.1 573.2 573 568.3 560 548.7 528.8 508.1 489.3 472.2 490.7 498.9 515.4 534.7 546.8 552.4 552.9 550 547.7 542.5 526.5 541.6 549.8 552 547.8 534.3 522.3 516.1 516.1 525.1 536.6 548.4 559.6 538.7 495.7 445.9 419.2 396.1 380.4 363.1 352.7 346.8 351.5 353.5 351.9 354 357.2 372 391.8 418.7 439.5 456 460.7 460.3 456 451.6 447.5 444.6 443.2 443.6 446.4 452.6 460.5 470.9 483.6 495.6 507.3 516.3 525.4 532.6 537.2 538.3 536.9 535.8 534.2 533 533.8 535.6 538.2 539.6 538.1 531.9 520 502.8 480.1 458 436.9 420.3 406 392.3 380.6 370.3 360.3 351.7 342.4 333.4 325.4 316.1 307.7 300.6 293.8 287 280.5 273.9 266.1 250 243.5 254.5 260.4 268.1 271.5 272.2 271.5 271.2 269.1 265.8 263.4 261.5 257.7 254.4 252.7 249.7 246 239.5 232.7 227.7 220.2 222.3 221.7 221.3 222.8 225 231.5 240 244.1 250.6 257 262.4 266.7 271.5 276 278.9 280.7 281.2 282.8 285.4 285.4 280.8 273.1
764.7 769.1 770.2 768.3 761.8 753.6 743.7 732 720 708.6 697.2 687.3 677.2 666.8 655.1 650.3 645.9 639.5 634.7 630.7 626.3 619.9 617.2 622.6 627.5 630.3 631.3 633.1 631.5 631.1 627.3 620.5 614.5 608.9 603.2 597.5 592.7 591.7 585.2 568.2 551.4 560.2 566.2 574.5 574.5 571.3 566.2 563.2 564.1 564.7 564.2 564.4 564.5 564.3 560.4 553.4 541 522.5 503.2 481.3 484.7 500.5 519.5 538 556.3 568.9 576.7 579.9 580.4 577.2 568.8 556.3 562.3 570 573.5 572.3 564.6 548.5 543.7 542.8 550.1 559.3 568.3 577.3 565.6 519.4 467.4 439.5 414.4 396.3 377.5 359 348 345.4 349.5 349.8 349.4 350.7 362.2 376.6 397.1 414.9 431.6 437.6 438.5 437.3 437.4 435.9 437.2 437.1 436.1 436.5 440.8 450.1 461 475.7 489.9 501.1 511.3 518.1 524.3 527 526.2 525.1 523.1 520.7 520.6 522.3 526.3 530.7 534.7 534.7 530.7 520 504.5 481.6 458.4 438.1 420.7 407.8 394.3 381.7 369.5 358.8 348.9 335.2 329.5 321 312.2 305.2 298.1 291.4 284.7 279 272.5 262.6 248.8 245.6 260.8 267.7 273.9 276.1 278.1 278.1 277.9 277.3 277.3 275.1 270.7 265.5 262.1 259.2 256.5 251.8 246.5 238.8 230.1 226.7 223.3 221.4 216.7 219.8 221.3 224.5 231.1 237.8 241.9 246.5 253.1 257.6 260.2 264.1 268.3 271.8 273.2 274.3 276.1 278.5 274.9 268.3
761.2 764.8 766 763 756.3 748.3 738.2 726.2 715.2 704.8 694.8 685.4 675.8 666.4 656.2 648.9 643.4 638.5 633 628.1 623.3 621 613.6 618.9 622.5 626.2 627.5 628.9 630.1 628.9 626.7 619.6 612 607.6 602.6 599.4 599.2 594.1 590.4 579.4 564.8 545.5 553.3 561.4 566.8 566.6 564.2 557.4 555.1 556.1 554.2 555.1 554 553.3 550.4 543.2 532.8 515.3 496.3 480.9 494.6 518.1 540.7 559.6 575.1 586.7 594.1 598.7 599.1 595.9 589.9 579.7 580.2 587.6 591.9 592.8 591 580.5 571.8 572 574.6 578.7 583.7 585 576.9 540.2 495.8 464.3 431.4 415.3 391.8 371.1 356.4 344.2 344.1 346.9 345.2 346.8 351 363 377.5 390.7 403.1 411.3 415.7 417.5 421.3 424.8 426.7 427 426.8 429.9 434.2 437.9 448.9 466.5 482.3 492.3 502.2 510.7 514.2 514.1 513.4 511.8 508.5 506.5 507.1 510.1 516.1 522.9 529 531.8 529.6 521.3 508.1 487.7 463.9 443.1 426.1 411.9 398.9 385.6 372.7 360.3 349.5 338.9 329.4 319.8 311.4 304.2 295.8 282.5 277.1 273.6 269.2 259 249.7 250.3 265.2 272.3 278.4 281.9 284.3 284.6 284.2 285.1 284.3 282 278.3 274.2 268.8 266.2 263.2 258.5 253.9 247.7 238.1 230.9 226.9 222.2 220.2 219.2 214.5 215.1 222.2 228.1 234 237.4 242.1 247.2 251.5 255.4 258.8 265.1 267.4 267.5 266.6 268.6 266.3 263.1
757.6 760.7 761.4 757.9 750.8 742.8 731.4 720.2 710.5 701.1 691.8 682.8 674.6 665.2 657.6 651.2 644.3 639.7 633.5 630 624.8 620.6 616.3 614.9 618.9 622.3 626.3 628.5 629 629.2 625.6 621.3 613.9 609.7 605.6 602.2 602.2 596.8 592 584.5 576 560.3 540.8 548.3 553.7 556.9 557.1 553.7 542.8 542 538.2 539.1 538.2 534.1 536.8 533.3 524.6 507.9 491.7 478.9 510 534.4 556.9 575.8 591.1 601.7 608.6 612.7 612.6 610.7 605.4 598.4 597.7 602.9 606 607.4 606.6 602.7 598.4 595.4 593.5 592.1 592.6 589.9 581.1 556.4 523.7 491.1 455.7 430.6 408.6 385.7 366.9 351.5 343.6 340.8 343.4 342.9 344.7 351 358.6 373.4 383 391.4 395 397.4 402 405.9 411.1 414.9 419.3 423.6 427.7 430.2 438 456.2 472.1 479.9 490.3 499.2 499.7 498.6 498 495.7 493 492.2 494.1 500 507.3 515.6 523.5 529.8 531.4 525 513.7 497.5 475.5 452.9 432.8 418.5 406.5 393.1 379.8 368.5 355 343.8 333.1 322.4 313.3 304.9 296.9 288.9 282 274.9 267.4 253.3 248.3 253 268 276.9 283.7 288.9 293.8 295.4 293.1 293.3 290.6 288.7 285.2 282.3 278 274.1 271.3 267.1 263 256.7 248 240.4 234.7 229.2 224 219.7 218.3 216.3 212.1 220.5 224.4 229.6 234.3 237.3 242.2 247 251.6 257.8 260.7 260.4 259.6 258.4 258.7 257
754.3 756.2 755.6 751.8 745.5 736.8 725.5 714.3 705.6 696.7 689 680.7 673 664.5 657.1 651.3 644.5 639.4 635.2 629.5 624.3 620.5 615.1 609.8 615.1 618.2 622.6 627.7 627.8 628 624 618.6 613.5 609.1 605.9 603.5 601.8 598 592.3 586.6 578.6 569.9 558.2 535.6 539.1 542.8 546.6 546.5 541.1 532.5 525 523.1 521 520.2 517.4 522.3 517 502.9 484.8 496.6 522.3 547.1 569.5 587 601.7 612.1 620 625.8 628.2 626.3 621 614.4 614.1 616.2 618.7 621 620.2 618.5 616.1 612 608.2 603.5 597 589.7 575.5 561.4 533.3 499.9 474.3 447.9 429.5 404 381.4 362.1 345.1 340.9 336.8 337.8 340.6 343.1 347.1 357.6 366.2 371.3 378 386.1 389.6 392.9 395.5 403.3 406.9 413.3 416.8 424.1 423.5 443.5 456.9 466.3 475.3 482.8 483.2 482.3 481.2 479.3 477.7 477.7 480.8 488.3 499.3 509.8 519 525.7 527.9 525.1 516.7 504 487.6 467.3 446.8 428.1 413 400.2 387.5 374.5 360.6 347.9 336.7 326.5 316.1 306.6 297.9 290.7 283.9 275.3 260.8 251.1 250.8 260.7 271.4 280.8 288.3 302.4 309.4 308.8 305.5 301.6 300.7 297.5 295.4 291.3 287.3 283.7 280.6 276.2 270.1 264.8 257.4 250.6 243.5 238.3 232 225 221.4 217.9 216 211.7 217.7 221.3 224.6 230.4 233.7 236.9 241.7 245.4 251.1 253 253.1 250.8 248.1 248.6
749.8 750.5 749.7 745.1 738.9 729.8 718.8 709 701.1 693.3 685.3 678.7 670.6 662.4 655.8 648.9 643.4 638.7 634.3 628.9 623.9 620.7 614.8 607 611 617.7 622 625.5 626.7 624 621 617 614.1 608.6 605.8 603.5 599.8 598.1 592.1 586.4 582.2 575 564.9 551.1 534.1 535.2 537.7 540.4 541.2 535.8 523.7 519.5 508.8 505.9 503 502.5 504.7 499.6 493.1 511.3 532.2 556.7 578.8 598.3 611.7 621.6 630.2 637.2 641.2 639.2 634.7 628.7 627.9 628.2 630.5 633.3 634.4 633.6 629.7 624.1 617.2 609.2 599 588.2 573.8 548.5 522.5 503.1 483.8 465 450.8 421.8 397.2 374 357.2 345.5 339 337 335.6 337.6 339.7 343.5 349.4 357.5 364.8 372.1 378 381.4 383.1 388.1 396 405.1 408.3 408.8 412.8 424.1 437.8 451.2 459.6 465.9 469.5 467 464.6 463.1 462.5 463.4 468 479.2 490.4 501.8 511 518.7 523 522.3 517.3 508.7 496.9 481.5 462.7 443.3 420.6 404.2 390 378 363 351.9 341.4 328.9 319.8 309.1 300.2 292 279.8 271.7 250.2 251.8 251.7 263.3 273.5 287.3 300 314.7 320.7 323.9 320.4 315.7 311.6 309.4 305.4 301.6 298.3 295.1 291 284.7 278.6 272.7 265 259.4 252.9 247.4 243 237 230.4 223.6 220.6 215.8 211.8 213.6 216.7 220.8 225.4 228.2 231.5 236.9 240.8 246.1 248.3 245.7 242.3 238.8
743.6 743.9 741.9 737.7 730.9 722.7 712.6 703.9 696.3 689 682.5 675.4 667.8 659.5 653.3 645.8 640.8 636.2 632 628.8 625.3 619.8 612.4 609.3 608.2 613.5 619.1 624.3 626.4 623.9 621.3 616.3 612.9 608.1 605.4 601.3 597.1 595.2 590.5 585.6 580.8 572.1 562.8 548.8 539.1 526.7 531.3 532.8 534 529.5 522.2 512.9 511.8 523.1 521.7 514.2 504.2 497.6 508.3 522.6 543.1 566.2 589.1 604.3 617.7 627.2 637.8 645.1 650.3 650 646.1 641.8 640.3 642.1 643.7 645.7 646 643.7 639 630.9 622 611.2 597.9 584.7 562.7 544.6 509.4 494 484.5 472.8 459.1 441.3 414.3 389.6 368.9 351.1 342.6 336.9 335.7 333.6 332.5 335.9 339 343.8 349.2 355.6 363.5 368.3 370.1 371.4 382.6 393.8 408.2 400.8 404 413.1 416.6 431.8 444.1 450.3 454.9 450.9 451 450.4 449.9 452 458.4 470.2 480.6 492 501.6 510.4 515.7 518 516.2 510.6 501.2 487.2 469.3 449.8 429 409 393.3 379.1 366.3 353.8 342.4 331.3 321.2 311.8 302.8 292.3 281.5 268.4 250.2 252.7 253.1 266.1 276.4 294.2 310.8 325.5 334.4 337.9 336.3 331.9 326.5 322.6 317.6 313.3 310.2 306.7 302.2 294.4 287.2 281.7 276.1 270.5 264.4 258.8 254.9 251.1 245.7 237.9 231.3 226.8 223.8 218.3 209 207.9 216 220 222.6 228.4 234 236.8 240.4 241.9 239 232.2
736.1 736.2 734.3 729.4 721.7 713.7 706 699.3 692.3 684.8 679.5 671.4 663.4 656 649.7 642 636.8 635 631.1 629.3 622.7 617.7 611.4 606.2 604.9 611.3 618.3 622.8 625 625.2 621.1 617 612.3 609.7 605.6 600.3 591.9 591.4 587.9 581.3 568.5 556.9 543.7 536.5 528.9 527 521.4 527.1 527.4 523.5 521.8 509.9 529.1 540.6 542.6 534.2 526.3 510.7 511.3 529.7 550.4 572.1 591.3 605.1 617.4 629.1 640.7 649.7 655.5 657.6 656.2 654.3 654.3 656.4 658.4 658.3 654.6 649.9 642.4 631.3 618.4 605.3 590.9 574.3 547.3 522 503.2 489.3 481 475 464.1 448 430.9 404.8 382 363.5 350.2 342 336 333.9 332 330.5 332.4 335 336.4 341.3 347.9 355 356.7 359.5 368.1 379.1 393.7 403.4 394.1 399 398.7 412.5 426.3 433.8 436.1 439.2 438.1 437.5 438.1 440.9 448.1 459.8 471.1 481.9 491.9 500.5 508 511.3 512.7 509.2 500.2 487.5 472.4 453.1 433.4 414.8 399.7 383.6 368.1 354 342.1 332.7 322.9 313.7 305.3 296 287.4 254.7 253 254.9 253.5 269.5 283.3 302.7 321.1 336.5 347.1 353.3 353.6 345.6 338.2 331.8 328.4 324.2 322.4 317.9 312.6 305.8 299 292.4 287.4 283.3 279.5 274.8 269.7 264.6 258.9 252.3 246.4 239.5 234.5 231 224.9 220.7 215.1 206.6 214.8 219.7 225.5 230.1 233.1 236.7 234.4 228.2
728.6 728.2 725 719.6 712.1 705.5 697.7 691 686.6 680.6 675.6 667.9 659.3 652.7 645 638.2 635.6 635.1 631.5 625.8 620.3 617.1 614.5 610.1 601.9 608.4 617.3 622.8 625.5 625.2 621.9 616.3 612.4 608.9 605.3 598.8 588.9 583.6 583.1 577.2 562.2 539.3 533 528.4 527.5 524.9 524.2 521.6 523 529.7 527.3 512.5 535.6 550.4 558.8 554.5 543.6 522.8 508.9 529.7 551.6 572.8 592.9 607.5 619.6 631.4 644.3 653.3 660.2 664.6 666.3 666.3 666.8 667.8 668.1 666.4 661.1 652.5 641.4 628.8 612.4 596.2 579.8 563 539.5 506.4 492.4 482.9 478.7 473.5 467.6 449.6 434.1 416.3 394.9 374.7 358.6 348.8 341.7 336.4 331.3 328.3 329.3 330.3 330.7 332 337.8 342 345.1 349.4 355.4 366.2 378 385.3 392.9 393.3 384.5 394.6 408.7 418 423.6 426.5 423.9 422.8 424.1 429.9 437.7 449.1 460.9 471.7 481.5 490.7 499.2 505.4 507.8 506 497.8 484.8 470.1 453.6 434.7 415.6 402.5 385.5 368.2 355 344.7 334.3 323.9 313.9 305.3 296.6 287.2 256.1 254.1 255.6 255.7 270.1 289.3 309.2 327.6 342 353 362 366 361.7 355.9 347.7 342.3 337.3 334.7 330.7 328.5 323 315.5 307.8 301.2 297.4 295 292.8 288.7 282.4 273.8 265.5 260.6 255.1 248.2 241.5 236.2 229 224.7 215.8 205.6 210.9 213.9 218.9 224.5 225.5 229 220.9
719.7 718.8 715.1 708.4 702.4 695.8 688.5 684.4 680.7 675.3 669.1 662.2 655 648.1 640 636.4 636.5 635.1 631.6 624.2 623.4 624.2 619.9 613.4 600.7 604.7 613.8 620.9 624.3 622.6 620 615.4 613.1 609.3 604.9 594.8 585.3 582.5 574.9 568.4 558.1 533.7 541.4 550.6 550.1 540.6 534.1 528.2 518 520.1 515.6 524.1 543.9 558.3 570.4 571.6 559.8 540.3 521.5 529.3 553 575.7 595.5 611 623.3 635.2 646.8 656.8 665.4 672 674 675.7 677.6 677.7 676.4 673.9 668.6 656 639.8 623.6 605.2 585.9 560.2 538 516.2 495.3 484.2 479.2 476 469 458.7 445.6 432.9 417.9 403.4 384.6 368.9 353 348.3 342.2 336.3 331.4 327.2 327.8 325.7 327.6 329.9 333 335.8 341.6 342.4 352.2 361.8 371.6 378.9 384.8 378.4 375.5 384.7 396.1 405.6 407.2 408 408.1 409.9 416.3 428 438.8 450.5 460.3 470.7 480.8 490.1 497.4 501.9 500.1 491.8 479.4 465.4 451.8 431.9 414.2 399.6 384 367.4 355.3 344.8 334.9 324.3 315.1 306.7 298.2 289.7 270.8 255.2 254.1 258 272.6 294.4 313.6 329.1 345.2 358.6 368.2 371.9 372.1 368.9 362.4 357.1 352.3 347.9 347.4 345.5 341.3 334.3 326.2 319.6 314.9 310.5 308.1 305.2 300.3 293.6 282.3 273.7 266.9 260.5 252.5 245.6 237.8 232 226.8 220 213.7 204.1 209.3 212.4 213.9 212.2 205.9
709.2 708.5 704.4 698.7 692.9 686.5 680.8 677 674.4 670.1 663.3 656.2 649.7 641 637.2 636.6 636.1 633.9 630.3 627 628.1 625.2 621.7 615.7 603.4 599.5 611.1 618.8 621.8 621.1 617.8 615.3 612.2 607.7 604.9 596.1 588.9 583.5 580.8 570.4 537.7 550.9 567.5 568.8 566.8 561.1 552.1 542.1 531.4 518.2 525.5 533.9 550.3 564.7 576.2 580.8 575.6 560.5 534.9 533.3 555.3 576.4 597.8 612.8 625.2 636.5 648.7 658.9 668.1 674.4 679 681.5 684.4 684.4 682.1 677.4 668.8 657.2 641.8 622.5 598.9 567.8 534.7 513.8 496 487.9 481.8 478.3 470.9 462.1 453.7 441.1 429.2 417.9 405.7 392.4 378.6 364.8 353.8 348.4 340.4 334.8 329.6 327.5 327.1 325 321.9 327.1 329.3 333.2 337.4 342.2 348.9 356.3 365.5 371 373 369.9 365 374.2 380.2 386.3 391.4 394.1 394.6 403.1 415.7 427.3 438.6 449.4 460.1 471.3 481.8 489.9 494.4 492.7 484.9 474.3 462.9 447.7 429.1 411.9 395 380.5 365.6 353 341.8 333.3 325.2 316.8 307.2 298.3 290.3 271.3 256 254.2 260.8 273.9 296 313.2 329.9 347.6 360.4 370.8 375.7 377.3 375.7 372.2 367.6 364.9 364 364.3 365.4 362.9 357.3 350.1 341.5 333.5 328.2 324.8 321.4 318.2 313.1 302.9 290.1 280.3 271.4 263.6 256.4 248.6 240.9 235.3 229.4 223.5 218.9 213.7 208.8 206.5 209.5 214.3
697.8 697.2 693.8 688 683.2 676.7 671.3 669.1 667.8 663.6 658 651.7 645.3 637.1 637.1 633.6 634.1 632.4 629.5 628.3 628 625.6 620.4 615.7 607.7 595.8 606.8 614.5 616.8 615.9 614.9 612.4 610.6 606.3 602.5 596.3 589.6 583.9 578.3 559.5 549.3 569.9 581 586 580.6 574.9 568.4 557.8 547 542.1 536.3 538.9 557.6 573.6 583.6 588.2 585.8 574.3 551.4 541.2 562 580.2 593.9 613.4 626.7 638.4 649.7 658.8 667.8 674.4 679.9 683.9 686.3 686.7 684.3 679.2 670.1 657.6 642 620 580.7 557.4 518.5 497.3 485.2 480.2 476.3 473.1 467.8 460.6 450.6 439.4 429.2 417.7 407.9 397.5 387.8 374.4 362.7 354.7 348.2 340 329.5 327.6 326.3 325.4 323.4 320.9 325 326.2 331.5 334.7 338.8 341.2 352.2 359.4 362 359 359.7 353.3 360 367.1 371.8 375.7 382.7 389.5 402.1 414.5 425.7 437.3 449.4 461.9 472.3 480.8 485.8 484.8 477.7 467.6 456.1 441.8 423 406.2 390.5 376.4 361 349.9 337.9 330.3 323 315.7 307.7 298.9 288.6 277.9 259.4 254 261 273.8 296.1 313.3 329 345.3 360.1 372.5 377.4 381.8 382.2 380.2 377.2 377.1 379.9 380.2 382.6 384.1 381.5 373.9 364.6 354.2 346.9 343.6 339 333.6 324.8 314.5 302.8 291.7 282.2 274.8 267.1 259.3 252.5 245.1 238 233.2 232.8 231.2 228.9 231 233.2 239.3
685.1 684.6 681.4 677.5 673.3 667.4 662.8 663 660.8 658.4 653.1 648.1 642.5 636.2 635.4 634.5 633.6 632.8 631.1 631.2 628.7 626 620.5 617.7 610.5 595.2 596.7 606.7 609.2 608.2 608.7 608.1 606.2 603.7 600.1 594.9 589.8 584.1 574.1 554.1 561.9 583.8 593.3 595.5 590.7 589.1 583.3 576.2 568.4 556.2 551.9 548.4 563.2 581 591.5 595.3 592.3 583.7 563.9 551.4 575.1 594.2 608.2 619.5 631.7 642.1 651.6 661.9 669.5 676.4 682.8 685.8 688.1 689 686.3 680.2 670.9 658.9 638.1 609 565.2 533.4 512.3 493.4 480.6 472.4 469.6 465.7 463.3 458.3 448.5 439 428.1 418.3 408.3 399.5 392.5 380.9 370.7 359.9 354.9 347.1 339.6 329.4 325.2 324.4 323.1 321.6 321.1 319.6 322.9 324.4 329.1 333.6 340.4 343.1 349.1 352.2 352.8 350.4 345.6 351 358.3 360.4 370.2 376.1 386.7 400.4 413.3 427.5 440 452.7 463.8 472.1 475.9 474.5 471 460 447.7 432 416.8 399.8 384.6 371.6 357.7 344.7 334.3 326.2 319.6 312.5 304.9 298.5 290.1 280.1 265.3 255.8 261.4 274.7 295.6 311.2 327.9 345.5 361 370.1 377.7 384.1 386.4 387 387.4 388.4 392.7 396.7 401.3 402.3 399.9 392.7 385.1 372.5 366.8 360.3 352.6 345.7 339.7 326.4 314.1 301.8 292.6 285.3 277.4 268.8 262.4 255.8 247.3 245.1 244.1 243.8 242.1 243.2 246.6 252.6
671.8 671.1 668.7 666.2 661.8 658.1 654.7 654.3 653.9 653.1 650.2 645.1 640.5 636.4 635.1 633.3 633.8 632.6 635 633.4 629.9 627.2 623 620 614.8 606.5 592.3 594.4 598.6 599.4 600.5 598.7 594.7 593.8 594.6 591.5 586 574.5 564.1 548.2 567.7 589.6 601.5 605.5 603.8 603.9 600.5 591.3 588.2 580.2 569.5 562.9 567.2 581.1 594.9 601.6 599.1 590.1 573.1 557.7 583.8 602.1 615.5 626.6 636.6 645.9 654.2 662.8 671.4 677.8 684 687.4 689.7 690.4 687.8 681.4 673.2 661.2 639.1 605.2 580.6 522.9 501.3 486.1 473.2 465.6 463.2 460.7 458.5 454.5 447.1 436.3 426.4 414.6 406.8 397.7 388.5 380 376.9 371.9 366.2 359.3 351.4 342.7 333.8 324 322.6 321.2 320.2 318.6 317.1 320.1 321 323.8 329.5 333.2 338.3 343.3 343.6 343.5 341.9 341.8 343.4 350 357.8 363.2 371.1 383.9 401.7 417.5 430.9 444.1 455.6 463.9 469.1 467.1 461.2 448.8 435.6 424.5 409.7 393.6 378.2 365.7 352.7 341.2 329.7 322.5 315.6 309.2 303.4 296.3 289 279.3 272.5 258.3 259.3 276.3 293.8 310.2 327.8 342.4 356.8 367.6 376.6 384.2 389 391.3 394.8 398.9 404.5 409.6 414.7 416.7 415.7 410.8 403.1 392.7 385.3 377.4 368.3 356.4 347.7 338.2 326.4 313.1 301.9 294.7 286.8 277.6 271.5 265.2 256.9 255.6 254.2 251.8 252.5 253.1 259 267.8
658 657.8 656.8 653.3 650.2 648.2 647.8 646.8 650.6 652 647.6 643.7 637.9 635.1 632.7 633.3 631.2 633.5 635.3 634.3 632 626.7 624.5 620.6 617.9 614.1 604.3 591.2 584.4 587 588.5 583.6 576 575.1 581.4 579.4 571.7 564.5 551.7 559.7 578.7 596.9 609.2 615.3 616.8 617.1 614.3 611.5 610 601.3 588.7 580.4 579.1 585.9 596.3 601.8 600.1 592.3 571.8 574.5 591.7 608.1 621.3 630.7 640.8 648.9 656.4 664.3 671.5 678.3 683.3 687.6 690 690.1 686.9 681.6 674.5 663.8 649.5 617.2 583 530.4 492.5 473.2 461.1 455.8 454.9 457 455.3 449.4 442.7 432.2 419.8 411.2 402.5 399.7 394 389.7 389 385.4 383.5 378.5 370.6 361.2 350.3 338.6 328.6 320.9 320.3 318.1 316.1 316.4 317.9 318.4 320.7 324 328.2 330.7 332.6 332.9 331.3 331.9 335.5 340.9 347.4 354.4 362.5 375.4 390.9 405.4 419.5 436.1 445.4 454.5 459.1 458.9 452.8 439.5 425.3 415.9 402.5 386.8 371.2 357.9 346.7 335.4 325.8 318 312.1 306.3 300.5 293.5 283.9 276.9 272 258.9 258.8 275.9 295.1 310 326.1 337 349.6 362.8 373.8 383.1 389.3 394.8 398.9 404.2 410.1 416.3 422.1 424.6 425.5 423.7 419.4 410.5 399 388.7 380.4 368.9 357.2 345.5 335.7 323.3 312.2 301.1 292.8 286 280 274.4 259.9 265.8 264.2 263.7 265 267.4 272.7 279.1
644.9 643.9 639.9 637.2 637.7 638.4 637.8 642 647.1 648.4 644.9 642.7 637.1 633.8 631.9 630.9 631.6 632.9 633.6 633.9 630.6 628.5 624.3 622.9 620.5 616.9 611.8 604.4 592.7 577.4 572.1 578.1 577.6 571.5 560.5 562.8 558.9 556.1 561.9 577.2 594.5 609.4 619.5 624.9 626.9 627.2 626.2 626.1 625.9 622 610 598 598.3 600.1 600.4 598.8 597.2 589.3 569.9 588.7 600.5 612.9 624.8 635.7 645.7 653.4 659.3 666 672.3 678.2 684.2 687.2 689.8 689.3 687.3 680.9 672.8 663.4 651.6 634 599 563.2 494.3 466.1 452.4 451.8 450.8 453.7 452.9 444.6 438.7 424.7 415.7 409.4 409.5 410 410.3 409 407 405.2 404.1 404.8 402 388 374.1 359.9 346.2 333.3 320.1 318.9 316.7 315 313.8 316.6 316 316.3 316.9 318.8 319.9 324.2 325.3 325.7 328.1 331.2 337.7 345.2 353.3 365.8 379 392.3 409.6 426.7 434.2 442.5 448.7 446.7 440.8 429.6 417 405.9 392.8 379 365.4 351 340.1 330.6 321.6 314.1 308.2 302 296.6 290.2 282.1 275.7 271.8 260.2 260.9 277.9 294.3 308.3 322.5 335.4 348.3 361.1 370 378.1 387.5 393.5 397.6 403.8 410.7 417.9 424.4 430 432.4 431.6 428.6 422.5 412.5 399.6 388.4 375.6 364.8 350.8 340.3 331.6 321.1 309.5 300.5 293.1 287 274.7 277.4 276.6 275.4 277.5 279.2 282.3 286.2 290.1
627.8 624.2 620.2 626.8 627.6 627.4 632.1 637.9 642.4 644.3 644.4 642.7 636.7 635.4 631.1 628.4 628.3 632.6 633.6 632.9 631.1 628.3 626.8 622.3 621.3 617.6 612.6 604 588.4 584.5 591.1 593.7 593.9 587.7 574.1 565.4 563.4 571.9 579.8 591.1 606.7 619.7 629.2 634.3 635.6 635.9 637.6 640.5 639 636.4 631.4 623.8 617.5 613.9 607.3 599.6 592.6 584 578.9 591.5 605.1 616.6 628.6 637.5 646.8 654 660.8 666.3 672.1 677.7 682.3 686.1 689 688.7 685.9 680.4 672.1 662.3 650.9 637.3 607.8 572.4 501.4 465.9 452.2 451.4 451.5 451.2 454 447.4 439.1 427.4 421.9 422.2 426.4 427.2 425.8 424.7 425.5 429 433.2 436.1 435.1 420.8 402 383.9 366.5 350.5 338.2 324.2 317.1 314.3 313.5 312.1 310.9 313.7 312.9 312.2 313.4 315.1 317.7 320.5 321.8 322.3 325.7 336.4 345.8 355.2 367.2 381.5 398.9 413.5 423.2 430.2 435.3 436.4 433.9 422.2 408.5 397.6 385.4 371.5 359.3 347.3 337 327.3 317.2 310.1 303.6 296.3 292.8 286.6 280.9 275.3 270.8 262.4 261.8 280.5 295.5 309.4 323.6 335.3 345.5 354.4 365.6 372 379.7 387.1 392.2 398.4 406.1 415.5 423.8 430.2 434.9 437.5 436.3 430.1 419.1 407.6 395.8 383.1 368.5 357.3 346 336.6 327.8 316.2 308.7 301.4 294.2 285.9 288.3 287.1 289.4 290.1 292.4 294.6 297 300.3
606.9 598.3 602.4 613.1 614.2 617.1 624.2 632.7 640.3 644.9 645.7 644.1 637.2 634.1 632.4 626.7 623.9 628 630.4 630.6 628.9 626.4 624.4 622 620.3 615.9 608 593.6 586.1 598 604.1 603.3 601.4 595.1 580.8 578.4 584.9 591.7 598.2 609.4 618.3 628.3 637 641.2 642.3 643.7 647.2 649.3 650.3 646.7 642.3 636.7 630.7 622.3 611.1 598.5 586 584.7 582 591.9 603.8 615.7 627.4 636.4 643.8 650.1 657.9 663.6 670.1 677.3 682.6 685.8 687.8 687.1 683.5 676.8 668 659.9 649.8 638.7 622.2 577.4 517.6 478.7 460 453.2 455.2 461.2 458.7 451.1 442.7 431 434.3 439.3 443.8 443.8 444.3 445.4 449.6 455.9 460.7 462.4 463.7 455.6 433.2 408.8 388.6 371.6 355.8 340.7 329.7 317.4 313.2 313.2 311.1 309.5 310.8 310.9 310.2 310.5 312.2 314.8 316.3 317.7 319.8 328.2 336.7 346 358 370.1 386.3 400.8 409.1 416.1 417.7 417.7 417.3 412.4 401.2 390.1 378.9 366.8 356.2 344.9 334.7 322.7 313.3 305.1 297.7 292.3 287.9 284.3 280.5 275.7 272.6 261.1 262.7 283.1 295.1 309.3 321.7 331.5 340.6 350.1 358.8 365.6 372.5 378.3 384.7 391.7 400.3 411 420.1 428.2 435.2 440.5 442.2 436.6 426.9 410.7 397.3 388.8 375.4 363 350.3 339.9 331.4 323 314.8 309.1 300.2 297.5 297.8 298.6 300.6 303.4 304.1 303.8 310.5 311.1
583.8 580.7 586.9 598.6 600.8 612.8 629 636.4 642.6 646 647.6 645.6 639.7 635.6 631.8 627.5 618.5 622 625.1 626 624.4 622.1 620.8 620.2 616.6 608.2 593.9 587.4 600.1 608.9 611.4 611.7 609.7 602 595.9 595.9 601.3 606.8 613.9 621.2 627.6 635.4 643.2 648.5 650.6 652.6 656.9 658.5 658.4 655.5 649.3 642.8 634.7 622.1 606.1 595 593.9 592.4 592 593.7 601.4 612.9 623.9 630.7 636.1 643.2 649.4 656.1 664.9 672.4 677.7 682.5 684.8 685.6 682.7 676.8 668.5 659.1 650.6 640.4 626.6 585.8 542.7 489.7 472.4 466.9 467.4 470.4 463.5 455.7 446.9 443.3 449.1 457.8 463.5 466.8 471 473.8 477 482 486.9 491.5 493.2 488.3 461.2 435.5 412.6 393.2 378.6 360.9 343.1 328.3 320.8 314.4 310.3 309.8 308 306.9 307.5 307 307.6 309 311.5 313.1 314.8 321.4 329.1 336 347.2 356.6 371.4 388.4 394 397.1 399.4 402.4 401.4 398.9 393.5 386.5 377.2 364.3 352.6 342.5 332.4 321 310.5 302.1 295 287.7 283.9 281 278.5 277.5 263.6 261.5 265.5 278.4 295 308.2 319.3 327.4 338 348.6 354.2 360.3 366.9 373.5 380.3 388.2 395 406.5 416.5 426.8 435.7 442.5 444.9 442.3 432 418.2 400.5 387.6 379.2 367.7 356.1 344.8 334.7 326.6 320.2 314.7 306.9 306.8 306.1 307.8 313.5 316.2 317.6 319.6 320.5 320.4
559.6 562.1 573.3 579.9 596.8 614.8 629.8 639.3 643.6 645.3 646.8 645 639.1 636.1 631.2 627.3 618.9 615.3 619.2 617 616.9 615.3 615.1 615.6 610.7 595.4 593.3 604.2 614.7 618.9 620.5 620.9 617.9 614.1 610.3 610.1 617.3 620.6 626.2 631.2 637.4 643.8 650.8 655.8 657.7 660.1 663.4 665.8 664.2 660.6 655.5 647.3 634.2 617.8 602.4 607.3 608.5 609.4 604 605.1 608.6 609 617 624.6 629.5 636.5 644.5 650.7 657.5 664.6 670.6 676.4 680 681.8 680.6 676.6 670 662.4 654.5 643.9 630.9 599.8 552.9 511.3 487 481.1 478.8 476.3 468.3 460.5 450.1 460.1 472.6 484.8 494.9 500.1 503.4 504.2 506.7 509.1 512.7 517 518.7 518.1 497.4 460.9 437.1 414.8 398 379.5 359.1 341.6 329.4 322.9 316.1 311.7 309.3 305.9 306.6 305.3 304.6 304.2 306.1 308.9 311.3 315.3 321.6 328.5 336.8 346.7 356.6 375.3 392.6 388.5 383.1 387.2 390.1 388.4 385 378.7 370.9 360.9 350 340.1 330.3 319.5 309.4 299.7 291.5 284.9 280.8 277.5 275.7 272.2 262.9 260.7 278.5 287.5 287.8 302.5 315.1 325 333.9 343.9 351.6 358.8 366 372.9 380.4 388.9 396.9 405.2 416.6 426.1 436.1 442.7 446.5 446.2 438.9 426.5 411.1 388.9 375.9 367.8 358.5 347.9 339.7 330.6 323.5 316 315.1 314 314.6 319 323.3 326.4 329.6 331 332.2 332.7
542.9 550.2 553.8 576.5 595.8 615.5 630.8 641.5 643.8 645.7 646.2 645 641.6 637.6 632.5 631 625 616 611.8 611.2 610.9 610.6 610.1 609.5 602.5 590.7 605.5 617.3 624.5 628.7 628.6 628.4 626.7 625.1 624.4 626.6 630.3 634 636 641 646.1 652.1 656.7 662.2 665.8 667.2 670.3 671.9 671.4 666.5 659.9 649.1 634.5 617.5 614.3 620.7 623.8 622.9 620 622.6 622 622.1 623.3 629.6 632.8 637.2 641.8 646 651.7 657.8 664.1 670.6 674.8 677.3 677 673.8 670.4 665.3 658.8 651.5 639.8 617.4 574.6 520.2 500.6 493.1 488.6 482.1 475.5 468.8 469.1 479.1 495.6 508.8 518 523.6 526.3 529.2 529.7 531.6 533.9 537.6 540.3 540.5 529.4 490.3 460.1 438 419.3 400.1 378.5 359.4 343.9 333.3 327.1 321.7 317.4 314 306.5 303.9 303.1 302.4 301.2 304.8 306.7 309.5 313.9 320.2 327.2 336.5 351.2 369.8 380.7 381.6 373.6 370.6 370.7 369.6 369 367 362.3 355.3 345.9 338 327.8 318.2 310.2 300 290.4 283.2 278.5 275 272.4 269.8 262.4 265.6 286.6 296.6 304.7 311.2 318.3 320.7 331.4 343.4 351.8 358.7 366.5 373.6 382 390.8 397.6 407.6 417 426.3 437.1 443.8 448.5 450 444.8 431.6 415.8 399.2 381.5 369.3 359.9 350.4 343.4 333.7 328.3 326.8 325.7 323.9 325.7 329.9 334.7 338.6 336.1 341.6 343.1 343.1
528.5 541.9 563.2 572.3 597.7 616.7 630 640.5 644.2 646.2 647.9 644.6 641.9 639.3 634.8 631.3 628.2 620.8 611.2 608.1 606.7 605.6 603.6 598.7 596.1 603.4 615.2 624.1 630.4 634.8 637.4 633.1 634.6 634.9 634 637.6 640.6 644.1 646 648.6 654.5 660 663.7 668.8 670.9 675.1 678.1 679.4 678.3 673.6 665.5 651 634.9 618 625.8 632.5 634.6 635 633.7 635 634.5 631.3 628.8 628.5 631.5 634.6 637.1 640.5 646.3 652.2 657.8 664.6 669.8 672.2 672.4 671.5 669.5 665.6 659 653.4 644.2 630.2 594.6 544 512.3 501.8 497.5 485.1 478.4 477.9 485.9 499.3 516 528.3 535.5 542.2 545.7 547.4 548.1 551.7 555 557.1 559.8 561.7 556.6 529.8 489.4 462.8 442.7 421 398.9 378.5 360.1 347.2 338.5 334.5 327.3 321.4 318.6 314.1 310 303.1 302.9 299 301.1 304.9 307.8 313.3 320.3 327.7 344.8 357 362.4 366.7 367 356.7 351.4 352.2 349.8 354.2 352.2 347.5 340.9 332 322.2 314.9 307.7 299.3 292.2 287.1 279.1 276.3 264.6 263.8 264.4 282.3 299.9 307 313.1 319 326.2 331.3 337.7 345.3 353.4 361.7 369 376.2 384.2 392.4 402.2 411 420.4 429.7 440.3 448.3 453.5 455.6 450.2 438.6 421.1 401.4 385.3 373.3 362.5 353.3 346.8 338 334.5 336.1 335.4 336.5 338.6 342.7 346.8 350.3 351.7 343.1 346.8 350.9
533.8 555.1 574.8 590.7 603.8 615.4 630.8 640.1 644.2 646.4 647.4 646.9 644.3 638.9 635.4 631 628.3 622.2 612.9 606.9 604.5 602.8 604.7 599.3 607.3 615.4 622.3 630.1 634.7 639 641.5 642.1 643.2 643.3 642.7 645.8 649.4 652.2 656.2 659.2 663.9 668.9 672.5 675.4 679.7 682.6 686.5 686.9 684.8 679.4 670.7 655.7 639.9 626.1 637.3 644 644.2 645.1 644.1 642.6 640.6 637.8 633.7 629.5 628.4 629.9 632.2 634.1 638.7 644.3 649.5 655.9 662.5 665.7 668.8 667.6 665.8 662.8 657 650.9 644.5 634 613.3 568.4 533.2 508.5 500.2 491.4 486.8 491.7 506.8 523.3 537.7 545.9 554 561 567.8 573.4 576 579.3 581.9 585.3 587.8 590.3 585.2 547.1 516.5 491.6 471 445.9 422.4 400.7 381.3 368.7 356.8 350.5 342.3 335.8 329.2 321.7 315 310.2 302.1 301.2 296.3 300.8 303.8 306.3 312.4 321.2 329.8 341.6 345.9 350.3 352.5 353.8 342.3 337.2 333.8 335.4 335.2 333.9 326.7 321.8 313.3 303 292.4 293.6 294.7 283.2 277.6 266.3 265.3 261.5 271 287.9 300.4 311.4 319.5 326.5 333.2 339.4 344.6 350.5 357.5 366.1 373.7 381.5 390 396.8 406.7 416.7 426.6 436.1 444.8 452.5 458.6 460.4 454.1 443.1 426 406.6 389.5 375.7 367.2 358.1 350.2 345.1 344.2 346.6 348 350.6 353 357.4 361.6 365.1 367.7 367.6 355.5 338.4
531.4 547.8 573.1 596.5 614.9 626.5 633.3 640.6 644.8 647.8 648.2 646.6 642 639.2 635.7 633.6 628 622.4 614.2 609.3 609.5 611.5 610.5 602.4 612.4 620.4 627.7 635.1 639.3 643.2 647.5 649.4 649.7 651 652 656.2 655.7 660.2 665 669.5 673.6 677.3 681.3 685 689.5 691.8 693.2 693.5 690.2 684.1 675.2 659.4 644.6 634.7 646.2 651 652.5 651.8 649.6 647.3 644.3 640.3 635.5 629.3 620.8 622.6 623.9 625.1 628.8 634.8 639.8 645.3 651.5 657.5 661.6 662.2 660.5 657.5 653.1 647.7 641.7 632.9 618.7 595.3 553 519.4 506.1 499.5 500 514.6 527.6 540.3 550.6 559.9 568 575.3 581.3 587.9 594 596.6 600.5 603.9 604.3 604.3 596.6 578 546.6 517.4 493 468.5 445.6 424.4 406.7 392.5 381.2 371.4 362.8 353.2 346.7 338.8 327.9 319.3 310.1 300 297.8 295.3 298.9 301.2 305.9 312 317.4 325 332.7 337 339.5 335.2 328.6 319.7 319 317.6 315.9 310.8 308.3 308.6 296.8 296.5 296.3 285 283.3 278.8 268.8 264.4 263.1 273.4 282.9 294.4 307 316.4 325.2 334 342.3 347.9 353.9 359.6 364.7 369.3 380.2 388.9 396.8 404.4 413.1 423.7 432.6 442 450.6 458.6 464.6 465.7 460.9 447.9 429.3 410.5 393.7 381.2 371.2 363.6 357.5 354.8 357.4 357.9 360.4 365 369.2 374.5 380.5 384.5 386.8 383.7 377.1 354.7
517 535.8 555.9 584.1 616.4 633 635.5 640 644.2 646.5 648.1 644.9 641.3 638 636.7 633.9 629.9 623.9 616.8 612.5 616.1 617.6 616.4 605.4 612.6 622.2 630.6 637.7 642.7 646.7 651.3 655.1 655.9 656.8 660.8 665 669.1 672.8 675.1 679.7 683.7 687 691.6 695.3 699.3 700.6 700.2 698.5 693.6 687.7 677.9 660.8 647.9 645.1 656.4 659.7 660 656.4 652.8 649.6 645.9 640.2 635.9 627.1 610.9 610.3 612.7 613.1 616.6 619.8 624 630.5 638.9 645.4 650.9 653.5 653.6 651.3 647.6 642.6 636.3 628.3 616.4 599 575.5 539.8 519.5 511.5 518 531.4 543.3 554.8 564.5 575.9 584.7 589.7 594.6 601.2 604.8 607.5 610.6 612.2 612 610.7 600.3 584.9 569.8 544.3 513.2 489.1 467.8 448.9 431.9 418.8 407.1 396.1 383.9 373.1 366.7 358 346.1 334.7 323.7 312.7 302.4 295.6 295.9 296.7 298.8 303.3 308.7 313.6 315.6 322 320.3 324.8 320.1 311.2 305.8 300.9 299.2 296.4 295.2 294.5 294.9 298.1 295.9 285.3 269.1 267.6 267.7 268.1 275.3 282.3 290.8 301.2 311 321.7 331.4 341.7 351 357 364 370.5 376.2 382.8 387.7 397.2 404.9 410.5 420.3 430.2 439.1 447.8 457.8 467.2 472.8 473.4 468.6 457.2 439.3 417.1 400.5 385.5 375.4 368.3 365.8 364.2 365.5 368.3 373.6 379.1 385.1 392.4 397.7 401.9 403.7 396.9 389.4 372.9
535.7 549.9 547.9 573.2 599.5 623.7 636.9 640.3 641.9 642.8 643.9 643.3 639.9 639 637.1 633.6 629.9 625.7 617.6 619.1 623.1 624.5 621.3 612 610.9 619 629.8 637.3 642.3 649.1 654.8 658.3 661.5 665.8 667.5 673.5 678.9 683 684.9 688.8 692.1 696.8 700.2 703.9 706 707.2 704.5 701.4 695.4 688.1 679 660.8 648.3 657.7 665.4 667.3 666.6 662.2 656 650.2 645.1 637.8 631.8 622.2 603.3 582.7 597.5 600.2 602.3 605.2 609.6 616.2 625 633.6 639.2 642.1 643.8 642.9 640.3 636.8 631.4 623.6 613.3 599.9 583.5 557.5 536.4 523.8 538.5 550 560.4 569.2 578.9 588.7 595.9 599.3 605 613.2 615.7 615.2 614.6 615.7 615.2 612.6 603.2 589.6 574.9 556 533.3 509.6 488.2 471.6 456 444.5 433.1 421.4 408.5 397.7 386.3 375.8 365.8 354.8 342.2 327.6 312.7 303.2 293.3 294.3 294.9 300.1 303 305.2 305.4 308.5 305 311.3 310.6 304.2 294.5 290.8 283.9 284.2 284.6 285.1 281.3 270.2 270.9 268.9 267.9 269.8 270.6 278.6 284.8 290.5 298.8 308.5 317.5 327.2 339.3 350.6 357.8 367.2 374.5 381.8 387.8 394.6 400.2 405.6 412.8 420.3 426.7 435.9 447.1 456.4 465.6 474.1 480 480.8 476.1 464.9 448.7 427.1 406.4 392.3 381.7 377.4 376.9 374.8 378.4 382.8 388.5 393.2 400.2 407.9 413.5 417.4 417.5 410.2 398.5 379.6
563.1 578.7 582.1 579.3 582 612.4 637 641.7 640.4 640.9 640.1 639.9 638 635.1 635.8 633.1 631.4 624 624.9 627.2 628.4 628.9 627.6 620 609.7 616.5 626.5 636.4 644.9 651.4 656.5 662.6 664.3 668.3 673.7 679.9 685.8 691 694.6 697.7 700.6 704.5 708.1 710.1 710.8 710.1 707.2 702.1 696.4 689.7 675.1 661.9 660.5 667 671 671.9 670.3 664.2 656.6 648.6 640.9 633.4 625 614.2 597.4 566.8 575.7 583.7 588.5 591.9 597.3 604.3 610.5 620 626.3 631.6 634.2 634.3 633.1 630.3 626 620.5 611.8 601.1 588.3 567.7 549 546.1 554.9 564.4 573.1 581 588.5 599.2 606 609.1 614.5 617.4 616.8 615.5 616.1 614.9 612.4 609.1 603.4 593.2 581.2 566.1 546.8 525.8 506.3 491.6 479.9 467.8 457.7 447.2 435.3 421.7 409.7 394.8 382.7 372.6 357.9 342.3 326 312.9 302.8 291.5 289.9 292.2 295.5 298.3 296.4 295.3 297.6 298.5 300.1 294.8 292 289.6 284.2 280.3 278.7 274.4 271.9 272.1 272.1 271.6 270.5 270.7 274.3 282.2 290.2 297.6 306 315.3 324 334.2 345.5 355.9 366.7 375.4 384 392 399.2 406.3 411.7 415.7 421.9 429.4 437.7 446.9 457.2 466.9 476.2 484.8 489.6 491.9 485.2 470.8 456.3 437.5 416.8 401.3 390.7 387.3 384.8 388.6 392.6 397.7 403.2 409.2 414.1 421.9 429.2 432.2 429.5 420.8 408.5 389.5
593.5 607.4 612.8 606.2 584.7 605.3 630.3 636.4 636.3 636.7 634.3 634.7 632.3 632.9 634.3 630.5 628.6 628.3 630.3 632.5 634.4 634 634.6 629.6 620.2 613 621 632 641.9 650.3 657.7 663.2 666.8 671.9 677.9 684.8 690.6 697.8 702.9 707.1 708.3 710.9 714.2 715.3 715.2 712.9 709.2 704.9 696.5 688.1 673.9 667.9 672 674.7 675.5 674.5 671.6 664 653.3 644.8 634.5 623.3 614.4 604.3 587.1 560.3 550.7 564.4 570.6 577 584.7 591.5 597.8 605.2 611.8 616.3 621.6 624.3 623.8 623.2 621.4 617.4 611 603.2 593.7 580.3 563.1 565.8 573.3 581.4 587.9 594.8 603.6 609.4 610.7 612 613.4 613.8 612.8 611.1 609.6 608.1 605.9 600.4 597.3 591.2 583.6 573.9 558.4 540.6 520.3 506 495.4 484.2 473.9 463 452.6 440.9 428 415.6 404 388.8 375.4 358.4 341.5 325.4 312.3 303.2 295.8 292.1 289.4 289.4 293 293.3 292.6 287.9 288.8 289.7 286 281.9 281.2 276.5 275 273.9 273.8 273.4 272.8 271.7 272.7 279.6 285.1 289.8 297.3 303.9 313.9 323 330.6 341.2 351.3 360.8 373.1 383.8 392.1 401 409.5 417.8 423.6 427.9 431.4 439 449.8 458.6 468 478.4 489.3 498.8 505.1 504.1 495.3 479.3 459.6 443 425.4 410 402.8 399.2 397.3 401.2 406.5 411.8 417.5 423.4 430.5 437.7 442.7 442.3 439.1 431.1 420.4 402.4
622.6 629.4 631.7 626.3 603.9 602.9 627.4 632.2 633 631.2 629.3 629.7 629.5 631.5 632.8 628.9 630.6 633.7 636.9 638.4 640.6 640.8 639.7 637.2 629.1 617.2 616.4 627.3 637.8 646.9 655.4 663.5 669 674.1 680.6 687.8 695.3 702.7 709.2 713.3 716.1 717.6 719.5 719.6 718 715.2 711.4 707.1 698.6 687.8 677.1 678.8 681.6 681 679 675.7 670.4 662.7 650.5 639.2 626.1 610.8 601.9 589.5 579.4 562.4 535.1 546.1 553.3 560.8 567.7 575.3 581.5 587.1 594.1 598.2 604.9 610.7 613.2 614.6 614.7 613.7 609.6 604.4 598.1 590.1 581.7 580.9 586.8 593.9 600.6 608.1 611.4 611.9 610.9 609.3 606.8 603.4 601.4 597.8 595.7 594.7 591.3 589.1 587.4 586 584.5 578.2 567.3 555.1 540.8 525.3 511.5 498.2 487 476.5 466.4 454.8 441.8 431.2 421.2 408.2 393.1 375.2 356.6 338.6 322.4 310 302.9 299.8 295.4 286.9 285.2 284.5 289.6 287.2 284.5 284.8 282.3 280.2 277.3 276.8 276 272.9 276.6 276.5 277.3 283.9 288.4 291.9 296.2 299.7 305.7 313.3 321.7 329.6 337.2 347.9 358.3 369.7 379.5 390.6 400.3 411.3 421 428.5 435.5 438.9 442.6 450.9 460.5 471 481.4 492.1 502.2 509.3 512.6 511.1 501.6 488.2 469.5 451.9 434.2 420.7 413.7 409.2 409.9 413.3 417.5 422.7 428.6 435.1 442.1 449 453.4 453.7 450.5 440.6 428.2 410.5
639.2 641.4 641.4 636.6 615.5 602.6 616.8 623.1 623.1 626.6 630.7 629 631.2 632.9 632 634.7 635.3 636.7 639.9 645.3 646.5 648.5 646.8 643.3 636.7 623.9 615.6 624.4 633.3 642.5 649.1 659 667.4 675.4 682.1 689.2 697.5 706.3 713.5 717.9 721.6 723.1 723.4 723 720.6 718.2 713.5 707.9 697.1 688.1 686.7 686.9 687.8 685.7 681.9 676.2 669.2 659.3 644.3 629.6 613.5 597.4 584.7 574.5 565.4 553.9 540 522.3 533.5 543.8 549.6 555.4 561.7 567.7 573.8 579 584.3 592 600.2 604.2 607 608.3 608.1 605.4 601.5 597.9 596.1 596.6 600.4 604.4 610.8 615.4 617 614.1 610 605.4 600.3 594.8 589.8 585.4 582.4 579.6 578 576.3 577.2 577.9 578 576.2 570.3 561.7 549.4 536 524.4 513.5 498.4 487 475.2 464.2 453.2 441.9 431.6 422.9 408.1 392.5 371 352.3 334.3 318.7 307.6 302.1 299 296.8 286.7 285.8 284.5 283.2 283 282 280.9 278.9 278.2 276.9 274.5 278.5 284.9 288.7 293 296.7 298.3 302.6 307.2 311.1 316.1 319.8 329.5 337.4 345.4 354.9 366.5 378.8 390.3 400.5 411.6 422.8 431.5 439.6 449.2 454.7 459.9 464.8 473.1 483.6 495.4 504.3 510.6 516 516.9 515.6 505.9 492.3 477.1 462.6 447.2 434.5 426.7 422 421.9 424.3 426.7 431.2 436.9 443.6 450.7 457.1 459.9 461.7 458.7 448.4 435.5 420.5
646.8 647 645.4 637.1 619.7 609.9 617.6 631.1 636.5 641.9 643.9 643.9 638.4 640 638.7 639.7 640.6 640.9 643.3 647.6 652.7 652.9 650.3 646.7 641.5 629.8 617.7 621.9 631.1 637.6 645.1 652.2 662.2 673 681.9 690.9 698.4 706.5 714.9 721 725.2 727.3 727.2 726.5 722.5 720.2 714.6 706.9 699.9 695.9 694.6 694.1 693.1 689.6 683.4 677.4 668.5 656 635.9 617.8 600.7 586.9 572.4 560.1 550.9 542.9 531.4 521.2 511.9 522.3 527.3 533.2 540.2 548.2 558.6 565.3 571.2 577.5 584.7 592.3 597.4 600 603.1 604.6 603.5 603.1 604.5 607.8 612.1 617.1 621.4 623.3 622.1 617.4 610.6 601.5 593.1 586.9 581.3 576.3 572 567.4 564.8 565.1 567.5 569.1 570.8 570.3 566.1 558.8 549.5 538.6 526.1 513.6 503 491.2 480 467 457.9 447.6 436.7 428.3 416.6 403 384.2 365.6 346.5 328.5 315.6 306.1 302.1 300.1 297.2 285.7 285.3 283.8 280.9 281 280 279 278.1 276.4 285 290.4 295.5 299.4 303 308.5 313.2 316.2 320 324.4 328.9 331.8 339.3 346.9 354.3 365.2 375.9 389.3 400.6 411.8 422.7 432.8 441.8 452.2 460.4 467.3 473.2 479.8 487.5 497 504.9 512.1 516.9 520.4 523.3 519.2 510.1 497.4 483.3 470.2 457.9 447.8 438.5 434.1 432.6 432.2 432.1 435 439.4 444.4 450.9 456.4 458.5 462.7 465.3 455.4 443 429.1
651.4 648.8 644.2 633.8 615.7 627.3 634.6 640.4 647 648.8 650.9 650.7 651.7 650.9 648.6 647.1 646.2 645.2 647.6 650.7 657 657.7 654.4 650.1 642.8 632.5 620.6 619.5 628.2 633.4 638.2 646.7 657.7 669 679.6 690.3 699.3 706.3 714.8 722.1 727.6 730 730.4 729.3 725.1 721.9 716.8 711.4 706.7 703.4 699.8 698.5 695.8 691.4 685.6 677.7 667.2 652 628.9 610.8 592.1 577.7 561.7 549 538.6 531 521.7 514.2 507.2 505.8 507.7 513.8 522.4 530.1 540.1 548.8 557 563.3 572.6 579.8 585.2 591.4 596.2 599.1 602.4 605.9 608.7 613.7 620.4 627.3 629.1 629.7 627.3 622.1 613.3 599.7 588.1 577.4 569.4 564.4 559.8 554.9 552.6 551.9 554.2 557.1 560.4 562.5 560 552.9 543.5 532.1 521 510.1 498.7 487.1 475.4 465.3 455.7 443.4 435.1 428.2 418.1 405 393.6 376.2 358.3 339.7 324.8 313.5 304.8 301.3 296.9 292.2 288.3 283.4 282.6 282.1 280.5 278.7 284.6 292.5 296.9 300.4 306.4 311.7 317.7 322.6 328.9 334.6 337 339.3 341.8 344.4 349.3 356.5 366.2 376.3 387.8 399.4 411 422.4 432.5 441.5 454.3 463.6 470.8 476.8 484.7 492.4 500.3 509.7 516.5 523.1 525.9 526 526.3 522 512.5 501.8 490.2 479.3 466.9 457.2 448.7 440.5 436.5 433.4 431.3 430.1 434.4 439 443.7 446.8 452.4 460.1 463.5 457.6 446.1 433.1
654.4 649.9 643.5 630 630.3 640.2 646.2 650.4 654.8 657.2 657.9 660.3 659.3 659.5 656.7 654.1 652.3 650.5 651 657 659.4 660.9 658.1 653.8 646.2 634.1 622.8 621 624.6 630.1 635.1 645.2 655.8 665.8 676.6 686.8 696.7 706.2 713.7 721.8 728.6 731.9 732.3 730.8 728.2 724.5 720.3 715.2 711.2 707.4 704.3 700.4 696.2 691.5 686.3 677.6 665.7 648.3 621.4 600.6 583.1 566.7 553.8 541.3 530.7 521.2 513.8 506.6 500.2 496.5 497.6 499.3 505.1 512.9 521.1 529.2 539.4 549.1 559 567.6 572.7 580.8 586.9 592.1 596.4 602 609.2 616.9 625.4 631.6 634.9 635 632.1 626.5 617.8 604.4 587.1 574.1 560.7 551.8 546.1 540.9 536.8 535.8 537.3 541.7 546.6 551.7 550.6 545.7 535.8 524.8 513.7 502.4 490.5 477.3 466.8 457.1 444.6 435.9 426.8 419.2 409.9 401.6 391.2 379.1 366.2 351 334.6 321.2 308.7 304 296.3 291.5 288.1 285.5 286.7 287.2 291.5 295.3 300.2 304.3 307.7 313.6 321.9 328.7 334.7 340.7 345.5 350 352.2 354.4 355.6 357.5 361.4 367.6 376.4 387.3 399 410.4 422 433 443.2 454.2 465.9 473.6 481.1 490.3 497.8 508.3 516.9 522.3 528.5 532 532.7 532.1 528.6 522.3 513.4 503.4 493.1 485.9 476.6 465.5 456.6 446.8 439.5 433.3 428.5 425.9 427.3 431.3 434.6 436.6 446 452.1 455.2 453.4 446.8 432.9
656.7 651.2 643.7 632 640.5 649.3 656 660 662.7 665.9 666.8 668.2 668.8 667.8 666.9 662.9 659.1 656.4 655.8 659 661.3 662.9 659.6 655.1 646.2 632 623.5 624.5 633.8 641.7 644.7 649.7 653.8 665 675.1 684.4 694.7 704.9 713.2 721.9 728.4 732.6 733.1 731.8 729.3 726.6 724.7 719.4 715.5 711 706.7 700.6 696.1 690.7 683.9 676.3 662.7 641.3 616.9 598.3 581.4 566.1 549.1 535.2 524.6 516.7 508.5 502.2 497.3 490.6 487.2 488.7 493.4 497.8 505.1 512.3 521.3 530.6 540.9 549.7 557.6 565.5 573.7 579.9 585.7 596.1 605.3 615.5 624.9 631.5 635.4 635.6 634.3 629.4 621.1 608.2 589.6 572.8 559 545.8 534.8 526.2 519.6 517.6 518.4 523.2 528.9 534.1 536.3 534.3 525.8 514.6 503.5 491.1 479.6 465.2 453.1 438.7 427.8 419.8 413.4 407.1 400.7 394.9 385.3 375.1 364.3 354.7 343.6 327.5 310.9 305.3 297.1 291 288.2 286.6 293 296.5 299.7 305 310.2 314.4 321.2 329.4 338.5 346.3 352.9 359.2 363.7 365.1 368.6 369.7 369.9 371.3 373.8 378.2 387.5 398.5 410 423.1 433.7 443.5 454.7 466.9 477.6 488.3 498.1 507.8 516.4 520.2 523 523.7 531.1 535.2 534 531.7 529.3 522.5 513.7 504.3 495.2 488.6 481.1 472.5 463.8 451.1 442.9 434.4 426.9 422.6 422.7 423.1 427.4 429.7 434.4 439.8 442.1 444.1 439.9 429.8
660.5 654.7 646 636.2 648.2 656.9 662.6 667 670.7 673.9 675.5 678.5 678.3 677.5 676.1 671.4 665 662.9 661.1 660.8 663.3 662.5 659.4 654.7 645 633 623.2 630.3 639.9 647.5 652 658.9 663.4 665.1 674.9 684.3 693.1 702.6 713.4 721.7 727.6 732.1 733.2 733.1 732 730.1 726.9 722.5 718.3 713.3 707.2 700.5 694.8 688.6 682.1 672.6 657.3 632.3 609.2 593.3 575.8 560.3 544.9 530.4 519.5 511.5 504.7 498.5 492.3 488.5 485.7 482.4 482 485.9 491 494.7 504 514.9 524.3 533 541.2 548.3 557 563.5 573 586 598.9 609.8 620.2 628.2 633.3 633.4 633.9 628.9 622.6 612.8 596.9 576.9 560.8 547.1 533.1 517.3 503.6 497.4 496.7 503.8 510.3 514.8 517.8 515.9 509 499.7 488 475.6 462.5 445.8 432.6 423.1 415.1 408.9 402.6 396.4 390.9 383.9 376.5 368 359.6 352 343.5 329.9 314.3 306.7 296.3 292.3 288 294.2 299 303 306.4 312.8 318.4 327.7 334.4 342.4 351.6 360.7 369 375.4 380.8 385.8 386.9 387 386.5 386.2 386.7 392.1 398.7 408.9 420.9 433.9 445.4 452.8 467 480.1 492.2 500.5 508.5 515.6 520.7 521.7 522 523.5 531 534.4 532.8 531.6 528 521.7 513.6 504.1 496.2 489.5 483.3 475.3 467.9 459 443.4 433.8 425.9 417.6 414.6 415.3 417.1 420 423.2 427.5 428.7 428.2 428.7 420.9
662.9 657.7 651 643.2 654.5 663.2 668.4 674 678.1 681.3 684.5 685.9 686.2 685.3 683.2 678.5 673.1 668.8 667 664.5 663.6 663.1 659.6 652.7 643.9 631.8 622.9 634.5 643.5 650.3 657.6 664.2 670.3 674.3 679 687 694.2 702.1 712.4 721.9 727.9 732.4 733.7 734.1 733.2 731.6 728.4 724 719.2 714.6 706.9 700.3 693 686.5 677.8 667.9 652 622 601.2 585.7 569.4 551.9 536.5 519.4 507.7 505.4 504.5 504 501.6 496.5 492.3 485.9 481.5 478.8 481.6 484.5 489.6 496.1 507.1 517.8 526.2 534.9 542.2 551.7 560.9 573.7 587.9 601.7 612.9 621.7 627.1 631.2 631.4 628.6 624.1 616.8 604.8 586.3 568 551.5 536.7 521.5 507.2 489.5 477.2 484.8 492.8 497.1 498.5 496.3 489.7 479.1 467.1 456.7 442.2 429.5 420.5 412 405.1 398.6 391.7 385 378.8 372.5 365.6 359 351.8 345.6 336.9 326.6 318.2 304.7 298.9 294.1 291.9 304.2 307.2 311.7 316.2 319.3 329.3 336 346.4 358 367.5 373.7 381.7 390.3 394.8 400.6 401.9 402.4 401.3 401 400.6 405.4 412.7 421.3 432.6 443.9 454 464 472.7 486 496.8 507.5 515 517.4 521 522.8 523.6 522 525.8 530.7 529.7 529.2 526.7 521.8 513.7 504.7 494.3 489.6 483.4 475.9 469.1 461 447.1 431 419.4 411.3 406 404 405 408.3 412.7 418.2 418.4 417 412.7 408.8
664.4 660.3 655.6 651.2 663.6 669.3 674.1 679.8 684.2 686.8 690.1 693.3 693.5 692 688.3 685 680.1 677.1 672 670.3 666.3 662.4 658.7 647 636.4 626.4 627.3 637.8 646.1 652.3 660.3 669.5 677 682.6 686.4 692.1 697.4 702.4 713 721.1 727.4 732.3 734.7 733.9 732.8 731.6 728.6 724 718.7 712.7 705.4 697.3 689.6 682.2 672.7 658.7 634.6 612.3 593.6 578.2 561.9 545.9 529.7 512 519.2 517.2 519.7 516 513.1 508.4 503.8 499.2 487.6 480.8 476.7 476.5 480 483.7 492.2 500.8 510.6 517.9 530 539.6 550.1 561.3 575.4 589.4 601.3 611.5 619.2 624.5 627.4 627.6 626.4 620.7 610.8 597 576.3 556.8 540.4 524.3 507.8 488.7 469.6 464 473 478.5 480 476.6 471.6 458.8 451 440.2 428.8 418.9 411.7 402.1 393.9 386.6 377.6 371.8 366.9 360.9 354.3 348.8 342.5 337.2 329 323.1 313.7 297.9 299.2 304.9 310.1 314.2 317.5 323 327 331.6 334.1 345.9 357.4 369.6 378.9 385.9 392.1 399 405.3 410.8 415.8 415.7 416.2 416.6 418.9 423.6 430.9 436.4 443.5 455.2 465 474.7 483.7 495.6 505.3 514.3 518 519.9 519.5 520.1 520.2 522.5 523.7 525.2 526.1 524.6 522.7 519.6 516 506.1 495.2 488.2 481.1 473.6 465.8 459.4 443.8 427.6 413.8 404.7 398 392.8 392.1 395.4 401 404.3 406.6 406.3 403.2 396
668 664 656.2 659.8 668.5 675.3 678.7 684.3 688.1 693.3 696.1 698.2 697.9 696.5 693.6 690.3 688 681.7 676.9 673.6 667.6 663.1 654.9 642.1 628.6 625.2 633.7 643.7 650.6 655.2 664.4 675.1 683 689.2 694.5 698.4 702.9 708.2 714.1 721 727.2 732 734.2 733.1 731.4 729.5 726.6 722.4 716.4 709.6 702.5 693.8 685.7 675.6 662.7 647 622.8 601.3 583.6 568.2 553.9 537.9 522.2 517.8 527.7 533.5 533.9 537.4 535.7 529.4 523.9 517 505.3 490.9 481.7 474.2 470.9 474.8 479.3 484.4 494.2 505.5 515.4 527.9 539.8 550.4 563.3 576.1 587.7 598 606.7 615.1 621 623 624.6 621.6 614.2 604 587.5 563.7 544.5 527.1 508.2 487 466.5 443.5 453.1 460 462.4 458.7 451.4 440.6 429.8 423.7 416.7 410.5 402.2 391.3 381 373.2 365.4 357.7 352.8 346.9 342 337.2 332.2 326.9 313.7 304.6 303.1 310.7 315.4 317.9 320.4 323.8 329.9 336.1 341 344.9 348.2 356.9 366.3 377.2 386.6 394.6 401.4 408.7 414.8 420 425.5 429.4 429.6 430.7 435.3 441 444.8 450.1 456.2 465.1 475.6 485.3 494.1 504.7 513.6 518.2 517.5 517.4 516.6 516.1 515.2 517.3 518.4 520.2 521.4 520.3 519.1 518 513.9 508.6 496.5 486.1 476.3 467.8 459 448.9 436.5 422.9 409.4 397.2 387.8 383.6 380.4 383.1 387.9 390.1 394.7 392.8 384.9 379.5
671.8 668.1 663.2 661.2 670.1 676.6 683 688.2 692.7 698.3 701 702.7 703.8 703.6 701.3 697.7 695.2 688.3 682.5 678 669.7 662 653.3 640.1 628.2 628 636.5 645.8 655.1 661.7 670.3 679.6 688.4 695 700.8 704.7 708.1 711.9 716 721.6 727 730.8 732.2 731 728.7 726.6 724 720 713.6 706.8 698.3 688.5 678.7 667.3 651.7 634.2 610.3 591.4 575 557.6 544.2 529.8 521.4 535.2 547.6 555.5 560.8 562 559.5 552 542.7 533.7 520.1 503.4 489.6 481.8 476.5 468.6 467.9 472.3 479.7 486.7 500.2 514.2 529.8 542.6 552.9 564.6 576 586 595.4 604.7 611.6 616.1 618.8 619.9 614.1 604.8 593.1 574.2 549.9 530.7 510.8 487.3 465.8 447.6 433.6 440.5 442 438.1 432.2 424.5 419.2 412.1 404.4 396.8 388.4 376.7 368.9 361.2 352.9 345.2 339.1 333.7 330.8 326.5 321 312.6 311.7 319 320.9 322.8 325.6 328 332.1 338.8 346.4 353 356.7 358.3 360.4 365.9 374.2 382.8 392.4 401.2 409 416.9 424.1 429.6 436.1 440.1 441.8 441.8 445 453.4 459.4 464.6 470.4 477.9 488.1 498.7 509 514.6 519 517.3 518.5 515.4 510.2 508.9 508.2 509.4 511.6 513.4 515.2 515.2 515.5 514.2 511.6 506.7 497.6 484.9 472.8 461.8 450.5 439.2 427.3 415.2 401.2 390 381.7 375.8 371.7 369.7 372.2 377.1 376.4 373.6 371.7 366.9
676.2 674.8 671.7 669.6 668.4 676.8 683.4 690 696 699.8 702.4 705 707.5 708.4 707.4 705.7 700.8 695.8 687.8 680.3 672 661.9 651.2 638 628.3 632.1 638.6 647.5 656.9 665.8 675.3 682.3 693.3 699.8 705.6 709.1 712.9 714.2 717.7 721.6 725.6 728.7 729.1 727.6 725 722.7 720.5 716.9 710.9 704.1 693.6 679.5 668.6 656.7 639.8 621.8 601.3 583.5 565.3 550 534.7 523.7 537.6 553.4 567.2 580.5 587.6 591.3 587.9 578.3 563.5 550.3 535.8 520.4 502.9 488.8 480.3 473.7 468.9 465.4 469.4 475.3 488.8 502.8 518.6 532.1 543 552.8 564.5 575.4 584.8 594.6 601.1 606.9 610.4 612.1 608.6 602.5 593.9 580.7 558.6 536.1 516.9 492.1 470.9 450.7 432.8 420.5 422.5 420 417.6 412.5 406 398 389 380.6 372.6 364.8 356.7 349.4 340.5 331.8 323.1 321 317.9 315.9 311.7 326 328.8 330.6 333.4 335.1 337.5 342.6 349.7 357.1 363.3 369.2 371.4 371.6 373.6 376.1 380.2 388.5 397.1 405.8 413.6 421.7 430.4 438.4 444.4 449.8 454 456.1 460.9 467.5 474.7 481.6 488.8 494.8 501.4 510.6 518.2 517.8 517 515.8 513.4 510.7 505.1 499.7 498.4 500.4 503.4 505.8 508.7 511.4 512.4 510.5 507.8 503.5 496.4 484.3 469.9 455.3 441.3 428.8 416.8 405 392.8 382.5 373.6 367.2 363 358.5 361.1 360.6 358.9 356.7 353.7 349.6
682 679.6 678.9 678.5 677.9 676.6 683 689.7 696.5 699.7 703.1 706.7 709.9 711.7 712.6 709.8 706 700 693.8 684.3 670 656.7 646.2 635.9 629.9 633.7 641.3 653.4 661.7 670 678.3 685.8 696.4 704 709.6 712.8 713.5 715.8 718.2 721.2 723.6 725 724.7 722.8 721.4 717.7 717 712.4 707.2 699.1 688.3 673.2 657.7 643.7 629.4 613.6 594.3 576 554.9 538.1 528.5 544.2 560.8 577.7 595.2 608.1 617.3 620.7 618.8 603.3 584.4 566.3 547.9 530.6 513.9 499.4 486.5 476.7 470.4 466.7 460.4 466.9 473.9 488.2 501.5 515.9 529.6 539.8 551.5 563.7 574.6 583.7 589 595.1 600.2 601.8 602 599.4 593.5 583.7 566 544.8 523.4 498.8 476.7 456.5 437.3 416.9 404.5 405 401.1 397.9 391.4 382 375.4 367.2 360.2 352.4 346.8 340.5 326.9 324.2 322.7 320.7 327.9 331.2 334.8 338.1 344.4 349.3 353.2 355.1 356.7 360.6 367.5 374.6 380.9 385.2 387 387.6 387.9 388.2 390.8 393.6 401.6 409.6 417.1 425 434.9 443.7 451.3 457.3 465.5 472.2 477.3 482.1 488.9 495.1 500.2 504.5 510 514.1 517 517.2 512.9 510.4 507.2 500.2 496.3 492 488 490.5 493.6 497.1 501.2 505 506.8 505.7 502.7 496.9 491.3 479.8 466.2 452.4 438.2 421.3 409.1 398.8 387.6 377.7 367.5 359.9 355 351.9 348.4 346.3 345.5 341.5 339.5 336.9
687.4 685.6 684.4 684.3 686.1 686.1 687 691 694.2 697.3 701.9 704.2 710.3 714.7 714.8 713 709.5 704.7 697.5 686.7 669.9 652.7 644 636.7 632.2 636.8 644.8 654 661.6 673 681 689.4 699.2 705 710.5 713.4 715.2 716.7 718.4 719.2 719.6 719 717.7 715.9 713.1 711.8 711.4 707.7 701.4 693.8 680.7 664.8 648.5 633.9 619.5 604 586.8 565.9 546.2 533.4 553.7 566.3 580.4 601.9 616.5 628.6 638.9 643.9 641.9 629.6 606.6 582.9 560.7 542.9 527.5 513.5 498.7 485 475.7 468 459.4 457.8 463.4 473.9 488.9 501.7 516.5 527.3 537.7 549.5 561.4 570.8 576.7 582.3 586.9 590.3 592.2 592.6 590.3 582.9 567.1 547.7 527.5 506.2 483.3 462 442.1 425.2 407.4 387.6 387.1 382.9 378 372.9 365.7 358.3 352.3 345.5 339.7 328 324.5 326.8 329.4 334.8 338 341 347.8 353.5 358 363.9 367.8 370.9 373 376.6 383.8 391.1 396.6 399.9 402 402.6 402.8 403.2 403.4 404.5 410.7 416.2 423.3 429.7 438.4 447.4 455.3 466.3 474.8 481.6 486.9 492.3 499 504.5 507.8 510.6 513.3 513 513.8 511.4 509.9 505.3 499.7 492.6 485.2 481.5 478.1 480.8 484.2 487.9 491.4 495.9 498 496.5 492.7 488.8 482.8 474.3 460.1 449.3 435.2 419.3 403 393.5 385 374.6 364 355.6 348.4 345.3 340.7 336.1 333 330.4 328.6 325.7
691.6 690.6 689.8 690 691.5 693.3 695.6 696.7 696.1 701 705.1 707.4 713.3 716.4 716.3 716.5 713 706.8 698.9 688 672.6 658.8 648.6 643.7 636.4 639.3 650.8 656.2 662.5 675.2 683.9 692.9 701.9 706.8 710.1 714 715.9 716.9 716.8 714.4 713.8 710.6 706.3 703.4 702.9 703.8 703.1 699.6 694.9 685.3 670.8 656.4 641 626 613 596.8 575.3 560.4 540.3 554.2 570.5 588.5 601.7 620 634.4 645.9 655 659.2 657.6 648.9 627.7 597.6 579.2 558.6 540.7 527.1 513.5 497 481.9 472.5 467 456.4 454.3 461.1 474.5 487.4 501.6 514.1 526 535.7 546.6 555.4 562.5 568.2 572.5 576.5 580.6 582.7 582.8 576 562.9 545.6 526.1 507.3 489.2 468.1 445.7 429.2 414 397.4 385.1 371.3 366.8 362.4 355.7 349.1 344.3 339.2 329.6 329 329.6 336.7 340.3 344.8 351.8 357.2 362.7 368.3 374.1 379.5 383.2 385.9 388.7 393.6 398.7 404.9 410.4 414.1 416.4 417.9 417.5 417.3 417.6 419.8 423.1 427.6 432.5 438.6 445.4 453.8 461.5 470.4 479.8 487.9 494.2 499.6 506.2 511.2 514 514.4 514 510.3 506.3 504.8 502.4 497.1 490.8 482.3 473.4 469.7 470 468.8 472.9 477.2 479.9 481.8 483.4 483.6 480.7 478.3 473.8 466.9 454.6 443.8 432.7 417.9 401.2 390.5 382.8 374.5 363.1 353 345.6 338.8 335.3 329.6 325.7 323.1 320.5 318.4
696.9 695.9 698.6 697.9 699.3 701.1 702.2 704.8 701.8 706.3 708.6 708.9 714.1 716.4 717 717.6 715.6 709.6 702.5 687.2 677.2 668.9 658.1 649.5 644 642.6 650.8 656.5 667.8 677.6 686.1 693.9 701.9 706.5 710.2 713.4 715.4 715.9 713.9 710.4 701.4 692 692.3 689.8 690.3 691.9 693.5 689.7 682.8 672.6 660.6 647.2 633.3 620.6 608.6 594.6 570.9 548.7 559.2 563.7 582.5 602.6 616.1 631.5 645.2 656.5 665.1 670.1 670.9 667.4 648 620.3 593 574.6 553.2 538.7 526.1 510.4 496 477.5 469.5 464.9 455.5 451.9 462.2 474.1 485.4 497.6 512.8 522.6 530.1 539.8 546.8 553 557.4 561.4 566.7 569.8 570.3 565.9 555.1 541.2 524.6 507.5 488.2 469.3 452.8 434.1 420.2 404.5 392.5 380.2 369.5 357.9 350.5 346.8 338.5 333.9 330.6 330.4 340.5 345.2 349.4 355.4 362.5 369.8 376.9 384.9 390.8 395.6 399.2 401.7 404.8 408.1 413.2 418.6 423.8 427.6 430.3 431.1 430.5 429.8 430 432.2 437 438.6 442.2 449 456.8 462.8 469.5 478.2 485.8 493.2 500.7 508.6 515.8 518.4 519.7 516.2 511.4 506.2 502.7 498.2 494.2 490.4 483.9 472.5 462.2 454.4 455 454.7 457.6 461.6 466.1 468.9 468.3 468.6 468.6 467.2 465.4 458.4 446.1 435 424.8 412.5 399.6 387.8 380.2 373 362.9 351.6 345 338.9 332.2 323 320.4 317.8 313.8 310.5
702 703.9 705.6 706.6 706.6 707.2 708.3 709.5 709 710.6 710.6 711.2 713.2 718.4 719.1 718.7 717.1 712.2 704.5 692.7 684.7 676.6 666 653.4 647.3 641.6 650.9 657.4 667.5 677.5 685.5 692.3 697.6 703.6 707.3 711.1 713.7 713.1 710 704.3 694.3 682.3 677.5 676.2 676.9 679.2 678.9 673 665.3 656 646 635.8 624.7 615.4 605.1 589.1 560.4 571.2 579.4 568.1 585.2 604.9 621.6 638.2 651.9 663.6 672.8 678.2 679.9 676.5 666.3 642 608.6 586.7 569.4 551.3 535.8 520.8 505.3 490.4 475.5 468 461.4 450.3 450.9 459.2 473.1 481.1 497.6 507.7 515 521.5 528.1 534 539.4 545.1 551 555.8 557.2 554.5 546.2 535.1 521.8 505.2 489.9 475 455.9 440.9 427.7 410.7 397.3 384.1 372.6 361.8 353.4 345.8 335.8 331.7 334 342.2 348.6 353.8 360.2 366.3 373.1 382.4 390.6 398.7 405.3 411.5 416.5 419.2 421.7 424.5 428.6 432.3 437.3 441.1 442.3 442.8 442.2 441.9 442.4 445 448.5 452.3 455.6 460.7 467.7 474.7 479.7 486.7 493.8 502.1 508.2 516.3 520.8 522.8 521 516.8 509.1 503.1 496.6 489.5 486.6 479.9 470 459.4 452.7 445 441.7 441.4 443 448.3 452 453 451.7 451 452.2 453.7 454.4 448.3 437.5 427 418.2 406.3 395.4 383.9 377.6 371.5 363.5 353 345 339.3 332.1 325.1 314 312.3 308.1 304.1
708 710.1 711.6 713.6 714.9 716.5 716.2 715 717.1 716.2 713.9 715.9 716.6 719 721.3 720.6 717.9 712.7 704.3 695.5 689 680.2 673.1 659.1 651.4 647.7 649 656.1 664.8 674.2 682.4 689.7 694.5 698.1 703.9 707.1 709.7 708.4 704.8 698.3 690.4 677.2 665 663.5 663.6 664.8 660.6 654.9 647.8 639.5 632.6 624.4 615.8 608 597.2 581.5 568.2 586 597.9 594 584.6 598.7 620.8 640.5 655.1 667.8 677.9 686.2 687.8 683.8 676.9 661.5 633.5 602.5 585.3 565.4 546.1 527.9 513.6 499.2 485.2 472.4 464.8 458.5 447.5 448.9 459.4 469.3 478 488.4 496.5 499.3 503.2 510.8 517.5 524.3 531.6 538.1 542.1 540.7 534.8 526.7 517.1 507 493.6 479.2 462.6 446.3 433.8 414.1 399.3 385.4 371.7 360.9 351.3 339.8 336.7 341.6 347.3 353.4 359.4 368 376.5 380.9 384.3 395.9 405.5 413.4 420.5 426.4 431.9 434.8 437.5 440.3 444.1 448.5 451.9 453.9 455.8 455.8 455 455.1 457.6 461.2 463.7 466.4 469 473.1 478.5 483.9 489.4 496.1 503.4 510.1 513.2 519.1 520.2 521.8 517.9 511.6 502.8 494.6 483.6 474.1 472.6 467.6 459.5 451 443.6 436.2 430.6 429.8 430.1 433.8 432.8 433.6 433.7 434.6 436 440.1 441.2 436.7 427 417.3 408.2 398.9 388.1 380.6 374.8 369 362.8 355.4 347.5 340.4 333 325.4 316.5 306.7 302.8 298.2
712.9 715.7 717.9 720 722.2 723.2 723.5 722.5 722.7 722.7 721.1 718.9 718.3 721.7 720.8 718.6 716.8 712.4 704.3 697.5 689.5 681.9 674.9 666.4 659.7 653.9 648.4 654.3 659.9 668.7 679.4 687.2 691.6 694.5 699.7 703.3 704.6 703.2 698.7 692 684.5 673.4 655.5 652 651.6 648.3 643.9 639.4 633.2 626 620.9 613.6 605 597.2 583.5 578.4 589.7 607 614.2 618.5 609.2 595.3 617 639.8 657 670.5 681.7 690.9 693.6 690.1 683.4 672.4 653.1 624.3 596.9 576.1 558.2 540.9 523.6 508.6 493.7 482.1 469.6 460.9 454.4 446.9 447.3 455.8 462.7 467.6 472.2 478.2 479.7 485.1 490.4 499.9 510.8 519.1 524.3 525.8 522.9 518.9 514.3 504.8 492.8 479.1 463.6 449.1 434.4 415.9 398 382.4 369.8 357.4 345.5 340 340.1 351.2 358.3 367.1 377.4 386.5 393.7 400.2 400.6 408.7 418.6 427.7 435 442.8 447.8 451.9 455.7 458.6 461.7 464.4 468.1 470.2 469.3 470.7 469.3 471.8 474.9 477.6 480.1 479.9 482.5 485.6 489 494.7 501.8 504.9 507.5 510.8 513.9 517.9 520.8 519.8 517.5 506.1 492.3 480.4 472.3 463.7 457.1 453.4 449.6 442.8 436.4 427.7 421.7 419.3 418.1 417.6 419 418.7 419.7 420.1 421.3 425.4 428.1 424.5 415.5 409.8 398.7 390.8 383 377 371.6 365.6 359.7 354.7 349.7 343.3 337.2 330.3 321 309.1 301.6 290.7
717.7 720.7 724.7 728 729.9 732.3 733.1 732.9 731 727.8 725.3 722.6 719.7 718.8 718.3 714.6 712.7 708.3 702.5 697.8 689.6 681.7 674.6 672.6 669.2 661.7 655 651.6 655.7 662.7 673.2 683.6 688.7 690.1 693.9 698.2 699.4 697.4 692.2 684.8 677.7 665.9 648.5 641 638.9 633.5 630.4 627.4 617.9 609.9 604.9 598.9 589.7 583.7 595.9 602.7 615.4 626.3 631 633.2 627.7 611.7 621.3 641.8 659.9 674.1 685.3 692.7 696.3 694.5 686.9 676.5 661.4 642.3 620.5 593.8 567.2 551.7 533.3 516.7 500.8 488.5 476.4 469.2 459.4 450.6 438.7 442.9 449.4 455.5 454.6 456.8 462.7 465.6 471.1 479.7 489.4 496.8 502.6 509.7 509.8 510.3 505.8 498 486.2 472.1 456.1 446.2 428.8 410.4 392 376.4 363.3 351.6 341.5 349.1 355.1 367.7 378.4 389.1 399.8 409.2 415.6 419.7 419.2 422.2 433.5 443 451.3 458.7 466.2 471.5 475.5 478.6 479.5 483.6 484.1 485.3 485.7 484.6 485.4 488 489.4 490.4 492.2 491.6 494.2 497.7 502.8 505.4 507.3 508.8 509.3 510.9 513.4 516.5 517.5 514.8 510 496.3 481.8 468.9 458.9 450.4 443.1 441.4 438.7 433.7 426.8 420.4 414.3 411.4 407.5 406.5 406.6 405.8 406.2 406.2 408.2 410.9 411.3 409.6 407.1 401.4 392.8 384.2 377.7 372.9 367.5 361 356.1 351.7 348.3 344.7 339.9 333.6 326.3 316 303.5 293.5
723.6 728.5 732.8 736.1 738.7 740.3 740.8 739.4 736.2 732 726.8 722.6 719.1 715.5 713.8 712.3 707.8 702.6 700 695 686 682.4 677.8 676.9 673.9 669.8 665.4 657.3 655.6 658.1 664.5 676.2 682.9 684.8 685.5 690.7 693 688.2 682.2 675.8 667.6 658.2 644.3 636.3 629.5 623.8 620 615.7 613.6 616.2 612.1 605.9 602.5 609.9 616.8 626.9 634.9 641.7 643.8 644.5 635.6 617 633.2 650.8 665.5 679.3 688.6 696.7 699.4 697.4 689.8 679.2 665 648.8 631.3 612.6 584 561.5 548.8 530.4 516.3 502 487.6 477.3 467 456.1 446.5 433.9 439.3 445.7 445.5 444.6 441.1 444.4 452.6 458.4 470 478 487 493.4 498.2 500.3 496.2 487.8 474.6 457.1 444.7 433.6 418 401.2 385.1 369.4 351.1 345.4 351.2 362.1 374.8 388.8 401.4 415.2 424.3 432.6 438.3 437.5 437.1 436.9 448.6 458.1 467.2 476.4 485.3 491.4 495.4 497 499.5 502 502.8 502.2 501.8 500.2 499.2 501.8 503 503.2 504.3 502.2 505.5 508.3 508.9 509.7 508.8 507.6 508 509.9 510.2 510.5 508.1 504.3 497.8 485.3 471.8 459 446.5 435.2 429.3 429.8 428.4 425.7 420.7 415.4 408.8 403.6 400 397.7 395.9 395.6 396.2 396 393.9 395 394.3 397.4 397.7 392.7 386.5 379 372.7 368.4 363.4 357.2 351.5 346.9 344.7 343 339.9 335.1 328.2 319.8 309.2 295.2
730.1 735.4 740.1 743.5 746.7 747.3 745.6 743.1 739.5 734.6 727.5 721.2 716.2 711.9 707.8 706.3 702.5 698.3 693.8 689.8 686.5 681.4 680.5 679 676.8 673.8 669.6 664.4 655.3 655.5 659.6 669.4 677 679.1 678.4 683.5 679.8 678.2 675.6 667.4 660.2 653 642.4 641.7 642.1 640.6 633.4 632.6 629.4 631.4 629.7 617.7 614.8 626.1 636.5 646.1 650.5 652.8 653.6 650.3 637.7 635.2 646.8 660.1 672.3 683.7 691.9 700 702.4 699.5 692.1 681.3 667.8 651.7 636.9 622.9 606.1 581.5 556.5 545.8 533.9 518.4 506.3 491.2 477.3 467.2 453 441.5 431.8 435.2 436.2 434.5 429.4 428.7 428.5 435.3 447.5 460.7 468.9 476.3 482.2 485 479.9 465.2 450.1 438.4 430.6 419.9 406.8 391.4 377.8 360.4 349.7 354.2 365 379 393.6 406.9 424.1 436.9 445.9 451.7 457.3 459.8 457 457.9 465.1 473.4 482.9 494.1 504.4 510.3 512.8 515 518.8 519.6 519.9 517.3 514.6 511.8 510.6 509.9 510.1 511.2 509.6 508.1 509.3 512 510.9 509.7 507.5 505 503.9 503.7 502.5 499.8 496.7 495.9 489.8 478.7 464.2 449.1 435.9 428 423.8 420.1 419.2 416.8 413.5 409.8 403 396.7 393.4 390.5 388.5 387.4 386.8 385.6 384.1 382.2 382.6 384.6 385.8 383.1 377.6 372.2 367.4 362.9 358.1 352.1 346.6 341.3 338.7 337.3 335 331.4 325.5 317.4 310 298.9
736.9 742.6 747.5 751.1 752.6 751 746 741.6 738.9 732.9 724.9 717 712.3 707.4 697.9 696.9 694.2 689.8 687 686.3 684.2 680.7 680.1 679.4 677.4 674.1 670.3 665.6 658.2 655.9 657.3 662.3 669.1 673 675.6 678.2 677.3 677.5 677.4 666.6 658.2 657.5 655.5 655.9 654.7 654.1 652.1 649.7 646.1 647.4 644.5 628.9 630.5 641.7 652.6 658 660.9 662.5 658.9 655.2 642.6 644.4 657.2 667.5 678 687.8 695.3 701.8 703.5 700.6 693.1 682.6 670.3 656.6 642.5 630.8 619 604.8 588.5 572.3 554.5 534.3 526 509.7 492.4 477.6 464.3 449 434.6 430.3 429.9 428.8 419.1 416.1 417.4 417.9 424.4 435.9 447.8 455.8 461.3 461.2 452.6 442.1 432.8 425 416.9 407.4 395.8 383.8 370.5 352 358.9 369.5 383.7 397.9 411.6 427.4 444 457.7 465.6 472.4 476.8 480.1 478.4 477.1 481.2 489.4 498.6 508.3 517.9 522.6 526.9 531.2 533.6 532.9 531 528.3 524.3 521.4 518.9 516.8 516.5 514.4 512.2 509.4 506.8 508.2 508 506 503.1 498.3 489.5 490.3 485.4 485 485.5 485.6 481 471.6 458.6 444.8 425.7 418.6 414.6 412.5 408.4 407 405.2 398.1 393.7 388.3 385.6 383.7 381.2 379.9 378.5 376.8 376.1 374.8 373.3 372.8 372.8 372.1 371 367.7 361.8 357.8 352.8 347.4 340.1 336.1 332.8 330.3 327.6 324.5 319.3 314.3 306.6 298.8
743.4 748.9 753.2 755.4 754.3 750.4 745.8 742.3 735.9 727.3 718.2 709.4 704 698.9 685.4 684.2 682.1 682.2 680 680.4 679.6 678.2 678.7 677.8 676.6 673.6 668.7 665.5 658.1 656.1 660.3 662.1 666.3 672.6 674.6 677.3 680.5 684.1 682.5 672.9 668 670.6 668.9 667.6 666.6 666.4 664 663 660.7 658.6 653.4 634.5 646.8 657 662.9 666.8 669 669 665.6 658.9 649.4 650.9 665.6 674.3 683.5 691.4 697.5 702.9 703.9 700.7 693.7 683.4 671.9 659.4 647.2 636.8 626 615.6 605 595.2 584 564.6 541.3 523.3 506 489 475.5 463.2 448.9 426.8 425.4 428.2 435.8 429.5 421.1 407.4 403 414.7 422.2 433.4 438.6 438.2 433.6 425.4 417.6 410.7 402.8 392.4 384.2 370.3 353.8 362.9 374.5 387.2 402 415.5 429.9 447.3 462.7 474.2 482.1 491.3 497.2 499.5 498.9 497 499.2 508 515 521.8 530.4 537.7 541.9 543.7 543.5 541.6 538.5 532.2 530.4 526.3 523.3 519.7 516.3 513.7 510.5 506.5 497 502.1 500.9 500 494.1 484.6 470.7 470.4 467.6 467.6 472.3 473.5 469.3 460.3 448.1 432.5 420.3 409.3 404.4 401.7 399.7 397.7 393.2 390.7 385.6 382 379.7 377.7 375 372.1 369.9 368.4 368 366.3 365.3 365.6 365.5 365.1 364.6 361.9 358.1 353.2 347.5 341.9 335.2 329.9 327 323.4 319.5 315.8 311.1 305.8 300.2 294.9
748.9 753 755.2 755.3 753.5 749.7 744.5 736.3 726.6 718.6 707.2 702 692.6 683 670.7 667.6 665.6 669.5 671.9 672.4 673.1 672 674 674.3 674.1 670.2 666.7 661.6 656.1 662.3 659.8 662.9 668 675.2 678.3 684.6 688.2 689.3 687.5 683.5 679.1 679.6 678.9 677.2 675.5 675.2 675 673.3 671.9 668.4 654.7 653.9 662.5 669 675.2 677.3 677.8 676.1 671.4 665.5 656.4 658.2 670.6 680.5 688.7 695.3 700.4 703.8 703.9 700.4 693.3 683.2 672.2 661.3 651.1 641 631.6 622.4 612.3 604.3 595.6 583.6 566.2 547.9 522.3 503.1 488.9 476.3 464.8 453.9 446.1 448.7 447 440.8 433.5 426.8 411.4 400.1 405.8 407.8 414.9 416.2 411.4 407.6 401.5 393.4 386.4 373.9 361.8 360.1 369.9 380.6 390.5 403.3 418.7 431.2 447.4 463.6 477.7 490.4 501.9 512.2 518.6 521.4 520.5 518 518.7 524.6 529.4 538.7 546.8 551.5 553 552.3 548.9 545.4 539.3 534.4 531 526.8 521.9 518 513.6 509.7 505.3 500.3 493.5 491.8 490.3 484.6 474.2 465.2 457.7 451.5 448.4 451.2 456.2 460.1 457.2 448.5 439.2 426.2 413.8 401.7 395.4 391.2 387.7 385.6 383.9 383.8 379.2 375.4 373.8 371.7 369 365.9 362.6 360.5 360 358.9 358.1 357.8 358.5 358.5 358.5 356.5 353.6 348.7 343.2 337.6 332.2 325.5 320.8 317 311.5 307.7 302.6 297.4 293.4 287.9
751.2 753.8 752.8 750 745.9 743.6 737.7 729 717 707.6 695.6 688.4 677.8 665.8 655.7 649.1 649.8 653.6 661.1 663.9 666.2 666.6 666.2 668.9 668.5 666.2 662.7 654.6 654.3 665.9 668.4 666.9 671.3 676.9 684.3 692.5 695.9 695.1 693.2 690.8 687.5 688.1 684.3 686.4 685.2 684.7 684.5 684 680.9 674.3 668.3 669.8 675.5 679.2 683.8 687.2 687 685.2 680.4 672.5 664.5 666.7 677.5 686.3 693.8 699.4 703 703.8 703.2 699.4 692 682 671.5 662.3 653.6 643.4 634.6 625.5 616.9 608.7 600.6 590.8 578.6 565.1 545.9 528.4 511.5 495.8 483.9 474 464.6 455.4 450.8 444.2 439.2 431.1 419.8 407 394.8 397.2 397.1 394.9 392.5 387.9 383.1 374.5 367.5 370.5 378.6 385.2 390.6 397.9 409.9 417.7 433.9 447.8 463 477.6 492.8 506.2 519.6 529.4 533.7 536.4 538.1 538.9 538.6 542.4 547.1 552.2 557.7 560.3 558.2 554.4 548.9 542.5 535.8 531 526.4 522 517.8 513 507.3 501.6 496.3 489.5 483.7 474.5 472.2 462 453.1 444.7 439.6 432.7 430.8 436.4 442 446.8 445.3 438.7 430.3 420.5 406 390.8 384.2 380.9 377.8 375.5 375.4 374.9 370.4 369.2 368.1 366.5 363.7 360 356.4 353.1 352.2 351.2 348.7 349.1 349.5 350.3 350.5 350 347.4 344.3 338.8 333.5 328.5 323.1 317 311 305.2 300.3 295.5 291.4 287 282.2
750.3 749.1 745.9 743 739.9 736.9 730.2 720.4 707.7 695.8 685.1 674.8 665.1 650.1 638.2 632.5 631.2 637.8 646.2 653.1 655.6 657.1 658.1 660.6 660.6 659.2 655.6 643.2 655.1 667.6 672.4 675 675.5 681.1 690.5 697.1 698.9 697 697 695.9 693.6 693.7 691.2 694 694 694.9 693.7 693.2 689.8 682.1 680.9 682.4 685.6 687.9 691.8 694.1 694.8 692.7 688.5 681.9 669.9 672.5 683.1 691.2 697.1 701.6 703.3 703.2 701.2 696.5 689.2 680 670.6 662.6 653.7 644.2 635.1 626 617.8 610 603 594.3 586.4 573.8 559.1 547.2 535.7 518.2 501.7 486.9 473.6 461.7 449.8 440.9 434.5 427.8 419.5 410.2 401.6 390.5 388 387.5 381.3 375.1 374.1 379.7 386.4 394.2 402.4 408.3 412.2 417.6 429.4 437.7 448 462.4 476.1 491.3 506.6 519.5 533 542.9 550.8 556.7 557.7 556.8 555.6 558.3 561.9 563.1 564.4 563.7 559.2 552.5 544.8 537.2 529.4 523.4 517.2 512.8 507.4 502.1 497.1 490.4 482.4 475 467.9 452.2 451.2 444.2 435.6 429.1 425.5 422.4 422.1 423.8 428.6 429.4 430.1 422.5 413.2 399.7 388 378.6 375.7 371.8 367.6 364.8 364.2 363.4 362.7 363.2 362.4 361 358.4 355 351.2 347.2 344.8 343.6 342.2 341.4 341.4 341.9 339.8 339.9 339.2 335.4 332.8 329.6 324.9 319.7 313.9 306.8 297.7 292.8 289 283.9 280.3 275.1
743.1 741.1 739.8 736.6 732.3 726.8 718.4 709.9 699 684.9 673.4 662.1 651.5 634.7 620.4 615.2 615.5 621.8 632.3 638.4 643.5 646.2 648.7 650.4 649.8 648.7 643.7 636.7 657.5 668.4 673.2 675.8 679.3 684.2 690.9 698.2 699.1 700.5 701.1 701.2 700 701.9 702.3 703.6 703.3 702.6 702.4 699.9 696.6 691.9 692.9 691.9 695 697.2 699.3 700.6 700 697.7 693.5 688.3 675.4 679.5 688.4 695.1 699 701.5 701.7 700.2 696.7 691.9 684.5 676.8 668.5 661 652.3 642.4 633 625.2 617.5 611.1 603 598.1 590 579.2 567.4 554.9 544.8 529.5 508.3 489.3 475.9 460.9 446.2 435.9 428 423 415 406.5 399.5 393.5 385.1 380.2 376.3 386.7 390.6 396.8 406.7 418.4 427.5 435.3 438.6 439.9 449.1 455.7 464.3 475.3 489.9 503.1 518.8 531.5 544.2 556.9 567.2 571.1 572.1 573.7 570.9 569.6 571 570.5 566.4 561.9 553.4 544.4 534.7 525.4 518.7 512.8 507.7 504.4 498.6 493.1 485.7 476.6 469.1 458.7 448.7 433 433.5 428.8 421.8 416.9 414.1 408.8 410.5 412 414 415.1 412.1 403.9 395 382.9 376.1 370.8 367 364.2 359.2 356.1 353.9 354.5 354.9 355.8 355.7 354.3 352.3 350.8 346.2 342.1 337.4 336.4 335.9 335 333.4 332 331 330.4 329.3 328.7 327.3 324.7 320.8 315.6 310.2 303.6 295.1 288 282.9 277.3 272.5 268.8
735.9 733.6 730.5 726.7 721 713.2 705.9 698.5 688.6 675.3 662.3 649.8 635 619.4 609.5 599.8 602.4 610.7 619.5 627 632.1 634.4 636.1 637.7 636.6 633.7 621.2 637.3 657.3 666.6 670.5 673.6 679.4 685.2 689.4 696.4 699.7 702.2 702.9 704 705.1 709 711.4 711 710 708.9 707.4 706.1 701 698.2 699 700.6 702.2 705.3 705.7 706 705.3 700.7 697.3 691.8 683.4 688.3 692.5 696.5 698.9 699.5 697.5 694.1 690.4 685.1 678.1 672.3 665.1 657.2 648.9 639.1 630.3 622.5 615.9 610.5 604.7 600.5 592.4 585 576.1 563.3 549.1 534.1 513 489.3 472.5 455.4 439.2 428.4 422.7 416.3 411.9 405.4 398 398.1 396.7 395.1 396.4 399.4 409.7 419.9 427.8 438.4 448.9 456.8 461.9 462 467.4 475.2 481.4 491.4 502.1 515.7 530.2 543.2 556.6 569.8 579 582.6 585.6 586.4 585.1 579.7 576.3 572.2 567.6 556.7 543.5 531 520.6 511.5 506.2 501.6 496.2 493 488.6 483 475.4 464.2 452.6 443.6 434.3 425.5 423.1 417.6 411 407.8 404.1 400.5 399.1 400.5 399.5 397.3 391.5 386.1 377.8 371 366.7 362.7 359.1 355 348.8 347.7 346.2 346.1 347.4 347.8 348.4 346.8 345.3 343.9 339.1 336.9 332.9 330.5 329.7 328.4 325.8 323.9 322.4 321.7 321.6 322 320.5 318.6 315.2 310.6 305.5 300.6 293.8 286.7 278.3 270.7 265.6 261
726.7 723.9 719.1 709.2 703.8 697.1 691 685.3 676.1 662.9 650.4 636.4 621.5 609 598.8 588.3 588.8 600.7 610 616.5 620.2 622.1 622 621.9 618.9 606.8 616.3 638.3 652.8 660.2 664.4 672.6 677.2 684.8 691.6 697.2 700.3 702.8 705.8 706.9 710.4 715.2 717.1 716.2 714.7 713.3 713.7 712.1 709.2 704.3 705.2 707.6 709.3 710.4 711.2 711.9 709.7 705.4 699.8 695 691.9 695.1 696.7 698.3 697.3 694.2 691.2 686.8 682.8 677.1 671.9 667.2 660.7 652.8 645.4 636.6 626.7 618.7 611.6 608.4 603.6 598.8 593.9 588.7 580.4 567 551.9 534.7 508.8 486.4 467.9 450.9 434.8 426.9 417.2 412.7 414 412.6 410.8 408.5 406.7 406.2 408.4 419.5 432.1 443.5 453.6 463.7 469.3 473.8 477.4 479.8 485.9 492.1 498.5 506.8 517.3 528.8 542.4 555.9 569.5 581.6 587.8 591.7 595 596.3 592.2 583.3 578.3 572.8 562 548.8 532.8 518.5 506.4 498.2 492.2 487.5 483.6 480.7 476.5 469.8 461.6 451.7 441.8 431.4 423 416.4 406.8 406.9 401.8 398 393.9 390.6 387.5 386.9 384.3 382.3 379.7 375.6 368.4 361.7 357.9 354.1 349.2 345.7 341.7 340.3 339.8 338.1 339.4 339.9 340 338.5 338.1 335.9 333.2 330.5 327.8 324.1 323 321.6 318.5 315.8 314.1 313.8 314.3 314.1 313.2 311.8 308.6 305.8 301.6 296.5 291.3 284.3 276.8 269.5 254.7 254.7
716.3 711.1 703.6 692.4 686.3 680.8 675.5 669.8 660.2 649.3 637.8 622.4 609.7 600.4 590.6 580.5 580.9 591.7 601 606.8 609 609.5 608.4 607.6 599.5 593.8 615 632.9 644.2 649.6 659.3 669 677.4 686.9 692.8 698.4 701.5 705.2 706.9 710.3 714.2 718.5 720.2 719.2 717.5 716.5 715.1 715.3 713.9 711 711.9 713.7 714.8 715.1 715.9 716 713.8 710 706.2 701.3 697.6 699 701.1 701.1 699.2 694.6 683.9 679.6 673.4 668.3 664.4 660.3 655 649 641.7 633.5 623.7 614 606.4 603.7 599.4 596.5 594.5 590.3 582.2 568.8 552.3 530.3 506 485.8 463 441.7 428.5 424.5 422.9 420.4 420.9 420.9 419 418.3 418.7 417.8 422.8 434.4 448.4 463 474.3 480.8 486.8 492.5 497.4 501.1 505.9 510.2 514.8 523 532.7 542.8 554.6 568.2 579.5 588.3 595.2 598.7 601.8 600.4 591.1 584.5 575.7 566.7 552.8 537.7 519.6 505 494.7 487.5 482.2 476.6 470.8 464.3 461.6 457.6 449.7 440.3 433.5 422.5 415 405.8 395 395.6 391.8 385.4 382.2 378.8 376.6 374.5 374.1 372.7 370.6 365.4 358.9 353.9 349.6 345.6 341.2 337.8 335.1 332.7 331.1 330.7 332.4 332.4 332.1 331.7 330.7 329.3 327.7 324.4 322.5 319.3 316.1 314.6 310.7 309.3 307.4 306.4 306.1 306 305.2 304 301.5 299.2 295.5 290.5 285.5 280.1 273.7 266.8 260.3 252.6
705.1 697.6 687.9 679.4 674.8 667.1 661.6 653.9 646.9 637.1 625.4 611.4 599.2 591.3 582.2 573.6 572.9 582.4 593 597.6 598.2 597.6 597.6 594.4 584.3 585.9 607.3 622.9 631.7 642.5 655.3 666.6 677.4 685.9 692.2 697.3 702.1 705.4 708.5 712.4 717 720.6 721.1 719.3 717.2 716.1 717.5 718.2 716.7 715.4 716.3 718.1 719 718.8 718.6 718.1 716.1 714.3 711.2 709.2 707.6 705.4 704.7 703.1 700.5 695 685.9 674.7 660.5 657.2 654.6 651.7 648.1 643.2 636.5 629 620.7 611 604.2 596.7 594.1 592.5 592.6 590.7 581.9 569.1 550.8 526.9 505 480.9 457.6 437.3 431.6 437.6 440.9 439.7 435.8 434.8 432.8 431.7 431.9 431.9 439.6 451.2 465 477.4 487.4 494.6 502.9 509.2 512.3 516.7 522.7 527.9 532.9 538.9 546.8 555.7 566.8 577.2 588.3 594.6 599.3 600.8 600.1 594.4 587.4 576.7 568 556.8 543.2 528.3 510.5 494.5 484.3 478.5 472.2 463.1 456.4 449.8 446.5 443.8 438.1 431.5 424.1 415.9 407.4 398.3 389 384.1 379.6 375.5 371.1 367.6 366.8 363.8 363.4 363 359.3 354.5 351.3 345.4 340.9 337.7 334.2 331.4 328.6 325.9 324.2 324.9 324.3 324.7 325.6 325.1 324.4 322.5 321.2 318 315.8 313.6 310.1 308.7 305.3 302.5 300.9 299.1 297.5 296.7 295.9 295.6 293.6 290.8 287.1 282.8 278.3 273.7 266.9 258.2 251.4 242
