ncols 200
nrows 200
xllcorner 350000
yllcorner 760000
cellsize 50
225.8 230 246.4 261.3 269.3 273.3 273.2 270.7 265.9 260.6 254.5 246.7 239.7 234.3 225.8 216.3 199.9 193.3 190.6 192.2 207.9 218.4 217.1 218.4 220.9 220.2 222 224.9 223.9 222.1 218.7 215.8 208.9 201.5 195.7 185.1 172.3 165.7 155.5 144 156.2 166.7 178.4 189.7 199 210.1 222.1 238.2 252 263.7 272 277.7 279.5 281.7 279.2 269.7 260.1 247.7 236.1 228 218.4 214.4 226.2 236.6 247.3 257.8 265.9 275.2 283.8 300.4 315.5 327.3 334.3 337.5 335.4 330.4 322.8 312.4 298.2 282.2 266.8 254.1 243.8 235.8 226.7 215.6 207.5 187.1 191 202 210.5 214.6 219.1 222.2 223.4 222.8 221.3 219 215 210.1 202.7 194.9 189.8 184.2 179.6 174.4 169 169.4 171.6 173.8 176 176.7 176.4 175.2 172 169.3 166.2 160.8 155.7 151.9 148.4 144.3 144.6 142.1 142.9 140.9 136.7 133.7 131.7 128.5 125.2 122.1 118.9 114.9 105.3 113.2 113.9 116.3 118.6 113.6 116.4 123 127 133.5 142.1 151.3 157.1 163.7 170.8 178.8 187.9 194.7 198.9 200.5 202.7 199.8 197.9 195.1 192.2 186.6 180.9 174.5 169.5 164.5 160.3 153.1 147.6 143.5 138.4 134.2 129 124.8 120.5 116 112.7 109.7 107 106.5 102.8 100.3 98.3 96.5 94.1 92.6 90.3 88.2 85.7 81.8 80.5 78.9 75.9 73.7 72.7 72.7 72 69.8 68.5 66.1 65.3 65.7
231.9 256.8 269.9 279.9 286.2 288.9 287.6 285.9 281.4 275.8 268.6 262 252.5 242 235.1 229.6 223.6 205.8 193.9 189.7 188.1 197.9 211.8 209.7 211.9 207.8 215.1 218.4 220.2 220.9 217.1 218.7 213.2 205.5 199.5 193 181.3 170.8 165.3 156 144.3 156.2 169 180.1 188.8 200.8 214.9 228.9 244.9 258 267 273.2 275.7 276.1 274.8 268.8 258.8 247.7 236.2 227.7 220.5 213.5 221 228.7 238.2 247.9 257.4 265.4 273.2 286.4 301.9 315.4 323.7 326.7 326.5 322.2 314.2 303.5 287.9 275.3 262.7 252.6 244.3 235 225.8 217.2 207.8 197.6 183.1 196 203.1 208.8 212.4 215.1 216.4 216.4 214.4 212.1 208.9 204.7 197.4 190.9 186 180 175.2 170.3 164.9 164.4 166.5 167.5 168.2 169.5 169.4 169.2 165.9 161.7 158.4 154.8 151.5 148.4 144.9 141.7 139.5 141.4 140.7 137.6 134.9 131.9 129.2 126.1 122.5 119.3 117.1 115.5 110.2 106.6 113.6 116.4 119.1 112.6 114.4 122.1 128.8 135.1 142 150.9 158.6 165.5 173.3 181.6 191.9 198.1 199.8 198.9 197 193.3 189.4 184.9 180.7 176 172.3 167.8 163.9 159 153.6 147.2 143.4 138.6 133.7 130.3 126.9 121.9 117.6 113.7 110.5 107.8 105.2 105.4 102 99.5 97.9 96.2 94.5 92.4 89.6 86.2 83.2 80.2 77.1 75.9 73.8 70.6 69.8 69.4 68 66.6 66.1 66.2 65.6 65.6
266.9 279.8 289.8 296.2 300.9 303 299.7 297.1 292.5 286.1 279.4 271.4 264 254.5 245.2 236.7 230.8 222.1 214.4 205 192.4 186.6 188.6 195.9 202.1 201.4 205.7 210.1 214.1 215.9 212.9 215.2 213.2 208.9 198.8 194.4 186.7 181.2 172.1 164.1 150.9 148 159.4 171.3 182.2 194.5 208.9 222.5 235.8 250.6 259.5 266.7 270.9 275.2 275.8 270.6 259.8 249.1 237.3 226.8 219.6 210.1 214.7 222.3 232 240.5 250 258.1 266.2 275.4 287.2 300.3 307.9 311.2 310.8 304.5 296.3 287.7 279.8 272.1 264.3 256.9 248.7 236.6 226 217.1 208.5 196.7 181.5 180.8 195.7 202.6 206.2 208.6 209.6 209.3 207.4 205.3 201.9 197.1 192 186.7 181.1 175.5 171.3 166.6 162.1 159.9 161.2 161.7 161.7 161.8 161.8 162 160.7 156.4 153.1 150.6 147.8 145.4 143.1 139.7 135.7 137.7 136.4 133.6 131.1 128.6 124.8 122 119.6 117.5 115.4 111.5 110.3 94.3 111.9 113.8 112.4 111.3 113.9 121.4 129.8 137.1 145.1 154.3 161.9 168.9 176.5 185.1 193.4 198.1 198.7 197.2 194.6 190.3 185.3 179.4 173.2 169.2 165.6 162 158.2 152.8 146.6 142.8 138.6 135.2 130.2 126.3 123.2 119.1 114.6 111.5 108.4 105.6 103.8 103 99.6 97.4 95.9 94.7 93.2 91.4 87.6 84.1 81.4 79.3 75.7 72.8 71.7 68.7 68.2 67.8 66.4 65.3 65.4 66.3 65.8 65.4
291 298 304.4 309.4 313 314.7 313.7 309.2 302.5 295.1 287.6 280 274 265.1 256.1 249.1 242.2 234.3 224.9 215.6 207 198.3 182.9 183.1 189.8 198.6 198.9 202.2 206.4 204.8 210.3 212.7 212.8 209.2 205.9 195.5 190.8 183.1 175.4 168.7 160.5 144 147.2 158.7 171.4 186.7 204 216.7 229.2 240.8 250.4 259.2 266.2 273.4 277.7 275.5 266.5 252.5 241 228 219.5 209.7 207.8 215.5 222.9 232.8 241.1 251.7 258.7 266.4 272 283 289.5 290.7 288 284.1 283.5 282.6 278.3 272.9 266.8 260.2 252.1 238.6 227.4 218.9 210.3 200.1 185.2 175 183.3 192 199.7 202 202 202.2 201 199.4 196 191.4 185.9 180.7 175 170.5 166.9 162.5 158.7 155.9 156.6 156.7 156.9 157.6 157.7 156.9 155 152.1 149.9 147.8 145.7 143.4 141.3 138.8 135.7 130.1 131.8 129.8 127 123.8 122.2 119.9 118.1 116.7 114.7 113.7 111.5 89.4 108.2 108.7 107.5 110.4 113.7 121.7 130.2 137 144.9 155.7 165.8 174.1 181.2 187.6 192.6 194.8 196 195.1 192.8 186.8 180.5 174.4 168.6 163.9 160.1 155.6 150.9 146.6 140.9 137.9 134.4 131.9 126.6 122.8 119.5 115.8 112.6 109.3 106.1 103.4 100.7 98.6 96.8 95.6 94.5 93.1 91.6 88.9 84.9 82.1 79.2 76.5 73.6 71.2 69.1 67.2 66.7 66.3 65.9 64.8 64.7 64.8 64.9 65
305.3 312 317.4 320.8 324.4 326.8 324.4 318.7 310.1 303.1 294.5 286.9 279.1 271.8 265 259 252.2 247.5 239 229.1 219.1 207 198.1 183.7 180.5 181.5 181.4 194.6 198.1 196.4 205.6 208.4 208.5 206.2 204.1 198.4 197.8 187.6 180.2 171.6 165.8 157.3 145.1 144.9 157.4 178.8 195.4 210 221.4 231.6 240.3 249.9 260.3 267.2 274.8 274.3 269.9 259.7 245 230.6 220.3 210.9 204.6 207.1 216 223.2 232.9 242 252 263.5 268.6 269.9 272.2 275.1 278.5 278.7 278.9 279.6 277.2 271.2 267.2 260.6 253.9 241.3 233.5 222.8 213.4 203 190.2 174.2 167.1 184.7 194.8 195.7 195.2 195.5 194.3 192.9 190.1 185.9 180.4 175 169.8 165.7 162.7 158.3 155.4 153.1 152.6 152.8 152.9 153.9 153.7 153.1 152.3 150.5 147.7 145.6 143.5 141.1 138.9 136.7 134.4 128.6 124 125.1 121.7 121.3 120.3 118.2 116.3 115.3 113.5 111.9 110 94.3 99.1 101.4 103.8 105.6 114.6 122.1 128.8 135.7 143.6 154.8 166.1 177.1 183.5 187 188.9 190.3 190.8 189.6 186.3 179.1 172.9 168.3 164.2 159.5 153.9 148.9 144.4 140.5 137.1 133.9 131.3 128.7 124 119.9 116.2 113.7 110 106.2 103.8 100.9 98.6 96 94.7 94 93 91 89.3 86.2 82.9 80.2 77.6 74.9 72 69.6 67.3 66.3 64.8 64.8 64.4 64.2 65.1 65.4 64.1 64.3
324.1 327 329.5 332.5 334.2 336.1 334.2 326.4 320.1 311.6 302.4 294 286.8 279.7 273.5 267.4 262.2 256.7 249.2 240.7 230.4 218.1 208.2 201.9 191.2 179.3 178.3 177.7 190.7 194.3 199.3 202 201.1 199.6 197.7 200.3 198.2 193.3 179.4 175.7 168.7 161.1 156.9 147.1 141.5 166.2 188.2 202.1 213 222.1 233.6 241.5 250.7 258.4 266.5 272.3 271.2 265.7 254.6 237.1 223.9 213 204.6 204.6 205.8 214.9 223.7 231.6 239.9 251.8 261.8 267.7 269.3 273.3 274.5 275.3 275.4 275.4 273.1 269.5 265.3 260.3 252.3 243.8 237.7 230.7 222.8 212 198 186.4 177 162.2 178.4 187.6 188.2 189.1 188 186.9 184.5 180.8 176.5 171.9 167.3 161.3 158.5 154.8 151.8 149.5 149.3 149.5 150.1 152.3 150.8 150.5 149.8 147.9 145.5 143.4 141.5 138.9 136.2 133.5 132.1 127.9 121.4 121 119.6 118.8 118.4 116.4 115.7 114.6 112 109.8 104.3 100.5 89.3 74.6 74.8 91.8 112.3 120.2 126.9 133.5 142.4 154.5 166.4 175.1 179.8 181.6 182.8 182.7 180.9 178.8 174.9 171.5 167.7 162.2 158.2 154 149.5 144.6 141.5 137.4 133.9 130.5 127.1 124.7 122.5 115.8 111.1 108.1 105.7 103.9 101 98 95.8 94 92.3 91.9 90.2 87.3 86.7 83 81.3 79.4 76.8 74.1 71 67.9 65.5 64.4 63.5 63.3 63.2 63.3 63.5 63.7 63.3 63.5
340 341.8 342.7 343.5 345.9 347.6 341.7 333.8 324.3 319.8 308.9 301.5 294.3 286.8 281.4 275.6 269.7 263.1 256.3 249.2 240.5 229 217.7 207.7 200.8 193 176.7 176.3 174.3 181.5 191.2 194.4 194.2 195.1 191.5 197 196 193.5 183.6 174.5 171.7 162.8 159.8 147.3 145.4 153.4 184.8 196.7 206.5 216.7 228.3 237.7 242.9 248.8 254.4 262 266.5 265.1 258.5 246.2 231.5 217.8 208.1 204.6 204.6 207.4 214.5 221.9 232.2 241.4 250 258.1 265.1 270.7 272.9 273.6 272.1 269.2 269.5 264.7 260.6 255.4 249.2 245 241.1 236.6 230.7 221.2 208.2 194.5 184.6 160.6 160.5 179.4 183.4 184.5 183.2 181.3 179.3 176.8 173.4 168.3 162.5 158.3 154.3 151 148.4 146.4 147.6 147.3 148.6 150.8 149.9 147.9 147.2 145.2 143.1 141 140.9 138.2 133.6 129 128.7 124.6 118.9 113.7 117.7 116.6 116 116.8 115.6 112.2 111.1 105.3 101.8 98.5 90.1 74.7 82.1 74.2 108 116.6 123.3 131.6 141.7 151.9 161.3 167.5 170.4 172.8 174.4 172.1 169.1 166 163.6 162.6 161.1 156.7 152.1 148.2 145.3 140.8 137.7 134.7 130.7 127 123.8 121.4 116.8 111.6 108.4 105.2 102.7 100.6 97.8 95.5 93.9 92.4 90.5 89.6 87.7 84.8 82.9 80.6 78.9 77.4 75.8 73.3 70.1 66.8 64 63.6 63.3 63.1 63 62.8 62.8 62.8 62.7 62.2
350.9 353.3 354.3 354.7 356.3 353.6 347.4 339.8 330.6 324.3 314.1 308.5 302.7 295.9 289 283 275.6 268.1 261.9 254.8 246.6 237.5 228.4 218 209.4 201.2 193.3 177 173.2 172 170.5 186 187.5 188.1 179.7 189.6 190.8 187.6 180.4 174.4 172.5 164.9 159.2 146.8 145.8 156.9 182.2 191.8 201.2 212.6 223.6 233.6 237.2 243.2 247.1 253.5 260.2 261.2 258.4 250.2 239.5 225.9 212.5 205.8 199.7 201.3 207 213.5 223.2 232.3 240.1 246.6 257.1 263.3 265.5 267.9 269.4 264.7 262.4 259.6 257.2 253.7 248 244.7 242.5 241.1 235.1 227.8 217.6 202.6 189.3 171.2 154.3 155.4 168.7 178.9 179.4 177 174.9 172.9 169.3 164.8 157.9 154.5 151.4 148.3 146.1 143.7 145 145.4 147.3 148.8 148.1 145.2 143.7 142.3 140.4 140.9 141 139.8 133.1 127 119 118.3 115.9 112.7 115 114.2 113.5 112.6 112.4 110.1 106.5 103.3 100.4 98.9 86.2 77.9 94.2 77 95 109.6 117.1 126.7 136.5 146.6 153.1 157.5 160.5 162.8 160.9 158.8 155.8 153.3 152.1 152.7 152.6 150.2 146.4 142.4 140.7 136.3 132.9 129.7 127.3 124.4 120.5 117.3 113.2 109.5 106.4 103.4 100.9 98.3 95.7 93.7 93.2 91.7 91 88.2 86 83.3 80.6 78.1 76.6 75.1 73.5 71.3 68.2 66.2 64.2 63.3 63.1 62.9 62.8 62.6 62.4 62.4 62.3 61.8
362.6 363.3 362.9 361.9 359.4 354.6 350.2 343.7 334.6 329 320.5 314.7 308.5 300.5 293.9 286.9 279.1 272.8 267.6 260.2 252 243.7 236 227 217.1 209.1 202.8 197 191.2 184.1 175.9 167.8 175.6 181.9 177.2 181.9 185.8 185.9 178.4 172 172.3 168.5 161 149.1 145.2 154.7 176.9 187.2 196 203.9 215.7 222 228.8 236.7 241 246.7 253.4 257 255.7 251.5 243 231.1 217.1 209.1 196.5 195.1 200.1 204 213.3 222.7 230.6 238.1 245.5 251.7 256.9 260.1 258.9 258.5 257 254.3 250.7 249.1 245 240.5 238 237 234.5 230.8 221.7 210.3 198.4 184.5 162.4 151.2 147.9 157.1 173.1 172.4 170.3 168.3 165.2 161.4 155.6 151.5 148.5 146.4 144.1 141.8 142.4 144.4 146 145.6 144.5 142.7 140.3 140.1 139 140.1 137.9 132.3 119.9 112.9 95.3 104.3 112.6 101.6 113 109.6 109.4 108.2 108.5 108.1 104.5 100.7 99.3 92.6 75.9 82.2 96.1 77.9 87.3 102.9 110 119.8 129.1 137.3 141.6 143.5 145.8 147.5 148.1 145 143.4 141.3 143.8 143.6 144.2 142.7 140.7 138.4 136.3 132.5 128.8 125.5 123.5 120.2 117.1 114.8 111.2 107.5 104.3 102.2 100 97.1 94.2 91.3 89.6 90.5 92.8 90.3 86.3 81.8 80.8 79.1 76.8 73.7 71.5 70 68.3 66.6 64.6 63 62.9 62.7 62.5 62.4 62.2 62.1 61.9 60.9
371.3 369.3 366.5 363.9 360.1 355.5 350.1 343.5 338.2 331.9 324 316.6 310.6 302.8 296.1 288.4 280.9 275 269.8 263.5 255.3 247.3 240.1 232.2 224.1 216.3 210.3 203.1 196 189.4 183.2 173.8 168.2 163.6 167.5 176.3 178.9 180.8 178.8 172.6 169.5 168.3 163.9 152 144.6 146.4 170.9 181.7 189.1 196.3 204.3 211.9 220.2 226.8 234.3 240 243.7 249 249.6 248.4 243.5 234.3 221.3 212.6 206.4 197.1 190.8 196.9 203.7 212.7 222.1 230.5 237.7 243.2 249 253.2 254.7 254.7 252.7 250.8 247.9 244.1 241.9 237.7 233.4 230.9 229.4 225.8 219.5 211.7 201.7 191.9 178.9 157.2 148.1 145.8 154 166.1 165.6 163.5 161.1 157.6 152 148.8 147.1 146 144.7 142.4 139 143.6 144 142 140.5 139 137.8 138.7 138 136.8 130.7 120.5 105.7 83.3 84.7 85.8 89 92.1 97.7 97.4 89.7 104.4 107.2 102.7 101.2 93.5 79.2 77.8 84.7 94.8 95.7 71.7 90 97.4 102.5 109.3 118.5 125.1 128.9 130.6 133.3 135.5 135.9 135.5 135.7 134.9 135.9 135.9 137.7 137.1 135.2 132.5 131.3 128.2 125.1 121.4 119.4 117.4 114.5 112.4 108.8 105.3 103.1 101 98.3 95.3 92.3 89.4 88.3 86 89.6 89.8 86.2 81.2 78.4 77 75.2 73.8 70.4 68.7 67.1 65.4 63.8 62.6 62.4 62.3 62.1 62 61.9 61.7 61.7 62.1
376 372.2 367.4 363.5 359.5 354.4 349.2 343.9 337.6 331.7 325.3 316.9 310.3 302.1 295.5 288.9 282.2 275.9 270.5 263.4 256 248.3 239.8 230.8 224.6 218.2 212.8 205.6 197.1 186.7 174.5 170 170.4 167 162.9 160.7 162.1 172.2 174.5 173.9 170 167.6 164.6 156.2 142.6 144 161.3 174 182.2 189.2 195.4 203.3 212.5 222 229 236.5 239.5 237.8 238.7 242.6 240.6 235.7 226.1 215.6 209.4 202 188.7 189.2 197.5 203.7 212.7 222 229.2 236.1 240.6 248.3 250.7 251.7 250.2 247 244.2 241 239.2 234.4 229.4 226.2 222.8 219.9 214.6 209.1 201.1 193.6 186.2 175.2 155.5 144.7 144.4 154.7 160.8 159 158.3 154.9 150.9 146.4 145.9 144.9 143.3 141.9 137.1 143.2 143.5 140.8 138.5 135.5 134.4 136.3 136 132.2 126.5 107 93.7 83.3 96.9 90 86.3 81.6 88.3 83.1 86.1 80.8 80.4 87.4 79.3 77 79.8 89.1 96 98.3 94.7 71.2 88.5 93 96.6 101.2 107.6 113.2 117.5 120.2 123.7 125.7 127.9 127.6 127.8 128 128 128.5 129.6 130 127.7 126.5 125.1 123 119.6 117.3 115.6 114.4 112.3 109.1 106.7 104.4 102 99.2 95.6 92.3 89.3 87.5 85.2 83.8 84.5 84.9 84.6 81.2 77 74.5 72.7 71.1 69.3 67.9 66.3 64.6 63 62.1 61.9 61.8 61.6 61.5 61.4 61.4 61.4 61.2
378.4 374 366.7 359.3 355.4 352 347.8 343.1 335.2 329 322.2 315.1 308.1 299.7 293.5 287.3 280 273.5 266.2 260.2 253 247.7 240.7 225.2 221.7 214.7 205.1 191.5 177.2 176 175.3 184.5 182.6 176.8 167.5 162.5 159.4 158.9 165.3 167.3 168.4 165.4 165.1 158.4 141.3 143.5 144.5 163.8 174.3 181.2 187.7 195.8 202 214.8 218.2 221.7 231.8 231.5 230.4 234.3 236.1 233.5 229.4 222.6 212.2 203.8 196.4 186.3 188.3 195.2 204.1 214.1 221.8 228.9 235.7 240.7 243.2 246.2 246.1 244.8 239.9 236.8 230.9 229.1 224.8 221.4 217 213 208.7 204.1 200.5 193.1 186.2 178.8 169.2 156.9 144.1 142.5 156.3 158.1 155.9 152.6 148.9 144.9 144.1 142.7 141.8 141.2 136.6 143.8 143.9 139.8 133.4 134 131.9 133.8 135.1 123.8 107.6 96 90.6 86 85.3 116.2 116.5 100.8 87.9 94.8 104.3 101.5 93.8 84.3 81.2 82.1 93.4 99.8 103.5 105.1 96.4 76.9 80.4 89.3 93.5 96.6 99.4 104.5 109.2 113.3 116.7 119.7 121.4 121.5 122.5 123.7 123.7 123.1 122.9 121.3 119.9 120.2 118.3 116.4 114.4 113.1 111.9 110.8 109.4 107.4 105.7 103.3 100.1 96.5 92.8 89.6 87.4 84.8 83.3 83.4 81.6 79.3 78.3 78.6 77.1 73.3 71.3 69.4 68.1 67.1 65.5 63.8 62.3 61.6 61.4 61.3 61.1 61 61.1 61.1 61.1 58
375.3 369.1 364.4 357.6 351.3 347.3 343.3 337.2 330 323.2 316.6 308.8 302.1 296.2 289.7 282.6 274.6 266.7 260.2 254.6 247.9 240.8 233.1 221.6 212.8 194.5 189.4 184.3 191.7 195.3 195.8 196.6 194.8 190.8 187 175.6 172.1 163.1 157.1 155.6 161.6 161.9 164 159.7 147.4 138.1 143.6 151.7 162.9 171.8 179.3 186.6 193.3 199.9 206.8 212.7 214.2 220.4 225.6 228.2 231.2 229.6 227.6 223.4 216.4 208.7 198.8 190.8 182.8 191 195.9 205.2 215.2 222.2 229.1 233.4 237.6 240.4 240.6 237.6 234.4 231.7 228.1 224.3 220.8 216.7 212.2 207.1 204.1 200.3 195.6 189 183.2 176 168.6 163 156.5 145 142.5 153.9 153 149.9 146.2 142.9 141.4 139.2 138.2 138.7 134.8 142.7 143.3 139.7 135.2 133.5 119.2 128 121.3 99.5 96.9 88.6 86 84.3 118.1 115.7 112.2 110.7 109.2 108.7 108 106.4 104.1 103.1 101.3 104.3 103.1 106.6 106.1 107.4 105.9 87 71.8 85.6 87.9 91.2 93.8 97.8 102.3 107.2 111.2 114 115.9 117.3 118.4 119.9 119.9 119 118.4 115.4 114.5 114 113.3 109.2 107.4 107.1 106.2 105.6 105.4 103.6 103 100.9 98.4 95.5 92.1 87.8 85.8 83 81.4 80.4 79.9 77.9 75.8 76.8 76.2 72.4 70.5 68.7 67.4 66.1 64.7 63 61.8 61 60.9 60.7 60.7 60.7 60.7 60.8 61.1 58.6
367.6 363.8 358.8 350 344.7 340.5 334.8 329.9 322.1 314.8 307.7 301.1 294.9 287.4 281.8 274.9 267.6 259.5 254.1 248.6 242.3 233.3 222.2 206 189.1 188.1 196.6 207.1 213.7 217.7 216.4 213.1 210.2 204.8 197.5 183.3 185.9 179.4 173.8 160.9 154.9 157 159.6 159.7 156.3 136.2 143.1 142.4 150.5 159 167.1 175.4 183.5 188.7 194.5 198.1 205.3 211.8 216.7 221.6 225.6 226 224.3 221.7 217.5 211.7 204.1 194 180.2 179.9 189.4 197.7 206 213.7 219.7 229.1 230.5 232.8 233 231.7 229 226.5 224.2 219.2 215.5 211.8 208.1 203.4 199.6 195.9 190.2 184.2 178.4 173.2 168.3 162.8 157.3 150 139.5 145.1 148.4 147.1 144.4 141.9 139.5 136.7 134.5 134.8 135.7 140.6 141.1 136.2 132.5 129 115.7 111 92.3 99.6 87.8 86.7 87 118.1 118 115.1 111.8 110.6 110.3 109.6 109.2 108.1 109.4 108.1 107.5 105.9 103.4 107.6 105.1 107.7 108.5 93.6 72.6 78.9 82.5 85.4 87.5 90.4 94.9 99.9 102.5 106.4 109.7 112.4 114.6 115.2 115.2 113.6 109.3 110.2 108.4 105.2 103.8 98.2 94.2 92.8 98.2 98.2 100.5 98.4 98 96.6 94.8 90.5 88.6 86 83.6 80.5 79.5 78.5 78.1 77 74.9 74.7 74.4 71.5 69.7 68.1 67 65.2 63.9 62.2 61.3 60.5 60.4 60.4 60.4 60.4 60.7 61 61.3 61.1
364.2 356.6 349.7 341.9 337 329.2 323.3 319.2 312.1 306 299.1 292.3 286 279.3 272.9 266 259.9 253 248.2 241.3 231.2 222.9 205.4 194.8 203.5 210.3 215.6 226.2 233.3 235.8 235.5 230.8 222.4 216.5 209 188.3 188.3 187.8 176.7 171.7 167.5 157.8 148.5 156.3 157.1 146.8 137.3 142.1 141.4 142.5 154.7 163.1 170.3 175.2 182 189.5 196.7 201.1 207.3 212.1 216.5 219.5 219.1 217.9 215.5 211.5 206.6 198.6 189.3 178.1 185.7 190.9 198.9 205.8 210.5 216.4 222 226.7 229.1 226 223.6 221.4 219.1 215.3 210.4 206.7 203.1 199.4 195.5 190.2 185.4 179.7 174.2 170 166.2 162.3 157.1 151.4 144.5 135.1 143.6 144.5 142.5 140.1 138.1 135.6 131 127.5 135.8 137.3 135.9 132.5 130.1 125.5 114.7 99.7 94.9 85.6 87 104.4 116.8 117.5 116.3 114.2 113.4 112.3 111 111.6 111.2 111 110.7 113 111.9 110 109.7 109.1 109.3 109.7 105.2 95.3 80.1 69.6 78.4 79.4 83.4 86.1 88.5 92.1 95.5 100.1 101.9 105.2 108.6 109.8 109.7 107.7 104.1 103.1 102.2 96.4 86.4 70.4 62.6 67.1 78.9 84.4 92.8 92.1 91.1 89.7 88.5 86.7 84.1 83.1 80.7 78.3 77.9 78.1 77.1 75.9 74.7 74.7 74.6 72.1 68.9 67.5 66.4 64.8 63 61.7 60.8 60.1 60 60 60.3 60.5 60.7 60.9 60.8 60.5
357 349.1 340.4 332.4 326.6 317.6 311.5 305.7 301.1 296.8 288.9 283 276 269.3 262.5 256.6 251 246.5 240.7 233.8 224.5 215.3 200.8 211.1 223.2 229.1 232.3 239.8 247.3 251.4 252.6 245.9 238.6 229 219.9 208.8 191 186.7 189.1 184.1 176 170.5 164.4 152.6 145.3 148.7 143.6 136.9 134.3 134.3 136.1 149.7 158.2 165.6 173.2 181 186.5 190.7 196.7 201.5 205.4 209.3 211.5 213.3 213.1 210.1 205.6 200 191.9 183.2 175.2 184.6 190.8 197.6 203.4 208.2 211.1 216.4 217.7 216.8 216.2 214 213.3 209.8 206 202 198 193.7 189.2 185.6 181.9 178 170.9 168.2 164.3 160.4 156.2 151.3 146.2 139.4 131.3 139.3 140.3 138.4 136.7 134.5 128.1 133.9 133.9 132.6 131.3 129.4 126.7 120.5 97.1 112.7 87.1 90.9 97.2 115.1 115.3 115.6 114.5 113 112.4 112.3 112.5 113 113.6 114.6 114.6 114.2 111.8 111.1 109.9 110.1 111.7 111.3 107.2 96.7 86.4 74.4 75.3 77.9 77.1 78.7 83.9 86.9 89.7 93.4 95.2 97.1 98.5 100.5 102.2 101.3 97.5 94.3 92.4 83.3 70 65.1 62.7 60.7 65.2 69.4 81.1 85.8 84.8 83.2 79.7 75.2 72.4 71.1 72 76.6 80.9 81.8 80.1 76.5 75.7 73.5 73.3 71.9 68.8 67 65.8 64.4 63.5 61.4 60.6 60.1 59.8 60 60.2 60.4 60.6 60.5 60.3 60.1
350.4 339.8 329.9 321.6 314.9 307.1 300.4 293.6 290.2 285 278.3 271.5 265.3 259.5 253.8 248.1 243.7 238.9 234 228.3 212.4 203.4 209.1 224.2 236.6 244.3 250.9 257.3 262.5 264.1 263.7 258.7 252.6 244.1 235.2 225.7 214.9 204.6 199.3 192.8 185.8 178.9 170.5 163 161.4 155.5 148.4 145.2 143.3 141.1 140.3 135.8 146.7 156.3 162.4 170.2 175.1 180.1 185.7 190.7 194.3 198.3 203.4 206.8 208.3 207.3 204.8 200.8 195.7 188.1 176 171.4 181.9 187.6 193.8 199.7 201.7 206.4 208.1 208.2 207.8 205.4 205 203.4 200.6 196.9 192.8 188.3 182.9 179.1 175.8 171.8 167.5 166.9 163 158.6 154.9 152.3 147.2 141.8 135 129.8 133.3 136.2 135.7 133.5 129.2 128.3 129.5 126.6 123.4 120.2 117.9 114.1 97.4 113.9 92.9 87.5 91.5 92.8 105.7 110.7 109.2 108.7 110.2 110.9 114.4 115.3 115.1 116.1 117 117.2 115.4 112.4 112.1 111 111.4 111.3 104.2 95.9 87.5 82.8 69.9 76.6 77.3 76.7 76 78.6 81.9 85.7 89.3 91 89.4 91.3 93.3 94 92.3 90.1 88.4 71.4 69.5 62.5 87.4 74.8 62.9 62.2 67.9 78.3 75.1 69.5 69.7 68.2 67.4 67.5 67.8 68 81.2 82.9 79.4 77.2 74.7 73.5 72.6 71 68.2 66.9 65.6 64.9 65.1 62.5 60.4 60.2 60 60 60.1 60.2 60.2 60 59.8 60
342.9 331.7 321.4 311.2 303.9 297 289.9 282.7 278.3 273.1 267.9 262.4 258 252.8 246.5 241.1 237 233.7 218.2 214.3 206 216.6 226.1 237 246.7 258.9 264.4 268.7 272 273 272 268.2 263.6 256.5 251.5 240.3 225.7 215.3 208 200.2 192.6 183.4 174.3 171.7 165.5 161.5 156.3 153.8 146.4 142.2 140.4 133.9 138.3 141.7 150.4 157.2 163.1 168.6 173.8 179.7 183.9 187.9 193 197.6 201.5 202.6 201.2 199.7 196.1 190.6 184.5 173.4 167.9 179.1 184.1 190 194 198.2 199.9 200.3 201.2 199.1 197.5 197.4 194.8 190.6 187.2 183.1 178 174.4 170.8 167.6 164 161.5 159.6 157.2 153.7 151.2 148.1 144.8 140 128.6 126.9 127.9 130.4 128.3 125.5 116.3 114.5 110.9 111.3 104.3 105.4 101.9 104.8 110.6 107.9 92.5 91.7 87.8 89.7 105 103.9 104.6 106.8 109.8 116.4 116.5 116.9 115.2 116.5 117.9 116 113.3 112.2 113.3 111.3 111.7 106.1 96.2 87.4 84.5 77.7 68.2 77.7 77 75.8 75.4 75.2 78.7 85.2 84.9 83.3 84.5 86.3 87.3 87.2 85.1 78.9 62 62 68.6 86.9 90.6 80.5 66.5 60.4 68.3 69 67.8 68.3 67.8 67.4 67.6 67.8 67.8 69.9 73.3 74.2 73.8 72.1 71.8 70.4 70 68.1 66.6 65.5 64.8 65.8 63.4 60.7 60.3 60.1 60.1 60.2 59.9 59.7 59.5 59.5 59.7
332.6 323.5 312.8 301.8 293.8 287 280.8 275 271.2 266.1 260.7 254.9 250.5 246.4 237.2 232.1 223.4 217.4 214.3 212.2 217.4 224.5 238.6 249.1 260.4 267.3 271.8 277.5 284 284.8 279.7 275 269 263.4 253.8 242.8 228.3 220.1 215.9 205.4 193.5 183.1 187.2 182.2 174.3 167.5 158.9 156.6 152 144.8 139.2 132.1 135.5 137.8 137.8 138 142.2 152.2 160.8 166.3 168.8 173.7 180.1 187 192 195.3 198.1 197.2 195.1 191 187.1 179.8 168.3 171.5 177 180.6 184.2 189.7 192.7 194.2 195.4 194 192.2 190.7 188.5 185.2 180.5 177.3 174 170.3 167.4 164.4 161.9 159.5 157.8 155.7 152.5 150.1 148 145.9 143.6 139.4 136 125.5 124.2 120.3 117.3 117.5 119.7 118.1 108.3 116.3 117.6 116.9 118.5 112.7 108.8 101.8 97.7 96.8 94.4 87.6 93.1 92.4 94.1 105.9 108.5 115.4 116.7 118.2 117.5 117.9 115.4 115.1 115.9 117.1 118.2 118.7 109.9 98.1 86.7 83.6 80 73.1 73 76.8 75.7 75.2 74.5 74.8 76.3 78.1 77.3 79.3 81.7 80.6 79.3 80.1 64.3 69.7 68.7 84.6 87.3 92.5 88 77.5 66.4 60.1 67.2 66.9 67.2 67.6 67.4 67.5 67.5 67.2 66.9 71 70.5 71 69.9 70.2 69.4 68.4 67.7 66.4 65.6 64.9 64.8 64.5 61.5 60.1 60.3 60.2 59.9 59.6 59.4 59.2 59.4 59.5
323.2 313.9 304.7 293.6 285.8 280.4 275.5 269.6 265.1 260.1 254.3 247 242.4 232.1 229.7 222.2 228 233.7 233 227.7 226.1 231.7 246.3 258 268.5 275.3 283.3 288.4 291.5 288.5 283.9 279.9 274.2 269.5 260.2 242.2 234.5 220.7 212.6 205.1 193.6 198.2 198.7 189.7 183.3 175.7 165.7 161.7 157.2 151.3 143.8 136.7 133.2 129.7 135.1 135.8 136.5 136.4 138.8 146.5 150.7 158.7 167.7 174.4 179.5 186.5 191.6 194.2 193.4 190.9 187.2 182.1 174.8 162 169.5 172 175.3 180.7 184.3 187.1 186 186.1 184.2 184 182.3 180.2 177.7 174.4 171.1 168.4 165.8 163.3 160.7 158.1 155.6 153.5 151.5 150.1 147.5 144.5 141.5 138 136.2 135.3 129.6 135.8 135.5 131.1 129.3 128 126.6 125.3 123.8 122.8 120 115.5 110.5 106.6 104.9 104.6 103.3 103.1 91.6 88.5 90.6 93.1 104.1 108.4 116.4 117.9 117.6 117.1 115.3 116.8 116.4 115.9 110.8 109.5 102.2 96.3 91.8 85.9 81.6 76.6 68 76.5 75.5 74.9 74.2 73.4 73 72.6 72.4 73.1 72.4 72 71.3 70.5 64.2 70 75.9 84.7 88.1 89 90.7 87.1 68.8 64.6 60.8 66.2 66.5 67 67.3 67 66.7 66.4 66.3 66 69.5 69.4 69.3 69.3 68 66.7 66.3 66.6 66.8 66.7 64.3 61.8 60.3 59.5 59.4 59.9 59.4 59.2 59 59 59.3 59.5
312.2 303.9 295.9 287.9 280.4 275.2 270.8 265 260.3 254.3 242.9 235.1 231.6 240 240.7 240.7 243.2 245.5 245.4 240.5 235.9 232.8 251.1 261.4 272.6 283.5 292.4 297.2 298.8 296.7 287.5 282.6 277.3 271.7 264.6 248.9 231 221.8 213.9 202.6 216.2 219.2 212.5 204.9 196.9 187.9 174.6 168 159.1 156 149.8 146.5 146.1 140.9 134.7 132.3 128.3 135.5 134.7 134 132.3 132.3 139.5 144.3 153.7 172.4 177.8 188.2 190.8 190.7 187.9 183 178.7 167.9 161 163.4 166.8 171.2 174.4 176.3 175.9 177.7 177.4 177.2 176.5 175.6 174.7 173.1 170 167.4 164.9 162.6 160.1 157.8 155.6 152.1 149 148.4 147.9 143.5 139.1 136.2 134.8 134.3 134.3 135 134.5 133.1 132.1 131.2 128.5 126.3 124.6 127 123.3 118.8 115.4 109.3 106.7 106.4 104.1 103.9 98.6 92.7 91.4 90.7 93.1 104.5 110.9 117.4 118 117.8 118.3 116.9 115.9 114 109.9 106.5 106 105.3 97.9 98.6 90 77.1 73.5 67 75.1 75.4 74.7 72.9 73.6 73.3 73 72.7 72 71.5 71 70.6 64.5 70.1 74.4 86.3 89 90.3 85.9 91.2 81.4 63.4 59.8 66.2 66.6 67.1 66.9 66.3 66 65.7 65.5 65.7 65.9 67 68.1 68.2 67.9 66.7 66 66.5 66.1 63.4 61.5 60.1 59.8 59.2 58.7 59.4 59 58.8 58.8 58.9 59.2 59.4
303.8 296.3 288.9 282.3 276.1 271.5 267 261.2 254.2 243.5 240.9 247.4 247.7 249.2 249.4 252.5 254.4 256.8 256.2 252 244.5 242.6 249.6 264.1 277 287.9 297.2 303.4 304.1 300.6 294.7 285.2 278.8 270.8 266.7 261.7 243.1 226.5 218.1 218 226.8 224.5 221.4 218.5 210.4 193.2 187.8 176 167.8 162.3 155.2 153.4 152.4 146.2 138.6 134.9 132.4 130.6 127.4 128.8 131.5 130.7 129.6 128.7 130.9 143.7 164.7 177.7 186 188.4 188.1 185.1 181.4 176.7 158.7 155.3 155.5 161.6 163.7 165.1 166.2 169.4 171.4 171.3 173.4 173 171.8 170.5 169 166.4 163.9 161.6 159.4 157.1 154.5 152.4 149.4 145 143.8 141.6 138.3 135.7 134.6 134.6 134.9 135.5 134.9 133.7 132.5 130.6 128.5 126.8 125.5 131 130.5 122 120 116.7 112.7 108.2 106.2 103.8 101.7 98.8 93.6 93.1 90.8 93 101.1 112.8 117.2 122.5 123.6 119.7 118.4 118.1 120.7 117.9 114.1 108.1 106.2 105.1 95.3 81.3 76.5 69.4 72 61.9 71.9 72.3 73.8 73.8 73.4 72.3 70.7 69.9 69.6 69.3 66.5 66.8 69.3 82.1 90 91 84.2 82.7 83.3 63.7 65.3 66.2 66.7 67.1 66.5 65.9 65.3 65 65.1 65 65.1 64.7 64.5 65.4 67.3 67 67 67.5 66.9 62.6 60.9 60.2 59.5 59.1 58.7 58.6 58.6 58.6 58.7 58.8 59.1 59.3
295.8 290.5 285 278.4 273 268.6 264.2 258.9 241.7 243.8 245.8 252.1 254.9 257.6 260.6 263.8 269.8 269.6 266.6 262.3 255.4 249.5 250.5 265.9 278.6 288.7 300.2 307.6 307.6 302.7 296.9 288.1 276.5 272.2 269.3 262 256 234.6 219.8 227.7 229.1 227 223 218.9 209.7 214.1 204 191.4 178.2 168.9 162.4 159.3 156 148.1 142.3 138.9 136.1 135.5 132.6 129.7 126.8 129.6 128 125.5 123.4 124.1 138.5 165.7 178.5 184.1 185.5 184.1 181.7 179.1 174.6 165.4 163.9 149 147.9 153 159.6 164.2 166.1 167.8 170 170.4 170 168.3 166.7 165.1 163 160.6 158.1 155.4 152.7 146.4 144.1 143.3 141.2 138.8 137.3 136.3 135.2 135.4 135.6 135.7 134.7 133.5 132.2 130.5 128.6 126.9 126.7 130 130.8 124.5 122.1 119 115.7 111.8 107.4 103.4 100.4 98.5 94.4 93.6 91.7 90.9 93 94.1 115.8 125.4 123.3 122.9 121.8 127.2 130.3 129.6 121.4 107.7 109.2 107 97.7 90.4 87.5 81 77.3 75.3 73.9 70 63.2 70.3 70.8 70 68.4 61 57.8 60.2 64.5 68.3 69.4 69.1 76.4 71.7 68.6 68.2 69.7 63.5 63.7 65.2 66.3 66.9 66.3 65.7 64.9 64.9 64.9 65 64.6 64.7 64.5 65 65 65.8 65.5 64.5 63.6 62.3 61.3 60.3 59.5 58.9 58.7 58.5 58.5 58.5 58.5 58.7 58.9 58.7
289.2 284.4 279.4 275 270.5 266 262.2 253.9 242.6 253.2 257.8 262.9 266.9 270.4 274.9 278.6 282.4 283.2 277.7 272.2 265.2 256.8 256.6 267.7 280.1 292.1 304.1 312 310.5 305.2 298.8 288.2 276.7 270.6 268.6 263.5 252.8 236.8 244 242.9 244.5 242.1 238.1 227.3 218.6 225.6 217.7 204 192.6 182.3 170.2 164.2 157 152.4 148.1 144.5 143.3 140.8 136.7 133.4 129.9 126.8 124.5 137.1 131 128.5 124.5 152.2 165.3 173.2 178.3 179.3 179.2 177.8 174.4 171.1 167 162.5 149.6 146 152.8 158.3 162.1 166.3 167.2 167.5 167.7 166.8 165.4 163.5 161.7 159 155.9 153.1 150.8 145.6 140.6 139.1 138.1 137.5 138.4 139.1 137.6 137.1 136.7 134.7 133.8 132.8 131.6 130.5 128.6 126.6 127.4 130 131.1 126.6 123.4 119.7 116.3 112.9 109.2 102.8 95.5 94.8 94.8 94.5 92.7 93.1 92.2 93.3 107.7 126.7 128.6 129.5 129 130.5 128.9 129.8 118.8 110.3 112.8 113.6 107.4 104.8 100.1 96.2 92 87.1 83.4 80.6 77.7 73.9 66.2 57.2 57.2 62.9 68.8 68.3 58.3 63.3 69.3 68.2 68.1 68.7 69.3 66.7 59.9 61.1 61.3 63.4 65.5 66.3 66.2 65 65 64.9 65 64.7 64.3 64.4 64.6 64.5 64.5 64 63.4 63.1 62.7 61.9 61.1 60.2 59.5 58.9 58.6 58.4 58.2 58.8 58.3 58.3 58.4 58.4
285 280.9 276.7 272.5 268.5 264.9 256.2 246 254.1 257.9 264.6 272.5 278.5 283.1 288.6 293 295.6 296 289.9 284 275.3 266.6 263.6 269.3 282.7 294.3 304.5 312.6 314 308.8 300.4 291.4 279.2 270.7 269.6 265.2 247.6 250.6 258.2 256.3 251.2 248.2 240.9 232.9 224 222.8 213.7 204.1 195 187.8 177.9 170.2 163.8 157.2 152 148.6 145.6 142.8 141.9 142.8 146.5 150 153 153 141 127.5 121.7 136.4 148.9 154 161 168.1 170.4 173.4 172.4 170.3 166.5 162.8 157.3 146.4 145.7 154 160.7 164.6 165.2 165.8 164.8 163.8 163.1 161.4 159 156.4 153.5 150.3 146.9 142 138.8 137.2 136.5 136.3 137.4 141.8 140.8 138.6 136.5 133.7 132.8 131.8 130.9 129.8 128.2 127.3 127.8 129.6 130.9 126.8 121.1 116.7 110.8 102.5 98.9 97.5 96.4 95.5 95.1 94.9 93.8 92.7 92.8 92.9 94.4 115 121.5 126.9 126.8 123.6 124.6 121.2 118 121.3 123.2 123 121.8 117.8 113.1 109.8 105.7 99.6 96.3 91.2 89.5 88.2 84.3 78.6 71.9 69.6 69.4 69 67.9 58.4 59 68.3 68.8 67 62.2 59.1 60.6 65 58.8 59.4 61.9 64.3 65.1 65.2 65.2 65.1 64.9 64.2 64 63.9 63.8 64.3 64.2 63.8 63.4 63 62.3 61.6 60.9 60.3 59.6 58.9 58.6 58.3 58.1 57.8 58.5 58.1 58.1 58.1
281.7 278.2 274 271 268.3 264.7 251.7 249.9 258 263.1 273.6 282.7 290.8 297 302.3 306.6 309.5 309.4 303.6 295.4 285.5 275.9 270.8 269.4 285.9 296 304.9 309.1 312.3 309.2 302.8 293.5 282.4 271.3 270.2 263.7 265.7 262.2 263.7 259.3 256.1 250.6 243.2 237.8 223.9 224.1 216.3 209.5 197.7 189.2 180.7 174.1 170.5 167.7 160.6 154.7 152.2 148.2 147.1 143.6 147.2 152.9 158.6 163.5 153.4 127.5 124.8 126.2 136.8 144 147.7 150.4 160.3 163.5 166.3 166.5 164.8 161.3 156.6 147.6 141.6 152.8 158.4 160.3 161.1 161.5 161.2 160.9 159.7 157.5 155.3 152.4 148.8 145.1 142.2 139.2 137.6 136.8 135.7 135.3 136 139.1 137.7 136.7 134.8 132.6 131.7 130.8 129.9 128.9 127.9 128.8 129.1 132.2 128.7 120 112.9 104.5 98.7 98.3 98.2 97.5 96.2 95.1 94.7 95 94.2 93.5 93.3 93.1 93.8 102.3 118.2 119.3 126.1 128.6 123.8 124.5 130.3 133.2 135.6 135.8 132.2 127.8 123.1 118.5 113.5 107.4 102.6 99.1 94.3 97.1 97.8 95.4 93.2 83.5 74.2 70.5 68.6 65.4 63.5 56.8 61.8 61.6 62.5 61 60.2 60.4 60.2 57.6 60.4 62.9 64 64.5 64.6 62.2 63.7 63.6 63.5 63.3 63.1 63.7 63.9 63.1 62.4 62.6 62.2 61.7 61 60.3 59.7 59 58.5 58.3 58 57.9 57.9 57.8 57.7 57.7
278.6 276 272.9 270.6 267.7 264.6 253.9 255.1 264.5 268.7 281.5 292.4 301.6 309.2 315.1 319.1 322.3 321.7 316.5 306.4 296.3 286.7 279 274.8 290.3 299.5 307.8 312.6 315 309.8 303.7 294.5 283.9 274 271.2 268 268.3 269.7 266.7 263.1 260.2 257.6 256.5 249.4 242.2 228.8 219.3 211.2 216.3 210 196.9 180.1 174.5 169.5 163.4 159.5 157.4 157.2 154.8 155.1 148.4 146.4 149.6 157.6 157.1 130.8 124.6 124.1 127.5 138.1 142.3 145.2 148.4 152.8 156.5 161.9 161.6 158.3 155.4 149.8 139.3 147.7 153.7 156.1 156.9 157.2 156.9 156.3 154.5 152.3 149.8 147.4 144.8 141.1 139.6 138.1 137.5 136.7 135.4 134.3 133.4 133 132.2 132.3 130.9 130.6 129.7 128.9 128.2 127.1 126.8 126.4 126.8 121.8 116 109.3 100.8 99.5 99.2 98.1 97 96.5 95.5 94.9 94.3 94.4 94.8 94.6 93.1 93.6 94.2 105.7 116.9 117.5 121.6 121.8 126.6 134.1 140.1 144.3 145.2 143.2 139.3 134.5 129.7 124.6 118.6 111.8 106.3 101.7 94.2 99.3 98.9 98.1 96.1 94.4 94.2 89.8 90.6 73.2 63.9 62.1 54.8 59.3 60.8 59.8 58.5 57.8 56.1 56.8 59.1 61.3 61.5 60.7 60.9 58.9 59.9 58 59.8 62.2 61.3 61.8 62.6 61.9 62.1 62.1 61.8 61.5 61.1 60.4 59.7 59 58.5 58.2 58 58 57.8 57.6 57.4 57.4
273 273.6 271.1 269.8 267.3 255.1 255.2 264 268.9 277.3 290.1 301.3 311.1 320 326.3 331.7 334.6 333.3 328.6 319.1 306.6 295.3 286.8 281.7 295 304.4 311.7 316.2 318.6 316.1 309 298.3 287.7 277.8 274.1 272 274.7 276.3 275 272.1 270 266.6 263 255.1 247 242.3 237.2 232.9 227.2 218.9 199.6 186.2 177.7 175.3 170.1 164.7 162.8 166.2 162.5 157.3 153.5 150.9 150.3 152.1 147.4 135.8 125.1 121.3 125.7 128 138 140.7 142.9 144.9 148.1 153 153.1 152.7 150 148.8 137.8 138.5 147.4 151.2 152.2 152.6 152.3 150.1 148.3 146 143.4 142.4 140.1 140.2 139.7 138.5 137.5 135.9 134 132.5 131.6 131 130.6 130.9 129.8 129.7 127.6 127.4 123.5 122.9 124.8 124.2 119.7 113.5 108.8 101.8 98.4 98.4 98.6 97.6 96.7 96.1 95.4 94.8 94.1 93.7 94.5 94.2 93.9 94.4 97.2 115.1 114.7 115.4 119 124.5 132.6 141.3 149 151.9 151.4 148.2 144.4 138.8 133.4 128.3 121.7 114.8 108 102.7 96.8 99.9 98.4 96.3 95.4 93.1 92.1 91.4 90.4 85.1 77.1 81.3 66.4 55 56.2 58.1 58.2 57.6 56 55.5 56.6 58.6 58.7 59 58.7 56.8 56 57.3 58.1 57.5 56.4 55 55.8 60.9 62.1 61.7 61.4 61 60.7 60.3 59.8 59.1 58.4 58.2 58.1 57.9 57.7 57.8 57.1 57
271.2 269.4 268.1 268.2 266 257.8 257.6 267.3 274.6 284.8 297 308.3 318.9 327.6 334.9 341.2 344.1 344.1 339.3 329.9 318.4 305.9 296.3 292.9 301.4 309.6 316.8 322.4 325.7 323.2 316.7 305.6 293 284.1 278.9 275.9 283 282.8 282 280.7 279 276.4 269.4 263.7 258.2 250.9 244.9 241.5 233.7 226.8 216.9 201.2 186.6 181.4 175.3 168.7 163.2 164.6 166.1 165.9 162.1 157 155.1 155.6 151.7 146.4 126.5 123.1 123.1 124.9 128.9 135.3 136.7 138 140.2 142.1 142.7 144.3 144.4 143.6 138 135.8 137.5 143.9 144.6 144.3 143.9 142.5 141.8 139.7 138.9 138.4 138.8 139.4 139.1 137.3 134.9 132.5 131.6 131.2 131.6 132.2 132.7 132.8 133 130.9 125.1 120.5 122.1 116.4 120.3 117.6 110.3 104.6 100.6 98.1 97.4 98.4 97.8 97.4 96.8 95.3 95.8 95 94.5 94.2 94 94.1 95.6 99.8 110.3 112.2 112.6 115.3 120.8 129.3 139.6 148.7 153.8 154.8 154 150.8 146.1 141.1 136.1 130 123.8 116.8 109.8 104.7 100.8 96.3 97.4 95.7 98.6 93.7 91.9 91.1 90.1 90.6 86.6 82 75.6 62.5 57.7 55.7 57 56.5 56.1 55.6 55.3 55 54.8 55.2 52.5 54.5 55.9 55.3 56.2 55.9 55.3 56.2 55.2 60.1 61.6 61.3 60.9 60.6 60.2 59.9 59.6 59.2 58.5 58.1 58 57.8 57.8 58 57.2 56.7
276.4 272.2 269 263.3 260.7 258.5 265.7 270.7 278.8 290.2 300.4 311.5 323.5 334.1 343 349.2 352.5 353 350.5 342.6 329.8 316.6 306.5 303.4 310.2 316.2 324.3 329.5 331.4 329.7 322.4 310.8 299 290.6 286.9 287.8 288.2 287.5 287.7 286.8 285.7 282.2 277.5 271.5 264.8 257.4 251.8 246.2 239.7 231.6 220.3 200.1 196.1 188.7 181.4 176.8 167.2 162.8 170.3 169.6 160.7 157.8 158.3 155.7 152.6 150.9 138 125.3 121.6 124.5 124.2 123.6 129.8 130.3 132 130.5 134.6 140.6 141.6 143.2 151.1 135.6 135.1 140.2 140.1 139.7 139.2 138.8 138.8 139 139 137.9 137.7 138 137.2 134.9 132.5 131.2 131 131.5 132.9 133.5 133.7 133.3 132.8 126.2 121.4 119.5 116.3 113.4 110.9 104.9 102.6 101.3 98.4 98.4 98.3 98 97.6 97.2 95.1 95.3 94.8 95.6 98.1 103.9 110.9 115.2 114.1 113.5 112.9 113 114.6 118.9 126.2 136.3 145.6 154.3 156.7 156.7 155.1 151.3 146.5 141.5 137.1 131.1 125.4 118.1 111.1 107.4 103.1 98.3 91.5 93.4 98.3 96.7 92 91.2 89 85.2 84.4 81.3 74.3 63.8 59.5 58.3 52.8 54.9 56.3 55.7 55.1 55.1 55 52.1 55.8 52.1 54.4 54.1 54.1 55.2 56.1 55.7 54.6 60.7 61.2 60.8 60.5 60.1 59.8 59.5 59.1 58.8 58.4 58.1 57.9 57.6 57.9 58.2 57.4 57
279.6 275.9 272.5 264.6 267.1 266 265.9 272.2 279.1 290.2 302.1 313.8 326 337.6 347.4 355.8 360.1 360.2 357 350.8 340.7 328.2 317.6 315.1 320.1 326.2 331.8 335.8 337.1 334.4 328.5 318.9 306.1 297.9 295.5 296.2 295.1 293.7 292.4 293.5 291.8 287.2 282.2 276.3 269.1 261.3 255.5 249 242.6 236.4 223.2 221.2 209.7 196.7 189.7 184.8 173 164.7 165.4 161.6 159.8 156.8 156.4 157.8 155 152.9 147.8 137.6 121.9 121.1 123.1 123.1 123 122.7 126.1 126.6 129.8 139.5 139.6 142.8 149.6 139.8 131.8 132.6 139.1 138.3 138.8 139.6 139 139.2 139 137.4 135 134.9 134.4 132.3 129.9 130.8 130.7 132.4 133.5 133.9 133.8 133.8 129.5 122.9 120.2 117.9 113.6 107.7 104.3 103.2 102.3 99.5 98.8 97.7 97.6 97.4 97.3 95.9 97.9 106 113.1 115.4 120.2 125.3 125.2 124.5 121.3 119.5 118.3 118 120.3 124.2 132.4 143.1 151.1 156.2 157.4 157.5 155.2 151.6 146.9 142.5 138.1 132.3 126.8 119.8 112.6 108.3 104.4 98.5 91.1 90.4 94.7 94 93.1 90.2 86 82.4 90 88.7 86.5 84 62.9 59.3 58.1 56.6 56.2 52.5 54.1 52.5 59.1 59.2 58.5 58.3 58.4 51.8 51 51.9 54.1 53.9 59.4 61 60.9 60.6 60.3 60 59.6 59.3 58.9 58.6 58.4 58.5 57.3 57.1 58.5 58.7 56.9 56.8
283.5 279.1 275.1 267.6 271.4 270.1 272 272.9 280.6 289.6 302.1 315 326.9 338.5 349.8 358.7 364.6 367.2 362.3 355.9 349.2 339.8 332 330 332 337.3 339.6 341.8 342.3 340.6 332.9 324.3 312.7 304.8 302.8 303.5 302.5 301 299.7 300.5 297.4 292.3 285 280.1 272 265 258.8 251.6 246.4 238 234.3 229.2 222.7 215.6 210 202.8 195.9 184 174 172.2 166.5 161.3 156.6 159.8 158 152.7 150.1 145.7 133.1 119.9 118.8 120 122.3 121.9 121 121.6 121.3 137.8 139 140.5 141.8 140.3 131.7 130.6 138.7 139.3 140 140.5 139.8 138.9 138.4 137.8 135.8 134.1 130.6 129.1 128.9 130 130.6 133.2 133.9 134.5 134.6 131.8 123.9 120 115.9 112 107.7 104.1 103.2 101.7 99.3 99 99.2 97.9 97.5 96.8 96 105 113.6 119.9 128.6 129.5 129.6 130.3 130.8 131.2 128.6 126.2 124.8 124.2 126 132.1 138.9 147.9 154.5 157.3 158.2 158.2 155.2 152 147.6 143.6 139.1 133.6 128.1 121.4 114.8 109.1 105 100.6 92.7 88.7 88.1 90.2 92.1 91 87 84 89.2 90.3 90.4 89.7 78.4 63.3 59 57.6 57.5 58.4 59.2 60.9 60.9 60.1 57.9 57.7 57.9 57.9 56.1 54.7 50.9 50.5 59.1 60.9 60.7 60.4 60.1 59.8 59.5 59.1 58.8 58.5 58.6 58.7 58.5 57.7 57.7 57.1 57.7 57.3
286.4 282.2 276.2 275.5 276.5 279.2 278.9 278.4 279.2 289.8 301.5 314.6 326.9 338.7 350.3 360.4 367.7 370.8 368.8 364.4 357.1 349.7 342.9 343.9 345.6 347.2 350.5 351.5 349.7 347.7 340.8 328.4 318.1 311.9 309.7 309.9 308.9 307.6 305.8 304.1 302.1 296.9 290.9 283.2 276 267.5 259.3 254.8 249.3 244.5 239.9 236 228.9 222.6 215.7 208.7 202.9 196.5 188.9 175.8 174.9 169 159 156.8 161.6 156.3 152.1 148.1 137.3 126.8 125.3 122.4 117.9 119.6 121.1 120.3 119.3 133.4 137.3 140.3 141.8 137.3 128.1 133.8 138.8 139.7 140.1 139.7 137.5 133.9 134.7 137.4 135 134.3 129.5 128.9 128 128.6 130.1 133.6 134.2 135.1 133.9 125.6 118.8 114 109.8 106.8 104.8 103.3 101.4 100.6 99.8 99.4 98.6 98.5 94.7 101.6 112.2 124.8 132.7 137.3 140.7 141.4 143 140.7 139.7 138.9 137 134.7 133.1 132.7 133.7 137.3 143.2 151.6 157.1 158.5 158.5 158.4 155.3 152.4 148.9 144.9 140.4 135 129.5 123.6 116.9 109.9 105.2 100.5 96.3 91.3 87.1 86 86.5 86.9 87.6 86.4 87.7 88.4 91.3 89 85.8 75.4 64.8 58.3 58.2 57.4 59.5 60 60.1 58.8 56.9 57.3 57.6 57.1 54.5 54.5 54.2 53.8 50.1 60.7 60.5 60.2 59.9 59.6 59.2 58.9 58.6 60.1 59.4 61.8 62.2 59.7 59.8 58.2 56.4 56.6
289 285.2 274.8 281 283.6 289.2 290.1 287.8 285.8 291 302.3 313.5 326 338.9 351.2 362 371.3 376.2 377 372.2 366.1 361 359 358.6 359.8 360.8 361.7 361.5 360.1 356.5 348.6 337.7 328.1 321.1 317.3 316 314.8 313.7 310.6 306.6 304.7 300.9 295.7 287.4 279 272 264.6 261.3 256.7 251.5 247.5 242.8 234.7 228.2 218.8 213.1 207.1 200.5 194.4 187.7 181.9 173.3 164.3 154.6 162.1 161.3 155.1 153.8 144.5 139.4 137.1 135.9 122.8 120 117.5 119.6 119 133.6 137.5 137.4 140 136.3 127.2 132.3 138.2 139.4 137.9 134.3 132.6 132.2 131.7 131.5 132.8 133.4 130.8 129.4 129.4 126 126.9 130.7 134 130.7 122.2 115.6 111.4 109.1 106.2 105.3 104.7 102.9 100.6 100.4 99.9 99.4 98.7 95.5 106.5 120.2 132.9 144.8 145.5 150.3 154.1 153.5 154.3 152.2 150.8 153.8 149.2 145.5 144.6 141.8 141.2 142 147 154.1 158.8 160.2 160.1 158.5 156.2 153.5 150.8 146.7 141.9 136.4 130.9 125 118.2 111.1 105.9 101.5 97.3 95.7 91.4 85.9 84.2 83.3 86.1 87.6 88.1 88.9 91.2 91.5 88 87.9 76.1 65.4 60.2 59.2 58.9 59.1 58.8 57.5 56.4 56.9 57.2 55.8 54.2 54.1 54 54.2 52.1 60 60.1 59.8 59.5 59.2 58.9 58.6 58.3 59.4 60 62.3 61.2 60.5 60.2 60.2 56.9 56.3
291.4 284.4 283.3 286 292.6 296.9 299.3 298.8 294.6 293 303.5 313.6 326.5 338.5 351.3 364.3 376.2 384.3 387.5 385.6 380.9 377.3 374.1 373.2 373.7 374.2 374.6 372.8 370 365.1 358.1 347 337.2 329.9 324.5 323.2 320.2 318.7 315.3 312 306.4 303.9 298.3 290.3 282.2 274 270.1 269 264.2 257.6 251.6 244.5 237.5 231.1 223.7 215.8 209.6 202.9 197.6 191.2 184.5 174.5 166.2 156.7 155.1 164 158.4 158.3 147 140.7 136.1 138.6 131.3 122.2 121.8 117.3 117.7 128.7 135.4 134.5 135.7 132.1 125.4 137.9 136.6 136 134 133.4 132.7 132.8 131.6 129.6 132.6 132.6 130.8 130.1 130.5 129.1 126.2 123.9 126.9 120.8 114.6 110 108.1 106.7 105.9 102.9 103.3 101.3 101 100.2 99.7 96.3 100.4 115.7 127.9 137.9 146 157 160.5 163.4 165.9 166.6 165.8 166.1 163.9 165.6 159.4 156.4 153.9 152.2 149.4 148.4 147.9 157.4 161.2 161.9 160.9 158.9 156.8 154.4 152 148.2 143.3 137.8 132.3 125.8 118.5 112.2 106.4 100.8 96 92.5 89.3 85.7 83.8 83.5 83.8 91.4 90.5 90.3 90.9 90.8 89.6 87.3 85.4 67.7 60.3 58.4 58.8 58.9 58.2 56.8 56.3 55.6 56.4 54.6 53.8 53.6 53.8 54.1 53 59.4 59.5 59.4 59.1 58.8 58.5 58.3 58 57.6 59.8 60.1 60.3 60.1 59.9 59.6 58.8 59.5
290.9 283.8 288.3 292.3 300.8 305.7 309.1 309.4 306 299.5 307.5 318 329.2 340.4 353.9 367.9 380.3 391.2 396.7 397.8 395.8 392.5 390.7 389.1 386.8 386.3 386 383.8 379.7 372.9 365.7 355.7 343.9 337.5 333.3 329.1 325.7 322.9 319.7 314.1 308.8 306.2 301.8 291.5 284.6 277.3 276.5 276 267 258.7 252.4 245 238.4 230 224.2 218.3 212.2 204.7 199 193.6 186.2 178.5 170.3 163.2 151.6 153.5 158.4 160.3 151 144.5 143.7 140.8 136.8 121.9 120.9 120.2 115.2 123.6 133.3 133.3 132.5 123 124.9 132.9 132.8 131.6 131.6 131.3 131.1 130.9 128.9 126.3 127.8 124 121.6 123.2 127 130.7 128.5 110 115.3 113.2 110.2 108 107.1 106.3 105.5 100.8 100.3 99.9 100.8 99 96.1 106.5 124.3 134.2 145.3 154.8 162.8 168 171.9 174.8 176.3 176.9 176.4 174.7 174.2 174.2 168.4 165.5 162.2 158.3 157.8 155.2 154.2 158.7 160.8 162.1 161.4 159.3 157.2 155.1 152.3 148.3 143.7 137.5 132.2 125.9 119.9 110.9 106 101.4 97.1 93.2 88.4 86.1 83.9 83.1 82.7 85.7 87 88.1 88.7 89.3 89.3 88.3 86.9 72.1 59.9 58.1 58.6 58.7 57.6 56.2 55.9 56.8 54.4 53.5 53.4 53.3 53.5 53.2 50.9 55.4 57.1 59 58.7 58.5 58.2 58 57.7 57.6 58.3 60.2 60.9 60.4 60.3 56.9 59.4 60.3
287.6 291 293.7 300.9 308.5 314.6 318.3 319.7 316.8 312.1 308.5 322.6 334 345.7 359.8 372.9 385.8 397.1 404.7 409.6 409.9 409.4 405.3 403.8 401.4 399.8 397.1 393.6 387 379.4 370.4 361.1 350.6 342.1 338.4 335 331.4 327.2 322.2 315.4 312.2 309.9 301.9 292.1 284.3 280.2 278.2 276.2 269.8 259.2 250.3 244.9 237.3 228.8 222.4 216.3 210.2 203.5 197.9 191.8 186.5 180.9 173.8 166.5 158.1 150.5 150.9 154.1 156.5 147.8 145.9 145.8 139.6 123 120.4 119 118.5 119.9 121.7 122.7 124.6 122.2 122.2 128.5 129.2 131.3 129.6 129.2 123.8 118.1 115.4 114.4 113.4 112.9 112.4 111.6 112.2 114.9 116.1 102.8 103.5 103.1 102.1 101 103.3 102.2 101.2 100.9 100.2 99.6 98.6 103.6 119.2 132.5 143.7 154.6 164.3 170.5 175.2 179.9 183 185.9 186.6 187.1 187.4 185.7 182.9 181.1 178.6 174.3 171.8 168.2 163.8 161.3 160.9 160.5 161.6 161.8 160.2 158.6 156.5 154.2 150.4 146.3 141.8 136.3 131 125.3 118.3 111.5 106.2 101.9 97.8 94 90.8 86.5 85 83.5 83.5 83.3 84.2 85.9 87 87.4 88.6 88.8 87.4 76.6 61.3 58 57.1 57.1 56.9 56.9 57.6 58.1 55.9 53.6 53.7 53 52.7 52.6 48.5 53.9 54.1 55.8 57.8 58.1 57.9 57.7 57.4 58 57 56.8 56.7 60.2 60.3 58.9 59.9 60.8
291.8 296.3 300.1 309.4 316.9 322.6 327.3 330.2 329.2 323.7 319.6 324.3 338 351.3 364.9 377.7 390.2 402.6 412.8 418.6 422.7 422 418.6 416.3 413.2 410.6 408.1 405 396.4 384.7 374.4 364.5 354.5 349.5 342.8 338.8 333.7 328.4 321.8 319.2 315.6 311.7 300.6 293.2 288.8 282.1 278.5 274.8 268.4 259.1 248 241.4 233.8 224.2 218.7 213.8 207.4 201.1 195.8 190.6 184.6 179.3 173.7 168.3 165.1 161.3 154.7 149.5 146.8 143.9 141.9 139 136.8 125.9 120.3 118.6 117.8 116.8 119.7 120.6 121.3 121.3 121.7 120.7 119.9 119.2 118.4 116.5 115.3 114.5 113.5 113 112.7 112 111.6 111.1 111.1 102.6 102.6 102.3 102.3 103.6 102.8 102 102 102.5 101.9 101 100.2 96.4 109.6 125.9 139.2 151.5 165 175.7 180.6 184.4 187.3 189.4 191.6 194.3 196.3 196.1 194.8 191.7 190.3 186.8 185.2 181.8 178.6 176.3 174.2 168.2 165.9 164.9 162.8 161 159.1 157.6 154.7 151.2 147.3 143.6 139.6 134.2 128.7 123.9 117.8 111.6 106.9 103 98 94.3 91.7 89 86 82.9 83.5 83.6 83.7 86 87 88.1 88.5 89 88.7 82.6 65.9 58.1 57.4 56.8 56.6 56.5 62.6 58.4 57.4 55 53.8 53.4 51.9 52.2 50.5 53.4 53.5 53.5 55.2 56.5 56.7 56.9 57 57.4 57 56.4 56.2 57.4 59.1 59.3 60.8 60.7
298.6 301.9 307.3 315.4 323.5 331.2 336.1 340.6 341.3 337 330.6 323.1 341.3 354.5 368.6 381.3 393.8 407.8 418.6 426 430.3 431.3 428.1 423.4 421 417.9 414.5 410.1 402.7 388.6 379.4 370.2 362.5 355.3 347.5 338.9 332 326.7 323.8 322.9 316.7 308.6 302 297.5 288.9 281.6 278.2 274.7 266.5 254.2 244 235.4 228.1 221.6 215.8 209.4 204 198.3 192.7 187.7 182.7 178.3 173.9 168.2 165.4 161.5 160.2 156.2 154.7 154 152 146.5 143.6 139.8 122.9 118.6 117.9 114.5 118.3 119.7 120 120.1 120.5 119.4 118.4 117.5 116.6 115.8 114.9 114.1 113.2 113.2 112.6 111.3 111.6 111.4 110.6 103.2 104.8 103.8 104.2 103.9 103.6 103.3 100.9 101.3 101.1 100.6 98.3 112.2 128.8 142.1 152.4 171.8 182.4 188.7 192.6 193.7 195.9 197.5 199.5 202.8 204.5 204.3 201.9 198.4 195.2 192.4 191 189.3 187.3 185.4 181.7 177.6 174 171 167.1 162.5 159.5 156.7 152.9 148.2 144.3 140.5 137 132.3 126.6 121.9 116.6 111.4 106.4 101.8 99.4 95.3 92.5 89.4 86.8 84.7 82.9 84.2 85 84.8 84.8 87.2 87.8 88.3 88.9 87.9 69.7 61.3 59.3 57.3 58.3 68.2 67.7 59.2 57.3 56.6 55.9 55.3 53.6 51.8 51.2 52.6 52.8 52.7 52.6 55.2 55.2 54.8 55.9 56.5 57.1 56.1 55.6 58.1 58.3 58.5 60.8 60
307.1 309 316.3 324.4 333 341.1 346 351.3 352.8 350.8 344.7 339.4 342.4 355.1 369.9 383.6 398.9 409.3 422.1 431.3 435.1 435.5 433 427.6 424.6 420.4 415.1 407.8 399.1 389.3 379.3 371.4 364.8 358.2 348.4 336.5 333.7 328.1 325.5 324.5 313.6 308.3 304.2 296.3 286.2 281.1 277.9 271 259.6 246 236.2 229 222.2 216.2 211.2 204.3 198.3 192.9 188 184 180.7 177.2 173 168.1 165.9 164.5 161.1 155.4 153.9 152.9 149.6 147.2 140.9 138.8 126.3 119.4 116.5 113.4 116.7 118.6 118.7 118.9 118.8 118 117.2 116.3 115.6 114.7 114.1 113.3 112 110.9 110.3 109.5 108.3 108 107 106.4 104.6 104.9 104.5 104.1 103.7 103.3 103.2 102 100.5 101.1 113.2 130.5 145.6 160.5 175.1 181.7 194 198.7 200.7 201.1 202.5 204.6 208 211.5 212.1 211 207.9 204.7 201.9 199.6 198.3 198 196.9 192.2 187.2 182.4 178.6 174.9 170.1 164 159 154.5 150.1 146 141.3 137.4 134.4 130.5 124.9 120.5 116 110.9 105.8 101.4 98.1 96.2 92.7 89.1 86.9 84.5 83.1 84.8 84.8 82.1 82.9 85.4 86.1 86.8 87.3 85.1 79.1 70 64.3 64.9 67.4 67.4 66.8 61.5 57.1 56.7 56.1 55.7 55 53 52 52.4 52.4 52.3 52.3 52.8 54.3 54.5 54.9 55.4 56 55.8 55.2 56.3 56 57.6 59.9 61.1
313.9 316.3 325.9 335 343.5 351.9 358.3 363.7 366.5 364.6 358.8 350.5 349.5 353.4 369.6 384.6 399.4 411.6 422.8 432.1 437 438 436 430.1 421.3 415.7 410.5 402.5 394.2 385.2 377 369.6 361.4 354.1 340.3 334.8 334.5 332 324.7 320.5 312.1 307 301.9 292.7 282.1 277.6 271.9 263.1 249.1 237 228.4 222.2 216.7 211.7 206.3 201 196 189.2 183.7 181.5 178.6 175.2 171.6 167.3 164.6 164.4 160.7 154.8 152.2 149 146.6 144.4 142.2 139.6 129.2 122.4 116.7 113.9 116.2 116.9 117.1 117.4 117.5 116.8 116.1 115.2 114.5 113.9 113.3 112.4 111.2 110.4 109.8 109.1 107.9 106.7 106.4 105.4 104.2 105 104.4 104 103.6 103 102.3 102 102.1 113.6 131.3 146.4 164 180.4 190.8 198.3 197.3 204.4 205.3 206.2 207.6 210.9 216.4 219.8 218 215.7 213.3 210.6 208.5 206.6 205.6 203.7 201.2 196.9 191.7 186.7 181.2 177.1 171.6 164.7 157.2 150.5 146.4 142.4 138.3 134.4 131.9 128.7 123.6 118.9 114.9 110.1 105.1 101.2 97.8 94.9 92.5 88.9 86.4 83.9 83.6 85.5 84.5 83 80.3 82 82.7 83.3 83.1 80.8 76.8 72.5 69.6 68.4 67.5 67.2 66.9 65.4 57.2 56.8 55.8 55.7 55.7 54.3 53.2 52.4 52.4 52.3 52.6 54.1 53.8 54 54.5 54.3 54.9 55.5 55.1 54.6 55 56.5 60 59.9
319.7 327.6 337.4 346.8 355.2 363.5 369.8 376.8 380.4 380.7 374.2 367.8 363.1 360 364.8 384.9 398.8 411.5 422.4 429.2 435.9 437.5 435.4 429.9 420.7 412.8 406 396.8 387.1 377.7 369 362.4 353.3 343 334 332.2 332.4 330.2 321 314.4 308.5 304.2 297.4 289.2 278.4 271.6 263.1 250.9 239 229.4 221.1 216.3 211.7 206.6 201.3 196.6 191.2 185 180.6 178.4 176.1 172.6 168.8 165 162.4 161.9 161.9 153.8 149.9 146.8 144.3 143.6 142.8 139.2 133.3 122.8 115.4 115.3 115.1 115.5 115.9 116.4 116.3 115.6 114.9 114.3 113.7 113.1 112.6 111.6 110.5 109.8 109.5 108.8 107.6 106.9 106.5 106 104.9 105.3 104.4 103.9 103.6 102.7 101.6 102.1 116.4 133 146.9 163.9 181.1 194.4 202 204.7 206.3 204.9 206.8 207.5 210.8 216.6 220.9 223 222.5 219.9 217.5 215.4 214.2 212.3 209.6 207 204.3 200.3 195.8 188.4 183 178 172.3 164.5 156.9 149.5 144.1 139.9 135.8 133.9 130.5 126.3 122 117.3 113.6 109.3 104.9 101 97.6 95 91.9 87.9 85.9 84.6 84.3 85.9 84.2 82.5 79.7 78.2 78.9 79.5 78.6 76.1 72.7 71.1 68.6 67.7 66.7 66 66.1 65.8 65.1 61 59.8 59.6 58.8 58.1 55.7 48.9 49.8 51.4 51.5 53.3 52.7 53.5 54.3 54.1 54.1 55.4 55 54.5 55.1 53.9 58.6 58.7
330.6 338 347.4 358.6 367 376.1 383.3 389.4 392.4 392 391.2 385.5 378.1 371.7 369.5 388 403.4 415.2 425.6 433 434.8 435.5 433.8 427.9 419.6 409.7 399.3 388.8 379.3 369.6 360.5 351.4 340.7 330.4 329.9 328.7 326.4 321.5 314.3 307 303.1 299.8 289.8 281.7 271.6 263.5 251.6 240 230.5 222.4 216 210.4 205.2 200.9 197.3 192.4 187.9 183.7 178.9 176.5 173.8 169.3 166.2 163.2 160.8 159.1 158.3 152.6 150.4 147.6 143.2 141.2 140.9 136.4 131 118 112.5 114.7 114.7 114.7 114.9 115.3 115 114.3 114 113.6 112.9 112.3 111.8 110.7 109.9 109.4 109.2 108.5 107.2 106.9 106.5 106.1 105.8 105.3 104.8 103.9 103.7 111.6 123.4 131.1 137.7 150.5 165.5 182.2 196.9 204.2 206.9 208.7 208.2 206.3 207 208.7 213.2 218.4 222.3 224.5 226.6 224.2 222.4 220.4 219.6 217.5 212.5 209.4 204.7 200.7 195.3 188.3 183 177.2 171.5 164 156.3 149.1 142.6 137.8 134.2 130.8 127.2 122.9 118.7 115.1 112.4 108.6 104.7 100.7 97.5 94.8 92.1 86.8 85 84.7 83.8 84.9 83.7 82 79.8 77.1 75.3 75.1 73.8 70.8 69.8 69.1 68 67 66.1 65.1 64.7 64.6 63.9 62.4 61.8 60.9 59.9 58.6 57.4 52.8 50.5 48.3 48.2 52.3 54.7 53.2 54.1 54.3 54.9 54.7 54.6 54.5 54.8 53.7 55.9 59.7
340.6 348.5 358.3 369.6 379.3 388.5 394.4 400.7 403.7 404 402.6 399.4 393.9 386.5 375.1 393.4 408 419 428.4 433.1 436.2 435.6 432.3 424.6 415 405.3 395.3 382.9 370.1 359.1 349.7 339.6 327.3 324.7 326.1 321.7 316.1 311.7 304.7 301.4 297 290.5 280.7 272.5 262.8 251.9 241.2 232.9 223.5 217.2 211.3 205.4 201 197.1 193.1 187.8 183.1 179.5 175.1 173.1 171.5 167.4 164.4 161.1 157.9 155.5 152.2 151.1 148.8 146.8 142.4 138.1 138.9 133.4 122.2 115.6 113.3 113.1 112.8 114.3 114.2 114.3 113.9 113.6 113.3 112.9 112.3 111.6 111 110.1 109.3 109.1 108.9 108.2 106.8 107 106.5 105.7 106.1 105.5 114.4 120.5 128.5 131 138.2 145.3 154 167.9 183 198.5 207 209.6 210.1 209.4 208.1 206.6 206.3 207.5 212.9 217.6 222.3 226.9 230.6 232 230.2 227.4 224 219.2 214 208.8 204.1 199.3 193.9 187.8 181.9 176.3 170.1 163.2 155.9 148.7 141.5 135.9 131.4 127.9 123.9 119.6 115.7 112.6 109.9 107.1 103.9 101.2 97 94.2 91.4 88.3 85.2 82.8 82.4 83.5 82.9 81.4 79 76.9 75.8 73.7 72.1 71.2 70 68.4 67.5 66.7 65.8 64.8 63.6 63.3 62.2 61.3 60.7 59.9 59.2 58.3 57.4 53.2 50.9 50.4 48.8 47.8 52.1 52.1 52.6 54.3 54.2 54.5 54.4 54.3 54.8 53.5 57.9 58.9
352.6 359.7 370.7 382 391.1 398 404.6 411.6 413.7 413.7 411 408.4 405.5 401.1 380.4 399.7 410.4 420.4 429.1 434.4 437.2 436.1 431.7 424.9 414.5 402.7 392 378.4 364.1 350.7 336 326.5 319.6 318.6 320.3 316.7 309.3 303.2 297.4 290.5 285.2 278.9 270.1 261.6 252.4 241.2 232 225.2 217 212 206.1 200.5 196.7 192.4 188.7 183.2 178.9 173.6 170 167.8 166.6 164.1 161.2 158.9 155.8 153.4 151.1 149.2 149.1 146 138.6 136.3 133.3 128.5 122.4 114.8 113.3 113 113.7 112.4 111.8 114.4 113.3 112.9 112.6 112.2 111.6 111 109.6 109 109 108.8 108.6 107.9 106.6 106.9 105.6 109.2 116.2 121.2 129.1 132.2 134.3 139.9 148 158.2 171.2 185.4 199.5 208.6 212.1 212.9 212.2 209.9 207.2 206 205.7 206.4 211.1 216.4 221.8 229.5 235.5 238 235.4 231.2 224.9 218.8 213.6 208.2 201.9 197.1 191.9 186.2 180 173.5 167.4 161.2 154 147.3 140.7 134.1 129.1 124.6 120.5 116.4 113.2 110.1 107.6 104.4 102.4 99.2 96.3 93.7 91 88 84.7 82.1 80.8 81.4 81 80.6 78.2 76.7 75.7 73.5 72.4 71.7 70.8 69.3 67.8 66.3 65.5 64.4 63.2 62 61.3 60.7 60 59.3 58.5 57.7 57 53.6 51 50.4 49.4 50 48.7 52.5 52.8 52.6 53 53.4 53.7 54.1 54.1 52.6 53.1 54.4
365.3 373.3 383.7 393.5 402.4 410.2 416 419.7 421.4 420.7 418.7 416 412.9 409.2 399 404.8 413.4 421.2 428.2 434.9 436.2 434.6 431 423.5 413.3 401 388 374.3 359.2 343.6 327.9 318.8 314.1 312.8 310.2 306.5 300.7 295 290.7 282.5 272.1 262.9 256.5 247.3 238.4 228.5 221.5 215.8 210.8 206.4 201.8 196.6 192.2 187.6 184.8 178.5 174.2 170.7 166.9 164.1 163.2 160.7 157.7 155.4 151.8 148.9 145.7 143.1 141.2 137.7 136.3 132.8 131.7 127.6 122.9 114.4 112.5 112.4 112.3 112.1 111.7 111.9 111.4 111.7 111.1 110.4 110 109.4 109.2 109 108.8 108.6 107.9 107.8 107.3 106 113.4 120.5 128.5 130.9 135.7 141 145.8 152.8 163.4 175 187.4 199.9 208.6 212.8 214.8 213.9 212.7 209.9 206.9 204.9 204.6 204.7 208.7 214.1 221.7 231.4 238.6 241.7 238.7 232.4 225.8 219.1 213.2 207.2 200.5 194.7 189.2 183.5 177.9 172.2 166.6 159.6 152.8 146.2 139.6 132.9 126.4 121.7 117.6 113.8 110.7 107.6 105.7 102.1 99.4 97.1 94.6 92.2 89.4 87.7 86.3 82.1 79.8 79 79.2 79 77.4 76.2 74.4 72.9 72.7 72 70.7 69.2 67.5 66 64.7 63.2 62.3 61.5 60.8 60.1 59.4 59.2 58.7 57.8 56.9 56 50.8 50.4 49.9 48 48.4 52.1 52.5 52.5 52.6 52.9 53.2 53.6 53.5 53.9 53.3 55.1
378.6 387.5 397 405.2 412.8 419.9 425.1 428.4 428.3 427.1 423 418.1 414.6 410.7 405.1 405 412.5 417.6 425 430.9 432.3 430.8 425.7 416.8 406.8 396.7 384.9 373.3 357.7 342.2 323.8 312.2 309.2 305.3 299.3 293.1 288.5 286.2 279.9 271.2 262.7 251.4 243.9 235.5 226.8 220.4 215.2 210.1 205.2 201.7 197.4 193.7 188.4 182.6 178.1 173.7 169.7 166.9 164.4 160.4 157.5 156.2 153.2 150.1 143.4 139.2 134.6 131.6 131 132.8 131.7 129.8 127.8 127 122.3 120.4 113 112.9 112.1 111.7 113.2 112.5 111.9 111 110.4 110.7 110 109.6 108.4 109.1 108.8 105.8 107.2 107.2 109.5 115.5 121.1 129.7 134.3 140.3 144.9 150.3 158.2 168.8 179.8 191.5 200.2 208.2 213.6 215.5 215.9 214 212.3 209.3 205.9 203 202.5 203.1 206 212.3 222.4 232.6 241.3 243.3 240.3 234.5 226.8 220 213.3 206.2 199.6 193.7 186.5 180.8 175.3 169.9 164.3 158 150.6 144.3 138.2 131.5 125.5 120.5 116.5 113.3 108.8 105.7 102.6 99.9 97.5 95.3 92.9 90.5 87.4 86.5 86.5 82.5 79.7 78.6 78.3 77.9 77.3 76 74.2 72.8 72.6 71.3 70.1 68.5 66.8 65.2 63.9 63.2 62.1 61 60.2 60.7 60.3 59.8 59.3 58.6 57.7 56.4 52 49.5 49.5 48.8 50.9 52 52.4 52.6 52.5 52.8 53 52.8 52.9 53.2 53.3 53.4
396 403.2 411 418.4 425.7 430.2 434.3 435.1 435.6 432.7 428 421 414.7 410.1 405.9 406.9 411.1 415.2 420.6 425.7 425.9 424.5 420.1 408.7 400.9 393.5 383.4 371.9 357.5 342.3 326.4 310.5 301 297.3 288.8 282.3 277.1 275.6 268.2 260.7 250.7 242.6 236 227.3 220.2 214.4 209.7 205.1 200 197 192.9 188.3 184.3 177.2 174.1 171.9 166.8 164.2 161.7 157.2 151.6 150.6 147.1 142.6 135.8 129.6 124.8 122.5 121.7 121.6 122.2 120.5 120.4 121.2 121.6 120.3 118.2 113.3 112.2 113.3 113 112.7 112 111.7 108.7 110.9 109.5 107 106.4 109.1 111.7 112.2 113.4 116.8 116.8 120.1 128.2 133.7 140.5 147.2 153.9 162.2 172.1 183.1 193.2 203.7 210.9 215.4 217.4 217.6 215.2 212.5 211 208.4 204.9 201.9 200.8 201.5 203.4 212.1 221.7 231.7 240.1 241.4 238.9 234 227.7 220.6 213.6 205.3 198.5 192.1 185.1 178.7 173.3 167.7 162 155.8 148.9 141.5 135.7 129.9 124.9 120.1 115.4 111.2 107.1 103.7 100.7 97.7 95.5 93.4 91.1 87.9 86.1 84.7 84.3 81.8 79.7 78 76.7 77.2 77.2 75.6 73.1 72.7 72.2 70.7 69.4 67.8 66.2 65.1 64 64 63 61.9 61.5 60.8 60.5 60.1 59.8 59.3 57.8 57.4 56.7 49.4 46.7 47.5 51.5 51.5 51.9 52.2 52.3 52.5 52.5 52.6 52.7 52.8 52.6 52.9
414.2 418.5 425.8 432.9 438 441.6 443 441.4 438 434.4 428.5 420.4 412.5 406 398.5 401.8 406.9 410.7 415.1 417.5 417.9 416 412.1 404.1 398.4 392.5 382.8 370.7 356.4 342.7 328.1 313.7 303.7 294.3 279.6 272.4 266.8 259.7 253.2 246.9 238.7 232.6 227 221 215.4 210 205.2 200.4 195.6 191.6 187.1 182.3 179.7 174.7 171.3 167.9 163.8 162.1 158.7 153.2 149 143.3 140.9 134.8 128.3 125.1 122.5 122.2 122.6 121.4 120.9 120.1 119.6 119.3 118.3 119.2 118.5 113 112.7 113 112.2 112.5 111.4 111.1 110.8 112.6 119.9 121.2 121.8 120.4 119.2 118.9 120.7 123.4 119.4 126.1 130.8 137.3 144.6 152.5 161.2 172.7 184.2 194.5 204.2 212.3 217 219.7 219.5 217.3 214.4 210.7 208 205.6 202.8 200.5 199 199 201.3 208.9 218.5 227.9 235.6 237.9 236.1 231.8 226.1 219.4 212.3 204.7 198.9 191.7 184.4 177.9 171.9 165.4 159.8 153.6 146.7 139.7 133 127.6 123.7 118.5 113.8 109.4 105.8 102.2 99.2 96.4 93.9 91.5 88.5 87.2 85.4 83.7 82.7 81.4 79.5 77.9 76.2 75.5 75.2 75.2 72.9 72.3 71.8 70.3 68.7 67.4 66.3 65.2 64.2 64.3 63.9 62.7 61.5 60.6 59.7 59.3 58.9 58.4 57.8 57.4 57 53.6 46.5 47.9 51.6 51.1 50.6 51 52.3 52.4 52.4 52.4 52.5 52.2 53.1 53.3
433 436.7 440.4 445.3 448.7 449.5 447 445 440 432.5 425 415.5 404.7 394.7 388.8 394.2 400.6 404.3 407.9 410.5 409.6 407.5 403.8 399.6 394.7 388.6 380.3 367.3 354.3 343 327.9 316.3 307.8 297.6 285.7 272.7 258.1 249.9 242.2 235.9 230.9 226.2 220.9 216.5 211.2 205.8 200.8 196 190.9 186.6 182.7 178.4 175.4 172.2 169.4 165.5 161.9 157.8 154.5 150.3 145.1 137.1 132.4 127.9 124.3 122.5 121.6 121.9 123.4 122.2 120.5 119.7 118.9 116.5 115.5 115.3 115.1 113.9 112.7 112.7 112.3 111.6 112.2 110.6 120.8 125.4 127.8 130.5 131.7 131.4 130.5 129.1 131.2 132.1 120.6 130.6 133.7 140.4 148.4 157.7 169.4 181.5 192.9 202.7 211.2 217.3 221 221.6 220 217.5 214.4 210.9 207 203.9 200.9 198.7 197.5 197.2 197.4 205.7 214.3 222.5 229.1 232.6 232.2 228.7 224.1 218.1 211 204.2 197.9 192 185.1 177.9 171.7 166.3 160.1 153 144.6 137.6 131.6 126 120.6 117.2 112.3 108 104.6 100.9 97.9 95.5 93.5 91.4 89.4 87.9 84.9 84.3 84 82.9 81.6 79 76.6 75 74.1 73.5 73.3 72 71.3 69.8 68.1 67.5 66.4 65.3 64.5 65.1 64.3 62.7 61.5 60.6 59.7 58.8 58.1 57.6 57.1 57.2 57.4 57.3 48.1 49.8 51.7 51.2 50.7 51 52.8 52.6 52.2 52.2 52.1 51.9 51.5 52
449.8 453 454.8 455.5 456.2 454.9 452.6 447.7 440.7 432 421.4 408.9 394.5 382 376.8 384.9 391.1 395.3 398 399 397.9 396.2 394.8 391.7 388.7 383 372.5 364.1 351.8 337.8 323 315.2 308.1 296.7 284.7 273.1 259.1 245.6 237.3 230.7 225.6 221.2 216 211.4 206.8 201.6 196.5 191.5 187.2 183.2 179.5 176 172.7 170.3 167.8 163.9 159.4 154.7 149.3 143.8 138.3 132.3 127.6 125 123.2 121.2 120.4 120.3 119.4 118 117.2 116.8 116.1 116.1 115.5 114 114.9 114.3 112.6 112.5 112.5 111.8 112.2 126.8 134.4 137.1 137.2 139.4 137.9 136.4 136 133.5 133.8 131.7 127.4 133.9 137.5 144.1 152.7 163.7 175.7 188.1 198.6 208.4 216 221.2 222.8 223.6 220.3 217.3 214.4 211.1 206.7 203.4 200.1 198.4 197 195.9 195.8 199.6 206.8 214.4 220.7 225.4 226.1 223.9 221.3 216.3 209.3 203.8 196.6 190.8 185.9 179.1 174.1 166.3 159.3 151.6 143.6 136.5 130.7 125.7 121 116.4 111.3 107.8 105 102.8 100.7 98.3 96.2 93.7 91.8 88.7 85.6 83.9 83.5 82.8 81.6 79.1 77.2 75.6 73.8 72.6 71.5 71.4 70.1 69.2 67.9 67.5 66.6 65.7 64.2 64.2 63.6 62.4 61.4 60.5 59.5 58.6 57.7 56.8 56.5 56.5 56.2 56 45.9 48.9 50.4 51.2 51.4 52.2 52.6 52.7 52.1 51.7 51.7 51.5 51.2 51.6
463 465.2 465.7 463.8 462.6 460.3 454.8 447.6 439.1 428.3 416.4 403 384 370.6 367.2 368.7 375.4 380.6 385 385.5 385.1 385.1 384.7 382.4 379.6 373.2 366.1 357.9 344.4 329.6 317.4 313.2 304.9 292 281 268.4 255.4 242.3 233.9 226.7 220.4 215.5 209 205.5 201.2 197 192.2 187.3 182.5 179.6 176.4 172.9 169.7 166.4 164 159.7 155.4 151.2 146.9 139.7 131.8 126.1 124.2 122.8 123 121.5 120.5 119.4 118.9 118.4 117.9 117.4 116.9 115.9 115.7 115 114.4 114.5 113.2 112.6 112.6 116.4 135.2 142.7 146.5 144.1 143.1 144.3 143.1 142.5 142.5 140.4 134.1 131.2 131.2 136.4 141 147.2 156.2 167.4 179.5 191.3 202.2 211.7 219.2 223.5 224.7 225.1 221.9 219.1 215.4 211.4 206.8 203.6 200.6 198.6 197.3 196.2 194.9 194.9 198.7 205.6 211.2 215.9 218.3 218.9 217.8 213.5 208.3 202.3 196 189.5 184.6 179.1 172.1 165.3 158.5 150.6 143.5 136.9 131.5 126.5 121.8 117.5 113.1 109.9 107.6 105.1 102.9 100.7 97.9 95.1 92.7 90.2 87.8 86 84.1 83.6 81.5 79.5 77.8 76.1 77 74.4 72.4 71.9 71 70.1 69.1 67.9 66.3 64.6 63.5 63.1 62.8 61.7 60.9 60.1 59.3 58.3 57.4 56.6 55 54.4 54.2 51.6 47.8 48.1 49.1 50 50.8 51.9 52.3 52.2 50.8 50.4 50.6 50.8 52.3 52.9
472.7 474.2 474.6 472.5 468.4 462.6 456.2 446.9 436 423.9 410.2 394.6 376.1 360.6 354.8 355.9 361 366.7 371 372.9 373.2 373 372.9 371.3 367.7 363 356.2 343.4 329.5 316.1 313 306.9 297.7 285.4 274 260.6 248.7 239.8 231.2 225.6 218.7 213.1 207.6 200.1 196.3 192.4 187.3 182.6 176.8 174.7 173.5 169.9 166.5 163.4 160.2 155.2 150.6 147.4 141.5 135.2 127.6 124.3 123.5 122.4 122.1 120.9 121.2 120 119.7 119.5 118.9 117.8 117.9 118.2 117.1 118.8 117.3 117 116.7 120.3 124.4 137.4 149.5 155.4 155.7 150.9 149.1 148.9 148.7 147.6 146.4 143 139.1 137.7 130.4 139.9 144.3 151 160 170.5 182.7 193.4 204 213.3 220 224.4 226.5 226.7 225.5 222 217.9 213.6 209.3 205.9 207.7 207 203 199.4 197.9 194.9 194.9 198.4 201.4 205.6 209.1 211.4 212 209.7 205.4 199.1 193.3 187.7 183.2 177.6 171.1 164.2 157.4 150.5 143.9 137.9 132.6 127.3 122.9 118.9 114.9 111.8 109.1 106 103.8 101.6 99.2 96.7 94.1 91.3 88.6 87.4 86.3 85 83.1 81 79 76.8 76.9 76.9 75.7 75.6 73.6 71 69 68.4 66.8 65.1 64.4 62.9 61.9 61.1 60.3 59.6 58.8 58 56.9 56.4 56.9 56.5 56.2 55.4 54.2 45.3 48.2 49.1 49.8 51.1 51.9 51.5 51 51 50.1 50.8 52.5 54.2
477.2 479.3 479.3 478.1 473.4 467.4 457.8 446.8 432.5 418.9 405 385.8 368.8 353.8 344.8 340.5 345.8 351.3 357.2 360 362.4 362 360.3 356.8 354.3 348.1 337.1 323.4 316.7 312.6 304.7 297.2 287.9 276.7 263.9 254 245.7 238 230.8 224 217.8 212.3 207.8 203.6 193.2 190.4 185.2 181 176.1 171.7 166.4 161.1 163.2 160.3 156.5 152.6 147.3 144 137.4 131.4 126.7 124.5 123.3 122.6 124.4 135.7 133.1 129.6 127.2 124.5 123.6 122.1 122.7 122.9 122.6 120.9 117.7 118.2 120.2 124.4 136.7 151.7 161.3 163.2 161 156.6 155.2 156.3 154.8 153.4 150.3 149.2 150.3 144.3 134.2 143.4 146.9 153.5 162.6 173.7 185.6 195.4 205.5 213.2 219.8 225.3 229.2 230.1 230 225.8 221.4 217 213.9 215.4 215.5 214.5 210.9 205.8 201.6 198.2 194.9 193.5 194.2 194.6 198.2 202.5 204.8 204.2 201.1 194.7 190.2 185.8 182.1 175.7 169.1 162.9 156.2 149.4 143.6 138.2 132.9 128 123.9 120.6 117.1 113.8 110.7 107.5 104.6 102.5 100 97.5 95 93 90.4 88.2 87.2 86.3 84.8 82.7 80.3 78 76.6 76.1 75.8 75.4 75.1 72.6 70.5 68.6 67 65.9 65.5 63.4 62.3 61.4 60.6 59.8 59 58.3 57.6 57.7 57.4 56.9 56.4 55.9 55.1 48.2 47.7 48.5 48.8 50.2 52.1 51.2 52.5 52.6 49.8 50.6 55.1 54.8
478.7 480.5 481.1 479.4 475.4 469.1 458.9 446.4 434.6 419.1 403.6 384.9 364.6 346.5 338.9 332.4 329.6 334.9 341.4 347.3 350.1 350.2 347.6 341.5 336.6 326.8 321.2 315.7 310.3 305.1 297.8 288.6 276.9 264.5 254.7 246.6 241.7 234.1 228 222.5 216.7 211.5 207.5 202.7 199 194.8 190.2 185.2 179 173.8 168.2 161.9 152.3 152.2 152.9 148.9 146.8 140.4 133.6 130.3 127.8 124.9 123 133 141.9 145.6 144.4 143 138.3 135.5 130 131.9 132.1 130.6 130.8 126.8 119.5 125.2 126 126.6 147 162.3 166.9 166.1 164.2 161.6 162.3 162.9 160.9 157.4 152.8 154.6 157.1 150.7 140.5 146.5 149.9 155.8 164.8 176 186.5 196 204 212.1 219.5 226.1 231 232.9 233.9 230.8 226.9 225.8 225.7 225.7 224.9 222.3 216 210.7 206.5 203.1 198.1 192.7 187.4 189.2 189.4 192.9 195.8 195.8 193.9 191.2 186.2 181.7 177.6 171.9 166.3 160.5 154.3 149 143.9 138.4 133.1 129.1 124.9 120.8 117.4 114.1 111.6 109.1 105.9 103.3 100.8 98 95.5 93.5 91.4 89.4 88.1 87.2 86.3 84.2 81.8 79.4 77.5 77.3 77.1 76.3 75.4 73.9 71.5 69.6 67.7 67.1 66.3 64.2 62.8 61.8 60.9 60.1 59.4 59 58.5 58 57.5 56.9 56.4 55.8 55.3 55 48.4 43.7 43.5 49.6 50.6 51 52.3 51.1 50 50.1 54.5 53.7
474.1 476.2 478.2 476.6 473.9 468.4 457.8 445.8 432.8 420.2 404.3 389.5 369.8 347.6 333.9 326 320.4 316.2 322.7 331.5 335.4 335.7 330.7 325.2 322.3 317.6 312.2 307.2 302.6 296.8 287.3 276.8 265.4 257.6 248.7 242.5 237.1 232.1 226.6 220.5 215.3 210.8 207.5 203.1 198.8 194.6 190 185.5 180.9 175.6 170.1 164.1 157.8 149.2 144.2 143.5 143.5 139.1 131.9 131.1 125.9 124.5 123.3 145.6 152 151.7 150.4 149.4 147.8 140.8 140.3 142.6 139.7 137.4 136.8 135.3 133.3 134 127.9 135.9 153.9 166.9 168.7 167.8 166.9 167 169 167.1 164.5 161.5 156.9 155.3 154 149.2 148.4 148.5 152.2 159 165.8 176.6 186.1 195.1 202.1 210 218.3 225.4 231.5 235.2 236.8 235.9 237.2 236.5 236.3 234.5 232.2 225.7 219.5 213 209.4 204.3 197.6 192.6 187.7 182.2 183.7 183.6 185.8 185.6 185.1 184.3 181.4 176.5 171.3 166.5 160.9 156.1 151.4 147.2 142.2 138.9 132.9 129.4 125.3 121.2 117.3 113.6 111.1 108.7 106.2 103.8 101.3 98.5 96 93.9 91.9 90.6 89.9 88.8 87.7 86.4 83.9 81.9 80 78.7 77.6 76.7 75.6 74.1 72.8 70.8 69.6 68.1 67.1 65 63.4 62.3 61.3 60.5 59.8 59.2 58.2 57.8 57.3 56.7 56.2 55.6 55 54.6 54.6 53.1 50.8 43.9 49.5 51.4 51 51.2 50.5 52.5 53.6 52.9
469.1 470.6 471 469.6 469.3 463.1 454.6 444.3 430.8 418.4 405.3 391.1 375.6 357.8 340.8 324.4 312.5 309 307.9 315.3 319.4 320.5 319.8 316.3 313.3 308.8 302.7 296.2 291.6 283 274.5 267.4 258.7 251.4 244.2 239.1 234.4 229.5 224.2 218.9 214 208.8 205.4 202.1 196.2 192.1 188.2 183.8 179.3 173.6 168.8 162.5 157.1 151.9 142.2 138.2 135.5 133.4 129.5 128.8 126 124.4 140 155.7 156.1 155.4 154.4 152.7 150.9 146.6 148.9 148 147.5 145.4 144.4 142.6 141.2 140.3 128.3 139.5 155.3 164.5 168.2 169.5 171 172.9 172.8 170.4 167.5 164.1 160.9 156.4 155.3 154 151.1 148.3 153 158.6 164.8 175.3 185.3 194.1 201.2 208.7 216.5 223.8 230.6 235.5 239.2 243.5 247.1 247.4 246 241.5 234.8 227.4 219.2 212.2 208.3 202.8 196.4 191.4 186.4 181.9 175.4 178.1 178.3 177.6 177.6 176.5 174.5 170.6 166.1 161.7 157.3 152.7 148.2 144.9 140.6 137.3 132.1 128 124 120.5 116.8 113.1 110.6 108.2 105.8 103.4 101.8 99 96.5 94.4 92.9 92.3 91.7 90.7 89.3 87.6 86.5 85 82.6 80.2 78 76.9 75.7 74.4 73 70.9 69.4 68.5 67.9 65.9 64.3 63.2 62.1 60.8 59.9 59.2 57.8 57.4 57 56.5 56 55.4 54.7 54.1 54.6 54.1 52.3 47.4 48.2 49.6 49.5 49.6 51 53.6 53.3 53.1
462.8 463.8 464.6 461.9 457.8 453.8 446.1 437.7 427.1 415.6 403.3 391 377.3 362.4 346.6 330.4 315.2 301.5 300 301.1 305.5 308.7 309 307.2 304.2 299.1 290.9 286.1 279.1 272 266.5 259.3 250 245.2 241.1 236.4 231.6 226.8 221.5 216.2 213.6 207.6 203.4 199.3 195 190.4 185.7 181.4 176.6 172 166.1 160.1 154.3 150.8 144.9 136.6 133.6 131.3 128.5 127.6 125.4 135.6 154 159.6 159.5 158.9 158.2 157.2 154.4 153.1 153.4 153.6 153.5 153.1 151.8 150.2 147.8 143.2 130 140.9 149.7 157.9 167.5 171.4 174.8 175.9 175.9 173.6 170.7 167.2 159.3 160.7 159.1 158 155.2 154.1 152.5 158.1 164.4 173.9 184.4 192.5 200.3 207.6 214.1 221.6 229.5 235.1 241.9 250.3 256.9 259.9 256.4 246.7 236.7 227 218.8 211.6 206.2 200.3 195.4 190.4 185.4 179.9 174.7 167.1 171.5 171.1 170.1 168.8 166.8 162.7 160 155.9 151.6 147.7 144.3 141.1 137.5 133.2 129.4 125.6 121.7 119.1 116 112.5 110.3 107.8 105.4 103 101.4 99.5 96.9 95.2 94.6 94 93.4 92.5 90.7 89 88.1 87.2 85.9 82.4 78.7 77.7 76.4 74.6 73.1 71.5 69.8 69 68.6 66.6 65.1 64 63 61.6 60 59.2 57.6 57 56.6 56.2 55.8 55.2 54.4 53.7 53.9 53.2 52.1 50.5 43.6 49.2 49.5 50.1 52.3 53.4 53.2 53
454.2 454.9 456 454.9 451.1 443.4 437.1 428.8 420.5 410.2 400.7 389 376.1 361.9 348 334.1 317.6 302.6 289.6 287.5 294.2 296.2 297.2 293.8 289.9 284.8 278.8 273.6 266.6 261.2 256.2 248.1 243.8 240 237.7 234.1 229.2 224.5 219.8 215.1 209.7 204.9 199.5 196.7 191.8 186.4 182.8 178.4 173.6 168.7 163.4 158.1 151.7 147.5 141.7 134.7 132.6 129.2 127.4 126.4 137.5 149.1 158.6 163.6 164.9 165.1 164.4 163.6 160.6 158.9 159.3 159.8 159.7 158.2 157 155.5 152.9 148 131.9 144.2 150.9 159.9 169.3 173.8 176.6 177.8 178.6 176.8 174.1 169.7 162.7 165.8 162.9 161 158.9 156.7 154.6 158.3 164.7 173.5 182.8 190.4 198.4 205.5 213.7 221.2 228.6 236.2 246.6 258 266.5 268.2 261.7 251.4 240.6 229.6 219.5 212.4 205.3 199.4 194.5 189.7 184.2 178.8 174.4 168.8 160.8 164.8 163.2 161.1 159 155.8 152.7 149.1 146.3 143.3 139.8 136.6 133.2 130.4 127.1 123.4 119.7 117.4 115.1 112 110 107.8 105.3 102.9 100.9 99.3 97.4 96.9 96.3 95.7 95 93.4 91.2 89.4 88.7 88.6 88.5 85.2 78.3 78.7 78 74.9 73.3 71.7 70.4 69.6 69.2 67.4 66 64.9 65 61.5 60.5 59.2 57.5 56.7 56.3 55.9 55.5 55 53.8 53.3 52.6 51.9 51.5 50.8 50 44.1 48.3 50.8 52 53.4 53.1 52.9
445.8 445.9 446.9 445.3 441 434 424.2 417.5 409.5 403.7 394.7 383.2 371.7 360.7 347.4 332.5 317.3 301.4 290.3 278.6 282.5 285.8 284.3 281.2 277.7 271.3 265.2 259.9 254.9 250.2 246 241.4 238 236.3 234.2 231.5 227.4 222.7 217.5 213.2 208.2 201.9 197.3 192.6 188 181.8 177.8 174 169.4 164.8 159.6 155 149.8 145.6 136.4 131.5 129.6 128 126.7 138.1 145.5 153.4 163 168.3 169.6 170.3 171.3 170.4 166.5 166.6 166.3 165.9 165.1 163.3 161.9 160.5 157.4 152.4 135 146 152.3 160.8 171 176.3 178.2 179.3 181.6 179.7 177.4 175.6 169.9 173.2 169.3 165.3 162 159 157.2 158.7 165 173 181.5 190.2 198.1 205.7 213.3 221.4 229.3 239.8 251.6 264.7 274.6 275.3 267.2 256.1 244.2 232 221.3 211.9 204.6 198.6 193.8 188.5 183.2 177.8 173.4 168.7 162.4 154.5 157.1 155.5 152.5 149.4 146.6 143.6 141.2 138.9 135.2 132 128.9 127.1 124.4 121.1 118 115.7 113.5 111.5 109.5 107.5 105.3 102.9 102.2 100.7 99.4 98.6 98 97.3 96.1 94.4 92.2 90.2 90.4 91.3 90 86.9 80.5 77.6 77 75.4 73.5 72.2 71.3 70.4 69.4 68.1 67.5 68.2 65.2 61.2 60.6 59.1 57.4 56.8 56.3 55.9 55.5 54.7 53.2 52.6 52.1 51.7 50.4 50.1 49 45 49.3 50.1 51.9 53.3 53.5 52.6
435.3 436.1 436.9 435 431.1 423.8 416.2 409.6 401.7 394.5 387 376.8 367.8 357.7 346 333.3 318.4 297.7 287.3 275 267.4 273.1 272.8 269.6 265.3 258.9 254.8 250.4 245.6 241.6 237.9 235.7 234 231.9 230.9 228.2 224.8 220.9 216.3 210.1 204.2 199 194.8 189.4 183.4 176.2 171.8 168.9 164.2 159.4 154.8 151.2 146 138.3 131.3 129.5 129.3 129.5 141.8 144.9 152.6 160.3 167.8 173.5 175.3 176.6 177.6 177.3 173.8 174 173.7 174.5 172.2 169.9 167.7 165.5 161.7 157 147.9 138.1 149.4 163 171.2 175.2 177.8 181.5 184.4 184.2 182.8 179.2 179.3 179.5 175.5 171.4 167.4 163.4 161.8 159 165.3 173.5 182.1 190.3 198 205.7 212.7 221.4 231.7 243.3 256.8 270.9 279.7 280.7 272.9 261.1 247.6 234.9 223 212.1 204.9 199.2 192.9 187.5 182.2 176.8 172.1 167.7 163.2 156.4 149.5 149.5 147.7 144.6 141.8 138.6 136.2 133.9 132 129 126.6 124.1 121.3 118.6 116.5 114.3 112.2 110.9 109 107 104.9 103.5 102.4 101.8 101.4 100.6 99.5 98.4 97.1 95.5 93.5 92 92.3 91.2 88.8 86.7 80.3 77.9 77.5 75.5 73.9 73 72.1 71.9 71.1 69.4 70.6 72 67.2 62.4 60.1 58.8 57.5 56.8 56.4 55.9 55.2 54.1 52.8 52.8 52.6 52 50.2 48.9 50.6 47.1 49.3 49.7 51.9 53.2 52.9 51.9
428.2 426.5 425.6 424.7 420.9 415.3 409.3 401.6 396.1 388.4 379.5 372.4 362.9 352.9 341.1 328.5 314.2 296.5 282.1 273.2 263.1 260.5 259.4 255.8 253 249.4 245.7 241.9 238.3 235.5 233.5 231 229.2 227.6 226.5 223.9 220.6 217.2 212.5 205.8 200.4 194.9 189.4 184.4 177.5 171.1 164.2 162.3 159 153.8 150.2 144.8 138.2 131.5 130.3 130 129.5 143.4 149.3 154.4 160.1 167.4 174.9 179 181.4 182.8 183.7 182.9 181.7 180.6 179.2 178.3 178.4 176.5 173.5 170 166.1 162.1 157 146.7 145.2 160.2 168.8 174.3 178.1 182.7 188.1 187.5 187.5 185.7 189.5 185.8 181.6 177.4 173.1 168.2 166.3 163.6 166 173.3 181.7 189.9 197.8 206.1 214.3 224.4 234.6 247.1 261.8 274.8 284.7 284.1 277.8 266.8 253.1 239.2 225.8 214.8 206.7 199.5 192.8 186.9 181.5 176 171.2 166.7 163.3 156.9 150.6 145.1 141.5 142 137.9 135.3 132.8 131 129.3 126.9 124.4 121.8 118.8 116.4 114.4 113 111.3 110 108.4 106.2 104.3 103.2 102.3 102.4 102.6 102.4 100.2 99.4 98.2 96.7 95.2 93.7 92.2 90.5 88.8 85.3 81.2 78 76.7 76.6 75.4 73.7 72.9 73.7 72.9 71.1 72.5 73.3 68.4 68.4 63.1 59.1 57.6 56.9 56.4 55.7 54.7 53.6 52.9 52.9 52.8 51.6 49.7 49.3 50.1 49.1 43.7 48.9 50.5 52.6 52.3 51.4
419 418.3 416.4 414.3 410.9 406.8 401.1 393.7 388.3 379.6 372.7 366.8 359.5 348.7 337.6 324.9 311.4 292.7 279.8 271.4 263.4 253.6 249.5 246.9 244.6 242 238.2 235.7 233.1 230.1 228.6 225.9 223.8 222.4 220.1 218.4 216.2 212.2 205.9 198.7 193.4 188.3 182 177.4 170.2 162.3 155.9 152.1 148.9 144.5 142.3 135.6 132.1 131.6 131.9 137.7 147.5 152.3 156.4 162.8 170 176.7 181.7 184.5 187.1 188.5 188.4 188.1 187.2 186.9 186.6 187.8 188.4 184.2 179.3 174.4 170.7 166.9 162.6 156.4 147.2 152.6 166.6 174.9 178.8 184.8 190.7 189.9 195.4 199.3 195.6 191.6 187.6 183.4 178.5 173.3 170.5 167.5 166 172.7 181.4 189.7 198.2 206.5 216.5 226.8 238 251.5 265.8 279.2 285.6 285.2 279.5 269.4 256.8 243.5 230.2 218.3 209.8 201.2 194.1 187.5 181.7 178.1 173.3 168.5 162.4 155.7 150.2 144.3 138 134.6 135 132 129.7 127.8 125.9 124.1 121.9 119 116.4 114.3 112.3 110.7 110 108.4 107.3 105.4 103.9 102.9 102.9 103.2 103.4 102.4 99.8 98.2 97.2 96.1 94.5 91.7 90.4 89 87.5 85.6 82.3 79.1 77.9 78.5 77.5 75.2 73.7 75.5 74.8 72.2 72 71.3 71.1 72.2 69 62.7 58.1 57 56.3 55.2 54.1 53.1 53 52.7 52.6 51.8 49.5 50.1 50 50.2 44.7 43.6 46.1 51 51.9 51.3
410.6 410.1 408.8 405 401.2 397.5 392.3 385.2 377.2 370.9 367.9 360.8 351.2 342 331.6 318.3 306.3 293.4 277.5 268.7 261.2 253.7 246.1 237.1 236.9 236.3 233.6 231.2 228.5 225.6 221.7 219.7 216.9 214.9 213.6 212.5 211.5 205.6 200 192.7 187.6 180.7 173.4 169.2 164.3 153.5 146.8 142.9 135 135 133.3 134.1 133.1 133.2 140 141.1 152.5 158.5 164.4 171.9 179.8 185.6 188.8 190.4 193.1 193.9 193.8 194.1 194.6 194.8 195.2 194.7 193.7 188.6 183.3 178.5 174.7 170.7 167.1 163.4 158.8 148.3 161.8 173.6 180.4 186.9 195 194.5 203.4 204.3 201.6 197.6 193.7 188.5 183.2 178.3 174.2 171.2 168.3 172.2 180.6 189.8 198.3 208.2 219.1 229.5 240.8 253.9 267.6 279.4 284.7 284.9 280.2 270 259.3 247 234.7 222.3 214.2 208 198 191.3 185 180.7 175.5 170.2 164.7 157.8 150.4 144.7 139.2 134.5 130.2 127.5 125.9 124.2 122.7 121 118.7 116.4 114.2 112.2 110.7 109.2 108.3 106.6 105 103.3 102.3 102.3 102.7 102.6 101.5 100 98.1 96.9 95.4 93.8 91.1 89.5 88.1 86.8 86.1 85 81.7 78 77.1 77.1 78.2 76.6 74.6 75.2 74.6 72.8 72.8 72.7 73.5 73.5 71.1 65.9 62.8 60.8 57 55.9 54.3 53.7 52.6 52.4 52.3 51.9 50.1 49.9 49.9 50.1 50 49.4 41.6 47.2 50.4 50.3
402.1 401.4 399.4 394.7 390.9 387.1 381.4 376.2 368.6 361.2 356.7 350.2 341.3 330.8 321.8 309.4 299.2 289.4 277.3 267.6 261 253.4 246.9 240.6 231.5 228.2 228.2 226.2 223.3 220.7 216.2 212.6 209.6 207.9 208.1 207.7 203.1 198.1 193 187.3 180.3 172.7 167 161.7 156.1 145.2 136.7 135.6 138.9 140.8 137 135.5 143.9 148.6 154 151.4 158.2 166.6 174 182.2 188.6 192.6 195.5 197.3 198.5 199.5 199.7 200.6 201.2 203.9 203.7 203.2 198.7 192.5 187.6 182.3 178.2 173.7 170.1 165.9 161.8 155.6 156.4 172.8 183.7 190.9 200 202.4 207.9 209.7 208.2 204 199.3 194.2 188.3 183.3 178.9 175 172.1 173.7 180.8 189.8 198 208.7 219.9 231 242.4 254.1 265.8 275.3 280.6 281.1 276.8 269.9 261.6 251.5 239.1 226.4 217.6 212 203.5 196 188.7 183.1 177.9 172.7 165.7 158.3 152.8 146.1 140.5 135.4 129.3 124.5 121.9 120.4 119.5 118.7 116.6 114.8 112.5 110.9 109.7 108 106.6 104.7 103.5 102.7 100.6 100.9 100.9 100.4 99.2 97.7 96.7 94.6 93 92.2 90.9 89.3 87.6 86 85.4 83.4 80.7 77.5 76.5 76.9 76.4 75.4 75 74.8 74.4 73.6 72.6 73.4 73.7 74.1 73.8 69.6 66.3 65.1 60.1 56 55.2 54.3 53.5 52.2 52.1 52 51 51.1 50 50.2 49.9 49.4 48.6 44.2 48.5 48.8
393.1 391 389.8 385.6 380.5 376.3 371 366 360 353.4 346.3 337.5 328 320.5 311.7 300.9 292.4 284 273.8 266.7 259.4 254.4 247.6 242.1 236.6 227.1 218 218.6 218 215.3 210.9 206.5 202.8 201 198.4 197.2 194.1 190.8 185.6 180.7 174.2 166.6 158.3 154.3 145.9 138.2 142.3 146.1 149.2 150.2 150.1 153 161.5 167.4 164.2 164.1 164.2 174.4 184 191 195.9 199.1 202 203.2 204.1 204.9 205.6 207.3 210.7 213.4 213.2 211.3 205.1 198.2 192.4 186.5 181 176.7 171.8 167.5 163.3 159.2 158.1 173.6 185 195.1 202.7 205.9 213 214.6 213.1 210.4 206.1 199.9 193.8 188.4 183.6 179.3 176.3 176.5 183.8 195.2 205.7 215 222.7 230.8 240.9 251.3 261 269.1 273.1 273.5 272.4 268.9 262.2 253.2 242.7 231.2 221.8 214.4 207.1 200 193 186.3 181.1 174.3 167.8 161.1 153.6 147.6 142.1 137.5 131.7 125.9 122.6 119.4 118.5 118.9 116.1 113.9 112.2 110.5 108.6 107 105.3 103.5 103.5 103.5 99.1 99 98.4 98.2 97.2 96.5 95.8 93.3 92.5 91.6 90.8 89.2 87.9 86.6 84.2 81.8 79.4 77.7 76.6 77 77.4 77.4 75.6 74.9 74.2 73.2 73.9 75 73.6 73.3 74.1 71.1 68.3 67.9 65.5 60 55 53.9 53.3 52.3 52.2 52.2 52.8 51.8 50.8 50.2 49.8 49.5 49 42.1 46.9 48.7
386.3 383.4 381.2 378.4 372.6 368.4 363.3 357.1 351.8 344.6 336.6 325.7 316.8 309.6 301.5 292.2 284.5 276 270.5 264.1 258 253.7 248.8 244.1 238.7 231.7 224.2 212.4 205.5 205.7 198.7 198.9 194.8 192.3 190.4 188.6 186.5 183.9 179.4 174.5 167.7 155.6 149.4 141.4 139.4 145.6 150.9 152.6 155.9 159.4 163.7 169.3 174 175.7 173.4 174.2 169.5 182.6 192.4 197.9 202.8 205.7 208.4 209.3 210.4 211.7 212.2 216.7 219.9 222.5 221.2 216.4 209.8 202.2 196.4 190.7 185.2 179.3 173.3 169 164.6 160.7 160.1 175.4 187.2 196.8 203.5 212.3 216.9 219.4 218.9 216.8 212.4 206.2 200 194 188.4 184.1 180.3 181.9 188.6 201.2 213.2 226.2 233.4 237.8 241.5 247.3 256 261.9 265.6 267.5 268 264.9 260.5 252.8 243.7 233.1 224.1 216 208.4 203 196.4 189.7 183.3 176.9 170.3 163.6 156.3 149.8 145.2 140.6 135.8 129.7 125.8 122.4 119.6 118.8 117.1 115.8 113.2 110.9 108.9 107.2 105.3 103.4 103.5 104.4 100.1 97.6 96.6 95.8 95 94.3 94.3 92.5 91.8 90.9 89.1 87.2 86 84.9 82.9 81.4 80.7 79.6 77.9 77.2 77 78.9 77.8 76.9 74.7 74.2 74.3 74.2 73.3 72.6 71.4 69.9 68.7 67.9 68.3 62.2 55.1 54.2 53.3 53.9 53.8 53.8 52.2 52 51 50.7 50.4 50.1 49.5 46.7 44.1 48
381.9 379 375.6 370.8 365.2 360.9 355.8 349.5 342.4 334.7 326.3 315.1 306.3 297.2 289.4 282.6 276.2 271.5 266.8 260.8 256 252.5 248.8 244.9 240.1 234.6 227.6 222.8 217.2 214.7 209 198.8 188.3 169.1 180.3 180.6 178.5 176.4 173 166.1 157.7 146.9 140.7 143.5 151.4 155.7 157.8 160.9 165.2 170.6 175.2 178.5 180.7 182.8 183.1 183.9 181.1 190.7 198.5 205 209.3 212 214.1 215.6 216.8 218.2 222.7 227.9 231.9 231 226.4 219.6 212.5 205.4 198.8 192 185.8 179.9 174.7 170.2 165.8 162 166.5 178.3 188.9 198.8 205.4 214.6 220.2 223.5 223.9 221.4 216.9 212.7 207.2 200.8 194 189.5 185.8 186.9 196 208.1 223.6 236.9 244.9 248.4 247.8 248.7 252.1 255.4 259.2 262.4 262.8 260.6 256.4 250.3 244.3 236 225.5 216.9 210.6 205.2 199.4 192.6 186 179.3 172.6 165.5 158.3 153 148.2 143.1 138.5 133.7 129.1 125.5 122.1 120.6 118.2 116.7 113.5 111.4 109.5 107.3 106.4 105.8 105.3 105 102.3 99.5 96.5 95.9 93.6 93.4 92.8 91.4 90.7 89.5 87.4 85.2 84 83 81.6 80.1 81.7 80.1 79.4 78.7 78.1 80.2 77.6 75.8 75.1 75.5 75.8 74.1 72 69.2 68.1 67.5 69.7 68.8 68.7 64.7 56.4 54.9 54 53.3 53.6 53.8 52 52.1 51.6 51.3 51 50.7 48.8 47.2 39.7 44.6
376.9 374 368.6 361.8 356.1 350.6 344.8 338.5 332.2 324.5 315 305.2 296.4 289 281.7 276.3 271.5 266.8 262.7 259 256.4 252.3 248.4 244.4 239.1 236.4 231.9 226.5 221.7 216.1 210.3 202.9 194.9 183.1 161.3 170.6 169.6 165 159.2 155.2 148.3 141.3 149.8 162 165 166.7 167.9 171.1 175.9 179.3 182 184.8 187.9 190.3 192.8 194.1 193.5 199.4 206.9 212 214.9 217.5 219.8 221.8 224.4 229.2 233 239.4 240.3 236.6 229.2 221.9 214.8 208 200.7 192.8 186.3 180.5 175.7 171.3 167.1 158.6 171 182.3 190.8 199.6 208.1 217.4 224.6 227.7 227.8 225.2 221.4 217.6 212.9 205.7 199.5 194.7 191.3 189.6 199.3 214.6 229.2 243.4 254 255.8 253.8 250.6 251.3 253.1 256.1 258 257.8 255.9 252.5 248 242.4 235.5 227.9 218.7 212.4 207 200.9 193.9 187.5 180.9 174.3 167.9 160.9 155.7 150.1 145 140.4 135.9 131.7 128.1 124.4 121.5 119 116.3 114.2 112.4 110.7 110.5 110.3 110.2 108.8 106.3 103.7 99.7 97.2 97 94.9 92.4 91.2 90.2 89 87.6 85.7 83.6 82.2 81.2 79.7 78.5 79.6 79.4 78.9 78.3 79.5 80.4 77.9 74.5 74.6 75.4 73.5 72.2 70.6 67.3 65.6 66.2 67.7 69.1 69.3 65.7 58.1 55.4 54.1 54.3 54.4 54.3 54.1 52.4 51.8 51.5 51.2 50.9 49.2 48 47.4 39.1
370.5 366.6 360 353.2 346.1 340.6 332.9 327.3 319.4 312.3 304.1 292.7 287.2 283.8 276.7 271.3 266.8 263.3 260.4 257.5 254.5 250.9 248 244.1 241.1 237.2 233.1 227.7 219.2 211.5 204.7 197.6 190.2 183.5 175 154.1 155.9 152.9 149 143 142.7 153.3 167.8 174 175.6 176.6 178.3 182.3 184.2 186.3 188.5 191.4 194.9 198.9 202.4 205.5 205.5 208.7 213.7 217.4 220.4 223.1 226.5 231.1 235.7 239.7 245.1 246.6 243.6 238 231.8 224.6 217.2 209.3 201.3 193.3 188 181 176.2 171.7 167.7 165.4 174.3 184 193.8 202.4 213.3 221.2 227.4 229.4 230.5 229.2 226 222.3 216.4 210.5 206.1 200.2 196.9 193.2 203.5 217.2 231.4 244.9 254.1 257.4 256.4 252.3 251.7 252.1 253.6 253.6 252.3 250.1 248 244.2 239.3 234.2 227.8 220.4 213.8 207.3 200 192.8 186.3 179.9 173.4 167.9 162.4 157 151.8 146.5 142 137.5 133.3 129.2 126.3 123.4 120.6 118.2 117.4 115.2 114.6 113.6 112.4 110 107.1 106 104.7 102 95.1 95.7 95.2 92.9 90.4 88.4 87.2 85.7 84 82.3 81.3 79.1 77.3 77 77.1 76.2 76.7 80.2 83 80.8 76.5 74.2 73.3 73.1 70.9 67.9 67.8 65.5 65 63.4 65.6 67 69.3 63.5 58 55.5 54 55.3 55 54.4 53.9 53.3 51.5 51.3 51.1 50.8 49.8 48.6 48.1 47.4
360.5 356.8 349.4 341.9 335 327.3 319.7 315 309.3 302.4 293.1 284.9 280.8 278 273 267.4 264 260.9 257.9 256 253.5 251.7 250.1 246.3 241.7 237.3 231.2 220.1 209.7 202.4 196.3 188.5 181.8 173.3 162.6 151.7 147.7 146.4 144.2 150.1 162.9 175.2 179.5 182.7 184 185.2 188.4 190.3 192.5 193.2 195.5 199.2 203.6 208.6 212.2 213.8 214.7 216 219.4 222 225.4 228.8 234.1 239.9 244.8 249.7 251.8 249.4 243.8 238.2 232.2 225.8 219.3 211.7 201.8 193.9 189.2 182.7 176.9 172.2 163.6 171.4 178 187.6 197.1 204.6 215.8 223.9 229.4 230.9 232 232.2 230.4 225.7 221.4 216.4 211.3 205.8 203.7 202 207.3 218.5 230.8 242.6 251.1 256.1 256.5 253.6 251.5 249.7 249.2 248.2 246.3 244.2 242.9 239.7 235.6 230.7 223.6 215.8 210.8 203.8 195.9 189.3 183.4 177 171.2 166.3 161.8 156.7 151.8 146.9 142.4 138.2 134.1 131.1 128.2 125.3 122.6 120.2 119.1 118 116.3 113.9 110.7 107.4 104.8 103.6 103 101.8 95.5 92.8 91.5 90.9 91.4 90.1 87.9 86.4 84.4 83.8 82.7 81.4 79.4 78.1 76 74.8 73.8 78.3 82.3 78.9 75.5 72.9 71.9 70.6 68.4 66.2 64.5 62.2 62.9 61.6 61.1 61.4 61.8 59.1 56.6 55.2 55.4 55.3 54.8 54.1 53.5 52.9 52.4 51.7 50.4 49.2 49.2 48.7 48.2 47.6
351.8 347 338.9 330.9 323.5 316.2 310 304.6 298.3 292.2 284.9 280 277.9 275.2 270 263.2 259.5 257.3 255.3 253.4 251.5 251.3 250.1 246.4 237.7 230.4 221.3 208.9 200.2 193.5 183.7 173.5 164.2 155.2 147.5 146.3 147 152.4 151.9 169.6 181.2 184.3 187.3 189.4 190.1 191.8 195.9 197.1 199 200.6 203.2 207.9 212.6 216.6 218.5 220.1 221.3 222.2 224.9 227.7 230.4 235.8 241.9 248 253.6 254.3 253.9 248.9 245.1 240.1 234.2 227.9 220.5 210.9 202.3 194.6 190 184.2 177.6 173.1 165.7 173.6 181.3 190.1 198.9 208.5 219 225.8 229.9 232.4 233.4 234.1 233.7 231 227.7 222.5 217.9 212.6 210.6 209.7 208.9 219.8 230.1 239.4 246.3 251.7 254.3 253.3 251.1 248.4 244.8 242.2 239.9 238.3 237.5 235.1 230.5 224.1 216.4 211.4 204.7 197.5 191.9 186.3 180.6 174.6 169.6 164.6 159.9 155.7 150.1 146.1 142.2 138.4 134.7 132.5 130.4 128.5 124.5 122.3 120.3 117.9 115.3 112 108.4 104.5 102.7 102.5 102.9 101.1 97.2 95.3 94 90.4 91.5 90.7 89.5 87.3 85.3 84.3 82.8 81.8 81 80.5 79.9 78.3 74.2 74.3 78.9 76.4 74.1 71.2 68.1 66.3 65 63.8 62.7 62.5 61.8 60.8 60.3 58.9 59.2 58.1 55.4 54.9 54.6 55.4 54.7 54 53.3 52.6 51.6 50.3 49 48.6 49.4 47.9 47.3 47.9
346.1 340.2 330.4 322.8 316.7 309.6 301.7 294.4 289.2 284.2 280.6 277.1 274.7 272.5 267.6 262.6 256.1 254.3 251.2 249.1 247.8 248.1 245.9 237.1 229.5 223 211.5 201.2 190.2 181.9 171.4 161.6 151.6 148.5 147.6 149.9 152.2 169.7 166.2 164.8 182.3 187.8 192.3 194.5 196.5 198.5 201 202.9 204.9 207 211.6 217 220.7 223.1 224.7 226.1 227.1 227.8 229.7 232.3 236.2 242.3 248.5 255.2 258.7 257.5 253.1 248.4 244.5 240.8 234.9 228.1 220.1 210.9 202.6 195.4 189.7 184.5 178.3 175.2 168.2 175.7 185.2 192 200.6 212.4 219.8 225.8 230.4 233.6 235.4 236.4 237.5 236.2 233.4 229.8 225.3 222 219.1 218.8 221.1 217.2 229.5 237 243.4 249.2 251.3 252.3 250.1 246.6 242.6 239.7 237 233.5 230.4 227.1 220.9 215.3 210.8 205 198.7 194 189.8 183.4 177.9 173 168 163 158.1 153.3 150.2 147.2 142.9 139.1 135.8 133.6 131.1 128.4 125.3 121.2 118.7 116.3 113.2 108.6 105 104.6 103.3 99.2 100.8 99.7 97.1 95.4 93.1 89.8 90.2 89.5 88.2 86.9 85.9 84.2 82.9 82.7 82.5 82 80.3 78.2 73.6 69.1 75.2 74.4 72.6 69.5 66 64.9 64.1 62.9 61.7 60.8 60.1 59.6 58.8 57.6 56.7 56.5 55.2 54.5 54.1 54.4 54.6 54 53.3 51.7 51.6 50.5 50.1 49.7 49.4 48.7 46.9 46.7
339 332.5 324.1 315.8 308.9 299.1 291.9 287.4 283.8 280.5 277.1 274.4 272 269.7 267.1 262.6 257.9 251.5 244.4 243.3 243.4 240.7 233.5 229.2 223.5 214.7 202 189.4 179.7 169.7 160.2 153.1 149.1 157.2 164.4 174 176.8 174.1 182 173.3 171 188.7 196.4 201.2 203.3 204.6 206.7 209.4 211.8 215 219.9 224.4 227 229.6 230.6 231.5 232.2 233 233.9 237 242.1 248 254.1 258.7 259.5 256.4 251.4 248.2 244.6 240.2 233.8 226.6 218.9 210.8 203.4 196.4 190.2 184.7 180.1 176.9 170.5 178.8 186.2 193 202.6 213.2 219.9 225.9 231.2 235.3 237.8 239.3 240.7 243.3 242.7 242 240.1 238.1 234.4 231.1 229.7 228.8 228 235.7 240.6 246.4 249.6 250.1 248.6 245 241 236.8 232.6 228.9 224.3 219.9 215.6 210.7 206.1 200.5 196 191.5 187 181.7 175.4 170.4 165.4 160.5 156.2 152.4 149 146 141.3 138.8 136.2 133.8 130.5 126.6 123.3 119.6 116.5 114.2 109.5 106.3 106.4 106.6 104.5 101 97.6 96.7 93.2 91.9 90 87.4 86.1 85.2 84.2 84.1 83.7 82.3 81.3 80.6 81.5 81.8 81.2 78.8 74.8 69.6 71.3 72.1 71.2 70.6 70.5 65.7 63.8 62.3 61.2 61.2 60.1 58.7 58 57.4 57.3 56.3 55.2 54.4 53.9 53.3 53.2 53.2 52.2 51.4 52.4 51.4 51.3 50.9 50.5 50.2 47.5 46.4
327.7 320.8 311.5 305.8 298.4 292 286.7 283.2 279.9 276.6 273.6 271.5 269.2 267.1 265 261.9 256.6 251.9 244.9 233.2 235 231 227.1 222.8 214 204.1 191.2 179.3 169.4 160.4 151.6 149.8 165.3 167.3 179.6 186.4 187.6 182.1 188.4 186.1 183.5 183 198.2 204.2 207.1 210.3 212.4 216.2 219.8 223.1 227.8 230.2 232.2 234.7 236 237.5 237.9 238.2 241.5 245.1 249 253.3 256 255.9 255.9 253 251.3 249 244.7 238.8 232.2 225.1 217.6 211 203.4 196.7 190.9 185.9 181.1 178.7 172 180.3 187.2 194.7 203.7 213 219.7 225.2 231.2 235.7 240.9 244.1 248.8 252.4 256.8 257.6 257.2 254.4 250.5 243.2 238.4 237.4 235.7 235.4 240.4 245.1 247.9 248.1 246.3 243.8 239.7 235.3 231 226 220.6 215.5 211 206.5 201.9 197.3 192.8 188.3 183.8 178.6 171.8 167.2 163.1 159.1 155.3 150.8 147.5 143.9 139.4 137.6 134.6 131.2 127.4 124.6 121.8 119.6 115.3 111.2 108.4 108.1 107.9 107.5 105.1 102.5 99 97.3 96.3 95.5 92 88.6 84.6 84.3 85 83.2 84 82.9 81.3 80.2 80.1 79.7 79 77.4 75.1 71.2 69.2 68.9 71.3 71 70.2 67.3 63.9 62.5 62.3 62.2 60 58.5 57.9 58 57.4 55.8 55 54.2 53.7 53.6 53.6 53.5 52.4 52.1 52.8 52.4 52.3 52 51.7 51.7 52 48.4
314.4 308.8 302.4 296.3 290.7 286.7 282.4 279 275.8 272.9 270.8 268.7 266.6 264.5 262.3 259.2 254.7 248.4 241.6 231.9 218 220.5 218.2 212.8 203.6 187.1 177.1 168.2 153 151.2 163.4 176.4 180.2 175.5 193.6 195.4 192.4 191.9 192.9 195.8 195.7 192.7 196.6 205.8 210.7 214.6 218.8 223.5 227.9 231.2 233.7 235.6 237.6 239.8 241.5 243.6 243.9 245.4 247 250.1 253 255.7 255.8 253.6 252 251.4 250.3 247 241.7 236.2 230.6 223.6 217.3 210.7 204.4 198.8 193.2 186.6 182.3 180.4 173.1 180.3 189.2 198.2 205.8 211.8 219 225.6 231.7 237.4 242.9 249.3 255.8 263.9 270.8 273.1 271.8 269.6 265.4 255.7 248.2 244.3 240 237.1 240.4 242.8 245 246.1 244.8 242.2 238.2 233.6 228.5 223.5 218.3 213.3 207.9 203.5 198.7 193.9 189.4 184.8 180 174.6 169.6 166.1 162 158.4 154.1 149.6 145.8 141.8 138.1 135.2 131.9 129 125.5 124 121 116.6 112.2 111.1 111.7 110.4 109.4 107.4 105.2 102.7 100.4 98.8 97 94.4 90.6 86.3 83.3 82.5 81.1 80.5 79.5 78.6 78.3 78.4 80.2 79.4 78.4 75.8 74.6 72.5 70.2 68.7 67 68.5 67.6 66.3 63.9 63.9 63.3 61.9 59.9 58.5 59.1 58.7 57.6 56.9 55.4 54.4 54.4 54.5 54.5 53.5 52.3 52.8 53.2 53.3 53.3 53.2 53.2 53.1 52.9 54
298.6 296.5 293.3 290.5 286 282.1 278.9 275.8 272.3 268.8 265.9 264.6 262.9 260.7 258.4 256.1 252 245.6 237.9 227.3 215.9 208.6 208.4 194.4 180.9 170.4 162.1 154.6 152.4 169.6 184.7 190.5 192.6 190 195.4 199.9 200.9 196.1 203.9 206.6 205.7 202.3 199 205.3 212.8 219.4 225.3 229.9 234.2 237.2 239.1 241 243 245 247 249.1 250.4 252.4 252.3 254.6 256.8 256.7 254.1 251.6 250.6 249.7 247.4 243.1 238.7 233.2 227.7 221.8 217 211.1 205.4 199.5 193.2 187.7 182.8 178 179.5 186.3 194.1 200.6 206.7 212.2 218.9 225.9 231.4 237.2 244.3 253.7 265.3 275 282.4 285.7 283.7 280.3 273.3 263.8 253.5 248.6 244.5 241.2 241.6 243.5 245.1 245.2 243.9 241.1 236.8 231.5 226.5 221.9 217 212.1 206.5 200.7 195 190.4 185.9 181 176.2 172.7 168 164.1 160.4 156.9 152.5 149.3 143.9 139.9 136.5 134 132.1 129.6 124.9 121 117.1 113.1 114.8 114.6 113.6 111.6 109.4 107.4 105.2 102.4 99.7 97.7 95.4 89.6 83.5 82.7 84.3 85 85.1 84.2 83 82.2 80.3 77.4 77 77.1 77 75.4 73.7 71.7 67.6 67.6 68.4 65.4 64.7 63.6 63.2 63.2 61.9 60.5 59.8 61.5 61.4 60.4 58.1 57.5 56.9 54.9 54.7 54.5 54.6 54.1 54.3 52.8 52.8 53.3 54.1 53.8 53.6 53.4 53.1 54.1
286.4 287.9 288.3 286.5 283.7 280.1 276.9 273.9 270.9 266.1 262.8 259.5 258.3 256.5 254.5 252.1 248.9 244.1 235.7 224 210.3 190.4 187.3 171.9 160.7 154.7 153.8 156.5 168.1 180.1 195.4 200.9 201.1 199.2 198.7 201.8 204.1 204.5 210.3 210.6 210.5 209.4 206.3 206.8 214.4 222.9 229.9 234.7 238.9 241.7 244 245.9 247.8 249.9 252.4 255.6 257 257.4 257.9 258.3 258.5 255.6 252.7 250.6 249.4 247 243.2 238.7 234.8 230.3 224.7 219.9 215.7 210.1 204.5 199.1 192.7 188 182.6 181.7 184.1 193.3 198.6 202.7 208.2 213.9 219.9 225.7 231 237.6 245.5 256.5 271.6 283.3 291.1 297.5 292.5 285.7 276.9 267.9 257.7 251.2 247.5 244.2 243.2 244.3 245.6 244.3 241.8 239.3 235 228.9 224.5 219.6 214.6 208.7 203 197.1 191.5 185.5 181 177 172.9 169.6 165.5 161.1 158.4 154.6 150 148.1 142.6 140 136.9 134.8 132.5 128.6 119.8 116 118.6 118 118.1 116.1 114 111.9 109.5 106.8 101.7 93.7 89.5 88.4 86.3 84.4 86.9 89.9 91.6 91.3 90.3 88.9 87.6 85.4 83.3 80 76 74.1 73.7 71.8 70.2 71.2 74 70.9 69.1 66.6 65.5 64 62.6 61.3 60.7 60.9 61.6 61.8 61.3 60.3 60 59.3 58.1 57 55.3 55 55.3 55 54.1 53.3 53.6 53.9 54.1 54.3 53.8 53.6 53.3 53
279.2 283.3 284.6 283.3 281.6 278.2 275.3 272.3 269.4 266.1 261.7 257.2 252.8 251.3 249.2 247.6 246.3 242.5 233.9 220.9 201.9 182.6 167.6 159.6 155.9 155.1 167.2 181.7 187.5 185.7 198.3 207.1 208.1 206.6 204.9 203.9 206.5 203.9 210.5 213.4 214.1 213.4 211.4 209.2 216.1 226.4 233.2 238 242.4 245.3 247.8 250.1 252 255.3 258.9 260 260.8 260.9 261.3 261.3 257.9 254.9 252.7 250.7 247.1 242.7 238.5 234.4 230.3 226.8 222.1 218 214 209.5 203.8 199 193.3 188.7 181.5 189.5 193.6 196 201.8 204.8 209.9 215.9 220.3 225.7 231.2 238.6 247.1 262.1 277.4 290 298.4 297.2 293.3 285.6 276.9 268.8 260.2 252.8 248.8 244.8 243.3 243.3 243.3 242.5 239.9 236.5 230.6 225.4 221 215.6 209.8 203.8 197.1 191.8 186.9 182.4 179.1 174.3 169.9 166.1 162 159.1 154.9 152.6 148.3 144.6 142.3 139.6 137.4 134.4 130.9 126.3 118.4 120 121.9 120.9 118.7 116.5 114.2 107.9 102.8 98.5 91.7 88.5 88.8 87.5 87.1 91.3 94.5 95.2 94.1 92.2 90.3 89.2 88.1 86 82 78.7 76.6 76.9 77.4 75.1 72.7 74.2 73.2 71.2 69.3 66.8 65.3 64.2 63.8 62.7 62.7 62 61.5 61.3 63.1 62.5 61.8 61.9 62.5 60.9 59.1 57.2 58.4 57.6 54.6 53.9 53.9 53.5 53.6 53 52.5 52.6 52.9 52.1
273.7 279.1 281.1 280.2 278.9 276.8 274.3 271.4 268.2 264.2 259.8 254.9 246.5 242.1 244.2 244.9 243.1 234.3 219.9 197.4 180.2 167.1 161.4 158.4 156.3 175 191.5 202 205.5 205.3 207.5 212.9 212.8 211.6 209.9 208.2 208.2 206.2 213.1 215.9 218.4 218.6 216.6 216 219.7 228.4 234.3 240.1 244.7 248.1 251.2 254.7 258.2 261.6 262.6 263.4 264.6 265.3 264.8 261.3 257.8 255.6 253 249.1 243.8 238.9 234.4 229.9 225.7 222.4 219.8 216.1 212.2 208 202.3 198.1 192.6 185.5 190.5 194.9 198.8 198.4 203.8 206.8 210.8 215.2 219.7 225.4 232.5 239.4 251.5 266.5 280.9 295.1 296.5 297.7 287.9 281.6 273.8 267.2 260.7 254.5 248.8 244.8 243.5 241.2 239.3 237.3 235.2 231.5 225.2 219.6 215 208.4 203.1 198.2 193.5 188.7 184.1 180.1 175.9 171.9 167 163 159.7 155.9 153.2 150.4 146.3 143.5 140.7 136.6 135.8 131.6 126.5 122 120.9 122.5 123.5 121 118.1 114.2 107 97.8 91.5 92.2 95.4 99.6 99.9 98.3 99 98.5 97 95 93.5 91.6 90 88.5 86.9 84.1 79 77.1 77.9 79.5 78.3 76.8 74.6 70.4 70.9 70.7 68.3 66.3 67.2 65.7 66.8 65.3 64.1 63.2 63.7 64.4 65.7 65.2 63.8 63.8 64.3 63.4 63 61.5 61.8 60.6 57.9 57.6 56.2 56 53.7 53.8 53.7 52.5 51.4 52.4
264.1 271.8 276.9 278.1 277.1 275 272.7 269.3 265.9 261.6 257.3 251.6 245.9 235.9 238.3 236.8 229.1 209.9 194.5 175.3 166.5 159.1 158.8 163.6 180.8 196.1 206.7 213.5 217.8 219.1 217.3 216.6 215.5 213.5 212.2 211.1 210.3 209.9 216.6 220.4 222.7 223.3 222.8 222 223.5 229.9 237.7 242.5 246.2 249.8 253.6 257.9 262.1 264.3 265.9 266.5 268.2 268 265.7 262.5 259.3 255.5 251 245.7 238.9 233.9 229.3 224.5 220.7 218.1 215.6 212.5 209.5 205.1 200.3 196.9 190 191.1 195.9 198.8 201.7 201.4 205.2 208.4 210.9 215.4 220 226.6 232.9 244.2 255.5 269.6 282.4 291 291.8 287.7 282.5 276.9 270.7 264.9 259.4 254.4 249.7 245.2 242.1 238 234.8 230.8 228 223.4 218.4 212.8 207.4 201.7 197.2 192.7 188.6 183.9 179.5 175.3 171.3 166.7 164.3 160.6 155.8 153.2 150.2 147.6 144.9 141.9 137.7 133.5 133.6 127.2 125.5 126.1 125.3 124.5 122.6 119.9 110.2 100.9 96.1 94.3 100.1 103.6 105.2 104.9 103.3 101.5 99.7 98.3 96.7 94.9 93 90.9 89.7 86.9 84.4 81.1 77.9 78.8 81.5 80.7 79.4 77.8 76.5 73.3 71.5 71.5 67.9 70.2 70.7 69.1 68 68.3 66.6 66.1 66.3 66.3 65.8 66.3 65.5 64.5 63.1 63.7 62.7 63.5 62.5 60.1 59.6 58.8 58 57.1 55.8 55.5 55 54 52.6 52.3
247.2 266.9 272.8 273.6 272.7 271.1 267.9 265.6 262.6 258.1 254.6 248.7 240.9 229.8 220.1 224.6 206.4 187.4 172.1 162.6 159.9 159.4 167.5 188.4 203.3 210.4 217.4 220.9 223.5 222.9 221.4 219.3 217.6 216.2 215.2 214.1 211.4 212.7 222.3 227.3 229.2 229.3 229.3 228.5 228.3 231.7 238.1 243.3 247.1 250.1 254.2 258.4 261.9 264.9 267.4 269.3 269.5 268.2 265.9 263.7 257.7 251.3 246.4 240.7 235.1 227.8 223.2 218.4 215.4 212.9 211.1 208.8 205.3 202.8 199.7 194.6 190.8 197.7 200.1 202.8 203.9 202.9 206.9 209.9 212.4 215.9 222 227.7 235.8 248.2 258.6 270.3 278.7 281.4 283.2 280.3 275.7 271.5 267.5 262.6 257.4 252.9 248.2 243 239.4 235.3 230.6 225.4 221.6 215.9 211.2 206.1 200.8 195.9 191.6 187.1 182.2 179.1 174.9 170.7 166.5 163.5 160.3 157.8 153.8 150.9 147.9 145.9 143.2 140.3 136.1 130.4 126.9 129.4 130.1 128.1 126.1 123.5 121.4 115.1 101.1 95.8 98.3 103.1 107.8 107 105.7 104.3 102.8 101.1 99.6 97.8 96.2 94.5 93.4 91.4 90.4 89 87.2 82.7 76.7 78.1 82.1 81.4 79.9 79.3 78.5 76.4 75.2 74.5 68.9 73.1 70.4 69 70.7 71.4 69.9 68.8 68.3 68.7 67.1 66.5 68 66.8 65.5 64.4 64.2 62.9 63.2 60.3 59.5 58.6 57.9 57 56.5 56.4 55.1 54.7 53.9 52.2
236.1 252.8 260.1 259.1 258.9 259.7 260.7 259.6 257.5 254.7 252 246.3 234.2 213.9 204.4 206 187.5 171 162.2 161 160.1 172.5 190.9 207.6 216.9 221.5 226.9 229.9 228.3 226.7 224.7 223 222 220.9 219.8 217.8 209.7 219 229.8 234.3 236 235.9 235.9 235.6 235.3 237.1 240.8 244.3 247.7 249.6 253.6 256.5 260.3 263.5 266.8 268.6 269.3 268.1 266.1 261.7 254.8 247.1 241.4 235.2 229.2 221.7 217 213.2 210.3 208.7 206.7 203.4 203.3 201.9 199.4 192.9 197.8 200.3 203.4 205 204.5 207.8 209.7 211.7 214.1 219.1 224.5 231.4 241.1 251.5 260.7 266.6 270.8 272.6 272.1 271.1 270.1 267.4 263.3 259.7 255.2 250.8 245.8 240.5 235.9 231.2 225.4 220.9 215.4 210.6 206.1 201.6 197.2 192.7 187.6 183.3 179.1 175.3 171.1 167.2 163.8 161 158.6 155.1 152 149.1 146.1 143 141 138.2 133.2 129.9 132.6 131.6 129.5 126.9 124.4 120.7 115.1 107.1 96.8 103.3 109.3 110.2 108.7 107 105.2 103.9 102.2 100.6 99.3 98.1 96.7 95.1 94.2 92.7 91.3 89.7 87.7 83 79 75.7 77.8 79 79.2 79.9 79.5 78.6 77.1 73.5 69.7 72.1 72.1 70.5 70.4 71.6 71 70.2 69.5 70.7 70.6 69.7 68.1 67.8 66.5 67 65.5 64.8 64.1 61.3 59.3 58.5 57.7 56.9 56.6 55.5 54.2 53.5 52.4 51.6
216.1 229.5 238.2 235.1 235.3 242.2 241.9 242.2 253.6 253.5 245.2 226.5 212.3 202.9 192 173.6 171.3 164.7 161.5 162.4 178.2 197.4 211 221 229.4 231.8 232.2 233.8 231.9 230.2 228.3 226.8 226.4 225.3 224.4 223.9 213.4 225.2 235.1 239.2 241 241.4 241.2 240.4 239.8 240.4 244.2 246.4 247.7 249.2 250.5 253.4 257.2 261.8 265 266.2 267 266.6 263.5 257.4 250.5 243.4 236.3 230.1 223.1 217.2 212.2 208.9 204.8 202.5 202.5 202.2 202 200 196.9 194.8 199.9 201.8 205.1 207.3 207.8 210.7 212.5 214.4 219.7 224.2 231.2 240.3 247.9 255.1 261.5 263.2 263.1 262.5 261.7 262.1 262.6 261.9 259.7 256.7 252.7 248 242.8 237.2 231.4 225.2 219.3 213 209.3 206.6 202.6 198.2 193.8 189.5 185.3 180.9 176.7 172 168.3 164.9 161.5 158.3 155.4 153.8 150.3 147.3 144.3 141.7 138.3 134.1 131 133.6 132.2 130.8 128.3 125 119.1 109.7 101 98.8 103.5 110.9 111.4 110.4 108.6 106.9 105.1 103.8 102.5 101.1 99.8 98.6 97.4 96.1 94.9 93.4 91.8 90.3 88.7 86.9 85.1 79.7 76.5 75.5 74.5 74 74.5 73.7 71.7 71.2 74.2 73.7 73.3 73.8 72.9 72.5 72.3 71.4 70.5 70.6 70.5 69.1 67.9 66.9 67.7 65.6 64.8 64 62.9 61.5 59.3 58.5 57.7 56.9 56.6 56.3 56 55.1 54.1 53.1
189.7 202 211.8 212.5 209.3 211.4 222.6 246.1 246.4 235.2 216 199.4 190.5 185.1 181.6 176.9 165.3 163 162 181.8 202.8 213.5 223.8 232.8 239.5 240.2 238.1 236.8 235.3 233.9 232 231 231.7 232.8 233.1 232 221.5 223 238.9 242.1 244.1 244.9 244.8 244.2 243.6 243.5 246.9 248.6 247.8 247.1 247.8 250.4 254.3 258.3 262.3 263.7 264.6 262.5 257.1 251 245.2 238.3 231.1 224.9 219.5 213.9 208.9 205.2 202.8 201.4 201 200.7 199 197.1 197 197.9 200.2 202.5 206.2 209.5 211.7 213.5 215.3 218.4 223.1 230.8 240.3 248.2 255.9 260 259 258.5 257.1 255.9 255.3 255.8 257.6 257.3 256 253.7 249 244.1 239 232.8 225.9 219.6 212.1 207.9 204.9 201.3 198.4 194.7 190 186.3 182.8 178.6 174.3 170.2 166.7 163.1 159.5 156.7 153.9 151 147.7 145.7 141.8 138 133.4 133.6 134.7 132.1 129.7 127.9 125.2 120.8 109.2 101.1 107.6 110.1 112.8 111.3 110.9 110.1 108.3 106.5 105.4 104.3 103 101.7 100.4 99.1 97.9 96.7 95.4 94.4 92.8 91.2 89.6 88.4 87.4 86 84.2 82.5 80.9 79.5 78.2 77.2 77.1 77.7 77 76.4 76.8 75.6 74.2 70.9 71 70.4 70.2 70.1 69.9 70.4 69 66.9 66.2 65.1 62.8 62 60.6 59.8 59.6 59.1 58.4 57.6 57.2 56.9 56.5 56 55 53.7
193.1 183.4 181.6 182.7 185.9 197 226.7 230 219.9 207.8 193.5 179.7 173.9 169.9 169.7 164.9 164.1 170.5 192.6 208.4 216.4 225.3 233.2 239.4 243.3 244 242.2 240.3 238.7 237.3 235.9 236.9 239.3 240.4 241.4 241.1 239.3 226.1 242.8 245.1 246.2 246.8 247.4 247.8 247.4 247.2 247.5 246.6 246 245.3 244.6 246.6 250.6 254.5 258 260.1 258.6 254.7 249.4 244.6 239 233 226 221.2 216.5 211.8 206.7 203.9 201.7 200.6 199.9 198.8 196.8 197.2 198.2 199.4 201.2 203.9 208.5 211 213.6 215.6 218 222.5 230.2 240.1 249.4 257.7 263.7 261.7 258.9 255.1 253.5 252.2 251.5 251.6 253 253.3 252.2 249.3 244.2 239.3 234.1 227.9 220.7 214.3 208.5 203.8 199.7 195.6 194 190 186.5 183.1 179.5 176.1 172 168.6 165 161.2 158 155.3 152.5 149.6 145.6 140.4 135.7 134.7 135.9 135.9 133.5 130.9 128.4 125.8 124.5 119 107.6 102.9 110.6 114.3 113.5 111.8 110.3 109.7 107.9 106.7 105.7 104.7 103.5 102.2 100.9 99.7 98.4 97.3 96 94.9 93.8 92.2 90.7 89.6 88.1 87.5 86.4 84.8 83.4 82.8 82.4 81.9 81.1 80.2 79 77.8 77 75.7 74.4 72.7 70.7 70.4 70.1 69.7 69.6 69.3 67.9 66.7 65 63.3 61.6 60.2 60.2 60.2 60.1 59.6 59.1 58.4 57.8 57.5 57.1 56.6 55.7 54
180.8 179.9 178.2 176.8 175.4 188.9 214.1 199.6 187.4 179.7 169 167.7 166.2 165.5 164.7 164.1 172.2 179.1 206.5 219.7 225.4 230.6 234.8 238.1 242.1 243.5 243.9 242.9 241.9 241.3 241.9 244.6 246.7 247 246.6 246.9 244.7 233.3 245.3 247.5 248.4 248.7 248.7 249.2 249.9 247.1 244.1 243.2 242.5 241.7 241 243.1 247 250.7 254.1 253.4 251 247.6 242.9 238.3 233.4 227.6 222.8 218.1 213.4 208.8 205.8 203 200.9 199.3 198.6 198.2 197.1 197.7 198.7 200.5 201.6 204.1 209.2 212.1 215.6 218.6 222.3 229.3 239.1 249.2 259.3 266 265.6 262 257.7 253.3 250.2 249.1 248 247.7 248.8 248.9 246.5 243.3 238.6 234.1 229 223.3 217.3 210.5 204.7 199.9 195.8 191.6 189.6 185.8 182.5 179.6 176.3 173 169.9 166.6 163 159.2 156.5 153.8 151.1 148.3 141.4 136.1 138.4 138.8 136.5 134 132.2 129.6 126.8 124 122.7 118.8 112.2 108.6 106.6 114 113 111.8 110.5 109.3 107.9 107.2 106.1 105.1 104 102.7 101.5 100.2 99 97.8 96.6 95.5 94.4 93.2 91.8 90.1 88.6 88.2 87.6 86.3 85.3 84.7 84.1 82.9 81.7 80.6 79.3 78.1 76.7 75.4 74.2 72.7 70.4 70.5 70.1 69.5 68.5 68 66.5 65.1 63.4 62.7 62.1 61.4 60.7 60.7 60.6 60.1 59.6 59 58.5 58 57.6 57.3 55.9 54.3
177.2 176.5 175.8 175.4 174.2 174.6 184.1 170.5 169.1 168.4 168.2 168.6 173.2 178.8 182.3 196.2 205.4 202.6 214 228.5 233.6 234.6 236.1 239.3 243.4 245.4 245.9 247.7 248.6 250.4 251.9 253.6 252.7 252.3 251 249 246.3 238.9 247.3 248.9 250.1 250 249.9 250.3 248.7 246 242.7 238.7 238.3 237.6 238.2 240.7 242.8 245.9 246.8 245.6 243.2 240.1 236.4 232.4 228 224 220.2 215.5 210.8 207.4 204.8 202.4 199.7 197.9 197.1 196.9 196.8 196.1 197.3 200.2 203.1 206 207.7 212.7 217.3 221.8 229.1 238 248 258.5 264.8 265.3 261.3 257.5 252.8 249.6 247.5 245.5 243.9 244.1 244.3 242.7 240.1 237.1 232.7 228.5 223.6 218.9 213.1 206.9 201 195.9 192.2 188.3 184.6 181.3 178.1 175.5 173.4 170.3 167.2 164.4 161 157.6 154.9 152.2 149.6 146.8 140.5 137.4 139.6 137 134.4 131.8 130 127.1 124.1 120.4 115.9 113.1 110.4 108.1 111.1 113.9 112.7 111.5 110.3 109.1 108.5 107.6 106.5 105.5 104.4 103.2 102 100.8 99.6 98.4 97.1 96 95 93.7 92.2 90.4 89.4 88.8 88.1 87 86.1 85.1 84.1 82.9 81.7 80.2 78.9 77.5 76.1 74.9 73.6 72.4 70 70.5 70.2 69.4 68.7 67.2 65.1 65.2 64.6 64 63.6 62.8 62 61.2 61.2 60.6 60.1 59.4 58.9 58.7 58.6 57.2 55.8 54.8
184.5 197.6 208.6 211.8 192.3 172.9 171.5 170.4 169.8 171.5 180.9 193.2 204.6 216.6 219.3 222 224 225 220.8 235.6 238.3 239.3 240.4 242.4 244.9 248.2 251 253.3 255.6 258 258.7 258.3 256.4 254.6 252.6 250 244.9 243.4 247.6 249.9 251.2 251.3 251.1 250 247 243.4 239.7 236.1 233.2 233.4 234.4 235.5 236.9 238.7 238.3 237.7 235.7 234 231.9 228.4 224.6 220.7 216.7 212.7 209.4 206.2 203.8 201.6 198.5 196.7 195.9 195.8 195.6 194.2 196.9 199.8 202.7 206 208.6 213.9 219.7 225.9 235.4 245.5 256 262.3 261.4 258.5 254.4 250.4 246.7 244.2 242.1 241.2 239.5 238.4 237.3 236.4 233.9 231 227.1 223.7 219.3 214.5 208.7 202.9 197.3 191.6 187.7 185 181.1 177.6 174.5 171.9 169.9 167.6 164.5 161.7 158.8 156.1 153.4 150.7 147.7 142.5 137.5 139.5 137.5 135.3 132.7 130 127.8 122.2 116 113.2 116.1 116.9 115.4 114.9 114.9 114.3 113.1 111.9 110.7 109.8 109 107.9 106.9 105.8 104.8 103.8 102.6 101.4 100.2 99 97.6 96.2 94.7 93 91.6 90.5 89.3 88.1 86.9 85.9 85.3 84.4 83.3 82 80.8 79.4 78.2 76.9 75.5 74.3 73 71.8 70.4 70.5 69.9 69.4 68.2 66.5 67.1 67.9 67 65.8 64.9 64.1 63.3 62.4 61.6 61 60.3 59.7 59.1 58.7 58.5 57.2 55.3 54.8
215.7 221.6 233.1 229.4 201.7 183.7 180.1 182.9 187.7 191.7 209.6 221.8 234.3 240.5 243.5 243 242 240.2 238.2 239.1 241.5 244.5 246.8 248.8 251.7 253.9 257.5 259.6 260.1 262.6 261.6 259.6 258 256.1 253.8 251.3 245 245.5 248.7 250.6 251.9 252.9 250.8 246.8 243.3 240.2 236.7 233.3 229.6 228.6 228.7 229.2 230 230.9 230.8 230.6 231 230 227.9 224.2 221.3 216.9 212.2 210.1 207.7 205 201.9 198.7 196.7 194.3 194.8 194.4 194.3 193.7 196.4 199.3 201.8 205.4 209.8 214.9 222.7 231.5 241 250.3 257 256.6 253.5 250 245.9 242.6 239.9 238.4 236.7 234.4 233.4 230.6 230.2 229.1 226.3 224.8 221.6 218.7 214.7 210 204.3 198.2 193 188.2 185.4 180.8 177.6 174.2 171.6 168.7 166.6 164.5 161.8 158.7 155.2 154 151.5 148.2 141.4 140.3 139.7 138 135.4 133.6 130.9 127.9 123.1 116.1 121.5 121.9 120.7 119.4 118.1 116.7 115.3 114.4 113.5 112.3 111.1 110.3 108.9 107.6 106.6 105.5 104.5 103.1 102.2 101.5 100.5 98.6 96.7 95.7 94.2 92.4 90.8 88.9 88.1 86.9 85.7 84.8 83.9 82.8 82 80.7 79.4 78.2 77 75.8 74.6 73.2 71.7 70.4 69.3 70 69.4 68.6 67 67.6 68.6 68.1 67.3 66 64.9 64.1 63.3 62.4 63.1 62.6 60.4 59.6 58.7 58.2 57.8 56.4 55 54.9
232.5 238.1 241.3 239.4 221.5 207.4 208.2 205.4 206.7 214.1 232.4 242.2 249.9 252.7 251.2 249.4 248.2 244.9 245 244.5 246.5 249.5 252.9 256 258.6 261.4 263.8 265.7 265.7 263.4 260.2 258.8 257.4 256 254.2 252.2 248.8 244.2 249.4 250.7 250.5 248.5 246.4 243.8 240.7 237.9 234.8 231.6 227.8 225.7 224.7 224.1 224.3 225.1 224.6 224.9 224.9 224.3 221.4 218.2 214.7 211.1 209 206.7 204.1 201.7 198.6 195.8 193.9 192.1 193.4 193.3 192.9 193.2 195.9 198.7 201 204.8 210.3 217.7 226.6 235.1 243.9 248.7 248.4 247.9 244 241.2 239 236.8 235.7 234.5 231.6 230.3 226.1 222.8 221.9 221.5 218.7 217.1 215.5 212.8 209.6 205.2 199.4 193.3 186.8 185.4 182.5 176.6 173.2 170.4 168.1 165.8 163.6 161.3 158.5 154.9 152.3 151.6 149.2 146.4 141 141.1 138.9 136.1 133.9 132.4 129.5 123.2 117 120.2 123.9 123.1 121.9 120.7 119.2 116.7 115.6 114.6 113.7 112.7 111.6 110.3 109 107.5 106.3 105.3 104.1 102.4 101.2 100.6 99.5 97.6 95.7 94.2 91.5 89.5 88.3 87.2 86.7 85.7 84.5 83 81.2 79.2 76.6 75.5 74.1 75.1 73.4 71 70 69.3 69.3 68.9 68.2 67.4 67.4 67.6 67 68.7 68.6 67.9 68.1 66.6 64.5 64.1 63.2 63 62.6 60.9 60 59.4 58.4 57.7 57.4 54.9 54.9 54.8
242.7 247.2 247.9 246.5 240.9 236.1 231.7 226.2 228.2 236 245.6 251.4 256.3 257 255.2 253.9 251.7 249.6 249.2 249.9 252.3 256 261.1 263 265.1 266.7 267.7 268 267.5 264.3 261.1 258.7 257.3 255.9 253.6 251.3 249.1 245.2 247.8 248 246.3 244.7 243.1 240.2 237.8 235.9 233.5 230.9 227.5 223.7 220.6 219.9 219.2 219.9 219.4 219.3 219.1 217.7 215 211.8 208.8 206.7 204.9 202.8 200.2 197.8 195.3 192.9 191.1 190.2 191.7 192.1 191.5 192.8 195.5 198.4 201.1 206.4 212.7 221.2 229.4 236.9 241.7 243.4 242.7 240 238.1 237.4 236.1 234.5 232.9 230 226.1 222.9 220.2 218.9 216.9 214.7 212.6 211.7 209.9 207.1 203.2 197.5 192 187.1 183.5 179.6 176 172.5 169.5 166.6 164.5 162.3 159.9 157.5 155.1 151.2 149.3 149 145.7 143.3 141.9 140.2 135.5 127.6 124.8 124.1 120.8 118 121.6 125.6 124.5 123.8 123 121.8 120 116.9 115.9 115 114 112.9 111.6 110.4 109 107.6 106.1 105 103.5 101.8 100.3 99.7 98.3 96.5 94 89.8 84.1 80.6 79.6 81.4 81.9 81.8 80 77.3 75.4 73.1 73.8 74.6 75.3 75.5 75.4 75 74.5 72.5 71.5 70.9 70.3 68.2 68.8 68.5 68.6 69.4 68.1 67.8 66.9 65.1 64.3 63.9 62.6 61.2 60.4 60.2 59.1 58 57.2 56.7 56.1 53.7 53.6 53.6
249.7 252.7 254.5 254.7 253.8 257.3 260.9 251.8 252.5 252.5 256.2 258.5 260.4 260.3 259.1 257.8 254.5 253.9 253.8 255.3 260.4 264.4 267.3 267.7 267.5 268.7 267.7 266.5 263.9 262.8 261.1 258.6 257.2 254.9 253 251.1 249.4 247.2 239.7 243.7 243 241.4 239.4 237 235 233.2 231 228.2 224.8 221.5 218.7 216.5 215.8 214.6 214.2 213.3 211.9 210.5 208.9 206.5 203.7 201.5 199.9 197.9 195.8 194.1 191.9 190.2 188.5 188.3 189.8 190.1 190.6 192.7 195.3 199 203.1 208.3 216.4 223.7 231 236.3 238.8 237.9 235 234.1 234.5 234.4 234.1 232.8 231.4 227.5 224.2 220.6 217.5 214.9 213.3 211.9 209.2 205.1 202.6 198.7 195 189.8 186 181.9 178.5 175.1 171.9 168.7 165.8 162.8 160.7 158.3 155.5 153 151 147.5 146 144.3 142.1 141.8 141.3 138.7 129 123.8 124.5 123.1 123.2 126.4 128.5 126.9 125.3 124.1 123.5 122.7 119.6 117.2 116.2 115.3 114 112.7 111.4 110.3 108.8 107.3 105.9 104.2 102.6 101.2 99.5 97.3 95 92.9 88.4 81.5 80.2 79.8 79.9 77.2 76.3 75.4 74.4 75.2 77.7 78.9 79.2 78.7 78.4 77.5 76.4 75.3 74.7 74.8 72.6 71.9 71.4 69.4 70 70.2 69.6 67.9 66.1 65.3 64.9 64.6 64.2 63.8 62.5 59.9 59.8 59.5 58.5 57 56.1 56.2 54.7 52.5 52.3 52.5
254.9 257.9 260.5 262.3 265.1 270.9 270.4 267.1 264.3 263.1 263.5 264.4 265.4 264.8 263.5 261.3 258.3 257.2 258.4 261.5 265.4 269.2 270.5 271.5 270.9 270.7 268.4 265.5 266 264.1 261.8 259.5 257.9 256.4 254.9 253.5 251.5 246.9 240.9 235.3 239.3 238.1 236.2 234.2 232.2 228.6 226.2 224.4 222.2 219.5 216.8 214.2 211.9 209.7 207.5 206.1 204.7 203.3 201.8 199.6 198.3 196.3 194.8 192.9 192.1 190.3 188.6 186.8 185.7 186.3 187.8 188.4 189.8 192.1 195.4 200 204.4 210.6 217.8 224.4 229.4 231.2 230.9 229.4 228 228.7 231.7 233.3 233.2 231.5 230 227.7 223.7 220 214.9 211.9 209.7 206.4 203.1 199.4 195.5 191.7 187.9 184.6 180.9 177.2 173.7 170.8 167.9 165 162.1 159.2 156.8 154.4 152.1 148.2 146.1 143.3 144.2 142.4 140.5 139.5 138.9 135.1 125.6 128 134 131.1 131.5 130.3 129.1 127.7 126.2 124.7 123.6 122.5 119.2 117.5 116.5 115.1 113.8 112.5 110.9 109.1 107.3 105.6 103.8 101.6 98.9 97.4 94.7 92.8 88.2 85.1 81 83 88.3 88.1 85.9 83.7 82.6 80.2 80.3 80.5 80.8 81.3 80.3 78.4 78.7 77.7 76.4 75.3 74.3 74.4 72.3 71.4 70.8 69.5 69.7 69.5 68.5 66 64.6 64.1 63.2 62.8 62.3 61.5 60.5 59.7 60.6 58.7 57.9 55.8 54.4 53.9 52.6 51.2 50.9 51.4
258.5 262.1 264.9 266.6 269.9 274.1 275.2 272.6 270.6 269.8 269 269.4 270.1 269.3 267.3 264.6 262.6 261.2 261.5 264 267.3 271 272.5 272.2 271.7 270.3 268.9 268 267 264.8 262.8 261.4 261.6 260.1 257.8 254.7 250.5 245.8 241.8 236 229.7 232.3 232 229.4 226.8 224.5 222.3 220.5 218.9 216.8 214.1 211.4 208.4 205.1 202.3 200.4 198.6 197 195.5 194.2 192.8 191.4 190.8 189.2 188.2 186.4 184.9 183.5 182.3 183 184.4 185.5 189.1 191.7 194.7 199.9 207.5 213.4 219.5 224.1 225.5 224.3 222.7 220.6 223 225.2 230.8 232.6 232.5 231.4 229 224.5 220.1 215.6 212.2 209.2 204.9 200.2 198.3 194.7 190.4 186.3 183.1 180.1 176.5 172.8 169.3 166.6 163.9 160.7 158.1 155.4 152.9 150.5 146.8 143.4 142.7 139.8 140 137.9 137 135 132.4 127 124 132.6 133.5 132.9 131.6 130.2 128.5 126.9 125.3 123.8 122.3 120.9 118.8 117.5 115.6 113.6 111.8 110.1 108.7 106.9 104.5 103.3 101.2 99 96.5 93.4 90.1 84 83.5 84.7 87.6 89.3 90 89.1 87.9 86.7 85.7 84.3 83.2 82.5 82 81.4 79.9 78.2 77.6 76.7 75.8 75.5 74.4 74.1 73 71.4 70.3 69.7 68.7 68.1 66.5 64.2 63.1 62.3 62 61.7 62.2 60.7 59.8 59.1 57.9 56.3 54.2 52.4 51.1 50.6 50.3 49.9 49.9 50.3
262.3 264.2 267.2 270.4 273.5 276.4 279.1 278.4 277.3 276.5 275.4 274.7 275.1 273 271.2 268.9 267.1 264.9 264.3 266.7 269.5 271.2 272.3 271.8 270.5 268.7 267.9 267.7 266.6 266 266.4 265.6 264.3 263.4 259.4 253.7 248.3 244.5 240.9 236.3 230.7 224.2 227.6 225.5 223.2 220.8 218.7 216.8 215.3 213.8 211.2 208.6 205.5 202.2 198.1 195.8 194.1 192.6 191.5 191.2 189.5 187.8 186.6 185.9 184.5 183 181.5 180.2 178.5 179.2 180.5 181.1 185.6 190.8 195.3 202.4 209.9 215.5 219.5 219.3 218.5 216.2 215.7 215.1 218.2 223.9 228.2 229.7 230.6 228.7 222.7 219.1 215 211.4 208.5 205.1 200.7 194.3 192.5 189.6 185.9 181.5 178.2 175.3 172.1 168.4 165.7 162.7 160 156.6 153.1 148.7 146.6 146.5 143.5 140.7 143.3 140.1 133.1 132.7 132 129.5 125.6 126 131.5 132.8 132 130.8 129.4 127.9 126.3 124.6 122.9 121.4 120.4 118.8 116.8 114.5 112.7 110.9 109.2 107.5 106.1 104.6 101.9 101 97.7 93 90 87.6 85.8 86.5 92 92.3 90.9 90.5 89.4 88.4 87.2 85.9 84.8 83.7 82.2 81.4 80.5 78.9 78.2 76.8 75.9 75.8 75 74.5 74.6 73.6 72.6 70.8 68.5 67.8 67.2 65.9 64.3 62.5 61.6 61.1 61.1 61 62.3 60.3 59.6 58.1 56.7 55.3 53 51.3 50.6 50.3 49.9 49.5 49.1 49.1
265.9 267.4 269.2 272.8 276.4 279.8 282 284 283 281.9 280.9 280.3 280.4 277.8 275 272.3 269.7 267.1 266.7 267.4 269.2 270.2 270.2 269.4 268.8 267 266.8 266.9 267.5 269.7 270.8 270.7 268.5 263.8 256.6 250.5 246 242.2 238.4 234.6 230.5 223.7 220.3 222.1 219.6 216.9 215.3 213.7 211.8 210.2 208.4 205.7 202.5 199.4 195.9 191.5 190.4 189.5 188.7 188 186.1 185.1 182.8 182.1 180.8 179.3 177.8 176.1 174.4 174.7 175.1 177.9 183.7 191.3 197.7 204.6 210.9 214.7 213.5 211.7 210.4 209.1 208.5 210.3 215.9 220.6 222.8 224.9 222.6 217.4 214.4 213 210.8 208.2 205.4 201.5 197.5 191.9 186.3 182.4 180 177.2 173.4 170.4 167.2 164.3 161 158.2 156.2 153.7 151.2 150.9 148.2 141.9 140.9 140 136.2 134 136 136.6 128.5 127.4 128.2 132.6 133.1 131.6 129.4 128.3 126.9 125.2 123.5 121.7 119.8 118.9 118 116.5 114.4 113.7 111.4 109.2 107.1 104.9 102 98.9 95.7 92.8 89.1 90.1 92.5 90.9 91.9 92.3 92.6 91.7 90.5 89.2 88.1 86.4 85.1 83.8 83.2 82.2 80.7 79.2 77.5 76.2 75.5 75.1 74.6 74.5 74.7 72.9 71.3 71.3 69.6 68.9 66.3 64.4 63.3 61.6 60.1 59 58.8 58.7 58.7 59.4 61.3 60.2 58.9 57.4 54.2 53.5 52.1 51.2 50.5 50.4 50.1 49.7 49.5 49.5
268.2 270.8 272.6 275.9 279.3 283 285.4 287.1 287.5 286.5 286.6 287.6 285.4 281.3 277 273.2 270.6 267.4 267.3 267.3 268.3 267.9 267.2 266.4 265.9 266.1 266.7 267.3 269.8 272.4 274.7 273.2 268 261 254.3 248.1 246.1 241.3 237.3 233.5 228.6 222.3 215.7 216.7 215.7 214.4 212.2 210.7 208.8 206.9 205 202.8 199.8 196.9 193.9 190.2 186.7 186.1 185.7 185.4 182.8 182.4 179.2 177.2 176.1 174.4 174.6 173.7 171.5 170.5 171.8 176.7 183.4 191.9 199.2 206.3 210.2 210.5 208.7 206.4 203.6 200.9 204.1 207.2 210.6 212.8 213.3 211.8 209.9 211.1 209.9 209.4 208.5 206.1 202 197.8 192.5 187.2 179.4 178.1 174.7 172.1 168.6 165.7 162.8 160.2 157.4 155.2 154.4 152.6 149 146.4 145.7 144.3 144.6 143.5 140.1 140.5 138.9 134.6 127.8 127.7 131.5 132.4 130.6 128.2 125.9 125.3 123.6 121.6 119.8 117.9 117 116.5 115.6 114.1 112.4 111.8 109.2 107 104.8 100.7 93.4 92.4 93.1 96.7 97.5 96.9 96 94.7 93.5 92.8 91.6 90.4 88.8 87.5 86.2 84.3 81.7 80.1 78.9 77 76.4 74.5 73.8 73.9 73.3 72.8 73 74 73 70.5 67.9 64.6 61.3 59.7 58.8 56.8 56.2 55.8 55.1 54.7 54.7 54.9 55.6 56.2 57 56.4 53.7 54.1 53.3 52.2 51.9 51.1 51.2 50.4 50.3 50 50 49.8
270.1 273.5 276.3 279.5 282.7 285.9 288.6 290.3 292 292.3 292.9 292.4 286.4 281.3 277.2 272.9 269.1 266.9 266.9 266.2 265.8 265.2 264.7 264.7 265 266 266.9 269.3 272.1 274.8 274.6 270.8 265.8 260.2 252.7 248 246.8 239.7 236 232 226.7 221.4 214 214.2 212.8 213.8 210.5 207.9 205.5 203.5 201.6 199.3 196.8 194.2 191.4 188.3 185.5 184 182.7 181.4 179.9 178.5 176.5 172.7 171.3 170.2 170.6 170.3 168.4 167.6 171.6 175.9 182.9 191.8 200 204.6 204 202.4 200.5 198.2 195.4 194.7 195.1 198.2 200.9 201.2 202.9 204.5 205.7 206.3 205.6 203.7 202.5 198.9 195.4 190.2 187.2 183.2 179.4 173.2 171.2 168.2 165.7 162.2 160.8 158.2 155.9 153.5 151.2 149.4 147.4 148.3 146.4 140.9 138.7 138.9 138.7 139.3 135.4 129.1 126.5 130 130.6 129.2 126.9 124.7 122.4 120.1 118.8 116.1 114.3 112.7 110.8 112.9 112.1 109.5 109.9 108.6 107.4 104.8 101.9 94.4 98.5 100 99 97.8 96.7 95.4 94.1 92.9 91.7 90.4 89 87.6 86 84.3 81.6 80 77.7 74.1 70 66.2 64.6 63.8 64.8 67.2 69.4 70.5 70.7 70.2 68.3 65.1 60.7 58.7 60.2 60.2 59.9 59.2 58.5 58.3 58.1 57.1 55.5 54.1 54 53.9 53.6 53.3 53.5 53.5 53.5 52.6 51.8 51.8 52.5 51.6 50.7 50.4 50.3 50.1
272.5 276.5 280.4 283.5 286.7 290 293.2 294.9 296.4 297.5 297.9 292.1 286.5 280.2 275.2 270.9 268.3 266.4 265.6 263.9 263.7 263.1 263 263.3 264.5 266.2 267.3 270.1 272.3 272.2 271.4 267.5 263.2 257.4 251.9 248.3 243.7 237.7 233.3 228.7 223.7 219.7 214.7 211.5 210.6 209.3 208.4 207.5 204.2 200.4 197.4 195 192.9 190.8 188.7 185.7 182.5 179.1 177.2 177 175.8 174.5 173.1 170.5 167.6 167.2 166.8 166.9 165.3 165.3 169.7 174.4 181.5 190.6 195.3 194.6 193.9 192.6 190.5 189.3 188.3 188.3 188.1 190 192.3 194.9 198.9 200 200.6 198.5 197.1 194.6 191.1 188.1 184.7 182.3 180.8 179.2 176.5 172.8 170.1 163.6 161.2 160.8 156.9 156.2 153.6 151.1 149.7 147.2 144.6 142.8 142.2 143.3 141.4 136.5 132.4 134.7 130.4 127 127.3 129.9 127.9 125.8 123.3 120.9 120.3 120.7 118.2 118.8 118.5 116.6 112.2 109 107.5 104 104.2 105.6 104.3 101.1 95.3 98.6 99.7 98 96.9 95.6 93.8 91.8 89.7 88.9 87.7 84.6 82.9 80.3 76.4 72.7 71 68.5 66.8 65.8 68.7 70.3 70.4 68.6 67.4 62.5 62.2 65.7 67.7 65.4 63.1 59.7 61.4 65 65.7 65.1 64.4 63.4 63.5 62.2 61.4 61.6 59.5 59.2 58.3 56 54.7 53.6 53.8 53.6 53.5 51.7 51.2 52.4 52.8 51.9 51 50.8 50.6 50.4
277.8 281.3 285 287.8 290.9 294.4 297.8 299.8 301 301.7 297.8 291.7 284.1 278.6 273.6 269.5 268.5 265.2 262.7 261.5 261.5 261.2 261.7 262.3 263.4 265.2 266.8 269.2 269.4 268.9 267.3 264.7 260.9 257.5 252.5 246.7 241.7 236.8 231.8 227 222.9 218.9 214.9 210.3 209 207.5 206.5 204.8 200.8 197.1 194.5 192 190.7 188.2 186.1 183.1 179.9 176.5 172.3 173.8 171.6 170.5 169.3 168.6 164.7 163.8 163.6 163.5 161.5 165.1 168.3 172.3 179.8 184.7 186.1 185.5 184.9 183.9 182.9 181.7 180.8 180.1 182.2 184.7 187.6 190.9 194.4 195.1 194.3 191.7 189.4 186 183.5 181.6 179.6 178.3 177.5 176.1 173.6 170.5 167.7 164 160.6 154.5 154.9 152.8 151.1 149.3 147.8 146.4 144.6 143.3 140.6 137.6 135.4 133.9 131.8 130 127.7 126.3 124.7 126.6 124.8 124.2 123.9 123.6 122.8 121.3 119.8 118.8 117.1 115.2 112.3 107.9 104.3 102.1 100.9 100.3 97.8 98.2 99.7 99.2 96.8 94.7 93.7 92.9 88.5 79.4 75.5 73.5 76.3 72.8 71.1 69.2 70.4 72.8 72.7 72.2 74.4 77.5 76.4 75.6 75.4 74.7 73.4 71.3 63.3 61.1 61.7 61.6 61.7 59.6 63.4 67.3 67.5 67.3 65.9 66.9 65.8 62.9 61.6 60.7 60.7 60.3 59.2 58.2 56.9 54.1 53.9 53.8 52.9 52.3 51.5 52.7 52.8 52 51.5 51.3 51.1 50.8
282.9 286.4 289.6 292.4 295 299 302.3 304.1 304.1 300.9 294.5 288 281.2 276.4 271.9 267.9 266.3 264.5 261.9 260.5 259.7 260.1 260.6 261.2 262.4 264 265.2 266.4 266.4 266.2 264.9 263 260.4 257.9 253.9 248.6 242.1 235.7 230.6 226.5 222.3 218.1 213.5 209.2 206.8 203.4 202.6 200.8 196.9 194.3 191.7 189.1 187.7 186.2 183.8 180.8 177.5 174.7 169.9 169.5 167.3 166.2 165.4 165.1 162.6 160.2 160.5 160.6 159.7 162.9 166.3 170.5 175.6 177.5 178.2 177.7 177.2 176.5 174.4 173.5 172.8 173.3 177.8 180.4 186.3 189.8 192.6 191.4 188.4 185.7 182.8 180.3 178.8 177.5 176.5 175.6 175 172.9 170.4 168.1 164.6 161.6 157.8 154.9 148.7 149.7 148.8 147.5 146.1 145 143.3 141.6 140.8 137.8 137.3 134.2 131.9 130.3 128.5 127.5 127.7 125 125.6 125.4 124.2 122.9 122 119.9 117.9 116.3 114.8 110.5 106.5 106.9 107.5 105.8 101.6 99.5 100.3 100 99 97.4 94.9 92 90.4 81.4 75.6 78.3 83.1 82.9 76.8 78.5 80.6 79.8 80.5 81.1 80.7 79.3 78.3 77.6 76.5 75.4 75.2 73.9 72.5 69.7 68.2 65.5 62.2 61.2 60.2 62.4 67.3 66.8 67.3 66.8 66.5 66.7 64 62.3 61 59.9 60.1 60.2 59.5 58.7 58 54.6 54.2 53.7 52.6 52.6 51.9 52.9 52.9 52.7 52 51.8 52.3 52.7
286.8 290.5 293 295.6 299.6 303.6 307.1 306.2 301.6 295.2 288.4 282.5 277.5 274.3 269.6 266.3 265.5 263.4 261.8 260.3 258.8 258.6 259.4 260.1 261.2 262.4 262.3 263.1 264 264.1 263.6 262.6 260.2 257 252.9 247.8 241 234.8 229.5 225.6 221.5 217.3 213 209.4 207.6 205.3 196.3 196.6 193.9 191.5 188.9 186.5 184.4 184 181.8 179.4 176.7 173.9 170.6 166.8 162.9 163.3 162.1 161 159.5 158.1 157.3 156.5 157.6 159.9 162.3 166.5 169 170.4 170 169.9 169.5 169 167 166.8 167.2 170.8 174.3 180 185.8 191.8 188.4 186.3 183.3 180.1 177.5 175.7 174.2 173 172.1 171.1 170.4 168 165.2 163.1 160.9 158.4 156 152.7 149.6 145.1 144.1 145.2 144.1 142.8 141 139.5 138.4 138 135.7 133.6 131.5 129.1 127.1 127.2 125.5 124.6 124.7 124.2 123 121.6 120 117.5 114.5 112.3 109.4 107.9 109.3 107.4 105 103.1 102.3 100.1 99 97.5 96.4 94.3 91.6 88.1 81.3 76.4 82.8 85.8 86.5 85.9 85.1 84.1 84.2 83.6 82 81.7 80.2 78.6 77.8 77.6 76.7 75.5 74.9 73.2 70.7 71.3 71.3 70.7 69.3 68 66.9 68.1 68.2 66.8 65.9 65.3 64.2 64.7 62.4 61.6 60.3 59.3 59.4 59.6 59.6 59.2 57.3 54.9 54.5 53.3 52.3 51.8 54.4 54.2 54.9 54.7 54.6 54.3 53.8 52.9
290.7 293.5 296.3 300.4 304.1 306.1 306.4 300.7 293.3 287.1 281.4 276.4 273.4 270.6 267.9 264.9 263.6 263 261.6 260.2 258.8 255.4 256.2 256.2 256.3 256.3 256.4 258.2 260.3 261.2 261.4 260.9 258.6 255 251 245.8 239.1 233.5 227.8 224 220.3 216.4 212.5 208.5 205.3 201.7 196.9 192.1 190.6 188.9 187.2 184.4 181.1 179.9 178.4 176.4 173.3 169.5 166.5 163.5 154.5 159.1 158.3 157 155.8 154.4 153.3 153.9 154 156.3 158.6 159.6 161.1 162 161.9 161.6 161.5 161.3 161 160.7 161.6 168 172.8 178.6 184.8 184.9 184.4 180.9 178 175 173.4 172.5 172 170.8 169.4 167.9 166.8 162.1 162 159.4 157.6 155.8 153.2 150.3 147.6 146.5 143 137.8 141.6 140.4 138.7 137.3 136.1 134.5 132.6 130.4 129 127.8 126.1 125.7 123.8 122.5 121.4 120.1 119.2 117.9 115.9 114 111 109.1 109.3 109.2 107.3 105.2 102.5 100.4 99.4 98.8 96.9 95.3 93.5 90.5 85.3 78.9 76.6 83.9 87.6 87.7 87.3 86.9 86.6 85.4 85 82.7 81.4 81.4 79.7 78.5 77.9 77.2 76.8 75.6 74.6 72.6 71.3 73.5 72.6 72 71.4 69.8 68.3 67.8 68 66.5 65 64 63.1 62.1 61.4 60.6 59.6 58.6 58.8 59 59.8 58.4 56.5 55.1 53.8 52.5 52.2 53.9 57 56.2 56.2 56.1 55.9 55.3 54.6 53.3
295.4 298.7 301.8 305.3 306.9 307.9 302.4 295.1 287.9 281.5 277.6 274.2 270.7 267.7 264.8 263.5 262.4 262.4 260.6 258.7 256.4 253.6 252 250.8 250.2 250.1 251.5 253.6 255.8 258.5 259.2 258.8 256.4 253 248.3 243.3 237.2 231.7 226.6 222.3 218.6 215 211.3 207.6 204 199.6 195.3 190.7 182.1 186.7 184.4 181 177.5 175.8 173.5 171.1 168.2 165 162 158.7 152.4 153.3 153.6 152.2 151.1 150.1 149.3 149.4 149.6 152 153.2 153.9 154.5 155.4 155.1 154.8 154.5 154.8 155.4 154.8 162.2 165.6 171.3 177.2 179.1 178.7 178.4 176.3 172.5 171.1 170.6 171.1 170.5 168.7 167.1 165.6 163.7 161.4 158.5 155.9 153.5 152.2 150.9 149.7 147.4 144.6 142.9 141 134 135.7 134.2 133.1 132.1 129.9 127.6 122.1 119.1 119.4 116.9 115 111.3 114.7 115.5 114.6 114.9 113.2 112.4 112.3 110.7 109.2 107.9 106.6 104.7 102.9 100.5 99.6 96.8 95.1 91.8 87.7 84.2 80.4 79.6 84.1 87.7 89 88.3 87.6 86.9 86.5 87 84.7 83.3 81.9 81.3 81.2 79.1 78.7 78 77.3 76.5 75.8 74.3 73.7 73.8 73.4 72.3 71.1 70.5 69.2 67.6 67 66.8 66.2 64.7 63.8 63.1 62.2 61.7 61.3 60.6 59.9 57.8 57.3 58.1 57.8 55.5 54 52.7 51.4 53.4 56.3 57 56.8 56.3 57 56.6 55.8 55.3 55.3
304.9 306.2 306.5 305.9 307.4 304.3 298.6 292.1 285.3 280.1 275.5 272 268.4 265 262.7 261.8 260.4 259.3 258.1 256.2 253.8 249.3 245 245.6 244.9 244.6 247.1 249.2 251.3 254.3 257.1 256.5 254 249.2 243 238.3 234.1 229.1 224.4 220.5 217.1 212.7 208.8 205.3 201.3 197.2 192.9 189.1 181.5 178.3 178.8 176.9 172.9 170.2 168.9 166.6 163.2 161 158.3 155.5 152 148.4 148.7 147.5 146.4 145.5 146.3 145.9 145.4 146.9 147.3 147.8 148.3 148.6 148.3 148 148.3 149.1 146 154.2 158.6 162.6 167.3 170.6 172.5 172.2 171.9 172.1 169.9 169.9 169.9 169.5 168.1 166.6 164.8 163.3 161.8 160.2 157.6 155.4 152.6 152 150.3 149.2 146.2 141.2 140.3 138.3 134.1 134 132.6 130.4 128.5 129.2 129.1 128.6 126.5 124.5 122.2 121.4 120.1 117.3 114.8 107.1 103.9 109.8 109.7 109.1 107.8 107.4 105.8 103.6 101.7 99.7 95.5 94 91.3 86.1 82.2 82.6 87.8 89.4 91.1 90.2 89.2 88.6 88 87.3 86.6 85.9 85.2 84.2 83 82.3 81.6 80.9 79.8 78.8 78 77.2 76.4 75.6 74.4 73.3 72.6 72.3 71.3 69.8 69.4 67.8 66.1 66.1 65.1 64.7 64.2 63.5 63.3 62.9 62.5 61.9 60.4 57.7 55.6 55.6 55.4 55.8 54 52.9 54.4 56.2 57.5 57.8 57.3 57.1 57 56.9 57.5 57 56.6 56.9
309 309.2 308.7 305.8 304.2 302.9 296.8 289.5 284 278.1 273.4 269.3 265.7 262.3 261 260.1 257.9 256.3 255.2 253.5 250.7 246.7 241.7 240 239.6 239.3 240.9 242.9 245.9 248.8 251.1 250.7 246.8 242.5 239.1 235 230.6 226.5 222.3 218 213.5 209.1 204.9 201.2 196.6 192.7 188.8 183.9 178.2 171.9 172 171.2 167.4 164.6 160.9 160.8 158.2 156.8 155 152.3 149.5 144.9 143.9 143.4 142.8 142.1 142 141.4 140.3 141.9 142.3 142.2 141.7 141.2 141.1 141.4 142.6 141 144.5 148.3 152.5 156.8 160.2 163 164.4 165.4 165.6 166.5 166.3 165.3 165.8 165.3 164.4 163.1 161.9 161.1 159.8 158.1 156.6 154.4 151.8 149.9 148.2 147.2 144.4 141.4 140.4 138.8 136.6 135 134 132.1 130.3 129.4 127.9 126.2 122.8 119.1 117.5 115.1 113.8 113.7 112.1 110.5 108.6 99.9 101.9 104.5 103.7 101.9 101.4 98.4 95.9 91.7 88.8 86.5 85.2 84 87.4 91 91.3 91.3 90.7 89.9 88.9 88.2 87.6 86.9 86.2 85.4 84.6 84 83.1 82.1 81.1 80.1 79.1 77.2 76.9 76.3 75.3 75 74.2 73.1 72 70.6 69.2 68.6 67.7 66.5 64.9 64.6 63.5 63 61.3 60.9 60.6 61.2 60 58.2 57 54.9 54.2 53.9 53.2 53.4 55.1 56.9 57.3 58.3 61 59.3 58.8 58.7 58.5 57.8 57.9 59 59.1 59.3
312.2 311.9 310.8 306.7 301.6 296.1 291.2 286.3 280.4 275 270.3 266.3 263.1 261 259.3 258 255.3 253.7 252.1 249.4 245.1 242.1 237.2 231.7 232.9 233.9 235.5 237.1 238.7 241.5 242.4 242.5 239.3 236.8 233.7 229.3 225 221.5 217.6 212.6 207.4 202.8 198.8 195.2 191.5 187.4 183.1 179.1 175 171.3 167.7 165.5 163.3 160.5 157.2 155.4 154.1 152.7 151.3 149.1 146.5 141.6 140.5 139.1 138.8 138.4 136.5 135 133.9 136.3 136.5 136.1 135.7 135.4 135.7 136.6 137.3 135.8 139.9 142.1 145.6 148.4 151.5 154.6 156.1 156.5 159.1 159.7 160.3 160.6 160.8 160.6 160.1 159.2 158 158.7 159.1 156.8 154.5 153.8 150.4 149.9 147.6 145.7 144.7 142.9 140.4 138.1 135.4 134.2 131.8 129.9 128.4 125.7 122.4 119.1 115 112.5 112 111.5 108.6 105.8 104.1 102.2 99.4 98.4 97.3 96.6 96.4 96.8 94.4 92.3 94.5 94.6 92.2 88.9 87.5 89.7 91.8 91.7 91.5 90.9 90.2 89.5 88.6 87.8 87.1 86.5 85.7 84.8 84.1 83.2 82.3 81.3 80.3 79.4 78.4 74.9 72.5 70.5 70.6 72.6 72.3 70.8 68.3 63.6 61.6 60.6 60.2 61 59.8 59.9 59.5 58.3 58.2 57.8 57.4 56.8 55.8 55 54.5 54.7 54.2 54.4 55.5 57.1 58.5 58 58.5 61 61.5 61.1 60.4 60.2 60 59.9 59.4 59.4 59.9 60
312.5 310.7 309 305.9 299.3 292.8 287.2 282.2 276.8 271.6 268.3 265.7 262.5 260 257.9 255.5 252.8 250.6 247.3 244.1 238.9 236.3 231.3 226.6 228.8 229.9 230.3 231.2 232.5 233.3 233 233.3 232.5 229.4 226.3 223.3 219.4 215.9 211.4 205.7 201.2 196.7 192.7 188.8 184.8 181.1 177.3 173.4 171.1 167.3 164 161.3 159.1 156.4 153.6 151.4 150 148.6 147.2 145.8 143.4 140.6 137.3 135.5 134.9 133.8 132.9 131 126.5 130.2 131.4 131 130.8 130.8 131.2 131.8 132.5 130.8 134.8 136.9 138.5 140.9 143.1 146.2 148.6 149.3 150.8 152.4 152.9 153.8 154.4 154.9 154.7 154.5 155.3 156.1 156.8 156.6 155.1 154.8 150.3 148.1 146.8 145.4 143.7 142.1 140.1 137.8 134.4 132 128.5 125.7 123.3 120.6 116.5 115.5 116.3 115.9 116.4 112.2 110.2 109.6 108.3 106.6 105.3 99.9 99.3 100.2 99.9 97.1 94 92.7 91.9 91.6 93.3 94.4 94.2 94.1 93.6 92.7 91.5 90.6 89.7 89.1 88.3 87.5 86.7 85.9 85.1 84.2 83.1 82.2 81.2 80 78.8 76.7 73.9 69.9 71.4 72.6 70.4 67.5 65.9 65.1 63.6 58.4 59.9 59.6 59.5 58.5 57.8 57.6 56.7 57.6 56.5 56.3 56.7 57.4 58.2 60.2 59.8 59.2 57.9 58.2 58.5 58.9 58.8 59.9 61.9 64.3 63.9 63.4 62.8 62.1 61.4 59.2 59.6 59.8 59.8 59.4
308.5 305.9 302.8 298.7 293.2 288.5 283.4 278.5 274.3 270.6 267.5 265 262.2 259 256 252 248.9 245.8 241.1 237.2 233.5 230.3 228.1 222.7 222.6 225.4 226.1 226.5 225.9 226.6 226.1 225.5 225.2 222.4 219.9 217.3 213.1 209.3 204.1 199.1 194.3 189.8 185.9 182 178 174.7 171.5 169 166.7 163.4 160.4 157.4 154.9 152.3 149.5 147.5 145.9 144.5 143.2 142 139.9 137.4 135.4 132.7 131.8 130.9 128.9 129.2 126.6 124.5 126.4 126.2 126.2 126.3 126.6 127.2 128.1 125.6 129.9 131.3 132.9 134.4 136.1 138.5 141.3 143.1 145.4 146.7 147.2 146.9 147.9 149.2 149 148.9 149.2 150.1 151.6 152 150.7 149.8 146.7 145 143.9 142.4 140.9 138 136.3 131 126 124.4 122.6 121.2 120.5 120.4 118.9 117.6 118.3 116.8 114.9 113.1 111.5 110.1 108.1 105.1 103.3 103.2 105.3 104.6 103 101.3 99.2 97.9 96.8 96 96.1 95.6 94.8 94.2 93.4 92.5 92.1 91 89.7 88.5 88 86.6 84.6 84.3 83.8 82.3 81 80.1 78.9 77.2 74.2 72 71.4 74.8 76.2 75.3 74.4 73.4 71.1 66.6 61.3 58.7 62.3 63.5 64.1 62.4 61.9 62.4 62.6 62.6 62.5 62.4 62.7 63.4 64.4 64 62.7 61.1 59.4 59.2 58.9 60.3 62.1 62.5 64.8 65.4 64.6 63.4 62.3 61.7 61.2 59.8 59.8 59.4 58.4 57
298.8 296.9 294.4 291.4 287.8 283.6 279.8 276.8 273.3 269.8 268.2 265.4 262.6 259.4 255.3 249.5 243.7 239.7 234.9 231.4 228.1 225.4 223.9 221.4 214.4 220 222.1 222.5 221.5 220 220 218.7 217.7 215.9 213.3 208.5 206.2 201.7 197.2 192.5 187.8 184 180.2 176.5 173.1 169.9 167.4 164.9 162.3 159.6 156.8 154.3 150.8 148.1 145.6 143.8 142.3 141 139.8 138.6 136.5 134.5 132.7 131 129.3 127.6 125.3 125.2 123.9 119.6 123.2 123 122.7 122.4 122.7 123.7 123 121.4 125 125.9 127.2 128.5 130 132.2 134.4 136.5 138.9 141.8 142.1 142.2 142.4 142.9 143 143.2 143.6 143.9 144.7 145.3 144.7 142.9 140.9 140.7 139.9 138 135.3 130.4 128.6 127.3 127.8 127.4 126 125.1 124.4 122.8 121.3 119.8 118.4 117.5 115.1 111.7 110.5 108.7 107.3 104.5 105.5 106.5 105.7 104.3 103 101.6 100 98.5 97.3 96.1 95.1 94.7 94.2 93.4 92.3 91.4 89.8 88.1 87.3 85.5 82.2 80.4 80.8 79.4 80.2 77.6 76.3 75.2 74 73.3 75 76.5 76.5 75.5 75.7 74.6 73.8 73 71.8 68 62.7 59.4 62.9 66.2 66.5 65.4 64.9 65.3 65.6 65.6 65.6 65.4 65.4 65 64.7 64.3 63.8 62.3 60.7 60.4 61.7 63.1 63.1 63.5 65.6 65.3 64.1 63 62 60.8 59.9 58.5 57.1 57.8 56.6 55.2
289.3 287.3 286 284.8 282.1 280.2 277.1 274.7 272.3 271.5 269.9 267.2 264.4 260.6 255.7 249.3 243.2 238.1 233.4 228.1 224.5 222.4 221.9 218.8 210.8 215.5 220 219.1 217.5 215.7 214 213.6 210.4 208.9 205.2 202.2 199.2 195 190.7 186.5 182.6 178.8 175 171.6 168.4 165.8 163.3 160.8 158.2 155.6 153.2 150.7 148.2 145.6 143 141.3 139.7 138.3 136.8 135.3 133.6 131.8 130 128.2 125.9 123.1 123.1 121.7 121.3 115.7 119.5 120.3 120.4 120.4 120.4 119.9 119.5 118.7 120.7 121.6 122.1 122.9 124.2 126 128 129.4 131.6 134.4 135.7 135.7 135.6 135.1 135.5 136.2 136.8 137.3 137.7 138.5 138.4 138.2 136.9 136.7 136 134.9 133.7 134.4 133.3 130.2 128.8 128.2 126.7 124.6 122.8 120.7 119.1 117.9 116.9 114.1 111.2 111.4 109.5 109.5 109.9 109.1 108.2 107.2 105.5 103.7 102.4 100.8 99 97.3 96 94.8 93.8 93 92.3 91.1 90.7 89.6 86.9 81.7 79.6 77.7 78.7 78.8 81.2 78.8 77.9 78 79 79.2 78.9 78.4 77.9 77.4 76.8 75.8 73.8 69.4 68.5 69.5 70 66.5 63.6 60.4 64 67.6 67.2 66.3 65.4 65.3 65.7 65.2 65.2 65 65.1 65.3 64.9 64.5 64 63.4 61.2 61.3 63.6 64 63.8 63.5 64.2 64.6 63.6 62.6 61.6 60.1 59.1 58.6 56.9 56.2 54.8 53.4
284.4 283.5 283 281.1 279.2 277.5 276 275.6 274.9 273.6 271.6 268.4 265.1 260.6 254.4 248.2 242.3 238.1 234.4 231 229 227.3 225.9 222 214.5 202.9 215.5 214.8 212.2 209.5 208.7 208.4 204.1 201.6 199.5 195.6 193.2 189.2 184.9 181.4 177.4 173.5 170 167.1 164.6 162.1 159.6 157.1 154.7 152.9 151 148.5 146.4 143.9 141.3 138.9 137.2 135.7 134.2 132.9 132.1 130.3 127.8 126.2 124.5 118.5 117.7 118.1 118.9 113.4 117.7 118.3 118.1 117.7 117.5 117 116.3 115.9 115.9 117 116.7 117.6 118.9 120.3 121.6 123.2 124.5 126.7 127.6 127.5 127.4 127.1 127.9 127.8 127.9 129 130.1 131.2 132.2 132.7 132.7 132.9 132.7 132.8 132.3 131.3 130 127.7 126.1 124.2 122.4 120.6 119.6 118.6 116.7 115.5 114 112.2 110.6 110.9 111.3 109.9 108.1 106.2 106 105 102 101.5 99.8 97.6 94.8 93.1 91.7 90.8 90 89.7 88.8 87 85.2 85.1 83.2 79 82.3 83.7 82.7 82.3 82.3 81.4 80.5 80.2 79.8 78.8 78 77.4 76.7 75.7 75.2 73.3 69.9 61.8 63.1 61 62.7 63.5 60.9 61.6 67.6 69 68.1 67.3 66.4 65.5 65.7 65.5 64.7 64.7 64.8 64.7 64 63.5 63.1 62.5 61.6 61.9 62.7 62.1 62 62.4 62.8 62.9 62 61.8 60.6 59.1 59.4 59 57.7 55 52.8 52.4
281.7 281.5 280.2 279.8 279.7 279.3 279 278.9 277.7 276.3 273.8 269.1 264.4 257.8 252.1 247.3 243.7 239.8 236.3 234.7 231.4 229.3 227 224.8 216.9 204.3 202.8 208.1 206.6 203.6 202.7 202.6 199.4 195.9 192.1 189.1 187.3 183.4 179.3 176.1 172.4 168.6 165.8 163.3 160.8 158.3 155.9 153.8 152.1 150.3 148.8 146.4 144.2 142.3 139.7 137.3 134.9 133.2 131.8 130.7 130 129.2 127.4 126.3 124.9 121.8 119 112.1 115.1 112.2 114.5 115.4 115.1 114.8 114.7 114 113.3 112.7 112.9 113.5 113.9 113.9 114.4 115.8 115.9 117.1 117.9 118.8 120.1 119.4 119.2 119.9 120.2 120.5 120.6 121.3 122.4 123.4 124.5 125.3 125.1 125.3 125.3 125.9 124.4 123.6 123.3 122.2 121.3 119.9 118 116.7 116.1 115.4 114.1 112.5 110.9 110.1 109.4 108.5 107.7 106.1 104.8 103 102.8 100.8 98.2 96.2 94.4 92.3 91.2 91.1 90.4 88.3 86.5 85.7 84.6 84.3 84.1 83.6 82.4 79.7 81.7 82.8 82.5 81.9 81.6 80.8 79.9 78.9 78.4 77.9 77.1 76.5 75.5 74.5 73.5 71.6 66.1 63.1 68.9 64.7 62 61.9 66.2 69.5 69.9 69.3 68.6 68.2 67.3 66.5 65.8 65.9 65.1 64.2 64.1 64.1 63.4 62.6 62.1 61.5 60.3 60.4 61.1 60.6 61 61.4 61.3 61.1 60.4 60.2 59.2 58.7 58.8 58.1 56.2 53.2 52.9 52.6
279.9 280.5 280.2 281.4 281.6 281.7 281.5 281.3 280.1 277.3 271 266.8 262.1 256.3 251.4 248.3 244.5 241.6 239.4 236.7 233.5 229.6 226.5 221.1 215.8 208.6 196.5 197.7 198 195.8 199.7 197.4 193.6 190.1 186.7 183.4 181.4 177.6 174 170.9 167.4 164.6 162.5 160.2 157.8 155.5 153.1 151.2 149.4 147.7 146.6 144.2 142 140.5 138 135.6 133.2 130.8 129.2 128.6 128 127.4 127.4 126.4 125.3 121.5 119.5 113.6 113.3 113.6 108.1 111.2 112.1 112.1 111.8 111.1 110.4 109.7 109.7 109.8 110 110.1 110.7 111.2 111.1 111.4 111.8 111.9 113.5 113.1 112.9 112.8 112.8 112.7 113.7 114.4 115.5 116.3 116.9 117.6 117.6 116.9 116.9 116.6 116.1 116 116.3 115.3 114.5 113.7 112.8 111.9 110.7 109.4 108.9 107.3 105.8 105 103.7 102.7 102.2 101.6 100.3 98.9 97.8 96.8 94.9 92.4 90 87.7 86.2 86.9 87.5 85.9 84.8 83.8 82.8 82.3 81.9 80.3 79.9 80.8 81.8 81.5 81.3 80.3 80.2 80.2 79.4 78.3 77.6 77.2 76.6 75.3 74.6 73.8 73.1 71.7 66.8 62 70.4 69.7 68.4 68.6 70.2 70.7 70.2 69.4 68.5 67.7 67.5 67.3 66.6 66.2 65.4 64.5 63.6 63.4 62.7 62 61.2 60.1 58.9 58.8 59.5 59.6 59.6 59.3 59.2 59.3 59.1 58.5 57.8 57.8 57.8 56.6 53.8 53.2 52.9 53.2
277.6 278.9 279.7 280.7 282.4 283.3 283 281.8 279.5 274.2 268.1 264.3 259.1 255.8 251.6 248.7 245.4 242.3 239.6 236.6 232.2 227.9 223.1 218.8 214.7 208.9 205.5 193.7 183.7 184.5 193.3 191.3 187.8 184.3 181.2 179.2 176.3 172.8 169.9 167.3 163.7 161.5 159.3 157.2 155 152.8 150.4 148.4 146.8 145.1 144.2 142 139.8 138.3 136.3 133.9 131.4 129.3 126.2 126.8 127.4 127.6 127.4 126.9 124.8 118.3 114.7 111.9 110 111 106.5 105.4 108.3 109.3 108.8 108.2 107.6 106.6 106.6 106.9 107.2 107.4 107.5 107.8 107.6 107.4 107.2 106.6 107.8 107.7 107.8 107.9 107.9 107.8 107.6 107.7 108.6 109.5 110.2 110 110.5 109.5 108.7 108.5 108.2 108.3 109.1 108.7 108 107.2 106.4 105.6 104 102.4 101.2 99.9 99.4 98.5 98.1 97.9 97.1 96.8 95.6 94.2 92.9 91.7 90.5 88.7 85.8 83.4 84 83.4 84.6 84.3 83.1 82.1 81.3 80.8 80.2 80.4 80.2 80.2 80.5 80.3 80 78.7 78.4 78.4 78.5 78 77.4 77 76.6 76.1 75 74.2 73.6 72.4 69.4 62.4 69.2 70.8 70.5 71 71.4 71 70.4 69.5 68.6 67.7 66.9 66.5 66.3 66.2 65.4 64.6 63.7 63 62.7 62.3 61.4 61.1 60.2 59.6 58.7 58.5 58.6 58.6 58.7 58.8 58.4 57.5 56.9 56.9 57 55.9 53.2 53.3 52.6 51.2
271.8 275.1 277.6 279.5 281.4 283.4 281.9 279.4 275.1 269 265.8 262.2 258.8 255.1 251.7 248.2 245.5 242.9 239.3 234.4 228.8 224.4 220 216 211.9 208.6 205.9 200.5 195.6 186.7 178.1 182.9 182.1 179 176.6 173.8 170.7 168.4 166.4 162.9 160.4 158.3 156.1 154 151.9 149.7 147.6 145.7 144.1 142.4 141.6 139.8 137.6 136.1 134.5 132.2 129.9 127.8 124.8 122 127.4 128.3 126.6 124.1 118 111 108.9 107.2 106.5 105.7 104.6 104 103.1 104.6 104.8 104.4 104.3 103.6 103.5 103.8 104.1 104.4 104.7 104.7 104.4 104.2 103.9 103.1 102.9 102.9 102.9 103 103.1 102.9 102.6 102.1 102.7 103 103.4 103.2 103.1 102.1 101.1 100.5 100.6 100.8 101.3 101.8 101.1 100.5 99.5 96.8 95 94.1 92.7 90.3 90.3 92.3 93.6 92.9 92.6 91.9 90.9 89.6 88.7 87.5 85.7 81.6 78.3 77.5 79 82.6 82.3 82.4 81.5 80.7 79.9 80.1 80.3 80 79.7 79.4 79.1 78.7 78.3 77 76.4 75.9 75.8 76.2 75.7 75.5 75.2 74.5 73.8 73.2 72.8 71.6 68.8 62 69.3 70.5 71 71.3 71.2 71.2 70.6 69.7 68.7 67.8 66.9 66.1 65.5 65.2 64.4 63.9 63.6 63.7 63.4 62 61.8 61.6 59.8 59.5 58.8 58.5 58.1 58.2 58.3 58.4 57.6 56.7 56.4 56.2 56 54.4 52.9 52.2 52.3 51.7
267.5 270.2 273.9 277.3 280.7 280.9 276.7 272.1 270 266.8 264.4 261.5 258.7 253.6 249.7 246.9 244.5 240.5 235.1 229.1 224.5 219.4 214 209.9 206.4 203 200 197 193.1 188.1 179.5 172.3 174.4 173.9 171.3 168.8 167.2 164.2 161.3 159.2 157.2 155.1 153 150.8 148.8 147.2 145.4 142.2 141.2 139.8 138.9 137.6 135.4 133.8 132.3 130.9 128.5 125.7 122.4 119.7 126.4 125.2 119.3 113.2 110 108.7 110.5 107.3 107.7 109.4 106.7 103.7 103.5 101.4 100.4 100.1 100.4 100.5 100.4 100.8 101.3 101.9 102.4 102.1 101.2 100.9 100.6 100.2 99.4 99.2 98.8 98.3 98.2 98.1 97.9 97.4 97.9 98.4 98.4 97.6 98.2 97.1 96.5 96.5 95.6 95.8 94.9 94.3 94.2 93.3 91.6 90.2 89.5 88.3 86.7 84.1 83 83.5 86.5 87.6 87.8 87.1 86.3 85.2 84.5 81.6 79.7 80.4 82.4 81.1 76.1 80 81.3 81.5 80.8 80.6 79.6 79.4 78.7 78.6 78.4 78.1 77.4 77 76.6 75.5 74.9 74.1 73.3 74.1 74 73.9 73.6 72.9 71 69.8 69.4 66.3 63.9 63.8 69.5 71 71.2 71.3 70.9 71.4 70.7 69.8 68.8 67.9 67 66.1 65.3 64.8 64.5 64.3 64.4 63.8 63.8 63 62.2 61.4 60 58.9 58.1 58.2 58.2 57.7 57.8 57.9 56.8 56.1 55.9 55.7 53.5 55.3 53.2 52.8 52.6 52.3
264.2 266.2 270.6 275 276.1 271.5 265.9 264 265.5 265.3 263.3 260.4 257 251.7 248.2 244.2 241.4 235.6 229.5 224.6 219.8 213.5 207.7 204.5 201.2 198 195 192.1 188.7 184.4 178 169 164.8 165.8 166.9 165.5 163.3 161.3 157.6 155.9 152.7 151 149.6 148.3 147.1 145.7 141.7 138.4 137 137 134.8 134.2 131.8 130.1 128.7 127.3 124.9 123.7 121.1 118.2 116.5 115.7 112.5 111.2 109.7 115.7 117.3 114 112.7 113.6 111.9 109.3 106.7 103.2 102.9 100.6 99.4 99.1 98.2 98.7 99.3 99.8 99.8 100 99.1 98.2 97.4 97 96.5 96.5 96.3 95.7 95 94.5 94.6 93.9 93.7 93.9 93.3 94 93.4 93.3 93.6 93 91.8 90.5 89.8 89.5 89.1 88.8 88 87.2 86.4 85 86.4 87.2 85.9 84.5 81.4 82.7 84.5 83.8 82.8 82.5 81.8 80.2 79.2 82.4 81.4 78.7 75.1 78.2 80.6 80.6 79.9 79.2 78.5 77.8 77.1 76.7 76.4 75.7 75.7 75.2 74.6 74 73.2 72.4 71.9 71.8 72.3 72.2 71.8 71.1 68.6 65.4 66.1 67.4 66.8 65 69.6 71.1 71.3 71 70.5 70.1 70.8 69.9 68.9 68 67.1 66.2 65.6 65.2 64.9 64.6 64 63.5 63.2 62.5 61.8 61.1 60 58.2 57.4 57.5 57.5 57.5 57.5 57.5 56 55.7 54.2 53.1 51.5 54.7 53.3 53 52.8 53.1
260.7 264 268.2 268.3 263.5 260 258.9 260.2 263.2 264.5 261.7 258.6 255.2 249.9 246.6 241.7 235.3 230 225.1 219.6 214 208 202.2 199.4 196 193 190.1 187.3 184.4 180.3 176.5 171.2 163 160.8 162.1 161.3 159 156.8 154.5 151.6 149.5 146.5 143.6 142.1 140.8 138.3 134.2 130.3 129 129.8 129.1 129.1 128.4 127.4 126.2 123.9 122.1 120.8 119.1 117.2 114.6 113.7 111.7 111.1 119.3 118.3 118.4 115.3 112.5 113.5 111.2 109 107.4 104.1 104.3 102.3 100.4 98.9 97.3 96.7 97.2 97.7 97.7 97.9 97 96.1 95.2 94.4 93.7 92.9 92.7 92 91.8 92.1 92.4 91.5 91.3 91.2 91.3 91.5 91.1 90.8 90.2 89.9 88.9 88.1 87.8 87.8 87.7 87 86.3 85.6 85.1 85.6 86.4 85.9 84.3 82.5 82.6 79.5 80.8 81.1 80.9 81.7 81.4 79.8 78.8 80.9 79.9 77.3 73.6 77.1 78.4 78.1 77.1 76.6 76.1 75.6 75 74.1 73.3 72.7 72.6 72.6 72.5 72.3 71.5 70.9 70.5 70.4 70.5 71.1 70.8 70 67.1 65.9 67.7 68.2 67.4 65.4 68.4 70.4 70.7 70.4 70 69.7 70.6 69.6 68.7 67.8 66.9 66.1 65.6 65 64.4 63.8 63.2 62.7 61.9 61.1 60.2 59.6 58.9 57.5 56.7 56.7 56.8 56.8 56.9 57 55.5 54.3 53.3 52.4 53.1 53.6 53.7 53.4 53.2 54
256.6 259.3 258.5 255.3 253.5 252.6 254.3 256.6 261.6 262.3 259.4 256.2 252.4 247.9 242.3 236.6 230.5 224.8 218.5 213 207.9 202.7 198 194.1 191 188.2 185.3 182.4 179.6 176.7 173.1 168.5 164.3 157.8 156.2 155.8 153.5 150 148.2 145.1 142.9 140.9 139 136.5 134.5 131.8 131.9 132.3 131.8 124.6 122.3 123.7 123.8 125 124 122.8 120.1 118.8 117.2 114.9 113.4 112.5 111.6 118.6 121.2 120.3 119.1 116.6 114.3 113.2 111.9 110.5 106.6 103 101.5 101.6 100.1 99.3 96.4 95.6 95.1 95.1 95.6 95.8 94.9 94.1 93.5 93 92.3 91.3 91.1 90 90.8 90.5 90.4 89.7 89.3 89.2 89.2 89 89.3 89.4 89.4 89.1 88.2 87.5 86.8 87.2 87.1 85.9 85.2 84.9 85.1 85.2 86 84.1 82.2 80.4 79 79 79 79.3 80.1 80.8 81 79.5 78.5 79.5 79.2 76.8 73.5 76 76.9 75.9 74.9 73.9 73.5 73 72.7 72.5 72.4 72 71.7 71.6 71.4 70.9 70 70 70 70 70.6 70.7 69.9 67.1 66.5 67.6 68.5 68.1 67.4 67.1 66.9 69.2 69.2 68.8 68.5 68.1 68.5 68.7 67.8 66.9 65.3 63.5 64.6 62.5 62.3 62.2 61.7 61.1 60.3 59.2 58.4 58.6 57.4 56.4 56.1 56.3 56.5 56.7 56.8 56.4 55.5 55.1 53.1 53.3 53.7 54.1 54.1 53.7 54.1 54.9
252.7 251.2 248.6 247.3 246.9 248.7 251.1 254.7 258.6 258.9 256.5 252.3 247.3 241.6 236.2 231.1 224.9 218.2 212.3 207.1 201.9 196.9 192.6 189.1 185.9 183 180.1 177.2 174.4 172.5 168.6 164.6 160.7 156.4 147.6 149.3 147.8 145.7 143.4 142.1 140.3 138.3 136.3 132.9 130.6 132.3 132.7 132.7 130.8 127.9 125.2 123.4 120.1 120.2 121.9 120.9 119.1 116.5 114.1 112.1 111.1 112.7 114.6 121.1 121.1 120.8 119.8 117.1 114.1 112.3 111.2 109.1 104 101.4 98.6 99.7 99.5 98.6 97.3 95.9 94.9 94.5 93.5 93.7 93.2 92.6 92.1 91.6 91 90.8 90.6 89.8 89.3 89 89.1 89.5 88.9 88.6 88.6 88.5 88.1 88.1 88.2 88.2 87.5 86.8 86 86.2 86.5 84.9 84.8 84.6 84.1 83.3 82.6 81.2 80.3 80.5 79.5 78.5 78 78.2 79 79.9 80.5 79.2 78.3 78 77.5 74.5 72.8 72.7 73 72 71.8 72.9 72.2 71.9 72.3 72.3 72.2 72.1 71.8 71.6 71.2 70.3 69.1 68.5 69.1 69.5 68.2 69.2 67.9 66.6 67.7 68.7 68.1 67.4 66.7 66.1 66.4 68.1 67.7 67.4 67 66.6 66.7 66 63.6 62.2 61.1 59.7 59.9 59.9 59.7 60.1 60.1 59.7 58.7 58 57.8 57.8 56.6 57.4 57.3 56.9 56.5 56.6 56.2 55.8 55.4 54.9 52.8 54.1 54.2 54.3 54.3 54.2 55 55.8
247.3 243.8 242.1 241.3 242.9 245.5 249.9 253.7 253.9 252.8 249.6 245.1 239.6 233.9 229.5 223.9 217.8 211.7 206.1 200.7 195.3 191 187.3 184.6 181 177.7 174.8 171.9 169.7 166.5 163.6 160.3 156.4 152.9 147.6 143.4 144.5 142.3 141.3 139.4 137.6 135.6 133.6 131.5 129.8 132.5 132.9 130.1 129.1 128.1 126.9 125.3 122 118.7 119.1 118.6 117.7 114.9 111.1 111 110.7 111.9 114.1 121.6 121.3 120.6 120 117.2 112.7 109.1 106.2 103.7 101.7 99.6 96 96.8 97.5 97.3 95.9 95.1 94.5 93.8 93.4 92.9 92.4 91.9 91.3 90.8 90.3 90.2 90.1 89.4 89 88.6 88.5 88.3 88.8 88.8 88.2 87.8 87.1 87.1 87.1 87.1 86.4 85.8 85.2 84.7 84.4 83.9 83.4 83 82.5 81.3 80.4 80.7 80.9 81 80.8 79.8 79.2 79.4 79.6 79.8 79.8 78.4 77.4 76 75 73.6 70.4 70.3 69 70.1 69.1 68.8 69.9 71.5 72 72 72 72 71.2 70.5 69.7 68.1 67.7 68.3 69.3 69.3 69.2 69.4 68.5 67.4 67.1 68 67.7 67 66.3 65.2 66 66.6 66.3 65.9 65.5 64.6 62.9 60.2 59.8 59.7 59.2 58.8 58.8 58.5 58.4 58.8 58.8 58.5 59.3 58.4 58 57.5 57.5 57.7 57.5 57.2 56.9 56.4 55.7 55.3 54.9 54.1 53.9 54.3 54.4 54.7 55.5 55.4 56.2 57.1
241.2 238.8 236.9 237.3 239.7 243.4 250.1 252.3 247.7 244.4 240.7 235.9 231.6 226.5 221.5 215.9 209.8 204.6 199.5 194.3 189.4 185.3 181.8 178.7 175.8 172.6 169.5 166.8 163.7 160.5 157.9 155.8 152.1 148.7 147.5 142.2 139.3 140 138.9 136.3 134.6 132.8 130.9 129.1 128.9 130.2 130.4 128.9 127.2 126.6 126 124.3 122.9 119.4 116.9 116.1 116.1 112.8 111.2 110.4 112.1 111.9 115.3 116.5 120.6 120 119.3 116.9 110.2 104.6 101.6 100.5 100.4 98.2 96.4 95.7 95.5 95.7 95.1 94.4 93.8 93.2 92.8 92.3 91.8 91.3 90.8 90.9 90.2 89.8 89.5 88.5 88.9 89.3 89.4 89.3 88.4 87.9 87.5 87.1 86.1 86 86 86 85.4 84.8 84.2 83.7 83.4 83.6 82.9 81.5 80.9 80.4 80.1 80.4 80.7 80.8 80.5 79.5 79 78.7 78.9 79.1 78.9 77.4 76.2 74.1 73 73 72.2 70.4 70.5 71.7 71.5 69.9 68.7 70.1 71.8 71.8 71.8 71.7 70.6 69.2 68.8 68.4 69 69.9 70.4 70 70 69.5 69.3 68.4 67.6 67.1 67.3 66.6 65.3 64 66.2 64.7 64.2 63.7 62.7 60.9 59.8 59.9 59.8 60.6 60.6 60.4 59.6 59.3 58.6 59.3 59.1 59.3 59.2 58.6 58.2 57.7 57.9 57.8 57.7 57.4 57 56.3 55.7 55 54.4 55.1 54.4 54.4 54.6 54.8 56 56.8 57.4 58
238.8 234.7 232.2 233.3 238.9 246.3 248.2 243.9 239 236.3 232.2 227.5 223.4 218.1 212.8 206.6 201.4 196.2 191.6 187.9 184.5 180 176.7 173.3 170.7 167.6 163.8 161 157.8 154.9 152.2 150.8 147.9 145.2 143 140.8 137.5 136.9 135.1 133.4 131.7 130 128.3 127.1 127 127.1 127.2 127.3 125.7 124.4 124.2 123.9 122.5 120.8 118.3 115.3 112.9 110.8 110.3 113 112.8 112.4 112.8 119.8 119.6 119.2 118.6 116.3 108.1 102.8 99.6 99.3 99.3 98.7 97.9 97.3 97 96.2 95.5 93.7 93.1 92.5 92.1 92.4 92.3 91.6 90.7 90.5 90.7 89.5 88.8 88.2 88.3 88.5 89.2 88.7 87.7 87.2 86.7 86.2 85.2 85 85 84.8 84.3 83.8 83.2 82.7 82.2 82.2 82 80.6 80.3 80 79.7 80 80.3 80.3 79.6 79.2 78.8 78.4 78.2 78.4 78 76.6 74.9 73.7 73.7 72.4 71.2 70.1 72.2 73.1 72.9 71.8 69.8 68.1 70.3 71.5 71.3 71 69.8 69.4 69.4 69.2 69.8 69.9 69.4 69.5 69.4 68.1 66.7 67.3 67.5 67.9 67.1 65.4 64.2 62.9 62.7 63.1 61.8 60.8 60.1 60 60 61.2 63.8 64.8 63.5 62.2 61.5 61.9 61.4 60.1 59.3 59.1 58.6 58.7 58.1 58.1 58 57.9 57.8 57.5 56.9 56.3 55.6 55 54.3 54.3 55.4 55.2 55.1 55.6 56.6 57.3 58.1 58.6
235.5 232.6 229.5 229.3 234.8 237.3 237.4 234.5 230.4 228.2 223.8 219.3 213.6 207.8 202.9 198.2 193.2 188.8 185.2 181.6 178.3 175 171.9 167.2 164.9 160.7 157.1 154.8 151.6 149.3 148 146.1 143.6 141 139.2 137.7 134.3 129.9 131.5 131.4 130.4 128.7 127.1 125.3 125 124.6 124.7 124.6 124.1 122.5 122 122.4 122.2 120.2 119.8 118.7 112.7 109.4 112.1 114.2 113.2 112.2 111.1 113 114.4 114.8 116.7 112.4 103.6 99.6 99.5 100.1 100.7 100.2 99.4 98.8 98.2 96.7 96.2 95.3 93.3 92 92.3 92.4 92.3 91.5 91 90.8 90.4 89.8 88.9 88 88 87.9 87.2 86.1 86 85.9 85.9 85.2 84.2 84 84 83.2 82.7 82.5 82.2 81.7 80.6 80.7 80.5 79.7 79.1 79.3 79.4 79.7 80 79.8 79.5 79.1 78.6 78.2 77.7 77.7 77.1 75.5 74.7 74 73.6 71.4 70.4 72.4 72.4 73.2 73.4 71.8 70.5 67.9 68.3 70.5 70.5 70.3 69.8 69.5 69.2 69.3 67.1 66.6 64.7 63.1 63 62 61.7 61.5 62.7 62.5 63.2 63.4 63 62.3 61.7 61.3 61.4 61.1 60.6 60.3 61.1 64.6 64.8 63.9 63.9 62.8 61.6 60.9 61.6 60.4 60.1 60.3 59.9 58.6 58.3 58.2 58.1 58 57.9 57.6 56.9 56.2 55.6 54.9 54.3 54.7 56.2 56.7 57 56.8 57.1 58 58.7 59.1
233.8 232.5 231.5 225.1 227.6 229.1 227.6 224.8 221.9 219.7 215 209.2 203.4 198.6 194.3 189.9 186.1 182.3 178.9 175.2 172 167.9 164.1 159 156.1 152.4 150.5 149.3 146.7 144.9 143.1 141.3 139 137.6 136.6 134.8 133.2 129.8 127.5 129 128.3 127.5 125.6 123.5 123 122.3 122.1 121.7 121.2 121.5 121.2 120.9 121 121.5 121.1 119.7 112.4 109.3 112.5 114.9 114.9 113.8 111.9 111.6 110.8 109.3 108.1 105.9 101.5 100.5 101.2 101.6 102.2 101.6 100.9 100.3 98.7 97.1 96.6 96.3 92.6 92 90.9 91.1 91.7 91.5 90.8 90.2 89.8 89.2 88.9 88 87.9 87.5 87.1 86 85.8 85.8 85.8 85.7 84.5 83.9 83.3 81.7 80.8 80.6 80.1 79.5 78.6 77.5 76.8 76.7 77.3 77.3 77.8 79.3 79.6 79.4 79.3 79 78.5 78 77.6 77.1 76.3 76.2 75.6 74.2 71.8 70.7 73.5 73.9 73.4 73 72.6 72.7 70.5 68.7 66.8 68 69.3 68.9 69.1 68.6 66.8 64.9 63.1 63.8 63.7 62.6 63.3 63.1 62.6 62.7 63.1 62.6 62.1 61.9 62.4 61.8 61.2 60.9 61.5 61.5 61.2 60.9 61.4 61.9 61.8 62.1 62.5 61.6 60.4 59.8 61.1 61.1 61.2 61.4 61.6 60.1 58.8 57.9 57.9 57.9 57.9 57.5 56.9 56.2 55.6 54.9 54.3 55.8 57.6 57.7 57.9 58.1 59.1 58.5 59.3 59.6
233.3 233.4 230 221.8 219 220.2 218.3 216.3 214 210.3 204.3 199.2 194.5 190.3 186.4 182.2 179.2 175.8 172.8 169 166.6 160.9 156.3 151.3 149.2 147.1 145.9 143.3 142.1 141.7 139.9 138.1 136.5 135.2 133.7 132.3 130.8 129 122.1 127.3 126.6 125.1 122.8 121.3 120.4 120 119.5 118.9 118.4 118 118.2 118.1 119.2 120.5 121.1 117.3 112.7 109.9 109.9 113 116.1 115.6 113.4 113.7 112.5 110.3 107.5 106 100 101.3 102.9 103.5 103.6 103.2 102.3 100.2 99.2 97.6 97 93.9 91.3 92.5 92.7 90.8 90.2 90.5 90.1 89.7 89.3 88.2 88.3 88 87.6 87.2 86.7 86.1 85.9 85.8 85.8 85.7 85.6 85.1 84.1 82.6 80.4 80.1 79.5 78.9 78.3 78.9 79.1 78.2 77.5 76.8 75.5 77.8 78.8 79.1 79.1 78.8 78.4 78 77.5 77.1 76.9 75.8 74.2 71.3 71.1 72.8 73.7 74.5 74.7 71.5 71.3 70.8 71.2 71.8 70.4 66.6 66.7 65.8 65.5 64.4 64.4 64.2 64.3 64.5 64.1 63.3 63.6 63.4 64.1 63.9 63.6 63.1 62.5 62.2 60.3 61.2 60.8 60.8 61.6 61.5 61.7 59 59.8 59.1 59.1 58.7 59.1 60.3 59.2 58.6 59.8 61.7 61.9 62.1 62 60.8 59.6 57 57.5 57.6 57.7 57.2 56.8 56.2 55.6 54.9 54.5 57.2 58.6 58.8 58.9 59.6 60 60.3 60.6 60.2
234 229.6 224.5 219.1 210.9 213.3 211.9 207.9 203.8 199.4 195.4 190.4 186.1 182.1 178.8 175.7 172.8 168.3 165.7 163.2 159.4 155 151.5 147.9 145.9 144.4 143.1 140.7 139.1 137.9 137.3 135.5 133.8 132.3 130.8 129.3 127.6 125.9 120.9 122 120.8 119.1 117.8 117.6 116.1 115.9 116.4 116.2 115.8 115.4 115.1 115.3 116.1 117.9 117.5 114.2 112.6 109.6 108.3 111.7 113.7 113.4 112.5 113.8 113.7 110.2 106.8 103.1 101.5 102.5 103.9 104.5 104.4 104.1 102.9 100.4 98.4 97 94.2 91.4 91.7 92.8 92 90.9 89.6 89.6 89.6 89.2 88.8 87.6 87.3 87.4 87 86.5 86.1 85.6 85.4 85.4 85.3 85.1 85 85 84.3 82.3 80.8 80.4 80.1 79.6 79 79.2 77.9 78.1 78.3 78.4 77.1 75.4 76.7 77.6 78.4 78.6 78.3 77.9 77.5 77.2 74.8 73 71.8 72.5 73.6 74.6 75.8 76 76 74.7 72.5 72.1 72.7 73.3 73.3 71.2 68.3 66.5 66 67.6 68.2 63.9 64.7 65 64.5 64.1 64 63.7 63.5 63.6 63.4 63.2 62.7 62.1 61.7 60.2 61.5 59.7 59.8 60.3 60.7 61.4 61.2 61 61.8 60.9 59.4 59.8 59.5 58.7 58.6 59.1 61.1 61.3 61.3 61.4 60.3 58.1 56.5 56.3 56.3 55.9 56.2 56 55.5 54.7 55.8 58.6 59.6 60 60.8 61.5 61.8 61.8 62.1 62.4
227.7 223.6 219.1 212.4 202.5 206.2 202.7 198.5 194.4 190.3 186.1 182.2 178.6 175.3 172.4 169.3 165.1 160.6 157.6 154.9 152.5 149.6 146.9 144.8 143.3 141.8 140.2 138.5 136.9 135.2 134.2 132.8 131.1 129.3 127.7 125.6 123.3 119.5 118.3 118.3 118.2 116.8 115.6 114.5 113.8 114 113.6 113.5 113.1 113.2 113.2 113.5 113.9 113.8 113.6 113.1 112.3 109.2 105.8 111 111.3 110.9 110.3 110.8 110 108.1 105.7 102.6 99.8 102.2 103.7 104.2 104.2 103.7 103.4 100.7 97.3 93.4 91.5 92.2 91.6 91.7 91.6 90.4 89.4 88.8 89.1 88.6 88.2 87.4 86.5 86.7 86 85.5 85 84.5 84.3 84 84 84.1 84.2 83.8 83.2 81.5 81.2 80.8 80.5 80.1 79.6 79.5 77.5 76.7 77.1 77.5 77.5 76.2 75.6 76.4 77.6 78.2 78 77.4 76.2 73.7 72.2 73.6 74.1 74.9 76.1 77.1 77.4 76.7 76 75.1 74.1 72.9 73.5 73.1 73.1 73.4 72.8 72.3 71.7 70 63 64.4 64.9 65.1 64.8 64.5 64.2 63.9 63.6 63.3 63 62.8 62.4 61.8 61.1 61.4 62 62.5 62.4 62.1 62.8 62.6 62.5 62.5 62.5 62.1 61.7 61.7 60.9 60.2 59.1 57.6 57.3 59.2 59 58.5 57.5 57 57.3 57.9 56.5 55.9 55.8 56.7 57.3 58.9 57.2 60.5 61.2 61.9 62.7 63.4 63.1 63 63.3 64.1
222.2 217.9 213.1 207.8 194.4 197 194 189.8 185.9 182.3 179 175.2 171.6 168.6 165 162.3 159.7 156.2 152.9 150.1 147.4 145.1 143.9 142.1 140.3 138.4 137 135.9 134.5 132.7 130.5 129.3 127.7 123.5 121.6 120 117.5 115.4 116 116.4 116.7 117.5 117.9 116.7 113.5 112.7 112.7 112.2 111.3 111.3 111.1 111.2 111.3 111.5 111.4 111.1 110.4 109 104.8 109 108.9 108.4 107.7 107 107.1 105.4 104.1 102 98.4 98.8 101.2 102.4 102.1 101.1 100.4 98.4 94.3 91.9 92.8 92.1 91.4 91.1 91.1 90 88.3 87.7 88.5 88.2 87.3 86.8 86.1 85.8 85.1 84.5 83.9 83.5 83.2 83 82.7 82.5 82.2 81.5 81 80.7 80.6 80.5 80.3 80.1 80 79.7 78 76.5 76.5 76.8 77 76.4 75.9 75.5 75.5 76.7 76 75 73.5 73.5 76.4 76.6 77 77.6 77.7 77.5 76.8 75.9 75.2 74.9 74.4 73.7 73.6 72.8 72.6 73 72.4 71.7 69.9 66.4 64.1 64.8 64.8 64.8 64.6 64.4 64.2 63.9 63.6 63.3 63.1 63.1 62.8 63.6 64.3 64.6 64.8 65 64.9 63.9 64 63.8 63.7 63.6 63.1 62.4 61.8 61.3 61.3 61.3 60.1 59.5 57.8 56.2 58.4 56.5 58.4 59.3 58.8 58.7 57.7 57.1 57.9 59.2 60 60.6 57.4 62.3 63.3 64 64.6 65 64.5 64.4 64.4 64.2
215.5 211 206.7 202.3 194.1 183.9 183.9 181.5 178 175 172.1 168.3 164.7 161.8 159.2 156.6 153.9 150.8 148.1 145.1 143.6 142.1 140.8 138.5 136.6 135.2 133.8 132.7 131.7 129.9 127.9 125.7 124.5 122.2 121.9 118.5 116.7 113.6 113.9 114.5 114.6 114 114.7 115.9 113.9 109.4 110.2 111.4 107.8 106.7 105.8 105.9 107.5 107.4 107.2 106.7 106.2 106 100.9 105.2 105.5 104.9 104.6 104.4 103.7 102.8 102.2 101.1 97.9 96.1 97 98.7 98.7 97.6 97.2 95 92.8 91.2 91.6 91.8 91.1 90.8 90.5 89.2 86.8 86.3 86.4 85.8 84.9 85 84.2 83.8 83.6 83.4 83 82.4 82.1 82 82 82 81.4 80.6 80 80 79.9 79.7 79.6 79.4 79.2 79 78.7 76.9 76.8 76.7 76.8 77.3 76.6 75.1 74.5 75 74.5 73.8 73.8 76.1 77.4 77.6 76.7 75.9 75.7 76.5 75.9 75.1 74.3 73.6 73.5 73.5 73.1 72.4 71.8 70.4 69 67.3 66.2 65.1 64.5 66.1 65.8 65.4 65 64.9 64.9 64.9 64.5 64.4 64.4 64.4 64.2 65.5 66.1 65.8 65.3 65.6 65.9 64.7 64.4 64 63.6 63.4 62.8 62.1 61.4 61.6 61.5 61.6 61.3 61.3 60.5 59.6 59.8 59.8 59.9 60.2 59 58.6 57.9 58.9 59.1 60.5 61.4 61.9 58 64.3 65.2 65.6 66 66.4 64.9 65 65.4 65.1
207.3 203.5 198.2 192.7 187.6 179.8 175.6 173.9 170.4 167.1 164.3 161.4 158.2 155.7 153.3 150.8 148.2 145.4 143.3 141.8 140.3 138.8 137.3 134.8 133.4 132 130.7 129.5 127.7 125.3 122.9 121.8 121.9 120.8 119.5 117.6 116.1 112.7 110.5 112.1 111.7 111.1 112.1 110.7 108.8 106.6 108.6 108.7 106.8 103.4 102.7 102.3 103.3 102.8 102.4 101.9 101.4 101.4 99.6 102 102.1 100.9 100.7 100.5 100.5 100.1 99.5 99.7 97.6 96.1 95.5 95.6 96.5 96.4 95.4 94.2 92.5 90.9 91 90.7 90.6 88.7 87.2 86.1 85.2 85 84.1 83.2 82.9 82.9 84 83.6 83.1 82.7 82.2 81.8 81.5 81.5 80.8 81.9 81 80.1 79.1 79.2 79.3 79 78.9 78.7 78.6 78.7 77.8 77.1 77.6 78.1 78.4 78.7 77.7 76.2 74.7 73.6 75.1 76.2 77.5 77.1 77.3 75.7 74.9 73.9 74.6 73.6 74 73.3 71.2 70.7 70.3 69.8 69.5 69.1 68.4 68.7 68.6 68.7 67.4 65 64.4 67.6 67.8 67.8 67 67.2 67.2 66.8 65.9 65.9 65.8 65.7 65.7 66.7 66.4 65.8 65.8 66.1 65.8 65 63.7 63.2 63 62.8 62.5 61.9 62 62.1 62.1 62.1 62.1 61.5 60.8 60.2 59.8 59 58.8 58.5 58.2 59 60.2 60.6 61 61.9 62.8 63.6 57.8 66 66.7 67.2 67.5 67.5 65.7 66.7 66.3 66
198.4 192.9 187.2 182.2 177.8 173.6 165.2 165.2 162.1 159.5 157 154.5 151.7 149.5 147.4 145.3 143.2 141.6 139.7 138 136.5 134.9 133.7 131.3 129.3 127.4 126.1 124.1 121.7 119.4 118.3 116.9 116.4 116.1 115.6 115.2 114.7 112.7 109.1 108.3 108.5 108.4 107 105.2 103.9 103.1 105.5 104.3 102.5 100.4 99.7 98.9 98.1 98 97.5 97 96.5 95.9 94.3 96.3 98.5 98 98.1 98 98 97.4 97 97.9 96.6 95.5 94.5 93.9 94.3 94.7 95.2 93.8 92.5 90.7 89.8 89.5 89.2 88.9 86.2 85.3 84.5 84.1 83.2 82.8 82.8 82.7 83.8 83.3 82.9 82.4 82 81.6 81.2 81 80.9 79.9 80.1 79.1 79 79 79 79.4 78.9 78.3 78.4 78 77.4 77.3 77.4 78.3 79.1 79 78.2 76.8 76 75 73.1 74.8 74.8 75 74 73.4 73.1 72.3 71.3 70.3 69.7 69.4 69.4 69.4 69.4 69.7 69.9 69.5 70.6 72 71.5 70.3 69.3 64.1 67 70.3 70.3 69.2 68.5 69 69.1 68.3 67 66.8 66.6 66.4 66.2 66.6 66.4 66 66.3 65.6 64.8 64 63.2 62.5 62.4 62.4 62.3 62.4 62.6 62.7 62.8 62.7 62.3 62.3 61.1 60.5 59.9 59.9 59.7 59.2 59.4 61.1 61.6 62.3 62.8 63.4 64.2 63.9 64.8 67.8 67.8 67.8 68.1 68.4 67.7 67.6 67.2 66.8
189 182.5 176.4 171.7 168.2 164.5 160 158.8 157.2 154.6 151.9 149.6 147.8 145.6 143.4 141.2 139.2 137.7 136.2 134.2 132.6 131.1 130.1 127.9 125.8 123.8 121.9 120 118 117.6 117.9 116.9 115.7 114.9 114.6 113 112 109.4 107.3 105.8 105.3 104.5 103.3 102.1 100.9 100.5 100.5 99.7 98.7 98.2 97.6 97 96 95.1 94.3 93.6 92.8 92.3 91.6 92.8 94.4 95 95.6 96.2 96.6 95.9 95.7 96 95.6 94.5 93 92.5 93 93.7 94.3 93 91.7 89.8 88.8 88.4 88 87.9 85.9 84.6 83.9 83.2 82.9 82.9 82.9 82.9 83.1 83.1 82.7 82.3 81.8 81.4 81 80.7 80.3 80.1 79.6 79.6 79.6 79.6 79.6 79.5 79.3 78.3 78.3 77.7 77.6 77.5 77.4 78.1 78.5 78.7 78.1 78.3 78.2 77.1 74.7 72.3 70.5 71.6 71.8 72.4 72.9 72.1 71.1 70.6 70.2 70.1 70.2 70.2 69.9 70.1 70.2 70.3 71.6 72.6 71.1 71.4 71.2 64.3 68.2 70.4 70 69.3 68.5 68 68.5 69.1 68.1 67.2 67 66.8 66.6 66.5 66.4 66.2 65.4 64.5 63.7 63.2 63.1 63.1 63 63 63.1 63.2 63.2 63.3 63.3 62.9 62.6 62.5 62.6 62.2 61.3 60.4 60.5 60.7 61.2 62.8 63.4 63.4 64.1 64.9 65.4 62.6 64.7 68.7 68.2 68.1 68.5 68.8 68.5 68.1 67.7 67.3
176 172.1 167.8 164.3 161.9 159.3 155.8 152.6 151 149.1 146.6 144.4 143 140.7 138.4 136.2 134.1 132.1 131.2 130.5 128.8 127.4 126.4 124.8 123.8 122.5 121.5 119.5 116.7 116.9 117.4 116.4 115.4 113.8 114 113.1 108.3 105.6 104.2 104.2 104.2 103.4 101.8 100.1 98.8 98.4 97.7 98 97 96.3 95.8 94.9 94.2 94.9 93 92.7 94.6 96.3 95.5 91.9 91.4 92 93.2 94.3 94.9 94.4 94.1 93.5 93.5 93.7 92.1 91.8 91.1 92.1 92.7 91.9 90.7 88.1 87.3 87.2 87.2 86.6 84.9 84 83.3 83 83.1 83.1 83.1 83.2 83.1 82.7 82.1 82.1 81.6 81.2 80.9 80.5 80 79.9 80.2 80 79.7 79.5 79.3 79.1 79 78.3 78 77.9 77.8 77.7 77.5 77.5 77.8 78.2 77.9 78 79.3 78.4 76.5 74.3 72.3 72.2 71.6 71.8 72.1 72 71.5 71.1 70.7 70.8 70.9 71 70.8 70.6 70.7 70.7 70.9 73.1 72 70.7 70.4 64.7 69.7 71 69.5 69.5 68.7 67.9 67.4 68 68.6 67.8 67.5 67.3 66.7 65.7 65.9 65.1 64.3 63.8 63.8 63.7 63.7 63.6 63.6 63.7 63.8 63.9 64 63.9 63.2 63 62.8 62.5 62.4 62.9 62.9 61.7 62 62.4 63.2 64.5 65.4 64.5 65.2 66.9 66.7 66.6 63.1 69.1 68.9 69 69 69 69 69.3 68.1 67.7
168 164.3 161.9 158.9 156.7 154 151.8 148.9 145.5 144.1 141.2 139.2 137.8 135.5 133.4 131.2 129.1 126.9 125.9 124.9 124.5 124.3 123.4 123.1 122.1 121.7 121.3 119.9 116.9 114.7 114.1 113.2 111.3 110.4 111.6 108.3 105.2 102.9 102.9 102.9 102.9 102.5 100.8 99.1 97.6 97 96.4 95.4 94.8 94.5 93.7 93.4 93.2 94.5 93.2 94.4 95.3 95.6 94.9 92.1 90.3 91.4 92.2 92.7 93.2 92.5 91.1 91.1 91.7 91.5 91.8 92 90.9 90 90.6 90.1 87.8 86.9 86.1 85.2 85.4 85.8 84.2 83.5 83 82.9 83.2 83.2 83.3 83.2 82.8 82.3 81.7 81.1 81.2 81 80.6 80.2 79.7 79.3 79.8 79.6 79.3 79 78.8 78.8 78.5 78.1 78.3 78 77.7 77.6 76.7 76.8 77.1 77.5 77.4 77.5 78.1 77.4 76.2 75.8 74.3 74.4 73.7 73.6 73 72.5 72 71.5 71.3 71.5 71.6 71.8 71.7 71.1 71.2 71.1 71 72.3 72.1 70.3 68.5 65.2 70.2 70.1 69 69.8 69.5 68.9 68.6 68.2 67.9 68.2 67.9 67.4 66.3 65.3 64.8 64.5 64.4 64.4 64.3 64.3 64.2 64.2 64.3 64.5 64.6 64.7 64.6 63.8 63.2 63.5 63.7 63.9 63.8 64.8 64.7 63.6 63.6 64.2 65 66.1 67.3 66.4 66.8 68.4 68.2 68 60.9 69.3 69.8 70 70 70 69.5 70 69.6 68.5
161.2 157.8 156.1 153.5 151.3 149 146.2 143.1 141.3 139.4 137.2 134.4 132.7 130.8 129.3 127.8 126.3 124 122.1 120.6 120.2 118.9 118.2 119.3 121.1 120.9 119.9 119.6 117.1 113.5 111 109.8 107.3 104.9 105.6 104.3 103.3 102.9 101.7 101.6 101.6 101.5 99.9 98.2 96.8 96.3 95.4 94.7 93.9 93.3 92.5 92.2 92.3 94.1 93.5 94 94.8 95.2 93.7 91.4 90 89.7 90.6 91.1 91.6 89.7 89 89 89.1 90.6 90.9 89 91.7 87.9 87.6 87.4 87.1 86.4 85.7 84.9 84.2 85 83.7 83.2 82.8 82.8 83.1 83.3 83.2 82.8 82.5 82 81.3 80.7 80.1 80.9 80.4 80 79.6 79.2 79 79.3 79 78.8 78.5 78.5 78.1 78 78.2 78.6 78.6 76.8 75.9 76.1 76.3 76.7 75.9 76.3 76.6 76.2 75 74.7 74.6 74.7 74.6 74.1 73.5 73 72.5 72 72 72.2 72.3 72.5 72.6 71.7 71.6 71.4 71.2 71 71.1 70.4 66 65.7 70.2 69.1 69.2 69.9 70.6 70.2 69.9 69.6 69.2 68.9 68.6 67.7 66.6 65.7 65.5 65.3 64.9 64.9 64.8 64.8 64.8 65 65.1 65.3 65.3 65.3 64.7 65.1 65.4 65.6 65.8 66 65.8 66.2 66.6 66.3 65.9 66.6 67 67.8 68.9 69.6 69.3 69.9 69.5 69.3 61.6 71.7 72.1 71 70.9 71 70.7 70.9 70 70.2
155.9 151.8 150.1 148.1 145.7 142.9 139.3 139.2 138.2 136.5 135.5 132.7 131.1 129.6 128.2 126.6 124.7 123 124.5 124.8 124 122.4 118.3 115.7 117.3 118.2 116.9 118 117.3 112.1 107.9 105.4 103.7 104.7 103.4 102.4 102.4 102 101.5 101 100.3 100.3 98.9 97.4 97.3 97.3 96.6 96.7 96.9 96.4 93.8 91.7 91.5 92.7 93 94.2 94.8 93.5 92 90.4 89.4 88.9 89.5 89.9 90.3 87.7 87.6 87.5 87.3 89 91 89.9 89.1 86.6 86.5 86.4 86.1 85.8 85.6 85.2 84.5 83.7 83.4 83 82.6 82.8 83 82.9 82.7 82.5 82.1 81.6 81 80.6 80.5 81.2 80.3 79.9 79.4 79 79.5 79.1 78.9 79.4 79.1 78.1 77.9 77.7 76.6 76.5 76.8 76 75.2 75.4 75.6 75.5 74.8 74.8 75.1 75.1 73.9 74 74.3 74.6 74.1 73.9 74 73.5 73 72.6 72.7 72.9 73 73.2 73.3 72.9 71.6 71.4 71.7 71.4 70.7 70.1 67.3 65.2 67.5 68.8 69.4 70.5 71.4 71.1 70.8 70.4 70.1 69.7 69.8 69.3 68.2 67.3 66.5 66.3 65.7 65.5 65.6 65.5 65.4 65.7 66 66.4 66.4 66.6 67 67.4 67.7 68.2 68.8 69 69.3 68.6 69.7 69.7 69.3 70.2 70.8 70.8 70.5 72.1 71.8 71.8 71.3 70.8 64.2 73.4 72.5 72 71.6 71.6 70.6 71.1 70.3 70.5
150.2 147.2 144.7 142.8 140.3 138.3 135.7 135.5 135.4 134.1 133 131.6 130.1 128.5 127 125.5 124.2 123 123.6 123 121.5 120 117.7 113.1 115.7 115.5 115 115.5 114.1 110.3 105.9 104.4 102.1 102.5 101.5 101.5 101.4 100.9 100.6 100.1 99.6 99.2 98.9 99 98.5 98 97.4 96.9 96 95.1 94.1 94.1 91.8 90.5 90.9 91.8 90.8 89.6 89 88.7 88.4 88.3 88.8 87.9 87 86.9 86.2 86.3 86.4 86.4 86.9 88.3 85.8 85.5 85.5 85.4 85 84.8 84.3 84.7 84.2 83.5 83.6 82.8 82.4 82.4 82.3 82.2 82.1 81.9 81.7 81.4 81.1 80.9 81 81.4 80.4 79.7 79.3 78.9 79.8 79.6 79.7 79.9 79.5 79.2 78 77 75.4 74.8 74.5 73.9 74.3 73.8 73.5 74 73.8 73.5 73.8 74.4 73.9 73.9 74.1 74.3 73.9 73.4 73.3 73.3 73.4 73.3 73.3 73.2 73.2 73.1 73.2 73.4 72.3 71.5 72.4 71.7 70.5 68.7 67.5 65.6 65.7 68.9 70 71.1 72.2 72 71.6 71.3 70.9 70.8 71 70.8 69.7 68.9 68.1 67.3 66.9 66.6 66.9 67.3 67.7 68.1 68.6 69.5 70.1 70.2 70.3 70.3 70.6 71.2 71.7 72.2 72.7 72.8 72.6 72.6 72.7 73.3 73.5 73.1 72.3 72.7 72.8 73.4 72.6 71.6 65.1 73.5 72.5 72.7 72.2 71.8 71.6 71 70.7 70.9
146 143.3 141.4 139.8 137.4 135.4 134.6 134 132.6 131.5 130.4 129.2 128.5 127.1 126.4 125.1 123.2 120.9 120.6 119.5 118.3 117 115.7 111.2 113.6 114.6 113 112.8 111.8 106 104.8 103.3 101.3 100.7 100.6 100.6 100.2 99.8 99.7 99.2 98.8 98.3 98.1 98 97.6 97.1 96.1 95.7 94.5 93.4 92.1 92.4 92.7 90.7 89 89.3 88.5 88.1 89.2 89.1 88.8 87.5 87.7 87.3 87.3 87.1 86 85.4 85.4 85.4 84.7 84.3 84.4 84.3 84.4 84.4 83.9 83.7 83.4 83.9 83.7 84.1 84.4 83.3 82.5 82.4 82.4 82.6 82.4 82.3 82.2 82 81.7 81.3 81.5 81.7 80.6 79.6 79.2 78.8 79.8 79.6 78.9 77.7 77.4 77.6 76.6 75.5 74.9 74.1 74.4 73.6 73.5 73 72.7 72.5 72.7 72.3 72.8 73.4 73.9 73.7 74 74.1 73.6 73.1 72.6 72.7 72.8 73 72.6 72.5 72.4 72.8 72.8 73 71.9 72.5 72.7 70.9 69.1 67.4 66.8 65.7 66.5 69.8 70.6 71.7 72.8 72.8 72.5 72.1 71.9 72 72.1 72.2 71.3 70.5 69.7 69.2 68.9 68.7 69.3 69.7 70.4 71.5 71.5 72.6 73.5 73.7 73.7 73.3 73.3 74.1 74.9 75.3 74.9 74.5 74.5 74.4 74 74.1 75.1 74.7 75.2 74.3 73.4 73.3 69.7 69.2 68.9 73.1 72.5 72.7 72.9 72.7 72.6 74.2 70.9 71
143 140.5 138.6 137.7 136.1 134.1 132.5 132.4 131.4 129.5 128.3 128.5 127.1 125.5 124.4 122.5 120.3 117.9 116.8 115.7 114.4 112.9 111.2 110.4 107.9 114.2 113.8 109.3 106.2 104.9 103.8 102.6 101.5 99.8 99.8 99.7 99.1 98.6 98.8 98.4 97.9 97.4 97.2 96.9 96.7 95.9 94 94.2 93.6 92.3 91.6 90.2 89.5 90.2 88.1 87.6 87.3 87 87.8 87.2 87.1 86.8 87.2 87.5 87.6 87.3 86.2 85.5 85 84.5 84.1 83.8 83.5 83.3 83.2 83.3 83 82.3 82.5 82.9 83.8 82.7 84.5 83.5 82.9 82.6 82.7 83 83 82.9 82.9 82.7 82.4 82.2 81.9 80.8 80.8 80.5 79.2 79.3 78.1 77.9 77.3 77.2 76.6 75.9 74.9 74.6 75.6 74.1 74.1 73.2 73 72.9 72.9 72 71.9 71.9 71.9 72.5 73.4 73.6 73.9 73.8 73.3 72.9 72.4 72 72.7 72.9 72.4 72.3 72.5 72.9 72.9 72.4 72.6 72.3 70.5 69.1 67.6 66.3 66 66 69.5 70.6 71.4 72.3 73.5 73.7 73.3 73 73 73.2 73.3 73.4 72.9 72.2 71.6 71.2 71.1 72.6 73.3 73.5 73.8 74.9 75.3 75.7 75.3 76.2 76.7 76.3 76.1 76.9 77.3 77.2 76.7 76.2 76.1 75.7 75.3 75 75.3 75.1 74.6 73 72.2 71.6 65.9 68.7 72.3 73.9 72.6 72.3 71.8 72.6 72.7 72.9 71.6 71.5
140.2 137.6 136.5 135.7 134.3 132.9 130.9 130.2 129.3 127.6 126.7 126.2 125.4 122.9 120.9 118.5 116.2 114.5 111.9 111 109 107.4 106.7 104.7 104.2 105.9 104.8 103.9 104.4 103.9 103 101.9 100.8 99.4 99.1 98.9 97.9 97.4 97.6 97.5 97 96.3 95.1 94.8 94.3 93.4 91.6 91.7 91.6 89.9 90.3 90.1 89.5 88.4 87.7 87 86.7 86.7 86.5 85.5 87.1 86.4 86.2 88.1 87.5 86.7 85.7 85.1 84.3 85.1 84.2 83.6 83.2 82.5 83.1 81.9 82.5 81.7 81.9 81.4 81.4 79.8 82.6 83.3 82.8 82.3 82.6 82.9 83.5 83.5 83.2 82.6 82.3 81.9 80.9 79.7 79.7 79.8 78.9 77.6 77.3 77.1 77 76.9 76.4 75 74.9 74.9 74.8 74.3 74.3 73.1 72.8 73.1 72.7 71.8 71.6 71.6 71.6 71.6 72.4 73.3 73.8 73.6 73.1 72.6 72.5 71.9 72.1 72.3 72.4 73.2 73.6 73.2 72.1 71.1 69.9 69.7 67.4 66.1 66.6 66.5 67.1 69.3 71 71.5 72.3 73 74.1 74.5 74.2 74.1 74.2 74.3 74.5 74.6 74.7 74.1 73.6 73.6 74.4 75.6 76.3 76.5 77.5 78 78 77.5 77 77.9 78.4 78.3 78.2 78.8 79 78.1 77.7 77.1 76.9 76.6 76.2 75.8 75.4 74.9 74.3 67.4 69.5 71.4 72.7 71.9 72.7 74 73.6 72.8 72.5 72.6 72.7 72.4 71.3 71.6
137.4 135.7 135 133.6 132.3 130.9 129.5 128 127 125.8 124 122 119.5 117.7 115.8 114 111.3 104.1 104.2 104.5 103.7 103 102.3 101.2 101.6 100.3 99.5 99.5 100.3 101.4 101.9 101.2 100.3 99.5 99.1 98.3 96.6 96.2 96.5 96.4 94.5 92.3 91.6 90.9 91 91 90.5 89.4 89.7 89.4 88.9 89 87.9 87.8 88.5 87.4 87.5 87.6 87.5 86.7 85.3 86.3 85.6 86.2 85.7 85.5 85.1 84.6 84 84 83.6 83.8 83.5 82 83.2 82.5 82.7 82.6 82.6 81.8 81.3 80.8 80.4 80.8 80.1 78.7 81.2 82.8 83 82.2 82.3 81.4 80.6 79.8 79.2 78.6 78.6 79.5 78.1 77.3 76.9 76.5 76.3 75.6 75.2 75.2 74.9 74.9 74 74.8 72.2 71.9 73.9 73.1 72.2 72.4 71.4 71.4 71.6 71.4 71.1 71.7 73.5 73.6 73.5 73.3 72.8 71.9 70.9 71.6 72 72.4 71.9 70.6 69.6 68.8 66.3 67.2 67.8 66.9 67.3 67.7 68.9 72.2 73.7 73.6 73.5 73.9 74.7 75.4 75.1 75.2 75.4 75.8 76.2 76.7 76.6 76.2 76.9 77.2 77.9 78.8 79.3 79.2 79.6 80.1 79.7 79.3 78.8 79.1 78.8 78.9 78.8 78.6 78.5 78.3 75.9 76.2 76.5 76.2 75.8 75.4 74.6 74.1 72.5 72.3 73.2 73.1 72.5 72.2 73.4 73.2 72.6 71.9 72 72.2 72.5 72.8 71.7 71.9
134.9 133.4 132.9 130.9 129.4 128.1 126.9 125.3 123.3 121.8 119.7 118.7 116 114.2 112.2 109.2 105 106.7 106.9 106.2 104.8 102 100.8 100.8 101.2 100.2 99 98.5 97.8 98.1 99.2 99.4 100.3 99.1 98 96.4 95 94.4 94.1 92.6 92.7 91.8 92.7 91.8 91.7 91.8 91.4 90.8 90.2 89.6 89.5 89.5 88.7 88.9 88.6 88.3 88.5 88.6 88.6 87.7 86.8 86.3 85.5 86.3 85.5 85.3 85.2 84.6 83.9 83.6 83.9 83 82.8 84.7 83.9 83.6 83.1 83.6 83.4 82.8 81.5 80.8 80.9 80.4 80.5 80.1 80.1 78.4 81.4 81.2 81.4 80.7 80.3 80 80 79.3 78.6 78.3 77.5 77.1 76.6 76.4 76 75.6 74.5 75.4 75.5 73.6 74.2 74.8 74.7 74 74 73.4 73.2 73.1 71.1 71.6 71.6 71.2 70.6 70.5 70.7 71.7 71.7 71.8 71.5 72.4 72.5 70.6 69.9 69.6 69.2 68 67.9 67.1 67.5 67.3 68 68.2 69.3 72.2 72 74.5 75.4 75.7 75.8 75.8 75.9 76.2 76.4 76.9 77.4 77.9 78.4 78.9 78.6 78.8 79.8 80.8 81.2 80.9 80.2 80.7 80.8 80.3 80.4 81 80.3 79.3 79.2 79.5 79.1 78.6 78 77.8 76 75.3 76.1 75.7 75.3 74.6 73.9 73.1 68.1 73.2 73.1 72.5 71.9 71.2 71.5 72 71.6 71.4 71.5 71.7 71.9 72.7 72.1 71.9
132.6 131.1 129.5 128 126.3 125 123.3 121.7 120.8 120.8 117.6 115.4 113.9 111.7 110.1 107.4 105.1 106.5 106.9 106.2 104.1 102 101.5 101.5 100.6 100.3 100.5 101.7 100.6 98.1 97.7 96.6 97.1 96.9 95.6 94.8 94.3 93.5 92.9 93 92.5 92.9 93.1 93 92.9 92.7 92.4 91.3 90.7 91.2 90.9 90.8 90.5 90 89.2 89.5 89.6 89.7 89.9 88.6 88.4 87.9 87.5 84.9 84.7 85.2 83.5 84 83.9 83.5 83.4 83 86.6 87.5 86.9 86.1 85.4 84.8 83.2 81.7 80.8 80.1 80.9 80.1 79.9 79.5 79.6 79.4 79.7 78.4 80.6 80.9 80.7 77.9 77.5 76.6 78 77.6 77.2 76.9 76.4 76.4 76.1 75.7 75.4 73.5 75.4 74.5 75 75.6 75.4 74.7 73.5 73.5 73.7 73.4 73.1 72.1 70.6 71.1 70.9 70.4 71.1 71.2 70.8 70.6 70.1 69.1 69 68.7 69.1 68.1 68.4 67.8 68.3 68.9 69.5 71 72.4 73.5 73.9 75.7 73.8 75.2 76.9 77.5 77.6 77.7 77.8 78 78.5 79 79.5 80 80.5 81 81 81.3 82.3 82.5 82.1 81.5 80.7 81.4 81 80.4 80.1 80.1 79.2 78.5 78.2 78.4 78 76.8 76 76.2 76.4 75.6 75.5 75.3 74.6 73.7 72.8 72 70.6 73.4 72.7 72 71.4 70.9 70.6 70.7 71.1 71.4 71.4 71.5 71.6 71.8 72.6 72.8
129.5 128 126.3 125.8 124.5 121.8 120.2 118.7 120.1 118.1 114.5 113.5 112.1 110.6 108.5 105.9 105.2 105 105.5 105 103.3 101.2 100.5 99.9 99.9 99.8 100 100.1 98.7 99.6 97.6 96.5 95.9 95 94.9 94.3 93.9 92.8 93.4 91.9 92.7 93.5 93.6 93.3 92.9 92.6 92.3 91.9 91.9 92 91 91 90.5 90 90.3 90.8 90.9 91 90.6 89.8 89.5 89 88.7 88.5 88.5 87.3 86.3 86 85 86.2 87.3 88 89.1 87.7 85.9 84 83.3 83.2 81.7 80.4 79.9 81.2 81.4 80.5 79.4 79.1 78.8 78.6 78.8 79.3 78.9 77.6 77.9 77.9 77.6 76.5 77.6 77.6 76.9 76.6 76.5 76.5 75 73.8 76 76.2 76.2 75.4 75.9 76.3 76.2 75.5 74.4 74 74 73.7 73.4 73.1 71.3 70.6 70.3 70.4 70.7 70.8 70.3 69.9 69.9 68.6 69.1 68.9 68.4 68.9 70.7 71.9 72 72.5 73.9 75.6 76.5 76.3 76.9 77.3 75.2 76.4 78.3 79 79.5 79.5 79.7 80 80.6 81.1 81.6 82.1 82.1 81.9 81.7 81.1 82 82.6 82.5 81.5 80.8 80.1 79.8 79.1 78.6 78.2 77.6 78 78.3 76.7 76.1 75.7 75.4 75.5 75.3 77.1 75.5 74.3 73.4 72.4 71.6 71.6 71.7 72.7 72.2 71.6 71.1 70.8 70.9 70.9 71.4 71.7 71.7 71.8 71.9 72.2 74.1 72.7
126.8 125.6 124.7 123.1 120.9 118.8 117.1 115.9 113.9 112.5 111.8 111.2 110 108.7 106.7 104.4 104.2 103.8 104 103.3 102.5 100.4 99.7 98.9 98.3 96.9 96.4 96.3 96.4 95.9 95.3 94.5 94.1 94 94.3 93.8 93.3 92.6 92.5 92.3 92.7 93.5 93.6 93.3 92.9 92.6 92.6 92.6 92.9 92.7 91.5 91.1 91.6 91.5 91.6 92.1 91.8 91.3 90.8 90.6 90 88 87.1 88.3 87.1 85.6 85 84.2 84.3 85.4 85.3 86.1 86.8 85.5 83.7 83.2 81.9 81.7 81 81.4 81.7 82.2 82.3 82.1 81.8 81 79.7 79.3 78.5 78.3 79.2 77.8 78 77.9 77.5 76.4 76.1 75.9 76.8 77 73.9 73.6 74.4 75.8 77.3 77 76.9 76.7 76.7 76.7 77 76.3 75.4 74.7 74.3 74 73.7 73.4 72.4 71.3 71.9 72.7 72.6 71 68.7 68.4 68.9 69.2 69.1 70.6 71.1 72.9 74.6 75.9 76.5 77.2 77.9 77.9 77.8 77.9 78.2 78.5 76.7 79.2 79.8 80.4 81 81.4 81.6 81.9 82.5 83.1 83.1 82.8 82.6 82.3 81.3 80.5 81.2 81.9 81.4 80.5 80.1 79.2 78.2 77.6 77.1 76.7 77.1 77.4 77.8 76.8 76.5 75.9 75.2 74.6 74.6 75.8 74.7 73.3 72.4 71.6 71.6 72.9 74 72.5 72.1 72.2 72.3 72.4 72.1 72 71.8 72 72 72.2 72.3 72.6 75.8 72.8
123.4 121.4 121.2 118.3 117.6 116.3 114.6 113.1 111.8 110.8 109.9 108.9 107.5 106 104.7 102.5 102.9 102.7 102.6 101.8 101.3 99.6 98.9 98.2 97.2 97.2 96.8 96.7 97 96.2 95.4 95.7 95.1 94.4 93.5 93.3 92.9 93.7 94.9 94 92.9 93.6 93.7 93.3 93.2 93.5 93.7 93.7 93.9 93.7 93.4 93.2 93.2 93.1 93 92.3 91.8 91.3 90.9 90.1 88.2 86.5 85.2 85.1 85 84.1 83.8 83.4 83.2 83.9 84.4 83.5 83.2 83 83 82.6 82.9 81.7 82.2 82.5 82.7 83 82.6 82 81.9 80.2 80.6 79.6 78.3 78.3 79.1 78.1 78 77.8 77.4 76.4 76.4 77 76.8 78.6 78.4 76.2 76.4 77.2 78.7 78.6 78 77.6 77.5 77.2 77.8 77.1 76.4 75.8 75.3 74.9 74.4 74 73.5 73.3 74.2 75.2 74.7 75.2 75.4 74.4 73.4 72.3 72.1 73.5 74.4 76.4 77.6 78.1 77.8 78.4 79.4 79.3 79.2 79.2 79.6 80.1 78.3 80.5 81.1 81.7 81.8 81.4 82.4 83.1 83.1 82.9 82.5 82.1 82.1 82.4 80.7 79.9 80.5 79.8 79.8 79.8 79.4 78.6 77.9 77.5 77 76.5 76.5 76.9 77.3 77.3 75.7 75.4 75.1 74.4 73.9 74.2 73.7 73.1 71.6 71.7 72.4 73.5 76.2 73.1 73 73.7 73.8 73.7 73.3 73.8 72.6 72.6 73.5 73.8 74 74.3 74.4 75
119.8 118 117.1 116.4 115.8 114.7 113.1 111.1 110 109 107.2 105.6 105.3 104 102.3 101.1 100.9 101.4 101.3 100.6 99.6 98.8 98.2 96.9 97 97.7 97.8 98.2 97.8 97.2 96.6 96 95.6 94.9 95.2 95.6 95.3 94.4 94.8 94.6 94.3 93.6 93.7 93.9 94.1 94.4 94.6 94.8 94.6 94.4 94.1 93.6 94.2 94.2 93 92.3 91.1 89.6 88.4 87.2 85.2 85.4 85.6 85.4 85.1 84.9 83.7 83.2 82.7 83.6 83 83.2 83 82.2 81.7 81.6 82.4 82.3 83.3 83.5 83.5 83.6 81.9 81.4 82.2 82.7 82.7 82.5 82 78.8 78.3 78.3 78 77.7 77.3 76.5 76.6 77.1 78.1 79 78.6 78.3 78.5 78.7 80.1 80 79.9 79 78.3 77.7 78.3 78.1 77.5 77 76.4 76 75.5 75 74.7 73.2 76.7 76.9 76.7 76.8 76.1 75.4 74.7 75.2 75 76.4 78.1 78.8 79.4 79.9 79.7 80.5 80.8 80.7 80.6 80.6 81 82 80.4 81.9 82.3 82.4 82.3 81.9 82.2 82.6 82.8 82.6 82.2 81.8 81.4 80.8 80.3 79.6 79.3 79 78.8 78.8 78.7 77.9 77.7 77.3 76.8 76.3 76.4 76.4 76.3 75.3 74.8 74.5 75.1 74.3 73.9 73.6 73.5 73.6 73.5 73.4 73.6 74.6 74.5 75.3 74.2 74.3 75.1 74.9 74.6 75.4 74.8 74.7 75.3 75.5 75.6 75.7 76 77.5
117.2 116 115.1 114.3 114 112.9 112 109.7 107.4 105.5 104.1 103.6 102.8 101.9 101.3 100.6 100.5 100 99.9 99.4 97.9 98.8 98.3 97.7 99.4 99 99.3 98.9 98.1 97.5 97 96.6 95.9 95 95 95 94.9 94.6 94.6 94.5 94.2 94 94.1 94.3 94.6 94.8 95 94.4 95.1 94.9 94.7 94.2 94.3 93.5 92.1 89.8 88 86.6 85.9 86.3 86.7 86.4 86.3 85.9 86.2 86.5 84.5 83.5 83 82.8 82.5 82.2 81.9 81.7 81.8 81.9 83.1 82.7 83.4 83.5 83.7 83.5 83.6 83.8 84 83.9 83.6 83.5 82.9 82.4 82.1 81.3 78.9 77.6 77.1 76.8 78.2 79.3 79.9 80.9 81.1 81.3 81 80.8 81.4 81.3 81.2 81.1 80.3 79.8 79.6 79.4 78.7 78.1 77.5 77 76.6 77.1 77.4 73.5 75.9 77.5 77.4 77.8 76.6 76 77 77.2 76.7 77.5 79.8 80.2 80.7 81.1 81.7 82.4 82.1 81.9 81.6 81.7 82.1 82 80.9 82.3 82.8 83 82.8 82.5 81.9 82 82.5 82.3 81.9 81.2 80.6 80.2 80 79.4 79.4 79.2 79 78.5 78 78 78.4 78.4 77.8 77.2 76.9 76.6 77.5 75.7 75.9 76.4 76.6 76.1 75.9 75.6 75 74.4 75.3 75.2 75.2 75.5 75.7 75.8 75.9 76.3 76.6 76.8 76.7 76.8 76.3 76.4 76.6 76.8 77.1 77.3 77.5 78
115.5 114.4 113.3 111.5 111.1 110.5 108.3 105.6 104 104 103.5 103.2 102.3 101.7 101.6 100.4 99.7 99.9 99 98.6 99.4 98.9 98.4 98.8 100.2 100 100.1 99.2 98.5 98 97.7 97.5 97.3 96.1 94.8 94.8 94.7 94.4 95 94.4 94.1 94.9 95.3 94.5 94.7 95 94.9 92.9 93.4 94.1 94.8 94.5 93.2 91.2 89 86.7 86 86.8 86.4 86.9 86.9 86 85.5 85.6 86.3 88.1 86.1 85.1 84.5 83.7 83 83.1 83.7 83.7 83.4 84.1 84.5 83.8 83.5 84.7 85.3 85 84.6 84.4 84.3 84.1 83.8 83.5 83.1 82.9 82.6 82.3 80.8 80 79.4 78.6 79.5 80.5 82.2 83.7 82.8 82.9 81.8 81.8 82.7 82.3 82.1 81.9 81.9 80.9 80.7 80.6 80.3 79.6 78.9 78.3 78.4 78 77.6 75.2 74.6 77.5 78 78.4 77.8 77.5 78.3 79 79.9 77.8 80.6 81.1 81.5 81.9 82.8 83.1 82.9 82.6 82.3 82.5 82.7 82.5 80.6 82 82.6 83.2 82.7 82.3 81.7 81.3 81.9 82 80.8 80.4 80 79.8 79.8 79.7 79.7 79.4 79.2 79 78.2 77.7 78.3 78.3 78.1 77.9 77.5 76.2 75.9 77 77.6 77.8 78.2 78 77.7 77.5 77.6 77.3 77.3 77.2 77 76.9 77.1 77.3 77.3 77.5 77.9 78.3 78.6 78 77.4 77 77.4 77.9 78.4 78.8 79.2 79.2
114.1 111.9 109.4 107.7 107.4 105 105.3 105.1 102.9 104.6 103.7 102.7 102.1 101.4 101.4 101 100.5 100 99.6 99.7 99.4 99 100.3 100.9 100.8 100.6 100.2 99.5 99.1 98.8 98.6 98.3 98.2 97.8 96.3 94.9 94.3 93.7 94.5 94.5 93 93.2 95.4 95.2 94.9 94.9 94.7 92.6 91.6 92.3 93 91.9 89.3 87.2 86.6 86.5 86.9 87.3 87.5 87.8 87.8 88.1 87.4 88.3 88.6 89 89.1 89.5 89 88.4 86.6 85.8 85.6 85.4 85.7 85.9 85.8 84.5 84.3 85.3 85.2 85.2 84.9 84.8 84.5 84.3 84 83.7 83.3 83.2 83.1 82.8 82.3 82 81.6 80.7 81.2 82.1 83.4 84.6 84.1 84 83.8 84.2 83.7 83 82.8 82.6 82.6 82.3 81.8 81.7 81.7 81.2 80.5 79.6 79.7 79.8 79.9 78.7 75.5 76.9 78 78.7 79.4 79.8 80.2 80.4 79.8 79.6 81.4 81.9 82.3 83 83.5 83.8 83.6 83.3 83.1 83.3 83.3 82.7 80.5 82.1 82.2 82.8 82.2 81.4 81.3 81.1 81.7 80.8 80.3 80.1 79.8 79.7 79.9 80 79.9 79.5 79.1 78.9 78.2 77.2 77.6 77.4 77.5 77.6 77.8 76.7 76.6 79 81.4 79.3 78.9 79.3 79.8 80.6 80.9 80.6 79.4 78.8 78.6 78.8 78.7 78.8 78.6 78.6 79 79.5 79.9 79.1 78.6 79 79.4 79.8 80.3 80.6 80.8 81.1
111.8 107.2 106.5 106.6 106.5 105.8 105.1 104.5 104.7 103.8 103.6 103.2 102.6 101 101.5 101.7 101.3 100.3 100 99.8 99.8 102 102 101.7 101.4 101.2 100.5 100.3 99.5 99.4 99.3 99.2 98.9 98.4 98.1 95.9 94.2 93.6 93.4 93.3 92.9 92.6 92.2 93.1 94 93.8 92.8 91.5 89.9 89.7 88.8 88.1 87.1 87 88 89.4 90.5 90.8 91.2 91.1 91 90.5 89 89.2 89.3 89 88.9 89 89.1 89.2 87.6 86.9 86.7 86.6 86.6 86.9 86.4 84.9 85.3 85.7 85.4 85.4 85.3 85.3 84.7 84.5 84.2 83.9 83.5 83.1 83 82.9 82.8 82.4 81.7 82.9 83.5 82.7 84 85.6 85.4 85.4 85.7 85.3 84.6 83.9 83.5 83.3 83.4 83.4 83 82.9 82.8 82.7 81.9 80.9 81 81 79.4 77.7 76.8 77.3 78.5 79.7 80.7 81.1 81 80.9 80.8 80.5 82.2 82.8 83.3 83.7 84.1 84.6 84.3 84 83.8 84 83.8 82.7 81.6 82.1 82.2 82.4 82.6 81.4 81.2 81.1 81.6 81.4 80.1 79.9 79.7 79.8 80 79.7 79.2 78.8 78.8 78.8 78 77.2 77.3 77.6 77.6 77.6 77.7 77.4 78 79.3 81.7 82.2 82.6 82.5 82.8 83.8 84.3 83.1 81.8 80.7 80.8 80.9 80.2 80.1 80 79.8 80.2 80.8 81.2 80 79.6 80.5 81 81.6 82.3 82.6 82.8 83.2
108.7 108 106.8 106.6 106.5 105.9 105.2 105.6 106.9 107.3 105.8 106.1 102.8 102.3 102.2 100.8 101.4 102.3 102.7 102.8 102.6 102.6 102.4 102.3 101.9 101.7 101.2 101.2 100.4 99.3 99.1 98.9 98.7 98.5 98.1 97.4 96.5 94.9 93.6 93.3 93.2 92.8 92.9 92.6 91.7 90.2 88.9 88.9 88.6 87.8 87.4 88 90.4 91.3 91.4 93.9 92.3 92.3 92.2 91.9 91.1 90.3 90.3 90.9 90.6 90.4 90.2 89.9 90 90.1 88.8 88 88.1 87.8 87.5 87.5 86.7 85.9 86 86.7 86 85.6 85.7 85.8 85.3 84.8 84.5 84.2 83.6 83.2 82.9 82.9 83 82.6 83.7 84.9 85 84.2 84.2 86.1 86 86.2 86.3 86.1 85.5 84.8 84.1 84 84.1 84.2 84.2 84 83.9 83.7 83.2 82.3 82.2 80.6 78.6 76.3 79.6 79.4 79.6 80.8 81.7 81.9 81.5 81.4 81.3 81.2 82.2 83.3 84 84.4 84.8 85.3 85 84.7 84.5 84.6 83.8 82.7 82.1 82.1 82.2 82.4 82.5 81.7 81.2 81 81.8 81.4 81 79.8 79.7 79.6 79.2 78.9 78.7 78.8 78.8 78.6 77.8 77.6 77.7 77.9 77.9 78 78.3 78.7 79.4 80.1 82.1 82.9 83.2 84 85.1 86.8 86.3 84.5 83.8 82.3 82.2 81.8 81.7 81.4 81.2 81 81.6 82.1 82.5 82 82.2 82.8 83.5 84.5 86.3 82.7 84.5 85.4
108.7 107.9 107.5 106.7 106.5 106.1 106.1 106.8 109.2 107.3 107.3 105.4 104.1 104.4 104.8 105.6 104.4 104.6 104.4 103.9 103.1 103.2 102.9 102.8 102.4 102.2 102 101.3 100.1 98.9 98.4 98.2 98.1 97.6 96.4 95 95.8 95 94 94.1 93.7 93.1 93.2 91.9 90.2 88.5 90.2 89.6 89.7 91.2 92.7 92.9 93.6 94.4 93.5 93.2 93.1 93 92.6 92.3 91.5 90.5 92.2 92.1 91.9 91.6 91.4 91.2 91.2 91 90 89.1 89.6 89 88.4 87.8 86.9 86.1 87.2 87.8 87.1 86.4 86.4 86.4 87.1 86.1 85.4 86.1 85.6 84.8 83.5 83.4 83.5 83.8 84.8 85.7 85.7 84.9 85 86.5 86.3 86.3 86.5 86.6 86 85.4 84.9 84.8 84.9 85 85.1 84.8 84.5 84.1 83.6 83 80.8 79.2 78.2 80.4 81.2 81.3 81.1 82.1 82.1 83.1 83.3 82.9 82.6 83 83.9 83.6 84.9 85.1 85.5 85.9 85.7 85.4 85.2 85 83.9 82.8 82.1 82.2 82.3 82.4 82.4 81.9 81.2 81.9 82 81.5 80.9 80.5 80.1 80.1 80 79.6 79.1 78.7 78.7 78.4 78.2 78.3 78.8 79 79.3 79.6 79.6 79.7 80.5 81.4 82.4 82.6 82.7 83.3 84 85.7 84.7 83.2 82.4 83.2 84.1 83.6 83 83.1 84.1 84.2 83.9 84.5 85.2 85.8 86.3 86.5 88.4 87.9 87.4 88.1 87.8 88.7
108.1 107.9 107.5 106.9 106.6 106.7 107.1 107.5 108.2 107.3 106.3 106.4 107.2 106 105.1 105.1 105.3 105.1 104.6 104.4 104.1 103.7 103.5 103.2 103 102.5 101.7 100.9 99.6 98.5 98 97.2 95.3 93.7 93 92.4 92.9 93.3 93.9 94 93.4 92.7 92.2 90.7 88.9 91.5 92.7 92.2 91.6 92.8 94.3 93.6 94.8 94.7 94.6 94.3 94.3 93.6 93.1 92.8 92 92.6 93.1 93 92.9 92.7 92.6 92.3 92.1 91.7 91.3 90.5 90.7 89.4 88.5 87.5 86.8 87.1 88 88.9 88.4 87.7 87.6 87.8 88.1 87 86.8 87.6 88.1 87.4 85.7 85.2 84.8 84.9 85.6 86.6 86.4 85.9 85.9 86.8 86.7 86.5 86.8 87 86.5 86.3 86.3 86 86 86 85.8 85.3 84.9 84.5 82.9 81.3 81.1 82.1 81.9 82.5 82.7 82.8 82.9 83.1 82.7 83.5 84.4 84.6 85 85.7 85.8 85.4 85.1 86.2 86.3 86.6 86.4 86.2 85.9 85 83.9 82.8 82.1 82.2 82.3 82.2 82.5 81.7 81.2 81.6 81.6 81.4 81.1 80.9 81 81.3 81 80.4 80.1 79.6 79.2 79.4 79.9 80.4 80.4 80.5 80.9 80.9 80.9 80.9 81.4 82.3 83.1 82.4 82.4 82.4 82.5 83.7 83.4 83 82.8 82.4 83.9 84.7 84.3 85.5 86.7 87.3 87.8 89 89.1 89.7 90.3 87 91.1 91.1 90.3 90.9 91.1 91
108.1 107.9 107.4 107.2 107.4 107.9 107.8 107.6 106.7 108.1 108.1 108 107.7 106.7 105.4 104.7 104.5 104.7 104.8 104.7 104.5 104.3 103.7 102.9 102.3 101.5 100.5 99.5 98.7 97.7 95.8 94 92.6 93.4 94.1 93.9 92.7 91.3 90.6 90.2 90.6 90.2 90.4 89.5 92.4 93.5 93.4 93.4 93.3 94.9 94.5 94.4 95.2 95.9 95.8 95.4 94.9 94.3 93.7 93.2 92.4 93.6 94 94 94 93.7 93.3 92.8 92.5 92.1 91.8 90.8 89.1 87.9 87.2 87.4 87.7 88 88.7 89.5 89.7 89.1 88.8 89.1 88.3 88 87.7 88.8 89.8 90.2 89 85.9 85.9 86.2 86.4 87.2 87.1 87 87 87.2 87.1 87.8 87.7 87.6 87.7 87.8 87.5 86.7 86.2 86 85.8 84.5 84.4 83.6 82.1 82.6 83.6 84.1 83.8 83.9 84.2 84.3 83.5 83 83.7 84.1 84.9 85.2 85.5 86 86.8 86.6 86.2 86.7 87.4 87.3 86.7 86.4 86.2 85.2 83.9 82.8 82.1 82.2 82 82 82.6 81.5 81.2 81.2 81.1 81.1 81 81.2 81.7 81.5 81.2 80.9 81.1 81 80.7 81.3 81.9 82.4 82 82.1 82.1 82.2 82.2 82.2 82.2 83.9 83.9 83.2 82.5 82.4 82.8 82.6 84.2 85.1 85.4 85.5 85.5 85.8 87.8 88.4 88.5 89.6 90.9 92.2 94.2 93.7 93.3 93.5 92.6 91.7 91.1 91.7 92 86.4
108.6 107.8 107.3 109 109.7 109.3 109 109 109.1 109 108.7 108.4 107.3 106.6 105.8 105 104.4 104 104.3 103.4 103.1 102.8 102.2 101.3 100.8 99.5 98.1 96.7 94.6 94.2 94 95.2 95.8 96.1 95.2 93.8 94.5 94.4 94.5 94 93 92.2 92.6 93.1 93.7 93.6 94.7 95.3 95.4 96 95.6 95.2 96 96.8 97 96.6 95.9 95.2 94.4 93.7 93.8 94.2 93.5 93.5 93.5 93.6 93.8 92.9 92.1 91.2 90.4 89 88.4 87 86.6 87.5 88.6 88.9 89.5 90.2 90.8 90.4 90.1 89.8 89.4 88.9 88.5 89.1 90.7 91.7 90.7 87.2 86.9 87.2 87.6 87.9 88 88 87.4 87.1 86.9 86.8 87 87.2 87.3 87.5 87.7 86.8 86.2 86 85.8 84.2 83.9 83.3 82.4 83.5 84.4 85.6 84.8 84.3 84.6 84.1 84.5 84.2 84.8 84.3 84.8 85.1 85.8 86.1 87 87.3 87.2 87 88.3 87.5 86.7 86 85.9 85.7 84.4 83.3 82.3 82 81.8 82.2 82.5 81.3 81.3 81.5 81.7 81.7 81.6 82 82.5 81.7 81.8 82.2 82.2 82.4 82.6 83.7 85 86.4 83.7 83.3 83.3 83.2 83.2 83.3 84.3 85.3 84.8 84.4 84.1 83.8 83.7 84.2 85.3 86.4 86.9 87.5 88 88.5 89.6 91.1 91.5 93.1 94.3 94.3 93.8 93.6 93.6 94.2 93.9 93.1 91.9 91.6 94.4 88.9
108.8 108.2 110.5 111.2 110.8 110.5 110.2 110.4 110 109.7 109.3 108.8 107.5 107.3 106.3 105.4 104.7 104.3 104 103.1 101.5 100.7 98.7 97.3 95.9 94.7 94.3 95 95.6 97 97.2 97.7 98.8 99.6 99 97.8 96.7 94.2 94.4 94.6 94.9 94.1 94.3 95 95.5 95.9 96.3 97 97.6 97.1 96.7 96.2 96.8 97.6 97.5 97.3 96.9 95.8 94.7 93.6 93.5 93.5 92.9 93 93 92.6 91.9 91.1 90.5 89.8 88.8 88.8 89.2 88.9 88.5 88.6 88.9 89.7 90.3 90.9 91.5 92 91.8 91.4 90.9 90.4 89.8 89.9 90.4 91.5 93.2 90.7 88 88.3 88.2 87.8 88.5 87.9 86.9 86.7 86.5 86.5 86.6 86.6 86.8 87.1 87.5 87 86.2 86 85.5 84.7 84.1 83.5 83.8 84.5 85.3 85.9 85.7 85.5 85.3 85.5 86.7 86.7 86.1 86.6 86.9 86.7 87 87.2 87.3 87.9 87.8 87.5 88.2 87.3 86.5 85.8 85.3 85.4 84.8 83.5 82.3 82 81.8 82.4 83 81.9 81.8 81.9 82.1 82.2 82.3 82.8 82.1 82.3 82.8 83.4 83.6 83.5 83.7 84.5 85.3 86.1 85.1 84.5 84.2 84.2 84.5 85.4 86.4 87 86.6 86.3 86.1 86.7 86.6 86.3 86.5 87.3 87.9 88.4 88.9 89.8 92.4 94 94 94.2 94.8 94.6 94.5 94.2 94 93.7 93.6 93.2 92.9 97.6 88.2 90.8
108.9 109.3 111.5 111.6 111.4 111.3 111 110.7 110.4 110.1 109.8 108.9 108 107.8 107 106 105.4 105 103.4 101.8 99 96.9 95.5 96.2 97.1 97.4 96.8 96.7 98.1 98.2 99.2 100.3 100.8 98.5 96.9 96.9 97.1 95.7 95.7 95.7 95.7 95.9 96.7 97.6 98 98.3 98.4 98.4 98.5 98.1 97.7 97.3 97.6 97.8 97.4 96.7 96.1 94.6 93.3 92.3 92 92 92 91.7 91.2 90.5 90.1 90.1 89.5 88.9 89.6 90.6 90.8 90.8 90.4 90.2 90.5 90.9 91.4 91.7 92.1 93.3 92.9 93.1 92.5 91.9 91.5 91.9 92.1 91.5 94.5 92.7 90.8 89.8 89.8 89.6 89.2 89.1 88.6 88 87.5 87.3 87.2 87 86.7 86.7 87.2 87.2 86.1 86 85 84.6 84.7 85 85.3 85.7 86.6 86.9 87 86.9 86.7 87.1 89 88.4 88.2 87.8 87.9 87.9 88.1 88.3 88.4 88.5 88.4 89 88.2 87.3 86.4 85.6 85.1 84.9 84.6 83.9 82.8 82.3 82 82.5 83 82.8 82.6 82.6 82.7 82.8 82.8 82.8 82.7 82.7 82.8 83.5 84.5 84.7 84.7 84.8 85.7 86 85.9 85.5 85.6 85.9 86.8 87.7 88.6 89.2 88.5 88.8 89.4 90.1 89.6 89.3 89.1 89.1 89 89.5 90 91.8 94.2 95.7 95.5 95.5 96.9 96.5 95.4 95.2 94.3 93.9 93.5 93.2 100.5 90 93.6 91.8
108.8 109.5 111.8 111.8 111.7 111.6 111.3 111 110.7 110.4 109.6 108.3 108.2 108.3 107.1 106.4 104 102 100 97.8 96.9 97.6 98.6 98.3 97.8 97.8 97.4 99 99.3 99.4 100.8 101.1 99.5 98.1 97.2 97.2 97.3 97.4 97.6 97.8 98 98.2 98.8 99.8 99.8 99.7 99 98.9 99.3 99 98.6 98.3 97.7 97.1 96.5 95.8 95.2 93.8 92.3 90.8 90.5 90.6 90.7 90.7 90.6 90.6 90.6 90.6 90 90.5 91.5 92.3 92.3 92.3 92.2 92 92.1 92.5 93.3 93.5 94.2 93.6 93.4 93.8 94 93.4 93.4 93.8 94.2 93.3 94.3 94.8 94.2 92 91.9 91.5 91 90.2 89.8 89.2 88.6 88.4 88.2 87.8 87.2 86.1 86.5 86.9 85.7 86.1 85.7 85.3 86.2 86.6 86.7 87 87.8 87.9 88 88.1 88.2 88.5 90.2 89.8 89.4 88.5 88.5 88.7 89 89.4 89.2 88.9 88.6 88.7 88.3 87.4 86.5 87.1 86.4 84.8 84.6 84.3 83.3 83.3 83.3 82.7 83.1 83.7 83.3 83.4 83.3 83.1 83.2 83.4 83.4 83.4 83.6 84.2 85 85.7 85.8 86.3 86.7 86.9 87.2 88 88.2 88.5 89.4 90.2 91.1 91.7 91.4 92.1 92.7 93.2 93 94 93.6 92.4 91.9 91.3 92 93.6 94.7 95.7 95.7 96.2 98 98.4 96.6 96.2 94.5 94 93.7 95.6 93.7 91.9 94.3 92.6
108.8 109.4 111.7 112.1 112 111.9 111.6 111.3 111 110.1 109 108.1 106.6 104.9 104.5 102.8 100.4 99.5 97.3 97.5 97.5 98.5 99.3 99.4 98.6 98.2 98.8 99.4 100.1 100.2 100.3 101.3 100.3 100 99.5 99.2 99.3 99.9 100 100.1 100.3 100.4 100.8 101.1 100.9 100.3 99.5 99.2 99 98.7 98 96.9 96.7 96.1 95.5 94.9 94.2 93.1 91.6 90.8 90.6 90.7 91.1 91.2 91.2 91.1 91.1 91.1 91.6 92.4 93.2 93.9 93.9 93.8 93.8 93.7 93.7 94.4 95.2 95.6 95.2 94.6 94.2 94.5 94.9 95 95.1 95.1 94.9 94.7 94.4 96.3 95.9 94.2 93.3 92.2 91.2 90.3 90.1 89.8 89.6 89.3 88.8 88.3 87.6 86 85.8 86.3 87.2 87 86.5 86.5 87.6 88.3 88.4 88.5 88.8 88.9 89 89 89.1 89.3 89.4 89.6 89.6 89.1 89.3 89.5 89.8 89.9 89.3 89 88.7 89.1 88.6 87.8 88.6 87.6 86 85.5 84.9 84.4 84.3 84.6 84.6 83.6 83.4 83.8 84 83.8 83.6 83.4 83.5 83.8 84 84.3 84.8 85.3 86 86.6 87.1 88.1 88.9 89 89.1 89.8 90.6 91.2 92 92.8 93.9 94.8 95.5 95.8 96 96.6 97.6 98.6 98.5 97.2 95.7 94.6 93.8 94.4 94.9 95.7 95.8 96.7 97.8 98.9 98.7 97 95.6 93.9 93.8 94.1 91.3 97.3 95.7 93.6
110 110.7 112.1 112.1 111.9 111.6 111.5 111.1 110 108.9 107.8 105.9 103.6 101.6 100.7 99.7 99.7 99.2 98.3 97.2 97.9 98.7 99.6 100.4 99.9 99.9 100.5 101.2 101.5 101.5 101.6 102.5 102.5 102.1 101.9 101.6 101.4 102 102.4 102.5 102.6 102.7 102.4 101.3 100.5 99.5 98.7 98.3 98 97.3 96.3 95.8 95.7 95 94.5 93.9 93.3 92.3 91.6 91 90.7 91.1 91.5 91.7 91.9 92.3 92.7 92.7 93.6 94.9 95.1 95.5 95.4 95.3 95 94.8 94.4 95.9 96.9 97 96.2 95.6 95 95.4 95.7 95.7 95.7 95.5 95.4 95.4 94.5 95.4 96 93.5 93.1 92.4 91.3 90.5 90.2 89.9 89.7 89.2 88.7 87.3 86.9 87.2 86.7 87.2 87.6 87.4 86.9 87.8 89 90 90.1 89.7 90.1 89.7 89.7 89.7 90.9 90.5 90.5 91.2 90.5 89.9 90.1 90.3 90.5 90.3 89.6 89.1 88.9 90.1 90.2 89.8 89.8 88.8 88 86.8 86.3 85.9 85.6 85.9 85.9 84.9 83.8 84.1 84.8 85.5 85.4 84.7 85 85 85.3 85.9 86.9 87.5 88.2 88.8 89.5 90.1 90.9 91.1 92.3 93.2 94 95 96 96.8 97.8 98.9 100.1 100.4 100.7 100.7 100.3 100.7 100.9 100.7 100.2 99.1 97.8 96.7 95.9 95.7 96.2 96.2 97.3 98.4 99.3 97.2 95.7 94.5 94.6 92.2 96.2 96.3 94.3 92.8
111.5 112.2 112.1 111.6 111.4 111.1 110.9 108.7 107.8 106.7 104.4 102.3 101.6 101 100.5 99.9 100.1 99.3 98.5 98.1 98.8 99.5 100.4 101.2 101.7 102 102.2 102.7 102.7 102.8 103.3 104.1 104.2 104.4 104.4 104.2 104.1 103.9 103.2 103.1 102.5 102.1 101.4 100.5 99.6 98.6 97.7 97.2 96.4 95.5 94.9 94.7 94.7 94 93.4 92.8 92.1 91.3 91.6 91.8 92 92.4 93 93.9 94.4 94.8 94.8 94.7 94.7 95.7 96.2 96.5 96.2 96 95.7 95.4 94.9 96.2 97.2 96.3 97 96.6 96 96.2 96.2 96.2 96.1 95.8 95.6 95.3 94.7 94.6 95 92.8 91.8 91.4 91 90.6 90.1 89.6 88.7 88.8 87.2 87.2 87.3 87.2 87 87.3 87.6 87.9 88 89.1 90.1 90.9 90.7 91 91.4 91.4 91 91.2 91.9 91.4 92.3 92.5 91.9 90.9 90.8 91 90.9 90.6 90 89.3 90.4 90.8 90.8 90.9 91 90.6 89.2 87.9 88.1 87.8 87.5 87.2 87.2 86.2 85.7 85.8 86.6 87.5 86.8 86.8 87.1 87.2 87.8 88.7 89.3 90 90.7 91.3 92 92.6 93.6 94.9 96.1 97 98.1 99.3 100.9 102.2 103.4 104.5 105.4 105.3 105.5 105.4 104.3 103.1 102.5 102.3 102.9 103 102.1 99.3 98.2 97.1 96.2 95.4 96.6 97.4 98.2 97.9 96.2 94.9 94.1 95.3 96.6 94.6 93.4 92.3
112.4 112.3 111.8 111.3 110.9 110.7 109.4 107 105.1 103.2 102.3 101.8 101 100.3 99.8 100.6 100.1 99.3 98.5 99.3 100.3 101.3 101.9 102.3 102.6 103.2 103.6 104 104 104 104.5 107.6 104 106 106 105.2 104.2 103.6 102.8 102.4 101.8 101.3 100.5 99.7 98.8 97.8 96.8 96 95.3 94.7 94 93.8 93.4 92.8 92.3 92.3 93.1 94.6 93.9 94 94.2 94.6 95.3 96.1 96.7 96.8 96.7 96.6 96.3 96.4 97 97.5 96.9 96.6 96.3 95.9 95.4 96.5 97 96.5 97.2 96.9 96.7 96.4 96.2 96.1 95.9 95.8 95.4 95 94.6 93.9 91.5 90.1 90 89.9 89.3 89.3 88.8 88.6 88 87.4 87.2 87 87 87 87.6 88 88.3 88.6 89.4 90.2 91 91.8 92.4 92.8 93.1 93.2 93.3 93.4 92.5 92.7 93.5 93.1 92.5 91.9 91.7 91.8 91 91.5 91.3 91.1 91 91.1 91.1 91.2 91.3 91.2 90 89.7 90 89 88.9 88.7 89 88.8 88.5 88.5 89.1 90.2 89.8 89.6 89.7 90.1 90.6 91.2 91.8 92.5 93.1 93.9 94.7 95.9 97.3 98.5 100.1 101.8 103.3 104.9 106.4 107.8 109.1 110.2 111 110.4 110.2 109.4 108 107 105.4 103.8 103.1 102.5 102 102.2 99.8 97.7 96.3 95.2 95.5 96.2 97 97.8 96.3 95.7 95.5 96.3 95.4 93 92 91.1
112.2 112.2 111.5 111 110.5 109.5 106.2 104.1 103.3 102.7 101.8 101.2 100.3 99.5 99.3 99.5 99.4 99 100.1 101.2 102.2 102.6 102.9 103.3 103.7 104 104.2 104.7 107.3 108.8 109.5 108.3 107.4 104.5 105.4 103.8 102.2 101.4 101.7 101.7 100.9 100 99.4 98.8 98 97 96.1 95.3 94.6 93.9 93.1 92.8 92.8 93 94.4 95.4 96.3 96.4 96.2 96.3 96.4 96.7 97.6 98.1 97.9 98 98.2 97.7 96.9 97.2 97.9 98.4 97.6 97.3 96.9 96.4 95.9 96.8 96.9 96.7 97 97.1 96.7 96.2 95.9 95.7 95.6 95.4 94.9 94.4 93.4 92.2 89.6 89.3 88.8 90 90.1 88.8 88.8 88.9 89 88.2 88.3 87.9 87.5 88.1 89.2 90.3 90.7 91 91.9 92.8 93.8 94.7 95.4 94.8 94.8 95.3 95.1 93.8 93.2 93.7 94.3 93.9 93.2 92.7 92.7 92.8 93 92.9 92.6 92.4 92 91.6 91.4 91.5 91.6 91.5 90.8 91 90.8 90.2 90.4 90.6 91 91.5 91.4 91.2 91.7 93 93 92.5 93.1 93.1 93.3 93.9 94.4 95 95.6 97.6 99.5 100.8 101.9 103.6 105.2 107.4 109 110.6 112.2 113.1 114.6 115.7 116.2 115.2 114.2 112.7 110.3 107.9 105.9 104.2 103.3 102.4 100.5 99.2 97.7 96.7 97.3 95.6 95 94.9 95.6 96.4 96.1 95.2 95.5 94.6 93.2 91.5 90.7 89.8
110.4 110.6 109.8 108.5 106.5 104.5 102.8 103.4 102.4 101.6 101.4 100.7 99.7 98.8 98.6 99.2 99.9 100.9 101.9 102.9 103.2 103.4 103.5 103.7 103.8 104 107.5 108.2 108 108.5 108.3 106.4 105.6 102.8 103 101.7 100.4 99.5 99.2 99 98.6 98.3 98.1 97.6 97.1 96.2 95.3 94.5 93.9 94.5 95.1 95.3 95.6 96.2 96.4 96.8 97.5 97.6 98 98.5 98.6 99 98.9 98.7 98.6 98.8 99.3 98.9 97.9 97.8 98.8 99.3 98.3 97.8 97.4 96.9 96.5 96.9 96.8 96.6 96.8 97 96.7 96.2 95.7 95.4 94.9 93.9 92.8 93.3 91.8 90.4 89.7 88.7 89.3 91.8 91.7 89.3 88.8 88.9 89 89.1 87.9 88.8 88.7 89.4 90.5 91.8 93.1 93.6 94.5 95.1 95.4 95.7 96.2 96.4 96.9 96.7 95.6 94.2 94.3 94.7 95.2 94.7 94.2 93.7 93.6 93.7 93.9 94 93.9 93.6 93.2 92.7 92.5 92.9 92.7 92.4 92 92.5 92.5 92.1 92.3 92.6 93.1 93.5 94 94.1 94.3 95.3 95.3 95.8 96.6 96.6 96.8 98 99 99.9 101 103 104.5 105.8 106.9 108.7 110.4 112.6 114.5 115.7 118.2 117.5 118.5 119.2 118.4 116.9 115.2 113.2 110.8 108.3 106.5 104.7 103.5 102 99.6 97.9 96.8 97.3 97.5 97.2 94.7 95 94.6 95.4 96.3 94.6 93.6 92.9 91.4 90.6 89.8 89.1
109.5 107.4 105.8 103.8 102.6 102.1 101.7 101.3 101.2 100.4 100.2 99.8 99.1 99.9 100.8 101.7 102.3 102.6 103.7 103.1 103.2 103.3 103.5 103.6 103.7 103.5 107 105.9 105.8 105.3 104.7 103.3 102.3 101.4 100.2 99.5 98.6 97.8 97.4 96.6 96.5 97 96.8 96.2 95.7 95.9 94.8 95.1 96.9 97.5 97.4 97.6 97.5 97.7 97.8 97.9 98.6 98.6 98.6 99.1 99.5 99.4 99.4 99.4 99.4 99.9 100.5 100 99.2 99.1 99.2 99.2 98.2 97.6 97.5 97.3 97 96.8 96.6 96.2 95.2 95.1 94.7 94.6 94.5 94.3 93 92 90.9 91.3 90.8 89.8 89.3 89.2 90.7 93.5 93.8 91 90.1 90.1 89.3 89.4 89.8 90 90 90.9 92.3 93.5 94.6 95.5 95.4 95.7 96 96.3 97.1 97.4 97.5 96.9 95.4 95 95.6 96.1 95.8 95.7 95.2 94.7 94.6 94.7 94.8 94.9 94.9 94.8 94.3 93.8 93.6 93.7 94 94.3 93.9 94.1 94.2 93.9 94.2 94.6 95.1 95.6 96.1 96.5 96.9 97.9 98.1 99.1 100.1 100.5 102.1 102.9 103.9 104.8 105.5 106.6 107.7 109.2 110.6 112.2 113.9 116 117.4 112.5 114.7 118.6 119 118.6 117.5 115.7 114.1 112.5 110.8 108.3 106.7 105.1 103.5 101.2 98.9 97.2 96.3 96.5 96.7 98.5 96.4 94.1 94.5 97.5 94.2 93.2 92.2 91.3 90.3 89.9 89.5 88.4
104.5 103.4 103.6 103.6 103.9 103.9 103.1 103.3 102.7 100.6 100.1 100.8 101.6 102.5 103.4 104.3 104.8 105.4 105.5 104.4 103.2 103.3 103.4 103.4 103.2 102.7 102.9 103.1 102.5 102 101.7 101.2 100.2 99.7 99 98 97.1 96.4 96.1 95.8 95.5 95.7 95.6 94.9 94.4 94.8 95.8 98.3 100.1 100.3 100 99.5 99.1 99.2 99.2 99 99.6 99.6 99.4 99.6 99.9 99.4 99.3 99.4 99.5 101.1 101.6 101 100.5 100.3 99.3 98.7 97.7 96.9 96.5 96.4 96.2 96.5 95.6 94.3 94.1 94.1 94.2 93.4 93.1 92.9 91.7 90.6 90 90.3 90.2 89.2 88.9 89.6 90.3 93.5 95.1 92.7 91.2 91.2 91.3 89.9 90.4 90.9 91.5 92.8 93.8 94.8 95.8 97.1 97.4 97.5 97.3 97.2 97.2 97.6 97.7 96.5 95.5 96.2 96.8 96.7 96.2 95.6 96.1 95.6 95.7 95.3 95.6 95.6 95.4 95.7 95.4 94.8 94.7 94.9 94.8 95.1 95.9 95.7 95.9 95.8 96.2 96.7 97.2 97.6 98.3 99.3 100.3 101.2 101.4 102.2 104.1 105.9 107.1 107.4 108.5 109.5 109.6 110.1 110.9 112.1 113.2 113.9 115.7 116.5 121.3 116.9 116.7 115.6 116.1 115.7 115.1 114.3 114.2 111.3 109.5 107.7 106 104.3 103.2 100.7 98.5 96.8 95.9 95.7 95.9 97.3 98.7 95.9 99 93 92.6 92 90.9 90.7 90 89.3 88.9 88.8
104.9 104.9 104.7 104.8 104.6 104.2 102.8 103 101.2 102.1 102.6 102.7 103.3 104 105.3 106.6 107.6 106.3 106.3 105.6 104.3 103.1 102.7 102.3 101.9 101.5 101.1 101 100.6 100.2 100 99.9 99.2 98.5 97.6 97.4 97.1 96.7 96.2 95.9 95.8 95.2 95 94.8 96.1 98.3 99.4 101.7 102.5 103.4 102.5 101 100.8 100.7 100.6 100.4 100.7 100.6 100.5 100.3 100 99.5 99.2 99.2 99.1 100 101.6 101.4 100.2 98.9 97.7 97.5 97.3 96.3 95.7 95.4 95.4 93.7 93.5 93.3 93.1 93.1 93.2 93.2 92.5 91.7 90.7 89.8 89.5 89 89.7 89.6 89.4 89.6 90 93.5 96.3 94.3 92.2 91.8 91.5 91.5 91.5 91.3 93 93.7 94.8 95.9 96.8 97 97.4 98.4 99.1 98.4 98.3 98.1 97.7 97.4 97.1 96.8 96.7 96.4 96 95.7 95.8 96.4 95.9 95.3 95.9 96 95.7 96.2 96.4 95.9 95.7 96 96.1 96 96.7 97.6 97.6 97.8 98.3 98.7 99.8 100.9 101.9 103 103.9 104.6 106 107 109.4 110.2 110.3 110.2 111.2 108.9 110.9 111 110.2 111.1 112.7 113.3 113.8 114.2 114.5 114 113.7 113.4 112.9 112.4 111.8 111.4 111.1 110.4 108.6 106.7 105 103.8 102.8 101.3 98.1 96.5 95.5 95.1 95.1 96.1 98.6 99.4 93.8 91.8 91.6 91.2 91.6 91.8 91.2 90.5 89.6 88.4
104 104.2 104.6 104.5 104.1 104.1 102.2 101.5 103.9 105.6 104.5 103.5 104.4 104.6 104.9 105.4 106.8 106.2 105.1 104.2 103.4 102.2 101.7 101.3 100.9 100.5 100.2 100 99.8 99.4 99 98.7 98.5 98.3 98.1 97.8 97.4 96.9 96.6 96.7 96.8 96.5 97.8 99.2 100.9 102.1 103.2 104.3 104.9 105 104 102.2 102.6 102.2 102 101.8 101.7 101.7 101.6 101.6 100.4 99.6 99.1 99 98.9 98.8 99.8 99.5 98.5 97.3 96.2 96.1 95.9 95.7 95.2 94.4 93.6 93.2 92.6 92.2 92 92.1 92.2 92.3 92.3 91.5 89.9 89.2 89.1 89.7 89.9 90.2 90.4 90.4 90.5 93.1 96.5 96 93.4 92.9 93.1 91.8 91.8 91.4 92.1 94.3 95 95.7 96.3 96.7 97 97.6 98.2 98.1 97.7 97.2 96.8 96.5 96.2 96.1 96.4 95.6 95 94.9 94.8 95 95 95 95.1 95.3 95.6 96.7 97.4 97 96.8 97 97.3 97.6 98.2 98.8 99.4 100.2 101.3 102.4 103.5 104.5 105.6 106.7 107.4 108 109.5 109.2 110.8 111 111.2 110.8 110.3 109.9 110 111.3 111.2 111.1 111 111.4 111.2 111.3 111.6 111.1 110.8 110.6 109.9 109.2 108.7 108.3 107.7 107.1 106.6 105.8 104.5 103.4 102.4 101.2 98.9 96.1 95.1 94.8 94.7 98.6 99.7 96.8 94.9 94.1 93.4 93 94 93.6 92 90.8 89.7 88
104.7 104.9 104.6 104.6 102.5 102.6 103.6 105.9 108.4 106.9 105.2 104.3 104.2 103.9 104.3 104.7 106.2 103.9 103.2 102.9 102.5 101.3 100.8 100.3 99.9 99.6 99.3 99.1 98.9 98.6 98.5 98.6 99 98.8 98.5 98 98 98.5 99.6 100.2 101.5 102.4 103.4 103.9 103.7 103.7 104.1 105 105 103.9 103.3 103.2 102.7 102 101.6 101.7 101.7 102.1 102.3 102.1 100.8 99.7 98.7 98.3 98.1 97.5 98.3 97.7 96.6 95.6 94.7 94.6 94.5 94.2 93.4 92.7 92.9 92.6 92 91.3 91 91.1 91.2 91.1 91 90.2 89.3 89.1 89.3 89.8 90.2 90.5 90.8 91.4 91.7 92.1 95.3 98.4 94.7 93.5 92.8 92.6 92.9 93.4 92.3 93.8 94.6 95.2 95.8 96.2 96.6 96.8 96.9 97.2 96.7 96.3 96 95.6 95.2 95.2 94.6 94.5 94.3 94.2 94.1 94.5 94.6 94.6 94.7 95 95.4 96.7 98.2 98 97.8 98.2 98.7 99.9 99.9 100.5 101.7 102.7 103.9 105.1 106.4 107.6 108.8 109.8 110.1 110.7 111.6 111.4 111 110.8 110.4 109.2 108.5 108.6 109.2 109.1 108.7 108.7 108.6 108.5 108.6 108.4 108.6 108.2 108 107.8 107.1 106.2 105.5 104.9 104.2 103.6 103.1 102.7 103.6 102.1 100.6 99.7 99.1 96.4 94.9 95 100.8 96 92.4 94.6 96.5 95.5 93.8 92 91.5 91.1 89.2 88.6 88.2 86.6
105.4 106.1 106.3 104.7 104.4 104.9 107.1 109 107.8 105.1 104 104.2 103.6 103.3 103.6 104.7 105.4 103.4 102.4 101.7 101.4 100.4 99.9 99.4 99 98.6 98.4 98.2 98.6 98.7 98.8 99.4 99.2 99.2 99.6 100 100.5 101.1 102.3 102.8 103 103.1 104.3 105 104.7 103.5 103.5 103.7 103.9 102.5 102.4 102.3 102.1 101.5 100.7 100.6 100.7 100.8 102.3 102.1 100.4 99.2 98.4 97.3 96.5 96.2 96.5 96.1 95 93.9 93.5 93.2 93 92.5 91.9 91.6 92 91.8 91.2 90.6 90.2 90.2 90.2 90.1 89.6 90 89.6 89.6 89.9 90.7 91.1 91.1 91.5 92.6 92.2 92.5 94.1 94.8 96.1 98.5 95.1 94.1 94.1 94 93.2 92.9 94 94.7 95.3 95.8 95.8 95.7 95.6 96.3 95.8 95.5 95.1 94.7 94.5 94.5 94.3 94.2 94 93.8 93.8 94.2 94.3 94.4 95 95.6 96.2 97.4 98.3 98.9 99.3 99.8 100.6 102.1 102.6 103.3 104.2 104.9 106 107.2 108.4 109.6 110.7 110.9 110.7 110.6 110.6 110.4 114.3 109.9 109.3 108.6 107.7 107.2 107.1 106.4 105.8 105.7 105.6 105.5 105.5 105.7 105.6 105.4 105.2 105 104.3 103.4 103 102.3 101.6 100.4 99.9 99.4 100.1 99.1 99.1 98.8 98.4 96.8 95.7 101.2 94.3 92.1 90.7 91.6 92.2 91 89 88.3 87.4 86.8 86.6 85.5 85.2 84.4
105.8 106.1 105.4 106 106.1 105.9 105.5 104.8 104.6 104.3 105.2 103.9 103 102.6 103.2 103.9 104.6 102.8 101.9 100.9 100.1 99.5 99 98.5 98.1 98.3 98.6 98.9 99.2 99.4 99.7 101.3 101.2 101.6 102 102.5 103 103.4 103.5 103.7 103.8 103.6 102.7 102 101.5 101.2 101.2 101.5 102.6 101.8 101.5 101.3 101.1 100.6 100.2 99.6 99.7 98.9 100.2 99.2 98.8 98.1 96.8 95.8 94.9 94.8 94.7 94.4 93.3 92.9 92.5 92.2 92.1 91.6 91.2 90.9 91 91 90.4 90.2 89.7 90 90.3 91.9 91.9 90.7 90.5 90.8 91 92.1 92.8 92.5 92.6 93.5 93.3 93.5 94.7 93.8 95 100.4 99.4 96.4 94.7 94.1 93.5 93.4 93.3 93.8 94.8 95 94.8 94.6 94.3 95.4 95 94.6 94.3 94 94.4 94.3 94 93.9 93.7 93.8 93.9 94.2 94.7 95.2 96.1 97.9 98.5 99.3 99.8 100.2 100.7 101.4 102.7 104.1 105.3 106.1 106.7 107.2 108.2 109.3 110.5 111.5 111.5 111.4 111 110.7 110.4 110.4 108.8 108.3 107.6 106.8 105.9 104.8 104.4 103.7 103 102.7 102.6 102.5 102.3 102.6 102.8 102.6 102.4 102.2 101.5 101.4 101.1 100.6 99.4 98.4 97.5 96.5 96.9 97.5 97.6 98.1 96.8 96.9 101.2 97.7 91.9 91 90.1 89 88.4 87.8 87 86 86.3 85.3 85.1 84.9 84.6 84.3
108.9 108.3 109.1 109.9 109.3 108.1 108 107 105.1 105.3 105.8 105.5 103.9 102.3 102.4 103.2 103.7 102.2 101.3 100.4 99.4 98.6 98.6 98.7 98.8 99.1 99.3 99.6 100 101.2 102.3 103.3 103.6 103.9 104.2 104.2 104.2 103.9 103.3 102.8 102.2 101.4 100.3 99.7 99.4 99.6 99.8 100.4 100.9 101 100.7 100.5 100.1 99.7 99.2 98.8 98.1 97.2 97.1 97.1 96.7 95.9 95 94.2 93.4 93 92.9 92.7 92.7 92.7 92.6 92.6 92.1 91.8 91.5 90.8 90.4 90.1 90 89.8 90.5 91.3 91.6 92.9 92 91.8 92.1 92.4 92.9 94.5 95.5 95.1 94.7 94.5 94.6 94.7 95.2 94.3 94.6 99.4 101.7 98 95.4 94.2 94.2 94.1 94.4 94.4 94 93.7 93.7 94.5 93.9 94.4 94.1 93.8 93.5 93.4 94.4 94.1 93.8 93.6 93.8 94 94.1 94.5 95.3 96.4 97.4 99 100.7 101.6 102 102.4 103.5 103.1 104.7 106.1 107.5 107.7 108.6 109.5 110.5 111.5 112.2 112 111.7 110.6 110.3 109 107.4 106.7 106 105.3 104.6 103.8 103 102.2 101.7 101 100.3 99.8 99.7 99.5 99.3 99.3 99.9 99.7 99.5 99.4 99.6 99.6 98.9 98.6 99.5 98.7 97.8 96.8 96.6 96.5 96.7 97.5 100.9 99.2 94 94.4 90.8 89.9 89.5 87.6 87.1 85.8 85.8 85.5 84.9 84.8 84.4 84.8 84.3 83.6
112.2 112.2 111.5 110.8 110.6 110.2 109.5 107.5 105.1 105.8 106 106.1 105.6 104.2 101.9 102.4 102.7 101.6 100.7 99.8 99.6 99.3 99.2 99.4 100.2 101 101.5 102.7 103.9 104.6 105.1 105.1 104.7 104.9 105.2 104.4 104.3 102.6 101.7 101 100.5 99.8 100.2 99.7 98.6 99.3 99.7 99.3 99.7 100.1 99.8 99.5 98.7 98.1 97.4 96.7 96 95.4 95.1 95.1 94.7 93.8 93.1 92.3 92 92 92.4 92.7 93.2 93.1 93.1 92.6 92.1 91.8 91.7 91.3 90.6 89.9 90 90.6 91.5 92.4 93.2 93.2 93.3 93.2 93.6 94.1 94.9 95.5 95.7 95.7 94.8 94.3 95.4 96 96 95.3 95.2 99.1 103.1 100.4 97.1 95.7 94.9 94.7 94.4 94.6 94.2 94 94 94.1 94.1 94.3 94 93.7 93.7 93.9 94.5 95.4 96 95.6 94.7 94.6 94.5 95.1 96.7 97.9 99.2 100.5 102.3 102.5 103.5 105.2 106.5 107.2 107.6 106 110.5 111.3 111.9 112.3 111.9 112.2 110.7 110.2 110.1 107.5 106.1 105.6 105 103.7 103.1 102.4 101.7 100.9 100.1 99.3 98.6 98.2 97.6 97 96.7 96.5 96.3 96.1 97 96.7 96.5 96.7 97 96.4 96.1 96.5 97.3 98.3 98.1 98.1 97.9 97.1 96.7 100.6 95.6 94.3 92.6 91.2 89.9 88.8 88.1 85.8 85.4 86.3 85.3 86.5 84.1 83.7 83.4 84.1 83.3 82.4
112.9 112.2 111.9 111.6 111.1 110.4 108.9 107.1 105.1 105.2 105 104.5 103.6 102.6 102 101.9 101.9 101.1 100.8 100.5 100.3 100.3 101 101.8 102.6 103.2 103.8 104.9 106.1 107 106.9 106.8 106.4 105.9 105.4 104.5 103.7 101.6 100.7 99.9 99.5 99.1 98.6 99 98.6 99.5 99.6 99.3 98.4 98.8 98.9 98.1 97.4 96.7 96 95.2 94.4 94.2 93.6 93.1 92.6 92.1 92.1 92.2 92.3 92.3 92.4 92.7 93.6 93.6 93.2 92.7 92.2 91.8 91.4 91.6 91.1 90.8 91.4 92 92.7 93.5 93.4 93.3 93.8 94.3 94.4 94.1 94.4 94.5 94.8 95 94.6 94.3 94.3 96.2 97.9 96.5 96.6 99.5 101.1 103.9 100.7 96.6 96.1 95.6 95 94.6 94.5 94.4 94.5 94.7 94 94.2 93.9 93.8 93.8 94.3 96.5 98.6 98.1 97.7 96.8 95.8 95.9 97.2 98.5 99.9 101.2 102.5 103.7 105.3 107.1 108.5 109.3 110.8 112.2 113.5 113.7 109 112.2 109.9 109.4 107.9 106.7 107.2 105.4 104.5 103.4 102.7 102.2 100.9 100.3 99.6 98.8 98.1 97.3 96.4 95.6 95 94.7 94.2 93.8 93.6 93.4 93.3 93.8 93.5 93.5 94.4 94.8 94.6 94.6 94.8 95.3 97 97.9 97.4 97.4 98.8 97.8 94.9 93.8 92.6 91.4 89.8 88.2 86.9 85.9 83.8 81.5 85.1 85.1 82.5 83.2 81.8 82 82.1 81.3 80.9
112.4 111.9 111.1 110.9 110.1 109 107.4 106 104.2 104 103.3 103 102.7 102.4 102.9 103 103 103.4 103.4 103.5 103.6 103.7 103.8 104.2 104.9 105.5 106 107.1 107.8 108.6 108.7 107.9 106.9 106.4 105.5 104.4 102.4 100.9 99.7 99.3 100.4 100.4 99.4 99 98.6 98.5 98.5 98.2 97 97.4 97.1 96.5 95.9 95.3 95.1 95.2 94.3 93.3 92.7 92.3 92 92 92 92.1 92.3 92.5 92.6 92.9 93.8 93.7 93.2 92.7 92.2 91.8 91.5 92.6 91.6 91.6 92.2 92.3 93 93.1 92.9 92.6 92.6 93.3 93.2 93 94.1 94.2 94.9 94.5 94.4 94.5 94.9 96.2 97.9 97.5 97.2 97.9 99.5 102.7 104.3 100.3 98 97 96.3 95.7 95.4 95 95.1 95.2 94.8 94.1 94.2 94.3 94.3 94.6 96.2 99.8 100.6 99.8 99.1 98 97.8 99.4 100.6 102.6 103.8 105.6 106.9 108.6 109.9 110.7 111.6 112.3 112.4 111.5 110.1 108.2 106.9 104.9 104.7 104.9 104.3 103.7 102.9 102.2 101.3 100.2 99.4 98.4 97.4 96.8 96 95.2 94.5 93.7 93.2 93.1 92.3 91.6 91.6 91.1 91.1 90.8 90.4 90.3 91.6 92 92.2 93.3 93.9 94.3 94.8 96.8 97.5 96.6 98 95.7 95.2 94.1 92.9 91.4 89.7 88.4 87.1 86 85.4 83.2 82.7 83.6 82.3 81.2 81.3 81.7 81.5 79.2 78.9 78.8
110.8 110.3 110.2 109.1 107.6 105.5 104.4 103.7 103.7 103.4 103.3 103.6 103.7 104.3 104.9 105.6 106.3 106.3 106.7 106.9 107 106.9 106.5 106.3 107.1 107.7 108.2 108.9 109.3 109 108.4 107.8 107 106 105.1 102.9 100.5 99.7 99.6 99.9 101.7 101.3 100.6 100.2 99 97.5 96.9 96.7 96 95.6 95 94.9 94.9 94.9 95 95.1 94.4 93.3 93 92.4 92 91.9 91.9 92 92.2 92.7 93 93.3 93.6 93.5 93.2 92.7 92.2 91.9 91.6 93.8 92 91.7 91.9 91.6 92.1 91.9 91.6 91.2 91.5 92.3 92.8 93.6 93.8 94.1 94.4 94.6 96.4 95.9 96.8 97.3 98.3 98.7 98.8 98.8 98.9 100.6 103.9 103.1 100.2 99.2 98 97 97.3 97 96.5 95.9 95.7 95.3 95 94.9 94.9 95 96.1 99.5 102.5 103.1 101.8 101.7 101.2 101.8 104 106.3 107.1 109.7 110.2 110.2 110.1 109.4 109.1 108 106.9 106.4 105.8 105.5 104.6 103.9 103.3 102.9 100.8 101.4 100.6 99.9 99.2 97.6 97.8 97.3 97.2 95.5 93.3 93.1 93.1 91.1 91.7 89.7 89.6 89.4 89.1 89.6 90.4 89.9 89.3 88.9 88.8 88.7 90.3 91.5 93 93.8 94.2 96.6 96.2 95.7 94.9 94.5 94.5 94 93.1 90.5 90 88.9 87.6 86.9 85.8 85.2 79.9 80.6 81.2 79.8 79.5 79.5 76.7 76 76.7 75.6
109.5 108.2 106.7 105.3 104.4 104 103.8 103.9 104 104.4 105.2 107.5 108.8 108.9 108.9 109.8 110.5 110.3 110 109.7 109.3 108.8 108.5 108.3 108.5 108.8 109 108.7 108.4 108.4 108.1 106.7 106.8 106.2 103.8 101.4 100.6 100.8 101.4 102.1 103.1 102.7 102 101.1 99 96.7 95.8 95.2 94.8 94.8 94.8 94.8 94.7 94.8 94.8 94.9 94.4 93.8 93.4 92.5 92.9 93.6 92.5 93.1 93.9 93.6 94.1 94.7 95.1 94.6 93.6 92.9 92.3 92.1 92.2 92.3 94.4 93.1 91.7 91.2 91 90.8 90.6 90.4 91.2 92.3 92.8 93.3 93.4 93.6 93.9 94.7 97.2 98.5 98.8 99 100 100 99.9 99.7 99.7 100.3 101.8 103.2 103.1 102.7 101.6 99.9 99.1 98.5 98.8 98.1 97 96.6 96.5 96.3 96.6 96.7 96.9 98.4 100.8 103.1 105.8 105.9 106 105.8 106.9 107.1 107.1 109.6 107.3 105.7 105 104.7 104.8 105.1 104.5 104.1 103.8 103.3 102.9 102.1 101.3 100.6 99.6 98 98.1 97.5 96.9 95.4 93.9 92.7 91.7 91.8 90.5 90.1 90.1 88.7 87.8 87.4 87.5 87.4 87.1 86.4 85.8 85.6 86 86 85.2 87 88.5 89.7 91 92.6 93.8 94.7 95.8 94.5 93.5 93.4 93.4 93.1 93.1 90.3 88.5 87.9 87.5 86.9 84.3 79.4 76.9 77.8 78.4 76.8 76.6 74.6 74.3 74.4 74.4 72
106.7 106.1 105.4 105 104.7 104.4 104.8 105.4 106 106.7 107.4 109.7 112.1 113.3 113.2 113.6 112.2 112 111.7 111.6 110.8 110.5 109.3 108.7 108.4 109.3 109.1 109.7 109.1 108.3 106.9 105 104.9 104.1 102.3 101.4 100.6 101 103.1 106.3 105.8 102.4 101.4 99.7 97.7 96.1 95.2 94.7 94.3 94.5 94.6 94.6 94.6 94.6 94.7 94.8 94.8 95.6 97 96.8 96.9 96.7 96 96.2 96.2 95.5 95.4 95.8 95.7 94 93.6 93.2 93.2 91.3 92.2 91.7 91 92.2 92.4 92.4 90.4 90 89.8 89.6 90.3 91.9 92.4 93.1 93.9 94.5 95 95.8 96.8 98.1 100 100.7 101.4 101.3 101.1 101.1 101.2 101.5 101.5 101.9 104.1 105.8 105 102.6 101.7 100.9 100.8 100.5 99.3 99 98.8 98.4 98.8 99.2 99.8 100.2 101.5 103.6 106.4 110.1 110.8 108.8 107.3 106.7 105.9 104.3 103.1 103.8 103.7 103.5 103.3 102.7 102.2 101.7 101.4 100.8 100.2 99.2 98.7 98.2 97.2 96.4 95.3 94.9 94.1 92.8 90.6 89.7 89 89 87.8 87.3 87.1 86.4 85.5 84.7 84.7 85.2 85 84.4 83.8 83.4 82.9 83.5 84.5 86.1 87 87.8 89.3 92.2 92.7 93.5 94.1 93.4 92.4 91.7 91.9 91.4 90.2 88.8 87.8 86.9 86.3 83.1 80.9 79.1 74.7 75.3 74.7 74.2 74.5 73.5 74.5 75 73.9 71.8
107.3 106.2 105.9 105.9 106 107 107.5 108 108.4 108.9 109.4 111.4 113.5 115.1 115.2 114.8 113.7 113.5 113.8 112.8 112.5 112.1 111.2 110.7 112.6 112.6 112.4 111.1 110.1 107.6 105.4 105.4 104.1 103.3 102.5 101.7 101.3 102.7 105.3 108.1 106.1 103.2 100 98.1 97 95.9 95 94.8 94.2 94.2 94.3 94.4 94.4 94.5 94.6 94.7 95.1 96 98.5 100.1 100.1 98.3 98.4 97.4 96.8 97 96.4 95.8 93.9 93.1 92.3 92.1 91 90.3 89.8 90.3 90.9 92 92.6 93.1 90.3 89.2 89 89.1 89.2 90.1 91.5 92.9 94.2 95.6 96.2 97.1 98.3 99.6 100.9 102.4 102.6 102.6 102.7 103.1 103.4 103.8 103.8 103.9 104.3 104.3 104.2 104 104.1 104.7 104.5 103.7 102.5 101.6 101.3 101.5 101.8 102.3 102.9 103.1 105.9 109.1 106.8 108.4 110.3 109.6 107.5 105.4 104.2 102.8 101.6 102.3 102.4 101.9 100.4 99.9 99.8 99.3 98.8 98 96.9 95.6 95 94.8 94.6 93.8 93.1 91.6 90.2 89 87.6 86.8 86.2 85.5 85 84.5 84.2 83.8 83.1 82.3 81.5 82 82.4 81.9 81.2 80.2 80 80.9 82 82.4 83.7 90 88.5 89.1 89.9 91.6 92.5 92.1 91.2 90.2 89.6 87.9 87 85.6 82.9 82.8 81.5 78.6 75.9 76.4 73.6 73.5 73.8 73.6 73.8 74.2 73.8 73.8 73.1 71.8
107.9 107.8 107.9 108.1 108.5 109 109.5 109.9 110.2 110.7 111.1 112.7 114.8 115.5 115.7 115.6 114.4 114.7 114.6 113.4 113.1 112.6 111.9 113 113.6 112.1 110.3 110 109.9 107.3 107 106.1 104.8 104.1 103.3 102.3 103 105.2 107.7 108.3 106.2 103.3 99.9 98.4 98 97.4 96.8 96 94.4 94.4 94.4 94.7 95 95.3 95.6 96 96.4 96.2 98.4 98.2 98.5 97.7 96.4 94.7 94.4 93.5 93 92.8 91.7 90.6 90.7 89.3 88.7 88.5 87.9 88.2 88.5 90.8 91.6 91.5 89.7 88.7 89 89.2 90.2 91.6 92.6 93.7 95 96.3 97.7 99 100.3 101.6 102.8 104.2 104.8 105.1 105.4 105.8 106.2 106.9 106.7 106.5 106.9 107.1 107.4 107.7 107.9 107.7 107.8 107 105.7 104.3 104.4 105.7 105.9 105.9 106.7 105.8 105.1 105.6 104.3 105.9 109.8 108.9 106 103.4 102.4 101.2 100.1 100.4 100.5 98.9 97.5 96.9 96.6 96.9 96 95.3 93.7 92 91.4 91.2 90.4 89.7 89.6 88.6 87.1 86.5 85.1 84 83.4 82.8 82.3 81.7 81.5 81 80.3 79.6 78.9 78.8 79.3 79.2 78.5 77.5 77.5 78.5 79.5 80.7 87.7 81.4 83.5 84.8 85.8 86.9 88.3 89.1 85.5 86.8 86.4 84.8 83.4 82 78.4 79.5 77.6 76.5 75.5 74.2 72.2 70.8 72.7 72.5 72.5 72.2 73.4 72.5 71.3 70.5
109.1 109.9 110.2 110.3 110.9 110.8 110.9 111.6 112.1 112.5 112.7 114 115.3 115.9 116.3 116.3 115.2 114.9 114.9 112.8 111.4 110.6 109.9 110.1 110.5 110.9 110.9 109.8 109.6 107.7 107.8 106.4 105.6 105 104.4 103.9 106.8 109.9 109.2 107.5 105.8 103.3 102.7 101.9 100.8 100.5 99.7 98.2 94.5 94.5 94.9 94.6 95.5 96 96.6 97.2 97.5 97.1 96.5 96.1 95.9 94.9 93.6 92.2 91.5 90.7 89.9 89.8 89.5 89.1 87.8 86.7 86.5 86.2 86 86.1 86.2 88.8 89.6 89.8 89.1 89 89.4 90.4 91.9 93.4 94.6 95.7 97.1 98.7 100 101 102.3 103.6 105.2 106.7 107.3 107.8 108.1 108.4 109.2 109.9 109.4 109 110.2 110.6 111 112.6 111.4 109.9 108.9 108 107.4 107.5 107.7 107.9 108.7 108.9 107.7 106.5 105.3 105.2 104.7 104.7 108.7 107.4 105.5 102.5 101.7 98.5 97.9 97.6 97.8 95.9 94.6 94.1 93.5 93.9 94 92.1 90.4 88.7 87.8 87.3 87.6 87.7 86 85.5 84.1 83.7 82.1 81.2 80.5 79.9 79.3 78.9 78.7 78.2 77.5 76.8 76.3 75.8 76.1 76.2 75.8 75 75.2 76.2 82.8 81.7 77.5 77.2 80.7 81.2 81.7 82.6 83.6 83 83.3 83.2 82.5 82.6 82.8 78 77.3 77 74.4 73.6 72.6 72 71.5 67.4 71.7 70.8 70.4 71.1 71.2 70.9 69.8 69.4
111.3 111.1 112.7 112.6 112.6 112.6 112.5 112.9 113.6 114 114.4 115 115.5 115.9 116.2 117.3 116.2 115.1 113.1 111.3 110.5 110 111.1 110.8 110.3 109.7 109.8 109.3 109.1 108.5 108 107.3 107.3 107.7 107.5 109.9 114.6 113.4 111.1 108.9 106.6 104.7 103.6 102.8 102.5 102.2 101.3 99.1 94.8 95.3 95.5 95.6 94.7 95.5 95.9 96 95.9 94.9 94.4 94 93.5 92.1 90.8 89.5 88.8 88 87.3 87.3 87.4 86.9 85.9 85.2 85.5 85.3 85.1 85.2 86 86.9 87.7 88.6 88.2 89.1 90.6 92.1 93.6 95.1 96.5 98 99.6 101.2 102.2 103.1 104.5 106.3 108 109.1 109.7 110.4 110.8 111.4 112.2 112.8 112.1 111.7 112.6 113.8 114.4 112.7 110.5 109.8 109.3 109.2 110.5 111.9 112.7 112.4 111.1 109.7 108.4 107.2 105.9 105.1 105 104.7 107.5 107.9 105.6 103.5 101.7 97.3 96.1 94.9 94.9 93.2 91.8 90.9 90 90.9 92.4 90.4 87.1 85 78.7 84.8 84 83.9 83.6 82.2 81.2 80.3 79.2 78.5 77.7 77 76.3 76.1 75.9 75.4 74.7 74.2 73.8 73.2 72.9 73 73.1 72.9 73.3 80.9 74.6 74.6 74.9 76.1 77.5 79 79.5 80.7 81 81.1 82.3 81.4 80.6 80.8 79.6 77.7 77.1 74.6 73.1 71.7 71.5 70.2 69.8 67.3 68.3 69.2 69.5 68.4 68.2 68.8 68.3 66.6
113.3 113.2 114 114 114 114.1 114.1 113.9 113.6 113.6 114.1 114.7 115.1 115.2 115.3 116.3 118.2 115.1 112.5 110.4 110.2 110.6 112.8 113 111.6 111.1 111.2 111.3 111.3 110.9 110.5 111.2 111.8 111 112.2 115.9 117.1 114.1 112.1 109.8 107.6 106.3 105.4 103.7 103.1 102.6 102.3 101.7 100.1 97.3 96.9 96.5 94.2 93.7 93.7 93.3 93.3 92.7 92.2 91.7 91 89 87.7 86.7 86 85.3 84.8 85.7 85.3 84.7 84.1 83.7 84.2 84.3 84.1 85.1 86 86.9 88.2 88.8 89.8 90.4 91.1 93.3 94.9 96.4 98.1 100.5 102.1 103.6 104.5 106 107.6 109 110.8 111.5 112.2 112.8 113.7 115.1 115.9 115.7 115 114.4 115.1 116 114.6 112.3 111.5 111.9 112.3 112.5 113.8 113.4 113.5 113.2 112.1 109.6 107 105.8 104.6 103.9 104 105.2 107.7 106.1 103.5 101.9 98.6 96 94.4 93.1 92 90.8 90.3 89.4 87.4 88.4 88.6 86.7 84.5 82.5 81.6 81.8 80.9 80.4 80 79.5 78.4 77.5 76.6 75.7 75 74.3 73.7 73.3 73.1 72.7 72 71.7 71.4 70.7 70.2 70.4 70.9 73.8 78.2 71.8 72.2 72.7 72.7 73.9 75.4 76.8 77.3 79.4 79.7 80.9 78.3 78.6 78.2 75.9 75.3 74.6 75.6 72.9 71.3 69.5 68 66.9 66.8 67.4 63.9 67.4 66.9 65.6 65.8 66 66.3 66.1
114.7 114.5 114.6 114.6 114.5 114.4 114.2 114.2 113.4 113.3 113.8 114 114.2 115.9 116.8 118.3 119.1 114.8 112.5 110.8 110.5 112.3 114.5 115.1 113.6 112.8 113.5 113.6 114.3 115 115.4 115.8 116.4 115.1 117.9 119 117.2 114.3 112.5 110.7 109.2 108.6 108.1 106.7 105.8 104.2 104 103.5 101.4 100.4 98.1 96.5 95.1 92.1 89.9 90.6 91.6 91.1 89.9 89.4 88.4 86.3 84.6 83.9 83.2 82.7 83.1 83.7 83.2 82.6 82 82.1 82.6 83.2 83.6 85 85.5 86.7 88.1 89 89.7 90.2 91.4 93.6 96.1 97.7 99.8 102.3 104.7 106.1 108.2 110.4 111.9 113.1 114.6 115.5 116.6 117.7 119.1 119.8 119.5 118.2 117.6 117.2 117.3 117.6 116.2 115.9 115.8 115.6 115.5 113.6 113.3 112.6 112 110.7 109.4 106.7 105 103.8 102.9 102.2 102.4 103.4 102.5 101.1 98.8 97.8 96.6 93.8 92.4 91.6 90.4 89.9 89.3 87.3 84.8 85 84.2 82.2 80.4 80 79.3 78.6 78.1 77.6 77.1 76.6 76 75.1 74.2 73.4 72.4 71.9 71.3 70.8 70.3 69.9 69.5 69.2 68.9 68.7 68.8 69.2 74.3 70.7 70.2 69.3 69.9 70.7 71.2 72.2 73.3 74.5 74.6 77.4 77.4 76.5 76.4 76.9 76.2 76.2 73.7 73.2 73.4 71.1 69.7 67.7 66.6 66.4 64.3 62.4 60.8 60.3 62.4 64.4 65 65 63.3 62.7
114.9 114.7 114.8 114.8 114.6 114.5 114.3 114.2 113.5 113 113.2 112.2 111.8 113.4 114.6 115.1 115 114.6 112.4 111.6 111.8 114 116.1 117.2 116 116.3 117.2 118.2 119.2 119.8 120.1 120.4 120.6 119.8 119.3 118.6 116.5 115.3 113.7 112.1 111.5 110.9 110.2 109 107.7 106.3 103.9 101.8 100.2 98.3 95 91.9 91 91.2 89.1 87.7 89.7 90.9 88.2 87 85.7 83.7 82.1 81.8 81.5 81.3 81.3 81.5 81 80.4 80.2 80.2 80.8 81.4 84 84.6 85.3 86 87.3 88.1 89 90 91.7 93.9 96.3 99.4 102.2 104.9 107.9 111 113.8 115.3 116.7 118.2 119.5 120.2 122.4 124.2 125.1 123.5 122.7 121 120.2 120.1 119.8 119.7 119.1 116.3 113.9 111.8 110.4 109.3 108.7 109.4 108.2 106.6 105.3 104 102.9 102.1 101.2 100.5 100.3 99.5 98.7 97.7 96.7 95.1 94.3 91.8 90 89.3 88.1 88.2 87.1 84.5 82 80.6 79.9 78.2 78 77.4 76.5 76.5 75.7 74.8 74.3 73.8 73.7 72.8 71.9 71 70.1 69.5 69 68.4 67.9 67.8 67.9 68 67.6 67.5 67.5 71.5 65.8 66.5 66.6 68.4 68.9 69.1 69.6 70.8 71.5 72.4 73.4 74.4 74.6 74.4 74.2 74.1 74.4 73.7 73.9 73 71.3 70.1 68.8 67.9 66.5 65.6 66.6 66.5 64.3 60 61.9 59.1 57.5 63.3 62.5 62.9
115 114.8 114.8 114.9 114.7 114.6 114.4 114.3 113.9 112.8 112.6 112.5 112.5 112.9 113.1 112.4 111.8 113.9 114 113.9 114.4 115.8 117.9 119.6 121.2 122 122.8 123.8 123.9 124 124.6 123.5 122.8 121.5 120 118.3 117.2 116.5 115.4 113.8 112.5 111.2 109.4 106.9 106.3 102.7 101.1 99.3 97.3 93.4 89.4 87.5 88.4 87.6 86.8 85.1 86.5 87.3 88.4 85.3 83.4 82 81.1 80.4 80.1 79.9 79.6 79.5 80 80 79.4 78.6 79 80.6 82.1 83.2 83.9 84.7 85.4 87.3 88.4 90.4 92.1 94.6 97.9 101.9 105.7 108.5 112 116.4 119 119.9 121.7 122.8 123 123.6 125.7 127.7 128.1 126.9 125.2 124 123.8 120.5 116.4 113.8 110.8 109.3 107.7 106.7 105.1 104 103.1 103.2 102.8 102.2 101.5 101.2 100.4 99.7 98.4 97.4 97.5 97.3 96.7 96 95.1 93.4 91.8 89.8 87.8 86.2 84.9 85.1 83.7 81.1 78.6 77.5 76 75.9 75.5 74.4 74.6 74.4 73.8 72.5 71.5 71.1 71 70.4 69.5 68.7 68.3 67.8 67.2 66.9 66.7 66.5 66.7 67 66.2 66 68.4 65.9 65.7 65.8 66 67.7 70.3 70.7 71.3 70.9 71.8 71.7 72.2 73.1 72.5 72.5 72.4 72.3 72.3 72.8 72.1 70.6 69.7 66.8 66.6 66.6 68.5 67.2 68.7 66.9 65.8 63.6 63.9 63.5 56.8 55.9 62.9 62.5
115.1 114.9 114.4 113.8 114.5 114.5 114.5 114.4 114.3 113.7 113.2 113 112.5 111.8 112 111 112.6 115 116.1 118.3 119.2 121.7 124.2 124.6 126.5 127 129.6 127 126.4 125.7 123.6 121.9 120.6 119 117.2 115.8 114.5 113.2 112.2 110.9 109.2 107.4 105.3 98.7 93.8 93.8 94.1 95.9 93.6 89.9 91.4 88 87 85.4 84.4 83.4 84.2 83.9 84.5 84.1 82.1 80.3 79.1 79.2 78.7 78.4 78.9 79.8 79.7 79.5 78.7 78 77.5 78.5 79.9 81.8 82.5 83.2 84.1 86.8 88.1 90.9 92.9 96.7 100 104.3 107.4 111 114.6 118.9 120.9 122.1 122.7 123.1 123.9 124 125.8 126.3 125 123.6 116.9 113.9 112.1 109.9 107.4 105.7 103.4 102.3 101.4 101.3 99.8 98.8 97.8 97.6 98.2 97.8 97.5 97.5 96.9 95.6 94.5 93.7 93.1 93.6 93 92.6 91.9 90.2 88.5 86.5 84.5 83 81.8 81.9 80.3 77.7 77.1 76.2 74.9 73.6 72.3 72.4 72.7 72.3 71.7 70.6 69.3 68.4 68.3 68 67.4 67 66.6 66.3 66 65.7 65.5 65.4 65.4 65.4 65 65.1 65.8 65.6 65.3 66.2 67.4 69.1 70.8 70.8 71.6 71.8 72.1 71.7 71.4 71.3 70.4 70.3 70.4 70.5 69.5 69 68.7 68.6 69.1 69 69.2 69 69.3 69.1 68.6 66.9 66.4 65.7 65.7 65 62.5 51.2 57.7 60.4
114.7 113.9 112.5 112.4 114 114 114.5 116 122.6 115.6 114.2 112.5 111.9 111.2 110.9 111.1 113.6 116.3 119.5 122.9 124.4 127.1 127.6 128.1 127.9 127 125.5 123.2 120.2 118.2 117 114.8 113.2 112.7 110.2 108.6 106.7 106.6 106.4 105.6 104.9 103.1 99.8 94.1 93.8 93.8 91.7 91.8 90.3 88.2 87.1 86.7 85.7 84.6 83.3 82.7 82.7 82.4 81.2 80.5 79.7 77.9 77.1 77.1 77 77.4 78 78.7 78.5 78.8 77.8 76.8 76.6 77.7 78.7 79.5 80.7 82 83.4 86.3 88.5 91.3 94.2 97.1 100.9 104.6 107.1 110.4 113.4 117.3 120.1 120.7 121.7 121.6 121.2 120.4 116.1 110.2 108.3 107 107 104.5 101 98.4 96.5 95.6 96.1 95.8 95 95.5 94.6 94.2 94.2 94.5 94.4 93.9 93.4 93 92.6 91.6 90.8 89.6 88.7 89.7 89.2 88.8 88.3 86.7 84.9 82.8 80.8 79.7 78.7 78 76.8 75.3 75 74.1 73.1 71.9 70.3 70.5 70.7 70.1 69.6 68.8 67.4 66.4 66.4 66.5 66 65.6 65.8 66.1 65.3 64.5 64.3 64.2 64.2 63.4 64.1 67.5 65.8 65.5 65.2 65.3 66.5 69.5 70.2 70.4 70.9 71.5 71.5 70.9 70.2 69.3 68.5 68.6 68.7 68.8 68.4 69 69.5 69 67.8 68.4 69.4 68.5 68.1 69.2 69.3 68.2 67.9 66.5 66.8 66.2 64.7 59.7 50.8 56.3
112 111.1 111.1 111.1 112.8 115 116 117.2 118.9 116.3 113.7 111.7 111.1 110.4 109.3 110.6 113.6 115 115.9 120.8 120.1 120.5 120.3 119.4 118.5 118.1 115.8 113.3 111.6 109.9 108 105.9 105.1 104.7 103.6 101 100.1 100.7 99.9 100.2 99.8 97.5 94.9 92.1 91.8 91.1 90.2 89 87.4 85.2 84.7 84.9 84.4 83.4 82 81.5 81.5 81 79 77.8 76.6 75.7 75.7 75.7 75.7 75.9 76.3 76.9 75.6 76.5 76.9 75.8 77.5 79 79.3 78.9 80 81 81.9 83.7 86 89.1 93 96.9 100.7 103.9 107.3 110 112.5 115.1 116.1 112.6 108.6 104.9 101 101.3 100.7 100.3 99.8 99.2 98.4 95.9 93.1 91.2 90.4 89.5 88.8 88.7 89 90.1 90.6 90.5 90.8 90.6 89.9 89.1 88.3 87.4 87.2 86.9 86 84.9 84.4 84.1 84.6 84.4 83.9 82.3 80.7 79.2 77 76 75.5 74.4 74 73.7 72.9 72.1 71.7 70.9 68.6 68.7 68.6 68 67.5 66.8 65.9 65.3 65.9 65.3 64.9 64.5 65.3 64.7 64.3 63.7 63.6 63.7 63 62.9 63 63.1 66.1 65.6 64.8 64.3 66 66.5 69.7 69.8 68.9 69.3 69.5 68.9 68 66.9 66.8 66.4 67 66.9 66.4 66.4 66.8 68.2 67.1 67.2 66.5 67.6 68.9 69.1 68.7 68.3 67.3 66.3 65.3 65.6 63.1 59.1 58 53.5
111 110.1 109.3 109.8 115.1 116.5 117.4 116.7 115.7 113.2 111.6 110.5 109.1 107.7 106.3 108.2 110.5 111.4 111.6 113.6 113.1 112.7 112.4 110.9 109.6 108 106 105.3 104 101.6 100.1 98.6 97.8 97.2 96.5 95.1 94 94.8 93.5 92.3 90.5 89.2 89.2 88.9 88.4 87.2 86.1 85.5 84.3 82.2 82.3 82.4 82.6 82.2 80.9 80.6 80.7 78.7 76.5 75.4 74.9 74.5 74.3 74.3 74.4 74.6 74.9 75.3 75.1 74.5 74.5 75.6 78.9 79.8 80.3 79.7 79.7 80.6 81.8 83.2 86.2 90.4 93.7 97.5 100.7 98.1 93 96.4 97.5 95.6 94.8 95.8 95.3 94.9 94.9 95.2 94.5 93.6 92.7 91.5 90.4 88.7 86.7 85.3 84.6 83.8 83.6 83.8 84.5 85.3 86.3 86.3 85.7 85.1 84.9 84.1 83.2 82.3 81.5 80.7 80.4 80.3 80.1 79.7 79.4 79.1 77.6 76.3 75.5 74.7 74.1 73.6 73 72.5 72 72.2 71.8 71.3 70.5 69.8 69.4 67.2 66.6 66.1 65.4 65.1 64.3 64.7 65.2 64.9 63.7 63.9 64.4 63.5 62.8 62.5 63.7 62.2 62.9 61.9 62.1 62.1 62.1 65.4 64.5 63.8 65.2 65.3 67.1 68.6 67.5 67.1 67.4 66.2 65 63.7 62.9 63.4 63.8 64.3 63.7 63.4 62.9 64.1 64.1 63.1 64.2 64.6 65.1 66.3 66.4 67.4 66.5 65.6 65.2 63.3 61.3 60.2 58.6 56.9
109.1 108.4 107.9 109.6 115.6 115.3 113.8 112.6 111.4 110.1 108.2 106.5 105.4 105.2 103.6 106.4 107.2 106.7 105.5 107.2 107.3 106.9 105.3 104.4 102.2 100.1 98.2 98.1 97.1 95.3 92.8 91.8 91 90.2 89.4 88.8 89.2 88.3 86.7 86.3 86.6 85.5 84.9 84.2 83.7 83.1 82.1 81.6 81 79.7 79.8 80 80 79.8 78.9 77.8 77.4 76.1 75 74.5 74 73.5 73.1 72.9 73.1 73.3 74 74.7 74.9 74.4 73.8 74.1 75.8 77.4 79.2 79.7 78.7 80.3 81.7 83.2 83.1 84.3 85.2 84.8 85.6 85.9 86.3 87.2 88.1 88.2 88.4 90.1 89.7 89.2 88.9 89 88.3 87.3 86.2 85 84.3 83.3 81.4 80.2 79.8 79.5 79.7 80.5 80.8 81 81.6 81 80.6 80.2 79.6 79 78.5 78.1 76.6 76.5 76 76 75.9 76.1 76.3 76.4 76.1 74.5 73.7 72.9 72 71.7 71.4 71.1 70.6 70.1 70.9 70.2 69.6 69.1 69.1 67.5 66.9 66.1 64.7 63.8 63.4 63.9 64.4 62.9 62.2 62.8 62.7 62.1 61.6 61 61.7 61.7 61.6 62.3 63 62.9 63.3 64.3 64.4 63.2 63.6 64.1 64 66.9 65.7 64.6 64 62.9 61.7 60.6 59.3 59.4 59.2 59.7 60.6 58.9 60.8 58.8 57.3 59.5 61.4 62.6 61.2 62.5 63.6 64 64.5 61 60.8 60.7 61.5 60.1 58.4 55.4
108.2 107.4 108.4 111.7 112.3 110.5 109.4 108.2 107.2 106.2 104.7 102.8 101.4 100.4 99.5 100.2 99.6 97.8 96 98.4 100 98.8 98.7 97.3 94.8 92.6 91.4 90.9 90.1 89 86.9 86.1 85.3 84.9 84.3 83.4 82.8 82.8 82.3 82.3 83 82.2 80 79.5 79 78.9 78.1 77.6 77.5 77.3 77.1 77.2 77.2 76.9 76.2 75.5 75.1 75.1 74.3 74.1 73.7 73.1 72.6 72 72.1 72.3 72.3 73 73.7 74.3 74 73.2 73 74.4 76.5 78.1 77 78.8 80.2 80.5 80 80 81 81.4 82.2 82.5 82.5 82.8 83.1 83.2 83.4 84.4 84.3 83.8 83.2 82.8 82.1 80.9 79.7 79 78.4 77.4 76.1 75.7 75.5 75.7 76.7 77.2 77.8 78 77.9 76.9 76.2 75.8 75.4 75.1 74.7 74.1 74.2 74.2 73.8 73.2 73.5 73.8 74.1 73.8 73.5 73 71.9 71 70.5 70.3 70 69.7 69.2 68.6 69.8 69.4 68.9 68.5 68 67.7 66.5 65.2 64 62.7 62.6 62.6 62.9 61.5 61.6 61.5 61.4 61.6 60.5 60.7 61.4 62.3 62.9 63.2 63.7 63.8 63 62.4 63.7 62.7 63.3 63.8 63.9 64.5 63.4 61.4 60.6 59.5 58.4 57.2 56.1 55.7 56.1 56.5 57 55.2 55.9 55.2 55.1 56.5 58.6 58.8 59.1 59.8 60.4 58.6 59.3 57.5 56.8 58 55.1 53.4 52 49.9
107.3 108.1 109.2 109.1 107.5 105.7 104.7 104 102.9 101.4 100 98.1 97.6 96.5 95.5 95.3 94.4 93 92.5 89.6 90.7 91.8 92.5 90.9 88.5 85.9 85.2 84.1 82.9 82.1 81.7 81.2 80.7 80.3 79.8 79 79.6 78.6 78 78.7 79.4 79.5 76.9 75 74.8 74.6 75.3 75.8 76 76 75.5 75 74.4 74 73.6 73.2 73.5 74.1 73.7 73.5 73.3 72.9 72.4 71.8 71.2 71.3 71.4 71.4 71.9 72.7 73.1 72.5 71.8 71.9 74.1 75 75.3 77.1 78.1 78 78 78.7 79 78.8 78.9 79.8 78.4 79.3 78.9 79 79.1 78 77.8 77.7 77.5 77.4 76.4 75.5 74.7 73.3 72.5 72.3 72.4 71.1 71.9 72.7 73.7 74.2 74.8 74.8 74.6 73.6 72.7 72 71.7 71.4 71.4 71.6 71.9 72 72 70.9 71.3 71.6 71.6 71.3 71 70.7 70 69.3 69.1 68.9 68.7 68.3 67.8 67.2 66.5 67.5 66.8 66.9 66.6 66.1 65.2 63.6 62.8 62.4 62.2 61.4 61.3 61.9 61.4 61.1 59.3 60.3 60.8 61.1 61.7 62.1 63.6 63.9 64 63.2 61.3 61.5 61.7 60.8 60.9 59.6 58.2 57.4 59.9 58.4 57.2 56.2 55.3 54.7 54.2 53.5 54.4 54.5 54.1 53.6 53.8 53.1 52.5 53.1 54.8 55.8 55 55.3 56.8 56.5 54 53.1 51 53.5 50 49 47.5 44.7
106.5 105 104.1 102.9 102.1 101.5 100.3 98.9 96.7 95.1 93.8 92.9 93.4 93.2 92.3 91.1 90.6 90.5 90.3 86.7 83.9 86.3 86.6 85.6 83.2 81.5 80.4 79.8 79.3 78.6 78.2 77.2 76.2 75.8 75.2 75.6 76.1 75.8 76.6 76.2 75.8 76.5 74.2 74 74 74.2 72.4 73.1 73.5 73.8 72.3 73.1 73.6 73.6 73.4 72.9 72.9 73.2 73 72.8 72.6 72.4 72.2 71.2 70.4 70.1 70 70.2 70.4 70.8 71.3 70.9 70.3 71.4 72.4 73 73.5 74.1 75.5 76.1 76 77 77.8 77.2 77.5 78.5 78.2 76.8 75.7 76.3 75.2 74.3 74.5 74 73.5 73 72.4 72 71.3 69.8 69.6 69.4 69.8 69.2 67.9 69.8 70.8 71.9 71.9 70.8 71.3 70.4 69.5 69.7 69 68.8 68.3 68.6 68.9 69.1 69.6 68.8 69.1 69.3 69 68.7 68.4 68.1 67.9 67.8 67.6 67.4 67.2 67 66.4 65.6 64.9 64.3 64.3 64.4 64.5 64.2 63.7 62.1 61.4 61.5 60.9 60.6 60.7 60.7 58.8 58.3 59.7 62.4 61.9 61.5 62 62.8 63.2 63.8 63.3 62.7 61.1 59.7 59.9 58.7 57.6 57.9 57.1 57.2 57.2 56.7 55.7 55 54.3 53.5 52.4 51.6 53 52.4 51.6 52.9 52.1 52.2 50.5 50.7 50.6 50.7 51.1 52.6 53.2 51.7 49.2 47.5 48.4 46.8 46.4 44.9 42.9 41.4
94.4 92.5 91.9 92.6 94.1 96.4 96.6 94.6 92.3 90.5 86.9 85.4 85.9 87.9 88.2 87 87 87.1 85.1 83.3 80.5 81.1 80.8 79.8 78.9 78.2 77.5 76.8 76.2 75.6 74.9 74.3 73.7 73.1 72.8 73.1 72.5 73.9 74.2 73.3 73.2 73.1 72.2 72.5 74 73.5 73.3 71.8 71.7 72.2 72.6 72.9 73.1 73.1 73 72.9 72.7 72.5 72.2 71.9 71.8 71.6 71 70.4 69.6 69.3 69.1 68.8 68.8 69.2 69.5 69.3 68.4 70 70.7 71.1 71.7 72.4 72.8 73.5 74.1 74.3 75.5 74.8 75.8 76.5 76.7 75.5 73.9 73.1 72.9 72.8 72 71.3 70.9 70.3 69.5 68.8 68.2 68.2 68.1 67.9 67.9 66.6 64.2 67 68.5 69.4 67.5 66.4 66.9 67.3 66.5 66.7 67.1 66.4 65.8 65.9 66.2 66.7 67.2 67.1 66.9 66.8 66.5 66.2 66.2 66.2 66.3 66 65.6 65.5 65.4 65.5 64.9 64.2 63.7 62.7 62.2 61.9 62.1 62 60.9 59.7 60.4 60.1 60.3 58.3 60.6 54.9 59.8 60.3 61.1 61.2 61.7 62 62.8 63.4 63.3 63.1 62.1 61.5 60.4 59 58.1 57 56.5 57 57.2 56.6 55.9 55.4 54.9 54.8 54.6 53.7 52.8 47.2 47.6 46.9 45.9 46.4 47.1 52 48.2 48.3 48.8 47.2 43.3 45.8 47.6 49 47.8 37 30.4 36.5 41.1 42.6 42 40.4
91.1 91.6 91.5 88.9 86.9 87.1 89.7 89.8 88 84.6 80.6 78.6 77.8 81.2 83.2 82.9 83.4 82.7 80.9 79.6 78.2 78.6 78.6 77.7 77.1 77 76.6 76.2 75.5 74.9 74.3 73.6 73 72.5 72 72.2 72 72.7 71.6 70.6 70.7 70.8 71.5 69.8 70.5 71.6 72.3 71.4 70.4 70.9 71.7 72.2 72.6 72.6 72.3 72 71.8 71.8 71.5 71.2 71 70 69.5 69.1 68.8 68.7 68.6 68.4 67.7 67.5 67.7 67.4 65.9 68.4 68.8 69.3 70.3 70.2 70.8 71.4 71.2 71.6 72.8 72.3 73.1 74.2 74.9 73.6 72.1 71.3 71.5 71.4 70.4 69.7 68.4 67.7 67.3 67.2 67.5 68.4 68.1 66.7 65.9 65.7 64.2 63.2 62.7 63.8 65.2 64.9 64.5 63.9 63.4 63.6 64.5 64.1 63.5 63.2 63.9 64.8 64.8 64.7 64.5 64.4 64.5 64.5 64.6 64.6 64.6 64.4 63.8 63.4 63.9 62.8 62.7 63 62.4 61.3 60.5 60.2 60.8 58.9 58.8 60.5 60 60 61.8 58.4 57.8 58.4 62 61.6 59.8 61.4 62.6 61.9 63.3 62.5 61.7 61.4 60.4 60.4 59.4 58.1 56.8 55.9 55.6 55.8 55.5 55.2 54.6 54.5 54.3 53.9 52.8 52.1 49.9 49.2 49.1 49.2 48 47.1 46.4 46.3 45.9 45 46.2 46.9 42.9 39 37.7 39.8 42.7 46.4 46.1 27.9 37.3 40.2 40.3 38.7
