ncols 200
nrows 200
xllcorner 370000
yllcorner 780000
cellsize 50
162.9 170.1 179.3 187.7 196.1 202.7 208.8 208.7 205.9 204.4 198.8 192.9 187.2 182.7 178.8 174.9 173.2 168.8 163.7 161.3 158.6 158 156.1 153.5 154.4 151.8 151.1 149.8 149.5 151.9 154.4 158.4 164.8 161.4 163.6 165 165.7 166.6 172.1 186.7 193.7 196.9 199 200.1 201.6 204.2 205.6 207.4 209.5 207.3 203.8 199.7 195.5 189.9 186.6 185.4 184 184.7 187 191.1 194.5 199.6 203.8 206.9 209.7 210.1 209.1 208.7 208.2 206.4 202.7 198.6 194.4 191.7 187.2 182.2 177.6 174.8 172.8 169.5 168.9 167.7 165 160.5 158.9 163 164.8 166.8 169.5 174.3 178.8 182.7 188.3 194.2 199.4 207.1 215 222.5 229.8 237.1 244.9 251.6 264.7 278 291.2 303.2 315.3 326.8 336.9 348 359 366.2 370.4 371.9 370.9 368.7 364 360.1 353.5 346.3 339.9 332.8 326 325.5 325.2 324.6 324.3 323.4 323 323.7 325.2 326.6 323.9 319.4 316.9 314.5 313.1 313.1 312.6 309.4 306.7 301.3 295.3 291.4 284 277.5 269.7 262.7 255.5 244 235.4 228.7 220.2 210.5 203.8 197.6 190 184.3 178.6 175.1 171.9 167.5 166.3 163.9 163 161.1 162.4 164.6 164.7 172.2 178.4 184.1 190.3 197.2 199.6 206.7 212.8 216.8 222.5 229.4 235.1 242.6 246.1 246.3 241.6 235.4 229.1 220.4 213.4 207.4 201.4 196.9 191.9 190.2 188.2 185.1 182 179.2 176.1 173.4
166.8 175 183.9 192.1 199.6 206.1 212.5 215.5 211.5 207.8 203.8 197.7 191.6 187.5 183.8 180.2 176 171.7 165.9 164.7 164.2 163.8 159.3 158 157.5 154.2 154.5 153.2 152.9 154.9 157.6 161.8 161.8 164.3 164.8 166.1 166.5 175.3 187.6 194.7 201.5 205.8 208.9 208.6 208.9 210.9 211.8 212.3 210.9 208.8 205.5 201.1 195.8 190.2 187 185.8 185.5 187 189.9 193.6 195.3 201.3 206.1 209.8 213.1 213.3 213 212.7 211.8 209.8 206.1 202.2 197.5 193.2 188.6 184 179.1 176.8 173.8 170.8 169.7 168.1 165.3 163.1 161.5 165.4 167.3 171.1 173.8 177.8 181.9 187.1 193.4 199.4 206.5 213.4 220.8 228.5 236.5 243.9 248.1 258.9 271.5 284.4 297.3 308.6 322 333.1 341.7 351.2 360.2 367.1 370.8 369.2 365.8 362 356.9 353 345.5 338.1 331.5 324.3 324.6 324.6 325.7 326.7 324.1 324.2 325.1 326.1 328.1 328.7 326.5 322.3 320 316.7 314 313.4 312 309.4 306.6 302.1 296.4 290.2 281.8 273.7 265.3 255.9 248.6 240.8 231.8 221.6 212.6 204.2 199.6 193.7 189.2 185.1 180 175.2 171.3 168.3 165.6 163.7 162.8 160.6 160.3 164.1 164.5 167.4 174.5 178.9 184.4 191.5 192.4 199.1 202.4 208.5 213.3 217.8 224.1 229.9 232.5 230.9 229.8 227 221.1 213.8 207.1 202.4 197.2 192.6 188.9 187.3 186.2 184.5 182.4 179.9 177 173.4
170.8 178.1 187.3 195 202.2 208.7 214.7 217.8 214.7 211.3 208.8 201.8 196.4 192.8 187.7 184.4 180.8 174.8 171 168.1 168.6 168.9 162 161.7 161.1 159.1 155.9 155.3 154.6 158.6 159.9 161.8 162.2 163.2 164.6 167.2 174.8 188.8 195.9 201.4 207.3 213 216.5 219.4 219.6 219.6 219.8 219.1 217.3 213.5 209.5 205.3 198.7 192.6 189 187.9 187 187.8 190.4 194 194.7 201.3 206.3 210.9 215.8 215.9 214.7 214.4 214.2 212.4 209.2 205.1 200.1 194.8 189.8 184.9 180.3 177 173.9 171 169.6 168.9 164.7 163.4 165.3 168.2 171.2 175 178 182 186.1 190 198.8 205.7 211.9 218.6 226.4 234.6 242.7 247.1 253.4 264.2 277 290 302.6 314.7 327.5 337.9 346.5 353.5 358.9 364 367.2 364.6 358.7 354.2 348.1 343.4 338.1 332.5 326.4 321.8 323.2 325 324.5 326 327.1 325 325.9 328 329.3 329.7 326.9 322.9 318.4 316.9 312.2 310.8 309.5 307.7 304 299.2 293.7 287.3 278 269.1 256.9 251.5 243.1 233.4 226.2 214.9 206.3 199.4 195.3 190.9 187.6 184.3 180 175.4 171.3 168.3 165.7 163.9 162.1 159.5 158.3 163.9 164.7 162.4 169 173.9 178 183.8 188 189.8 182.2 198.2 203.1 207.8 210.9 214.7 218.9 219.7 221 219 212.9 206.6 200.3 196.6 191.6 187.5 185.3 183.1 184.2 183.9 182 179.9 177.8 175.7
175.2 181.3 189.9 197.2 203.5 209.7 213.9 216.9 215.2 212.4 209.9 205.9 202.9 198 191.8 187.6 184 178.1 174.9 172.1 171.7 168.5 164.9 165.1 164.5 163.2 158.7 156.4 158.2 162.3 161.4 164.4 163.7 164.2 166.5 171.7 185.2 194.1 201.8 209 215.2 219.9 224.5 229 229.8 229.5 229.1 227.3 224.4 219.4 214.3 208.4 201.2 194.7 191 189.5 187.5 188.1 190.8 193.6 192.9 200.4 204.8 208.7 212.6 213.5 213.7 214.2 215.1 213.8 211.2 207.1 201.1 195.3 189.9 185.1 180.8 177.1 174.1 171.3 169.3 165.2 163.7 166 169.2 171.7 174.7 179 181.2 184.7 189.3 195.5 201.5 208.7 215.9 224 232.7 240.8 248.9 253.4 262.8 271.9 283.8 295.6 307.6 319.6 331.2 341.9 348.9 353.1 359 362.3 361.9 357.6 352 346.8 340.8 335.7 333.1 329.7 324.3 321.7 323.3 323 323.3 324.3 324.9 325.4 326.3 329 330.2 329.5 325.9 321.5 316.7 312.9 310.3 307.4 304.7 302.8 299.7 295.1 289.1 281.6 273.6 265.1 256.9 247.2 238.4 228.6 219 209.5 201.8 196.9 192.5 188.9 186.1 182.7 179 174.3 171.2 168.3 166 164.1 160.3 158.3 158.2 161.7 163.9 162.1 160.5 168.3 172.7 175.4 178.7 181 179.1 189.7 193.5 197 200.8 204.6 208.6 210.7 212.1 209.2 204.2 200.1 195.9 191.6 187.3 183.1 180.6 179.6 179.2 178.9 178.7 177.8 176.2 174.6
178.4 184.1 191.4 197.4 203.5 209.4 212.3 215.6 215.7 213.3 208.7 207 207.3 201.3 194.8 190.6 186.7 183.7 179 176.1 174.6 170.2 168.6 167.3 169.5 164.9 163 158.9 164.8 168.6 164.2 165.9 167.4 166.3 176 183.6 190.8 198.8 207 214.2 220.8 227 232.2 236.8 238.7 238.5 237.9 235.4 232.5 225.7 221 213.6 205.4 198 194.5 193.4 189.5 189.1 191.9 194.1 195.3 200 203.5 206.6 210.4 211.5 212.2 213.2 214.1 213.2 211.8 207.9 201.6 195.5 190.5 185 180.9 176.8 173.8 170.6 167.9 165.6 168.5 170.8 173.7 175.6 178.8 181.4 185.5 187.9 192.1 198.7 206.1 212.8 220.2 228.7 238.6 247 255.1 264.5 272.2 281 291.1 302.1 312 323.4 334.9 344.4 350.4 355.2 359.3 360.3 356.5 350.5 345 337 334.1 330.8 328.3 325.9 321.9 321.1 322 322 322.4 324.1 325.4 325.6 327.5 330.6 330.3 328.2 324.3 318.4 313.2 309.1 307.5 304.3 300.8 296.3 292.5 288.3 281.2 275.3 270.4 263.1 254.1 244.8 234.6 219 210.4 205.5 199.3 194.5 190.2 187 184.3 180.9 177.3 173.6 170.9 169.3 167.5 165.6 162 158.2 156.5 157.2 159.5 160.3 157.3 159.9 164.9 169.3 171.1 175 179.1 176.6 185 188.3 192.4 197.3 201.7 203.3 202.6 200.5 198.1 194.3 189.1 185.2 182.3 178.8 176.9 176.1 176.2 175.3 174.5 173 172.4 171
179 185.8 191.1 196.4 201.7 207.7 210.8 213.3 214 211 207.3 208.1 208.9 202.6 196.7 191.9 189.3 186.2 181.1 178.3 176.3 172.9 170.8 169.2 169 168.7 161.7 159.9 167.5 168.7 169.1 171 169 169.7 181.2 189.3 195.7 204.7 213.2 220.6 227.4 234.1 239.9 245.2 247.1 247.5 246.2 243.9 240.9 232.2 227.3 219.2 211 204.3 201.5 200.6 194 191.1 192.4 195 197.9 202.4 205.7 208.9 211.9 210.9 210.9 211.1 211.7 210.8 209.1 205.3 200.5 195.7 190.9 185.5 180.9 176.5 171.6 169.2 169 167.7 171.3 174.9 178.4 181 182 185.3 190 193.3 196.1 204 211.2 218.2 225.2 232.1 243.8 253.8 262 273.7 282.2 290 299.4 308.7 317.1 326.5 335.9 345.2 352.6 356.5 357.3 356 351.8 344.1 337.5 329.3 328.9 325.5 323.4 321.8 319.8 319.4 320.6 322 323.2 325.2 327 326.8 329.4 331.2 329.5 326.8 321.3 315 308.7 304.1 302.5 300.4 297.8 294.8 290.4 285.3 276.4 270.5 264.6 258.1 250.5 241.4 231.8 217.6 208.2 203.7 197.2 192 188.8 185.7 182.8 180 176.4 174.7 173.5 172.6 169.6 167 163.9 159.6 156.7 155 155.3 156.3 155.5 154 160.8 161.2 162.4 164.1 170 173.4 177.9 181.5 186.4 191.1 194.9 196.6 196.5 195 191.7 188.6 185 181.2 177.7 175.3 173.7 173.1 172.8 172 171.1 169.8 168.7 167.1
180.2 185.9 190.5 194.8 199.9 204.5 208.6 210.4 210.6 209.4 206.4 206.9 207.9 201.1 197.6 193.9 191.1 187.9 184.4 179.3 176 175.3 172.9 170.9 171.8 164.2 163.7 163.8 166 172.9 174.4 175.3 172.5 178.4 185.5 192.6 201.1 210.8 218.7 226.6 233.9 240.7 246.5 253.2 255.2 255.7 254.2 251.1 247.7 238.7 233.7 227.2 219.2 214.1 211.7 210.4 202.2 196.9 196.5 199.5 201.7 205.2 206.6 208.1 208.5 208 207.6 207.6 207.3 206.9 204.7 201.2 198.3 194.4 190.4 185.9 180.1 175.4 171 171.7 168.6 173.5 177.2 180.5 183.7 186 187.5 189.5 192.8 197.2 204.3 211.2 217.5 224.1 230.9 241.2 251.9 261 273.1 283.2 292.4 300.1 307.8 314.8 322.2 330.5 337 345.8 352.4 355.3 354.5 351.9 346.6 338.4 330.3 325.7 324.3 321.5 319 318.1 317.7 318.5 320.1 322.4 324.1 326.4 328.7 329.7 331.2 331 328.6 325 319.4 312.3 304.7 299 297.7 294.3 290.8 288.6 284.2 277.5 270.8 263.6 257.9 251.8 244.9 236.7 225.6 217.6 208.2 202.6 195.8 189.8 188.3 185.4 182.3 179.7 178.5 177.5 176.6 175.8 174.2 171.5 167.7 164.5 159.3 155 153.6 152.5 151.7 151.2 152.4 154.8 157.3 159.5 164.2 168.5 172.1 175.6 182.1 184.5 189 190.6 190.5 189.6 187.9 185.1 181.8 177.8 174.4 172.1 170.1 169.4 168.1 167.7 167.4 165.9 164 162.7
182.1 185.1 189.3 193.5 197.9 201.3 204.5 205.3 206.4 206.3 206 205.6 204.9 201.1 199 195.5 192.1 187.4 183.1 180.5 180.7 178.2 175.3 172.3 169.7 165.7 169.8 169.8 168.9 170.3 174.5 180 177 182.7 190.1 197.8 206.5 215 224.5 233.5 242.2 248.8 254.9 260.6 263.2 264.5 262.4 258.2 254.1 245.9 240.9 235.9 228.8 225.2 223.1 220.9 211 204.3 203 204.8 208 207.3 205 205.5 205.4 205.1 204.6 203.7 203.6 202.6 200.7 198.8 196.1 192.3 187.7 183.7 173.5 173.5 173.1 174.9 177 179.6 182.5 185.7 188.7 191.5 193.6 193.6 196.5 203.3 210 217.4 225 231.3 237 245.3 257.7 266.8 277.8 288.7 301.6 309 316.5 321.4 327.7 334.1 339.8 346.3 351.9 353.9 352.3 347.6 342.4 333.2 325.7 322.2 320.1 318 316.1 315 315.2 317.8 320 323.2 324.6 327.8 331.4 332.8 333.5 330.8 327.6 322.9 316.4 309.2 301.6 295.4 292.5 289.1 284.5 282.5 277.3 270.4 263.8 256.1 250.3 244.5 236.7 229.8 222.4 214.8 209.6 203.9 197.5 191.3 189 185.8 182.8 180.9 181.8 181.1 180.9 180.9 179.1 177.1 173.5 168.9 164.2 156.8 154.1 152.6 151.8 150.2 149.5 151.4 154.1 155.1 157.3 163.5 165.9 170 176.9 180.8 182.6 183 184.4 184.7 183.8 182.2 179.2 175.7 171.4 168.7 166.4 165.8 165.2 164 163.5 162.1 159.9 157.9
182.3 184.7 188.5 192 195.6 198.6 199.5 200.3 202.1 203.1 203.2 203 202.7 200.8 199.5 197.5 194.2 188.8 185.1 181.8 180.5 178.6 176.1 173.5 173.6 172 173.9 171.7 171.5 172.9 176.5 179.7 183 188.4 196.2 203 212.3 221.5 230.6 240.4 248.8 255.9 263.7 269.6 271.8 271.6 269 265.1 261.9 251.5 246.7 243.6 239.2 236.1 233.9 232.9 221.9 214.1 211.8 212.1 215.1 211 206.7 204.5 203.5 201.1 200.7 199 198.5 197.5 196.8 194.6 191 186.2 183.8 175.1 174.1 176.3 177.8 180.2 183.1 185.8 189.3 191.9 193.8 195.7 197.4 199.6 202.7 209.1 216.2 222.5 229.4 235 241 248.3 258.6 269.6 281.4 294.8 305.9 315.8 322.4 328.5 332.9 337.6 343 347.2 350.4 349.7 349.3 345.2 337.7 328.9 321.1 318.2 316.3 314.6 313.6 313.4 314.2 317.1 319.8 323.3 327.1 332.7 336.2 337.7 335 329.5 325.5 320.2 312.4 304.7 298 291.4 287.2 284.1 279.4 274.1 268.7 262.2 254.2 246.8 240.5 235.2 231.4 224.9 219 213.4 208.8 204.1 198.7 193.5 190.1 187.1 185 184.9 184.8 184.4 184.5 184.8 184.5 183.9 179.9 177.1 172.3 167.4 162.5 156.8 151.3 150.2 149 149.2 150.9 152 153.4 159.1 163.2 163.6 169.5 175 176 177.7 178.5 179.1 178.9 178.7 177 173.5 168.5 164.6 162.9 162.6 162 160.6 159.6 158.8 156.8 154.6
183.7 185.4 187.5 189.1 193.5 196.7 198 198.5 199.5 200.7 201.3 201.3 200.9 200.1 199.5 197.8 192.8 189.8 187.1 181.3 183.3 181.2 178.8 176.8 175.6 177.5 177.2 176.5 176.9 178.4 180.7 182.6 187.1 193.2 201.5 209.5 218.5 226.3 236.9 247.5 255.5 263.6 272.6 279 281.4 280.1 276.3 272.6 269.5 258.4 253.7 251.5 248.2 245.1 244.6 244.7 236.6 228.7 222.8 221.3 221.2 217.6 213 210.3 206.1 200.8 199 198.6 195.5 193.9 192.5 189.6 186.4 182.8 177.4 175.3 175.6 181.2 181.6 185.6 188.6 192.9 196.9 197.4 199.1 201.8 203.8 209.1 214 219 223.4 228.7 233.1 238.3 244.2 251.6 265.3 275.9 286.3 298 309.3 319.6 327.3 332.5 336.2 342.2 346.1 348.5 348.2 346.4 345.5 340.3 334.1 321.2 315.3 313.5 312 311 309.3 309.5 313.2 315.2 319.8 324.6 330.7 336.5 340.2 340.8 335.6 329.7 322.9 315.9 307.7 301.2 294.6 287 280.7 275.9 270.9 266.8 261.1 253.9 244.8 237.9 233.9 229.1 224.7 221.3 216.8 212.9 208.4 203.9 199.2 194.2 190.5 189.3 188.9 188.8 189.4 190 190.6 190.1 191.9 191.9 190.6 186.3 183.1 177.6 172.8 167.8 159.5 153 148.8 148.3 148.1 150.7 151.3 153.8 158.2 159.2 161.3 166.5 169.3 170.7 172.6 173.6 174.1 174.3 173.5 171.1 166.8 162.5 159.5 158.9 158.3 157.6 156.4 155.1 153.1 151.1
187.5 188.4 188.8 190.1 193.7 194.5 196.4 197.4 198.2 199.4 200.7 200.9 200.7 199.9 199.9 198.3 193.7 191.5 181.7 185.8 186.3 186.8 184.8 184.7 182.9 182.5 181.8 186.5 182.1 182.7 183.9 186.8 192.7 199.2 207.7 216.1 224.3 233.4 244.2 254 262.6 272.5 283.6 289.1 291.8 289.9 283.4 277.4 273.7 266.6 262.3 259 256.2 254.9 254.4 251.7 246.5 240.3 234.7 230.2 228.2 225.4 221.4 217.4 211.1 203.7 198.9 196 192.9 191.6 188.9 186.3 183.3 179.6 179 179.6 183.1 185.8 185 190.7 194.8 199.5 202.3 203 206.7 209.9 212.2 217.6 223.1 227.5 231.2 234.8 238.4 242.7 249.9 259.6 271.8 282 291 302.9 313.4 320.7 328 337.4 342.5 345 345.8 346.3 343.5 341.8 338.8 334.1 327.8 318.7 310.7 309.8 308.8 307.6 306 307.7 310.1 316.2 322 326.8 333 338.5 341.9 341.5 336 329.6 320.6 312.1 305 299.6 291.5 283.6 276 268.6 264.7 259.3 253.1 245.1 238.6 234 230.5 226.1 221.9 218.6 215.5 211.8 208.3 204.6 199.9 194.5 195.6 194 193.1 193.8 194.4 194.4 195.4 196.9 198.9 200.6 200.3 195.5 192.8 188.5 185 178.2 170.9 162.9 153.2 147.8 147 147 148.5 151.7 152.9 157.2 154.6 157.7 160.2 163.7 166 167.8 168.8 169.2 168.9 167.5 164.5 159.8 156.6 155.6 155 154.4 153.2 151.9 149.4 148.5
191.6 191.2 191.6 191.7 193.2 194.6 195.3 197 198.2 198.9 200.1 200.8 200.5 198.8 198.5 198.1 188.4 188.4 188.9 188.9 189.4 189.3 188.2 188 186.3 185.5 186 186.4 187 188.2 187.9 192.6 199 206.3 214.2 222.2 229.9 240.8 252.3 261.6 270.8 282.8 293.8 298.7 301 299.3 290.5 285.7 279.4 273.6 270.4 267.3 264.7 264.2 263.7 262.3 256.4 250.1 244.9 239 235.4 231.2 226.3 220.9 214.3 209.4 201.1 194.3 191.3 188.5 183.2 182 180.9 182.8 185.9 188.8 190.3 191.4 191.3 196.3 200 205 208.3 212.1 215.5 218.8 222.9 227.7 232.4 235.6 238.9 241.6 245.4 251.5 256.9 269.6 279.3 289.4 299.4 309.7 318.9 324.3 330.7 338.4 339.9 344 342.6 341.4 337.9 333.6 330 326.1 319.4 311.9 308.6 306.5 306 305 303.4 305.4 311.4 317.5 323 328.1 333.2 337.4 339.4 338.5 333.7 327 318 308.4 302.1 296.6 290 281.4 275.6 269.2 261.6 253.3 247.1 239.9 234.1 231 227.4 223.5 220 216.4 213.4 211.2 209.2 206.1 201.7 201.9 200.2 199 198.3 198.3 198.6 199.6 201.3 202.5 205.4 209.2 210.2 209.3 204.1 194 191.7 186.4 180.9 174.1 164.8 153.9 147.8 146.2 145.5 147.7 149.6 150 153.7 149.4 153.2 155 159 161.8 163 163.8 163.6 162.8 160.3 156.3 153.5 152.3 151.7 151.1 150 148.4 146.7 146
194.2 194.4 193.8 193.7 194.5 195.6 195.7 195.1 195.5 197.1 199.7 196.4 189.7 188.8 187.4 188.1 191.9 196.9 196 195.7 196.2 196 195.6 194.5 197.6 194.7 196.2 197.3 195 191.8 193.7 198.8 205.6 212.1 221.1 228.8 237.6 248.7 259.8 268.5 278.3 291.8 301.6 307 308.6 306.7 299.4 294.4 286.3 280.9 277.7 276.1 272.5 272.8 272.5 270.2 265 259.2 253.1 247.5 241.8 234.8 227.9 222.3 215.6 209.1 201.7 193 190.4 186.5 183.8 184.5 186.6 190.7 195.6 198 199.5 199.7 200 202.1 206.3 211.8 216.7 220.6 224.1 227.8 232.6 237.2 241.5 243.7 244.7 247.1 249.9 259.8 269.2 279.3 287.8 297.1 306.4 316.8 323.7 327.8 333.1 337 337.1 338.8 336.5 335.4 333 327.5 322.4 319.3 313.9 309.7 306.1 303.9 302.6 302.3 301.4 304.6 311.4 317.3 322.6 327.7 331.9 334.3 335.1 333.3 328.6 321.8 311.9 302.6 297.5 293 287 278.7 272.9 266.5 260 252.8 245.9 238.7 233.4 229.2 225.4 220.8 218.7 214.8 212.3 211.3 210.2 208.7 206.3 204.9 203 203.9 203.3 203.3 203.9 204.6 207 208.9 213 216.6 221.2 223.6 221.1 214.1 193.2 193 190 181.3 170.7 161.6 153.1 147.9 145.7 142.5 145.2 144.3 145.5 147.1 146.5 150.2 151.1 156 157.7 159.4 159.2 157.5 155.6 152.4 150.3 149 148.4 147.7 147.1 146.5 145 144.1
197.3 196.4 196.4 196.2 195.6 195.8 195.6 195.4 195.4 193.3 193.3 194.3 195.1 197.3 197.2 199.4 201.4 202.8 203 203.5 204.3 204.9 204.8 206.4 207.8 211.5 209.7 206.3 203.1 196.4 197.6 204.9 211.8 220.1 227.2 236.1 245.2 257.1 266.2 275 287.8 300.4 309.2 315 318.1 315.5 308.2 303.5 294.6 288.8 284.9 281.2 278.5 279.8 279.5 276.4 272.1 265.6 259.5 252.7 244.1 236.9 229.6 222.1 214.9 207.9 197.9 191.2 188.7 185.8 185.4 191.3 196.5 201.4 204.9 207 207.9 207.7 204.9 208.9 213 218.8 224.8 229 232.9 236.5 242.2 246.4 248 247 248.1 254 261.2 268.6 277.9 288.9 297.8 305.7 313.5 323.6 331 333 333.9 334 334.7 334.9 330.2 327.8 325.6 321.3 315.6 313.5 309.5 306.5 304.2 300.3 299.4 298.7 296.6 302.7 309.8 315.7 321.5 325.7 329.3 330.3 329.8 327.5 321.6 313.8 305.7 297.3 292.3 288 281.8 275.6 269.7 263.4 257.1 251.6 245.5 239.5 233.1 227.9 223.1 220.3 217.1 213.4 211.1 210.7 211.2 211 210.8 209.4 208.6 208.9 208.3 208.5 209 210.5 214 216.6 219.4 224.9 232.2 236.5 235 225.9 216.6 206.9 196.8 189.4 178.6 167.8 158.8 153.5 149.4 145.4 141.9 141.5 142.1 143.6 144.5 146.1 148 150.8 152.8 153.6 152.9 153 151.6 149.4 147 145.8 145.4 144.6 144.8 144.8 143.5 142
199.7 198.4 198.4 199.3 198.2 197.4 197.6 196.7 197.4 196.9 197.9 198.9 199.9 203 204.6 205.2 206 208.3 209.9 211.5 214.5 218.4 220.8 222.9 222.1 220 216.3 212 208.1 201.6 205 210.8 217.9 224.8 232.5 242.3 252.3 262.9 272.6 283.5 297.7 308.4 317.3 324.8 326.7 324.2 318.8 311.6 303.5 297.3 292.2 287.2 283.9 285.3 285.6 281.3 277.3 271.2 263.5 255.3 246.1 236.8 229.1 220.4 212.3 202.8 194 189.7 188.9 185.7 192.5 198.3 204.5 209.6 214 215.2 215 214.4 213.1 215.5 220.6 225.9 231.7 237.3 241.5 246.3 250.6 252.4 251.4 254.9 258 262.2 268.8 276.7 286.5 297.5 307.6 314.1 321.9 329.3 335.2 335.9 335.4 335.1 332.4 327.4 323.2 318 318.3 315.6 312.3 308.2 305.5 303.1 302.2 298.8 297.4 291.5 297.8 302.6 307 312.9 317.5 320.7 323.7 325 323.1 319.7 314.5 306.5 299.4 292.4 286.6 281.1 276.5 270.9 266.1 260.3 254.2 249.6 244.7 238.7 232.9 227.6 223.7 221.4 217.3 214.8 213.6 214.2 214.9 215.4 215.5 214.8 213.9 213.6 213.7 214 215 217.4 219.1 222.2 226.7 233.6 241.7 245 244.2 236.3 226.3 216.9 205.8 195.2 184.7 174.3 165.2 159.2 154.5 150.4 146.7 140.8 140 140.5 140.9 140.8 144.4 145.8 148.8 149.5 149.1 147.6 146.8 145 143.6 142.8 142.6 143.1 143.2 143.2 142.1 140.6
200.8 201.8 204.5 205.2 206 207 205.9 204 202.5 203.2 203.1 202.5 205.6 205.6 208.6 209.7 212.3 216.4 218.1 224.9 228.4 230.7 233.3 233.5 229.2 223.1 222.7 217.5 213.2 206.3 212.1 217.6 224.4 230.8 239.7 248.8 258.8 268.7 278.8 291.8 303.7 315.1 324.3 331.5 332.9 330.4 325.3 318.2 310 304.6 298.9 293.8 289.9 289.1 287 284.8 279.2 272.5 264.5 256.1 243.8 232 225.1 217.7 209.7 198.4 192.5 190.4 188.8 194.1 198.5 204.5 210.9 217.1 221.6 223.1 222.5 221.6 220.4 222.5 224.8 228.1 239 244.7 250.1 252.4 255.3 259.1 259.6 263 266.5 272.8 281.1 290.6 298.9 307 314.6 320.9 328.4 333.5 336.9 336.8 335.9 333.2 330.4 326.7 320.3 314.2 311.1 310.3 307.5 305.6 303.1 302.4 299.6 296.7 292.7 287.8 296.6 300.2 305 308.5 311.7 314.3 316.7 317.2 314.8 311.3 305.4 298.1 291.7 285.6 280.1 274.5 269.7 266.8 261.8 256.7 252.3 248.4 243.3 237.5 232.7 229.3 226.7 224.6 222.3 219.8 218.2 218.8 219.4 220 220.2 219.5 219.4 219.4 219.5 220.7 222.5 223.8 226 229.2 235.1 241.6 248.1 251.5 250.7 244 232.8 222.9 211.8 199.4 189.7 181.1 172.6 166 158 152.9 149 144.8 139.7 137.9 137.6 138.9 142.1 143.6 143.7 145.6 145.6 144.6 143.5 141.6 140.5 139.5 139.4 139.5 139.8 141.4 140.5 138.9
207 209.2 212.4 214.8 214.7 213.3 213 213.4 211 210.7 208.7 207.2 210.1 212.7 214 217.5 221.3 224.8 227.5 232.4 235.9 236.8 236.6 235.6 232.9 231.5 226.8 222.1 218 213.1 218.7 224.4 230.5 237.3 245.4 254.3 264.1 273.5 284.7 297.3 311.2 322.7 331 337.5 338.1 336 331.3 325.7 317.5 308.5 304 300.1 295.4 292.6 289.4 284.6 278.1 271.2 262.5 252.2 240.2 230.9 221.7 213.4 204.6 196.7 190.9 189.6 195.6 200 205 210.1 216.8 222.7 228 229.4 229.5 228.5 226.8 226.9 231.8 239.3 245.1 247.9 252.9 258.3 261.8 264.5 265.4 268.3 276.3 284.9 293.8 302.4 309.2 315.2 321.1 327.2 332.7 335.5 338.1 337.6 335.1 330.5 324.8 320.8 316.1 307.8 297.7 301.6 302 301.6 299 301.4 297.6 293.4 288.7 284.2 293.1 297.2 301.3 303.6 305.3 307.2 309 308.9 306.4 302.1 296 289.7 283.6 277.6 271.9 268.1 264.2 261.6 258.6 253.9 250.1 245.8 241.5 238.2 235.9 232.2 230.6 229.2 227.7 225.5 224.6 225.2 225.6 225.4 225.8 226.2 226.5 228.2 229.4 231.1 234.6 236.6 238.7 241.4 245.1 249.4 254.6 257.3 256.3 249.6 238.1 227.8 216.2 205.5 195.8 187.4 179.1 171.9 164.2 157.3 152.1 147.3 142.1 138.2 136.4 136.5 140.2 142.1 143.5 142.4 142.3 142.8 142 140.1 138.8 137.6 136.1 135.3 133.8 135 137.4 134.9
212.6 217.5 223 226 226.8 225.3 223.2 221.3 219.1 216.5 217.4 215 215.9 218.1 223.1 226.2 229.1 231.4 235.1 238.2 242.2 243.3 242.7 242.7 240.6 236 231.2 225.9 219.3 220.7 224.8 230.8 236.3 241.8 250.4 259.5 267.7 278.6 290.3 303.7 317.9 329.1 338.6 343.7 343.5 342 337.3 330.3 321.8 310.9 306.6 302.3 298.1 294.8 291.2 285.2 276.5 268.6 257.7 247.2 237.7 226.6 218.3 209.9 200.7 194.9 192.5 197.3 201.4 206.4 211.3 216.8 223.1 228.8 233.3 234.7 235.2 235.3 233 230.1 237.7 245.1 246.9 252.5 257.5 262.7 267.1 270.1 272.7 277.2 286.4 295.9 304 312 319.4 324.2 328.7 332.3 333.6 333.3 330 328.8 329.1 326.1 320.2 312.5 308.6 301.9 294.5 291.5 295.5 297.9 298.1 299.9 297 290.2 285.3 286.6 288.7 292.7 296.1 297.7 298.2 299.8 299.9 299.2 296.5 291.9 285.6 280.2 273.9 271.1 266.5 263.7 258.7 256.5 254.7 250.7 246.7 242.9 240 237.6 235.7 234.8 234.2 233.8 233 233.2 233.3 233.4 233.6 233.7 233.3 234.7 237.3 240.2 242.2 244.7 247.7 248.7 249 251.4 254.7 257.3 260.2 260.9 258.3 253.1 244.2 233.9 223.4 212.8 202.9 195 185.3 177.4 170.4 162.1 157.4 150.9 145.8 141.9 137.3 136.4 137.1 139.3 142.6 142.6 142 140.8 140.9 139.6 137.3 134.5 133.1 137.1 140 139.5 136.7 135.8
220.6 226.9 233.3 235.5 236.2 234.9 233.2 230.7 226.8 227.3 226.6 222.6 225 228.3 230.6 232.8 235.7 238.3 241.8 244.8 247.3 248.9 248.6 247.8 245.5 241.6 235.1 229.3 225.1 226.3 231.1 236.3 241.7 247.9 255.1 263.5 273.6 284.8 298.2 310.6 324.7 335.8 344.5 349 349.1 347.4 342.6 332.8 324.9 314.7 308.2 302.1 296.7 293 288.1 282.7 273.8 262.9 250.8 241.4 230.2 221 211.7 203.3 196.6 194.5 198.2 203.9 209.1 213.5 218.3 223.6 229.9 236 240.8 244.1 245 244.7 242.2 236.4 238.1 245.4 250.1 256.7 261.1 266.4 271.8 276.7 283 289.8 298.2 305.4 312.1 320.6 328.8 330.7 333.6 333.1 331.7 325.6 321.3 318.8 319.2 316.5 310.1 306.1 299.8 294.6 290.6 286.4 289.3 291.4 296.8 297.9 294.3 289.8 283.9 281.4 284.4 286.6 290.5 291.2 291.2 290.7 290.1 288.3 285.8 281.8 278 272.7 269.8 266.5 262.6 258.9 254.9 251.8 250 246.5 243.5 240.6 239.2 237.3 236.2 239.8 238.9 239.1 240.2 241.1 242 242.8 242.1 243.3 244.1 246.3 249 253.1 254.3 256.6 257.7 258.6 258.2 259.7 261.6 263.5 264.4 263 259.3 253.8 245.2 236.3 227.4 217.2 208.6 202.3 194.6 183.5 176.7 170 163.4 157.4 151.1 146.4 142.2 139.3 134.6 136.6 139.9 142 142.4 141.5 141.1 138.8 136.3 138.3 140.2 142.4 144.4 143.7 143.3 141.5
228 235 241.2 243.1 243.7 242.9 241.7 239.3 235.7 233.8 234.1 232.4 234.2 233.5 237.8 241 244.2 246.5 248.9 251.5 253.2 254.3 254.4 252.7 249.6 245.6 239.7 234.1 228.1 233 237.5 242.3 247.4 254.3 261.3 269.9 280.2 292.8 304.4 316.7 328.9 340.9 349.9 354.3 354.8 352.5 346.2 336.5 326.3 315.6 308.2 300.1 292.5 288.4 283.2 277 267.5 254.9 245.9 236.9 224.7 216.6 206.1 199.7 195.7 194.1 205.3 210.2 215.5 220.5 225.1 231.3 238.3 245.2 252.1 255.3 255.7 256.4 256.2 252.6 242.8 244 252.4 259.8 264.9 270 278.2 286.3 293.5 300.9 308 314 320.2 328.3 330.8 331.2 333 331.7 327.9 323.3 317 309.4 306.8 305.4 299 296.5 288.3 284.3 284.4 283.6 283.3 288.7 293.4 293.9 291.4 286.5 280.1 274.4 278.8 280.3 283.6 283.7 282.8 281.4 279.9 278 275.6 273.1 270.8 267.4 264.3 261.3 258.4 254.6 251.1 248.7 244.7 241.9 240.5 240.1 239.2 237.9 237.1 242.7 244.9 246.9 247 247.2 249.3 251 252.2 254.5 258.5 261 261.2 262.9 264.1 266 266.7 265.5 265.3 265.7 266.5 266.8 265.9 262.7 257.9 251.2 244.8 237.6 229.2 220.6 212.9 207.6 199.9 190.7 184.2 177.9 172 165 158.6 152.5 147.5 143 137.3 130.7 133.2 138.1 141.1 140.8 142 141.9 139.3 141.3 143 144.1 144.9 145 143.4 142.3
236.7 240.8 248.6 250.9 252.2 251.2 249.5 247.6 244.9 243.2 240.8 240.7 241.9 239.6 244.8 247.5 250.5 253.7 256.2 257.3 259.1 259.4 259.3 256.8 253.4 248.5 243 238.8 237.3 241.3 244.4 247.7 252.4 260.2 268 276.3 286.9 298 309.1 324 335.4 345 353.8 358.8 359.9 356.9 349.3 337.9 325.8 315.5 306.9 297.3 288.7 282.8 277 269.3 258.7 247.8 239.8 230.8 221.8 210.7 204.2 199.4 196.9 205.5 210.3 217.1 224.1 228.7 233.8 242 249.7 254.7 259.3 264.5 267.2 268.7 270.5 268.2 261.1 253.5 258.3 264.2 269.4 277.5 287.1 295.7 303.2 310.8 317.7 323.7 329.1 332.1 332.6 331.5 329.5 323.4 322.9 316.5 311.7 305.5 301.5 297.4 291.6 286.3 281.7 279.9 279.6 282.7 282.4 286.7 289.3 290.1 287.4 281.8 275.6 268.7 272 272.8 275.5 276 274.4 271.7 269.7 267.7 266.5 265.8 263.1 261.1 258.6 255.9 253.3 250.3 247.3 243.8 240.4 238.6 238.6 239.4 239.5 239.9 240.8 245.1 247.7 249.3 250.6 252.8 255.1 256.8 258.5 264.2 269.4 271 271.3 272.3 273.6 273.3 272.8 271.3 269.1 268.7 269.1 268.8 266.3 262 256.5 250.7 244.5 237.7 230 221.3 214.8 208.1 203.2 196.4 191.3 185.1 178.3 172 165.9 160.6 154.8 149.5 143.3 138.8 131.1 133.9 136.3 137.7 138.8 141.6 141.9 145 145.4 144.7 144.6 144.5 143.1 141.8
246.3 250.6 255.8 258.1 259.5 258.2 257.2 255 252.8 251.1 249.5 248.2 247.3 247 251 254 257.4 261 263.3 263.3 264.1 264.6 263.2 260.2 256.7 250.8 246.6 242.1 245.7 249.3 252.2 254.3 259.6 266.7 274.5 282.6 292.7 304.4 316.1 328.3 339.9 348.8 357.9 363 364 360 352.1 337.9 324.3 311.9 303.9 293.6 284.2 277.2 268.2 260.5 251.6 244.4 236.2 228.1 218.4 208.4 202.8 199 206.7 210.5 217.3 226 234.1 241.3 247.7 253.8 259.9 267.6 273.2 277.7 280.4 280.8 276.6 274.5 274.5 268.7 264.9 272.1 280 288.4 296.9 305.2 313 320.7 327.4 332.1 335 336 334.9 332.8 328.1 322.4 317.7 312.2 308.3 304.8 299.9 294.4 287.4 284.3 279.1 275.7 275.9 277.2 280.1 283.9 287.2 286 282.8 276.9 270.7 265.4 263.5 265 266.1 266.4 264.4 262.1 260.1 258.8 257.7 257 255.7 253.8 251.8 250 248.7 246.3 243.3 240.4 237.1 235.7 236 237.6 239.2 240.6 242.1 244.4 247.7 249.9 252.1 254.8 258.1 261.7 266.5 270.7 275.2 277.3 278.6 279.5 280.1 278.7 276.2 273.9 270.6 268.5 268.2 267.6 264.6 260.5 254.9 249.1 243.2 236.2 228.5 218.9 213.7 208.1 201.8 197.7 193.8 187.7 182.5 177.2 171.7 166.7 161.2 155.6 148.3 144.7 140.7 131.2 132.3 133 136.2 137.8 142.2 143.2 144.3 144.7 144.4 143.2 142 134.5
258.3 257.4 263.3 265.4 266 265.3 263.3 260.6 258.3 257.6 255.8 254.2 254.5 252.4 257.4 260.9 263.7 266.4 268.7 269 269.5 269.5 267.9 263.8 260 254.1 249.6 249.7 253.5 257.4 260.4 263.7 269.3 276.1 282.2 289.4 299.2 310.3 322.6 334.4 344.2 352.3 361 365.5 366.1 361.9 352.2 334.1 321 308.5 301 290.3 280.2 271.6 261.8 255 247.6 241.2 233.6 224.8 215.5 207.8 203.1 204.5 211.6 216.4 224.8 234.2 244.2 254.9 260.1 268.3 274 284 290.6 293.2 294.6 294.2 292.9 288.5 280.3 275.1 277.5 283 291.5 299.3 307.2 315.4 323 328.4 332.8 336.8 338.9 338.8 336.2 332.1 328.1 323.2 319.1 314.3 310.6 305.6 300.3 295.9 287.4 280.4 275.7 272.8 272 272.9 275.4 281.8 284.8 282.2 276 271.4 266.1 257.2 250.5 258 258.2 258.1 256.6 253.2 250.7 249.7 249.3 248.1 247 246.4 245.7 245.1 245.1 243.7 240.9 237.3 234.2 233.4 233.7 234.8 236.4 238 239.1 240.2 243.2 247.3 250.9 254.4 258.4 262.9 269 274.5 278.5 280.8 283.6 284.8 284.9 281.4 278.8 274.2 270.2 266.2 263.7 262.2 260.5 257.2 252.9 247.3 241.2 233.5 224.7 216 210.1 206 201.8 197.6 193.7 189.1 185 180.1 174.7 170 164.7 160 153.6 148 144.3 140.9 130.5 130.7 131 133.6 138.4 141 142.7 142.9 142 140.7 136.6 132.6
266.3 266.9 270.9 271 270.8 270.2 268.8 267.3 265.7 264.5 263.9 263.2 262.4 260.1 262.3 267.2 270.5 272.8 273.8 274.1 274.7 273.7 271.5 266.5 262.9 257 252.8 256.9 260.2 264.1 267.2 272 278.8 285.7 290.7 297 306.7 318 329 339.7 348 356.7 363.7 367.3 365.5 359.7 346.9 332.2 318.7 305.7 296.5 285.7 274.9 265.6 257.4 251 244.1 238.1 228.7 219.7 211.8 204.8 205.2 211 215.8 223.3 231.7 241.2 254.5 260.7 273 282.7 290.4 294.1 303.3 307.9 308.3 306.2 302.7 293.4 290.4 292.3 293.5 295.3 302.5 310.2 317.9 324.4 328.9 332.6 336.8 339.8 340.6 339.4 335.4 331 329.2 325.2 321.6 317.2 312.9 305.5 304.4 297.7 289 277.9 273.5 270.4 269.1 269.8 270.9 278.9 279.9 278.8 273.3 264.1 262.1 253.8 243.8 250.3 250.2 248.5 247.8 245.1 243.2 241.9 240.8 239.7 239.9 239.4 240.2 241.2 242.4 241.8 239.6 236 233.3 232 230.7 231.1 232.2 233.6 234.1 234.9 236 240.4 245.4 250.6 255.7 261.1 267.3 275.2 279 282.7 286.1 288.5 287.2 283.2 278.2 272.2 266.8 261.9 257.6 255.3 254.1 252.1 248.6 243.1 237.4 229.8 222 214 208.2 203.6 198.8 195.6 192 188.4 183.9 180.9 176.7 171 166.1 161.2 156.5 152.1 147.2 143.9 141.5 137.4 129.9 129.1 129.2 137.1 138.3 137.4 137.2 133.8 131.1 131.1
277.8 275.5 277.6 275.8 275.7 275.4 273.8 272.3 271.6 271.6 271 270 268.8 266.3 266 272.7 275.7 277.7 279.5 279.2 278.3 277.4 274.5 269.2 265.7 259.8 259.3 262 265.7 270.5 275.8 281.1 287.2 294 301.4 309.1 318.2 326.5 335.8 345.6 353.4 360.2 364.6 366 362.5 355.6 340.9 328.9 316.4 302.5 290.9 280.4 271.6 262.7 253.6 246.9 241.6 233.7 224.9 216.2 210.8 205 209.7 215.9 221.9 229.4 238.7 248.7 260.5 270.1 281.6 294.4 304.9 312.7 317.2 320.4 321.1 318.3 313.5 301.7 304.6 305.9 307.4 308 314 321.1 326.2 330.5 333.6 335.6 339.2 341.4 341.5 337.6 334.7 332.2 330 327.2 323.8 319.5 314.8 310 304.9 298.7 290.5 280 272.6 268.9 265.3 261.9 269.4 275.2 276.1 274.2 271 260.9 258.4 252 245.4 243.5 242.1 241.2 236 238.4 237.5 237.2 235.3 233.9 233.1 231.8 234.7 237.6 239.7 240.5 238.4 235.3 232.4 230.2 228.7 227.5 227.9 228.8 228.6 229.4 231.3 234.5 239.4 244.9 251.1 257.8 263.6 271.2 278.3 282.4 286.8 289.4 288 283.8 277.2 269.5 263.3 256.8 250.8 247.8 245.5 245.1 243.3 239 233 225.8 218.9 211.7 205.8 200.4 195.2 191.7 188.4 185.5 182.7 179.9 176.4 171.7 166.7 162.2 157.5 153.3 149.2 145.8 142.5 140.3 139.5 138.8 127 127.3 129 129.1 129.2 129.4 129.5 129.2
290.1 288.3 286 284.5 282.8 283.8 280.5 275.9 275.9 277.1 277.4 276.3 274.9 273 272.4 274.8 279.6 281.3 282.8 282.4 281.7 280.6 275.3 271 266.4 263.7 264 266.6 270.4 276.1 282.5 288.8 295.4 303 312.1 321.1 329.6 337.5 344.8 352.8 358.1 362.3 365.2 363.4 357.7 348.9 336.8 325.4 312 298 286.7 280.1 269.7 258.6 251.4 244.4 237.7 228.7 220 215 207.9 206 215.4 221.3 227.9 236.1 245.8 255.8 264.6 275.7 286.2 305.2 317.7 324.7 328.4 330.3 331.3 329.3 325 314.2 309.4 317.1 319.7 321.8 325.7 329.5 332.9 334.3 335.5 336.8 339.2 340.7 340.4 338.7 337.2 333.9 331.2 327.2 323.5 319 316.3 313 306.4 299.6 288.2 281.5 274.5 267.7 262.4 259 263.1 271.2 272.8 271.4 267.6 261 251.9 247.1 241.8 235.9 238.2 236.3 226.4 227.5 229.1 228.8 230.1 229.8 227.5 227.3 230.3 234.2 238.5 239.7 237.4 234.5 231.4 228.3 225.4 223.7 223.7 223.9 223.8 224.1 226.9 229.7 233.8 238.8 244.7 251.5 258.5 265.9 273.6 280.8 285.2 288.8 287.6 280.9 274.1 266.7 258.8 251.2 244.9 240.4 239.6 238.6 237.9 234.5 227.6 220.1 214.6 209 202.6 195.4 190.6 186.5 183.8 180.7 179 176 173.9 170.2 166 161 156.9 152.2 148.7 145.8 143.3 141.7 141.7 140.2 136.2 125.7 126.4 128.7 129.1 129.2 129.3 129.1
301.5 297.5 295.7 294.8 294.9 295.3 292.3 288.4 286.2 285.6 285.2 283.7 281.7 278.5 278.1 276.8 281.4 282.7 283.7 284.8 284 282.5 276.2 271.5 268.4 267.2 269 271.3 276.2 280.8 286.8 293.6 302.6 313.1 322 331.1 339.3 346.5 352.8 358.5 362.9 365.3 364.1 359.5 352.5 343.7 332.2 320.6 306 293 286.3 277.4 266.7 257.6 249 241.9 233.8 222.9 216.9 212.3 209.4 215.4 220.3 226.6 234.3 242.9 251.3 260.4 270.1 278.8 297.4 311.3 324.9 332.5 336.5 339.3 341.1 339.9 335.1 325 322.3 326.2 328.4 330.8 333.3 335.5 337.3 337.2 337.5 334.8 337.9 337.5 337.4 337.8 336.6 334.6 331 327.6 323 319.9 317.7 313.3 307.5 296.5 289.6 280.4 274.7 267.9 262.2 257.6 258.4 267.1 267.9 267.2 263.9 259 250.8 245.1 240.3 229.6 234.9 232.6 227.2 221.2 220.8 222.9 224 224.2 223.3 222.9 225.7 229.5 234.6 237.4 237.9 233.9 230.3 227.2 223.9 221.1 218.8 218.8 218.5 219.2 222.3 224.8 228.5 234.6 239.1 245.4 252.3 259.8 267.7 276.5 283.2 285.2 282.2 277.8 270.3 262.8 254.5 244.8 238.4 234.2 232.6 231.7 230.4 227.4 221.3 215.4 209.3 203.1 198 192.4 186.1 181.9 179 175.2 172.8 170.9 168.9 166.4 161.6 157.7 153.7 150.7 147.5 144.4 141.5 139.9 139.8 135.8 134.1 124.7 124.7 132 130.2 130.3 130.5 129.9
311.9 307.2 304.9 305.1 306.1 305.6 303.4 299.7 297.6 295.4 293.8 290.8 288.2 285.9 284.3 282.5 282.3 284.6 285.4 285.8 286.5 283.2 275.5 271.2 270.2 270.1 273 275.7 280.1 285.7 291 298.6 308.9 320.9 330.8 341.1 349.9 355.4 360.4 364.3 366.8 367 364 355.8 345.6 335.6 326.7 312.5 298.7 291.6 283.7 272.6 262.7 254.4 247.3 237.8 227.7 220.3 216.3 210.4 209.9 220.8 225.8 232.4 239.5 248.3 256.1 261.8 275.5 288.1 301 313.7 327.7 338.9 344.4 346.6 348.1 349 344.9 335.1 330.6 333.1 335.3 337.7 339.4 339.7 339.4 338.9 336.8 330.4 332.2 333.3 333.9 334.4 334.6 332.9 329.9 325.6 321.2 317.8 314.7 311.5 305.2 298.1 286.7 281.4 274.5 266.1 264.3 259.1 256.8 263.4 264.2 263.2 260.6 257 251 245.3 240.6 235.9 225.8 228.1 225.3 221.2 216 217.9 219.5 219.3 219.2 218.9 221.7 224.7 229.1 233.6 234.6 232.9 229.4 226.2 223.1 218.5 214.9 213.6 213.2 214.4 217.4 221 226.1 231.3 235.5 240.3 246.8 254.2 261.5 270.7 278.4 279.5 277.1 272.8 265.8 257.5 246.9 238.2 231.9 227.6 225.1 225 224.1 221.5 215 209.4 203.1 198.8 194.4 188.5 182.3 178.1 175 169.1 166.6 164.9 162.1 161.2 156.1 153.6 151.5 148.9 145.1 142.9 139.2 137.7 136.8 139.2 139.4 138.4 124.2 132 130.8 130.4 130.8 134.1
320.2 315.8 313.4 312.9 313.1 313 311.9 311.6 310.5 307.3 303.2 297.1 295 291.1 288.6 288.1 286.4 287.4 288.6 288.5 287.5 284.3 277 272.6 272.2 272.9 275.7 279.1 284.7 288.3 296.2 303.8 316.2 326.9 338.3 349.9 356 362.5 365.7 368.2 369 366.4 361.6 351.4 339.9 328.8 317.8 305.6 295.8 288.9 279.7 267.8 258.2 249.6 243.6 235.3 226.3 220.6 213.6 211.3 217.8 225.3 231.7 238.9 246.3 253 261.1 264.5 279.4 290.8 304.2 316.3 330.4 343.6 352.3 353.6 354.3 353.3 347.8 339 335.5 335.4 335.4 340.8 342.8 340.7 340.7 339.1 332.8 325.4 321.8 327.8 329.1 330 331 329.5 326.6 322.2 317 312.5 310.2 307.7 302.5 295 289 280.3 272.4 266.1 262.3 257.7 251.7 259.6 261.3 261.5 260 256.5 251.9 246.6 241.3 235 227.4 220.7 222.2 220.5 216.7 215.3 216.1 215.2 214.9 215 217.5 220.5 224.1 228.4 230.2 229.3 227.3 224.5 220.8 215.3 211 209.8 209 209.6 213.1 217.2 222.5 228 232.4 236.9 242.9 248.7 256 263.5 269.3 271.3 269.7 266.1 259.5 249.6 240.7 232.1 226.1 221.6 219.1 217.6 216.4 213.3 210 204.1 198.4 194 189.4 184.2 178.7 173.5 169.1 164.2 160.2 157.4 154.2 151.9 149.4 147.6 146.3 143 140.3 137.2 133 133.2 137.6 142.7 138.7 135.7 126.3 125.1 132.2 130.9 130.6 134.9
327.3 324.8 323.1 320.7 320.9 320.7 319.7 318.1 317.1 315.1 311.4 306.5 301.3 295 292.4 293.1 291.3 289.9 291.4 291.1 287.9 285.5 277.9 275.3 275.5 276.4 278.9 282.6 287.4 292.7 302.3 310.6 321.2 332.2 346 353.5 361.2 366.2 369 369.7 367.9 362.8 355.9 346.2 333.5 321.3 310.2 298.2 292.8 284.9 274.3 264.3 254.4 246.5 240.6 232.9 227.7 216.4 214 227.3 228.2 228.9 236.5 242.5 250.4 257.5 263.4 271 280.6 290.3 306.1 318.3 331.5 345.4 353.8 356.3 355.2 353.4 346.7 340.2 337.3 326.6 336.1 339.8 340.7 340.3 339.7 336.8 330.2 321.4 316 324 324.5 326.2 327.1 325 321.3 316.1 311.4 308.3 304.6 302 296.9 291.2 284.9 277.8 269.4 264.5 258.6 254 248.9 256.7 260.7 261.6 261.1 257.5 252.7 247.8 241.8 236.3 231.5 226.6 219.5 218.6 215.6 213.2 213 212 210.9 211.1 212.5 215.6 219 222.3 223.8 224.2 222.8 220.3 216.8 212 207.7 205.2 204 206.1 208.7 212.4 216.7 222.3 228.5 233 237.4 243.1 249.8 256.4 261 263.3 262.1 258.5 251.5 243.3 235.3 227.1 220.3 215.7 212.3 208.9 207.4 206 202.7 198.6 193.9 188.7 184.1 179.2 174.1 168.5 162.7 158.5 154.9 151.8 147.1 145.9 143.8 141.7 139.4 135.9 135.5 133.8 131 128.6 132.8 134.2 132.6 127.7 123.4 119.1 124.5 127.8 126.9 131.9
333.9 334 330.2 330.4 332.4 331.1 330.1 328.7 325.8 322.6 319.1 314.4 308.1 300.6 296.4 296.8 294.7 293.7 294.4 294 289 283.7 278.7 278.1 278.9 280.2 282.4 286.6 291.1 297.3 306.2 315.9 325.6 337.3 348.1 356.2 363.7 367.3 368.9 367.3 363.1 357.3 347.6 338.2 326.7 313.9 304.8 296 288.8 279.6 269.5 260.8 251.7 243.8 236.9 227.7 218.6 217.3 229.8 234.2 235.7 236.2 241.7 248.2 255.3 261.9 267 275.5 283.6 290.5 307.8 319.3 332.1 344.6 353.4 354.1 350.9 346.6 342.1 335.7 330 325.3 330.7 334.9 336.4 337.3 336.3 332.3 325.7 315.8 315.1 319.1 320.1 317.6 319.8 318.2 314.2 307.6 304.3 302 299.3 295.7 290.6 285.5 279.1 272.7 266 261.3 255.1 252 248.4 253.8 259.8 261.8 261.6 259.1 254.3 249.4 244.3 238.7 233.3 228.8 223.5 214.7 212.5 209.8 209 208.2 207 207.2 208 210.2 214.1 217.6 218.9 219.2 217.8 215.4 212 208.5 204 202.1 201 202.6 205 207.9 211.9 216.9 222.5 228 231.9 234.6 242.5 249.4 253.5 256.3 255.8 252.2 245.7 239.3 230.2 222.5 214.5 209.2 204.3 201.6 200.2 198 195.4 191.7 187.7 183 178.6 174.2 168.8 163.1 157.5 152.3 148.2 145.4 142.4 140.6 138.9 137.5 134.2 132.2 129.9 128.7 127.2 124.7 125 126.8 125.2 122.3 120.2 119.2 116.3 115.6 115.4 116.7
342.5 341.4 340.6 341.2 341.8 340.5 339.3 337.5 334.8 330.1 326.8 322 315.1 306.6 300.7 300.5 297.9 297 298.4 298 291.7 284.7 282.8 281.8 282.5 283.8 286.3 291.2 296 301.7 309.5 319.1 329.2 339.8 349.5 357.7 363.3 365.6 364.8 360.6 356.3 349.9 337.8 326.9 316.6 306.3 297.1 291.6 284.5 274.9 265.7 257.6 249.1 240.5 231.4 221.3 219.3 230.5 235.4 239.2 242.2 245.3 247.2 253.6 260.2 266.7 272.5 280.3 287.4 296.6 310.8 321.1 333.1 344.7 349 348.2 342.5 335.9 333.6 326.3 320.6 319 325 329.7 332.2 331.8 329.1 327 322.8 313.9 311.3 311.8 314.3 313.5 312 309 304.5 300.3 296.7 295.1 291.8 288.9 283.5 278.2 272.4 266.3 260.4 255 251.1 249.8 249.8 248.6 258.6 261 260.8 258.8 255.9 251.5 245.9 240.4 234.8 230.2 225 220.1 215.8 202.9 204 203.6 202.9 203.5 204.9 206.8 210.1 213.5 214.6 214.1 212.3 209.9 207.6 204.8 200.4 198.6 198.9 199.7 200.8 203.8 206.9 211 216.4 221.5 226 230.4 234.3 240.8 246.5 248.9 249.5 246.5 241 232.6 224 216.6 209 202.3 197.9 193.9 192 190.6 187.7 184.2 180.3 176.2 172.1 167.5 162.9 157.6 151.9 146.3 138.9 138.3 135.7 134.5 133.3 127.2 125.8 125.2 124 123.7 123 122.1 121.9 121.3 118.4 121.7 124.2 125.3 123.9 119.1 117.8 116.8
350.1 349.4 349.9 350.8 350.5 349.4 348.1 346.5 342.6 339 335.3 329.1 321.6 312.5 305 303.5 302.2 300.3 299.8 301.6 296.9 290.7 288.1 285.5 285.3 284.8 290.1 295.7 299 304.1 311.7 321.5 330.9 340.1 350.4 357.6 360.9 359.7 356.2 352 346.6 338.5 326.9 317 308.6 300.5 294.8 287.9 278.6 269.4 262.5 254.6 246.1 236.4 228.2 223 230.4 233.1 239.7 245.4 250.9 254.7 257.2 260.3 266.6 271.5 277.6 284.2 291.4 304.6 315.6 325.2 335.6 344.5 347.5 344 334.6 325.3 321.8 315.1 313 313.2 321.3 325.5 326.6 326.4 324.8 322.1 316.3 309.4 303.2 302.8 306.9 307.1 303.7 300.3 295.8 290.6 288.2 286.4 277.8 278.9 273.4 269.8 265.3 259.1 253.4 250.9 249.4 248.2 246.4 249.8 256.9 259.6 258.8 257.3 255.5 252.3 247.8 242 236.4 230.9 225.8 221.5 216.4 210.1 196.8 198.1 197.1 199.1 201.6 204.2 207.8 210.7 210.7 209.4 207.3 205 203.5 201.3 198.8 196.7 197.4 198.1 197.9 199.1 202.5 204.5 209.2 215 219.7 224.7 227.3 232.7 237.3 240.8 241.2 239.8 233.2 224.4 216.4 208.7 202.1 196.3 192.4 188.4 185.6 182.6 179.2 176.2 173.2 168.9 164.4 159.7 155 150.5 146.1 135.1 130.3 128.5 127.2 126.5 126.3 124.9 121.2 125.9 128 127.4 128.7 129.6 127 129.3 133.4 137.2 138.3 138.7 138.4 133.8 132.4 129.4
360.7 359.2 360.3 361.7 362.6 361.4 358.4 356.5 351.2 347.4 343 336.3 328 318.4 310.8 306.9 305.7 304.9 304.9 305.1 303 298.4 294.9 292.6 290.6 289.7 292.4 299.1 300.8 304.5 311.8 323.1 330.4 337.7 349.2 354.2 355.2 352.9 349.3 343.4 336.1 327.7 314.8 306.9 299 292.5 289.7 282.1 271.4 266.1 259.7 251.4 241.5 232.6 224.9 230.7 234.8 238.8 246.2 253 257.6 262.3 265 267.6 273 276.9 282.5 288.9 296.4 310.8 320.9 331.5 341.6 346.1 345 338.2 327.3 311.9 309.2 307.2 308.1 309.9 317.9 321.5 322.8 321.9 319.6 315.7 310 301.5 294.9 297.8 299.6 298.7 297.1 294 288.3 282.3 277.7 275.2 273.9 268.7 263.5 260.8 256.2 253.1 250.7 249.1 247.4 245.2 243 248.5 255.4 257.3 257 256 254.2 251.6 248.3 242.6 237.1 231.4 225.7 220.8 215 209.4 202.5 192.5 190.4 194.4 197.4 200.8 203.7 206.8 206.7 205.5 203.9 202.2 200.6 198.4 196.1 194.7 194.9 196.1 196 196.2 197.6 200.1 204.1 210 214.9 219 222.1 225.9 229.5 231.2 230.8 227.9 222.6 215.5 206.1 200.5 195.4 189.5 184.9 181.3 178.1 175.3 172.5 170 166.2 162 157.4 152.9 148.2 140.4 133.7 127.7 126.8 126 126.8 125.1 132.4 139.3 144.1 147.9 148.7 148.2 147.9 147.5 145.7 145.5 145.9 145.9 146 145.8 145 146.9 143.5 137.2
371.5 371.5 372.4 375.2 376.7 374.5 370.2 367.7 361.4 354 349.1 342.5 333.6 324.5 316.7 309.9 310.6 309.7 308 309.2 308.9 303.9 298.6 298 294.9 293.6 294.3 300.6 300.9 304.9 311.2 319.2 327.6 334 344 346.2 347.2 345.1 338.5 330.6 325.1 317.3 307.8 298 293.5 286.4 282.4 274.4 268.5 263.5 256.8 248.1 237.8 226.3 229.6 235.5 240.2 245.6 252.9 259.4 262.5 268.9 272.7 275.2 278.9 283.9 288.3 295.1 306.5 316.9 327.5 338.6 343.7 345.4 339.7 332.5 319.6 303.5 300.6 303 304.8 307.1 315.5 318.4 319 317.4 314.5 310.8 304.2 295.9 291.6 292.1 291.3 290.7 288.8 286 281 277.2 271.4 269.9 268 263.3 259.4 255.1 251.7 249.5 248.6 247.3 245.4 241.9 238.5 249.4 252.8 253.8 253.4 253 251.3 249.8 247.1 241.3 236 230.6 223.7 219.3 213.2 207.7 202.8 196.8 187.2 187.9 192.9 196.6 200.1 203.2 203 202.6 201.2 199.8 198.2 196.3 193.3 190.9 190.5 189.8 190.5 190.7 191.9 191.9 196.5 201.6 208.1 212.1 214.7 217.6 221.4 221.8 221 218.2 210.6 205.7 199.3 193.5 187.3 181.6 177.8 174 169.9 166.8 166.1 165 161 155.7 151 146.8 139.2 130 127.6 128.6 129.9 131.3 136.5 142.8 150.1 156.2 159.3 159.7 159.8 160.5 159.3 156.7 153.8 152.9 150.2 148.6 147.8 146.9 146.2 146.2 146.4 142.7
385.4 384.6 386.7 391.4 391.8 388.7 383 379.1 372.4 363.1 353.7 348.2 339.2 329.9 323.3 318.9 317.9 315.2 311.8 313.3 314.2 310 305.1 301.6 298.3 296.9 294.3 297 300.7 304.8 309.5 315 321 325.7 335.4 339.5 338 331.3 327 322.6 314.4 308.4 300.1 291.6 285.6 282.3 276.9 269.9 265.2 260.2 253.3 243.3 233.1 227.3 235.6 240.7 245.4 251.1 259.4 266.2 269.5 276.3 279.4 282.9 286.6 291.3 296.4 304.4 315.4 325.3 334.8 341.5 343.6 341.4 335 327.9 313 298.9 296.8 300.2 301.6 305.1 313.4 316.6 315.7 312.6 308.8 304.4 297.6 288.9 283.7 282.1 282.5 282.8 280.2 276.5 274.5 272.7 270.4 267 264.3 259.9 256.6 253.1 249.6 247 246.2 245.6 244.1 243.3 238.7 241.1 247.5 247.7 247.7 247.2 246.4 244.7 242.1 237.3 233.8 227.7 222.2 216.3 210.8 205.9 201.1 196.4 191.3 183.1 187.2 191.4 195.3 198.9 200.1 199.2 198.5 197.6 195.4 193.5 190.9 188.2 186.6 185.5 184.5 184.5 185 186.1 188.1 191.3 195.9 200.1 205.3 208.4 211.6 211.5 211.2 207.5 203.1 197.4 191.4 185.3 179.6 175.2 171 166.7 162.1 159.2 160.8 161.8 156.8 150.9 137.6 132.7 131.1 126.9 132.3 133 139.4 147.3 156.6 161.8 166.5 172.1 173.5 173 172.9 171.7 168.3 165.4 162.2 157.6 157.8 154.5 150.2 148.1 147.3 146.5 146.4 145.2
400.1 398.1 401 406.3 407.7 402.8 395.5 390.5 382 371.8 360.4 352.9 344.9 335.8 329.7 326.1 325.2 321.9 316.7 319.5 317.9 316.2 311.6 307.4 303.8 301.4 297.7 295.7 300.8 303.9 306.6 310.7 315.7 320.1 322.3 325.3 325.1 323.1 320.1 316.4 308.5 301.2 295 286.8 282.6 278.4 271.6 265.2 261.1 255.6 247.7 236.8 229.4 237.1 241.1 246.2 251.8 256.4 265.8 273.3 279.2 283.8 288.1 291.2 294.2 299.3 305.2 315.3 326.1 335 341.5 342.8 340.8 335.9 329.4 315.7 304.6 293.3 292.8 296.6 297 305 309.8 311.2 309.3 306.5 301.8 296.2 290 281.1 275.8 269.6 268.5 272.6 269.4 266.5 268.5 268.8 268.1 265.8 262.5 258.4 254.3 251.8 248.9 245.7 244.3 243.8 242.9 241.9 240.6 237.6 241.2 242.6 241.9 240.6 241.3 239.5 236.9 232.3 226.8 223.8 219.5 214.3 207.6 203.5 199.4 196.2 190.1 185.8 182.3 187 191 194.1 196 195.6 195.4 194.9 192.4 190.1 188.2 186.2 184.1 179.8 178.9 178.4 179.1 179.1 180.4 182.6 185.9 190.5 194.8 198.7 200.8 201.4 200 196.8 193.6 188.4 181.9 176.7 172.3 168.4 164.2 159.5 154.8 156 156.6 156.2 153.6 148.8 134.6 132.4 130.8 134.6 140.2 146.4 154.1 162.4 171.5 177.3 181.6 184.8 184.2 182.9 183.7 182.1 178.3 174.3 171.4 167.4 165.4 161.3 157.8 153.8 149.8 148.9 147.7 145.7
419.9 418.1 414.6 420.1 418.6 416 408.8 399.7 389.7 377.7 366.7 358 350.6 341.9 336.9 334 332.7 329.6 326.2 324.8 321.7 319.7 316.6 311.6 308.1 305.8 301.6 298.5 298.5 302.9 304.7 307.3 311.5 316.7 317.2 318.3 319.3 316.9 314.1 309.9 303.6 295.6 288.9 282.5 277.5 272.1 265.8 260.3 255.8 249.4 239.5 231.7 235.6 243.7 248.6 253.4 257.4 262.4 271.4 279.3 285.5 292 296.4 300.1 303.2 308.7 316.3 326.5 336.2 343.6 345.9 342.9 339.6 330.6 320.9 309.3 295 289.3 288.5 293 291.3 301.8 305 304.8 302.9 299 294 288.3 281.9 273.9 268.4 258.4 258 260.1 258.3 260.6 262.9 265.1 265.2 264.7 261.2 257.2 253.8 250.5 248.1 245.4 242.7 241.5 240.8 239.6 236.9 229.6 233.7 233.9 234.2 234.9 235.6 234.8 231.7 225.9 221.9 217.4 213.6 210.2 205.2 201.1 197.9 194.4 190 185.8 179.4 182.5 186.5 189.5 191.6 192.2 191.8 192.3 189.4 186.6 184.5 182.2 179.3 176.5 173.1 172.4 172.1 171.3 171.5 172.2 176 180.2 184 187.9 190.7 190.9 189 187.2 183.8 179 173.5 169.1 165.7 162 158.7 153.3 149.6 149.2 154 149.2 148.1 143.6 132.9 130.6 140.6 145.8 151.6 159.7 167.4 175.4 183 188.7 190.1 192.8 193.7 193.8 193.8 191.3 186.7 184.3 179.2 175.8 171.5 167.5 161.1 158.4 155.7 151.7 148.3 145.6
434.7 432.5 430.3 431.5 429.9 425.5 417.7 407 393.7 381.8 371 362.5 355.5 347.9 344.1 341.7 340.7 337.1 335.2 331.2 327 323.2 321.8 316.4 310.7 306.7 303.5 300 298 298.7 303 305.3 307.5 310.4 311.9 312.5 313.8 311.9 308.7 303.2 298.3 291.3 283.4 277.7 272.8 266.3 260.3 255.2 252.1 245 232.8 234.6 243.8 251.8 257.4 262.9 266.6 270.2 277.5 286.3 294 300.2 306.1 311.8 316.5 322.5 330.2 338.5 347.4 351.3 349.8 344.6 338.3 328.6 313.6 297.2 284.8 283.1 284 288.9 289 297.7 299.4 298.7 296.3 292.1 285.6 279.7 273.3 266.4 258.4 242.1 247.3 248.5 250.6 255.5 257.6 260.9 261.9 261.3 259.5 255.2 251.6 248.9 247 244.3 242.2 240.4 238.4 236.7 233.3 224.2 225.5 228.4 230.2 230.2 229.1 229.3 226.1 221.5 215.6 210.5 207.2 204.5 201.2 198.1 195.8 192.3 189.3 185.7 176.7 178.6 183 185.4 187.2 188.8 188.7 188 186 183.6 180.6 178.2 175.1 171.6 168.6 166.3 165 163.4 164.6 164.9 165.3 167.6 170.7 174.7 176.4 176.4 175.1 173.7 171.9 168.8 165.6 163.6 163.4 163.4 156.9 145.9 141.6 138.2 136.1 134.5 133.8 133.5 138.1 147.8 153.9 158.3 162.9 170.5 178.3 186 192 195.1 198.6 201 202.1 203 202.9 201.8 198.4 192.7 186.9 181.5 176.9 171.6 166.5 158.8 155.1 151.9 148.9 144.4
448.1 445 442.3 440 437.1 432.5 423.8 410.9 396.9 384.7 374.9 367 358.6 352.3 350.1 348.4 346.7 345.1 343.1 339.5 334 329.1 324.7 322.8 317.1 311 308.8 305.7 302.3 297.3 296.1 298.9 302.3 304.9 306.3 307 307.4 307.1 304.1 298.8 294 288.5 280 277.4 267.3 260.4 254.9 250.8 247.4 241 233.8 244.4 252.6 261.8 269.1 272.7 275.1 279.6 286.8 294 302.1 310.8 318.5 325.2 331 338.1 345.3 352 357.3 358.1 354.1 346.1 338.5 325.9 307.1 285.1 276.5 276.3 278.3 282.9 285.9 291.3 292.3 290 286.4 281.3 275.1 270.1 263.6 257.9 251.7 247.3 233 240.6 245.5 248.7 252.6 255.5 257.2 256.9 255.9 252.3 250.1 247.3 244.8 242.9 240.6 238.4 236.4 234 230.7 224.8 220.5 216.5 223.7 225.2 223.8 223.4 218.8 214.4 210.5 205.7 202.7 200.6 197.2 193.8 191.3 189.7 187.2 184 177.6 176.5 179.6 181.3 182.1 183.7 184.1 183.6 182 179.8 177.7 175.2 168.1 162.9 163.6 158 155.5 153.3 153 150.2 153.2 153.5 153.8 156.2 157.5 159.3 159.7 159.3 160.4 159.8 159.8 161.2 155.3 155.8 146.5 141 136.1 135.3 133.5 135 144.6 152.1 156.5 162.5 166.5 170 173.9 179.5 185.3 190.6 197 202.1 206.8 209.5 210.7 210.7 209.3 208.8 204 198.5 195 185 179.9 173.4 166.7 160.1 155.6 152.5 149.3 145
456.9 453.4 450.1 446.2 441.6 436.1 427 414.1 400.1 387.7 378.5 370.1 361.2 356 355.7 355.3 353.9 352.4 351.2 348.4 341.9 335.7 331.3 326.4 322.1 319.4 314.2 313.1 308.2 304 300.5 294.9 295.6 298 300.3 300.8 301.3 301.4 299.5 296.7 288.8 283.9 277.8 272.9 264.8 255.3 250.9 247 244.4 238.9 242.2 253.2 262.8 271.6 277.9 281.9 284 289.9 297.9 305.1 312.9 322.4 331.2 339 345.5 352.7 358.6 362.7 365.3 363.8 358.2 350.2 339.1 323 300.5 282.6 271.9 271.2 274.6 278.2 280.6 282.4 282.5 280.7 275.8 270.4 264.6 257.9 251.5 245.6 240.9 241.1 234.9 230.4 237.8 243.4 246.9 249.2 250.9 251.3 250.7 249.2 247.5 245.4 243.8 241.7 238.3 236.4 234.1 231.9 228.3 225.9 222.9 220.3 213.5 216.2 218.5 215.7 212 208 204.6 198.2 195.3 194 191.8 188.7 186.7 185 184.4 181.5 176.7 173.3 175.7 175.2 176.3 178 178.6 177.5 176.8 176.1 176.6 171.4 168.3 162.7 153.9 151.6 149.3 147.1 147.9 147 146.6 146.5 145.9 146.6 147.2 151.3 152 153.6 155.5 155.5 154.8 159.1 150.4 143.1 137.2 137.2 140 142.7 141.8 151.2 156.4 161.8 168.1 172.1 177 181.2 183.6 185.8 189 196 202.8 208.7 214.6 216.3 215.8 214.3 212.1 208.2 203.2 196.7 190.1 184.1 178.1 172.3 166.4 160 156.4 153 150.4 152.1
461.2 456.9 453.1 448.6 443 435.6 427.1 414.4 402.3 390.8 381.1 371.8 364.2 361.5 361 361.7 362.2 359.9 356.7 353.3 348.6 344.9 340.2 336 330.8 327.2 324.5 321.8 318.6 314.3 309.5 303.6 293.3 292.4 295.1 294.6 295.3 295.6 294.6 292.1 288.2 280.9 274.9 270 262.1 252.7 249.1 247 237.2 238.8 254 261.9 269.6 278.2 286 292.1 297.1 303.4 310.5 317.7 324.3 335.4 344 352.8 359.5 364.4 367.6 369.8 371.1 367.5 360.6 351.1 337.6 319.6 297.9 278.6 269.6 267.9 268.2 271.4 274.1 269.3 273.6 269.6 264.8 259.1 251.5 245.2 241 237.8 234.2 234 231.2 226.7 229.7 235.8 240.3 243.2 244.6 245 244.9 244.3 243.5 241.9 240.7 239.1 237 233.6 231.7 230.6 229.2 228.4 227.2 226.2 223.5 219.1 211.2 206.5 202.3 201.9 204.1 201 196.2 189.5 187.6 181.6 179 177 177.3 176.5 174.5 168.4 170.8 168.6 170 171.9 172.4 172.6 171.4 169.8 169.8 167.3 162.6 156.6 153.2 149.7 150.5 155.9 157.4 158.7 157.1 153 148.7 145 143.7 143.9 145.8 147 148.3 147.7 146.4 145.2 140.9 139.2 137.8 139.4 149.7 151.9 152.4 159 164.5 170.3 175 180.7 186 189.4 191.1 192.5 196 201.5 208 214.9 218.9 221 219.4 215.5 211.1 206.5 200.7 194 187.3 181.6 174.8 169.2 164.6 160.2 156.4 153.8 152.3 153.7
464.7 458.4 452.6 447.4 440.2 432.9 424.9 414.4 403 392.9 382.6 373.1 368 365.4 364.2 365.7 366.7 365.2 361.2 357 352.9 350.3 346.3 342.3 339.2 334.7 333.1 330.1 327.6 325.2 319 312.6 306.6 296.5 291.4 285.6 288.7 291.4 290.4 288.9 285.3 279.1 273 267.2 258.3 250.7 245 239.8 249 256.7 264.2 269.7 279.1 287.7 295.9 303.1 309.4 318.5 327.6 331.9 340.8 348.7 356 362.7 367.5 371.3 373.4 373.2 373.3 368.7 361.6 350.5 336.4 319.2 297 277.3 267.7 264.9 267 263.1 265.5 264.9 263 259.2 253.8 247 241.1 235.4 232.1 229.3 227.5 226.1 226 225.4 225 228.8 233.5 236.6 238.8 239.3 239.2 238.9 237.8 236.4 235.3 234.1 233 231 229.4 229.4 230.7 233.6 234.2 232.8 230.5 227.4 223.5 220.4 218.2 216 213.7 210.1 205.4 197.5 190.7 186.6 184.1 182.4 177.4 172.7 170.6 170.1 166.7 164.9 162.9 162.6 164.7 165 162.7 160.8 160.6 159 156.1 153.6 150.6 158.9 169.6 172 174.9 170.9 168.7 164.5 160.1 156.7 152 148 142.4 141.3 139.1 140.8 141.1 140.5 139.1 139.4 144.4 151.4 156.3 158.6 160.6 163.8 169.7 177 184.1 189.7 193.9 196.6 199.1 201.3 203.1 205.9 212.4 218.1 222.2 226 223.1 217 210.6 204.2 198.9 193.5 186.9 180 173.3 167.7 164.3 160.1 157.6 154.8 153.2 153.7
463.2 455.9 449.1 442.7 436.2 428.1 420.4 412 402.9 393.4 382.9 373.2 370.5 367.9 365.6 366 368 368 364.5 360.5 356.1 354 352.3 349.5 346.7 345.3 340.9 337.9 334.6 330.5 324.3 317.9 313.6 307.5 292.7 289.3 278.3 286.4 287.1 285.7 283.2 277.1 271 262.6 255.8 248.5 243.2 252.5 258.6 265.2 274.1 283.6 292.9 298.9 305.1 314.5 325.2 335.7 344.1 346.8 353.8 359.4 363.6 368.2 372.3 374.4 375.1 374.1 371.5 367.8 359.5 349.1 334.4 317.6 296.8 278.7 267.1 258.5 260.3 255.9 254.6 252.2 251.1 247.2 244.5 237.9 233.9 229.8 225.6 223.3 222.7 221.6 219.9 218.6 221 220.9 226.6 229.4 233.8 235.3 234.5 233.5 232 230.8 229.6 228.9 227.6 225.9 224.7 226.6 230.3 235 240 242.1 240.7 236.9 233.4 230.2 227.2 224.4 220.4 216 210.4 204.3 197.7 192.4 188.6 186.5 184 181.2 174.4 169.9 177 170.5 160.1 157.2 156.9 155.9 154.3 152.7 153 152.7 151.2 150.8 156.8 171.9 175.3 181.4 184.4 182.6 174.8 170.5 166.5 160.9 160.2 152.6 158.1 160.7 149.4 140.8 138.4 139.1 146.1 153.8 156 158.8 162.7 166.2 169.3 170.7 173.9 183 189.3 194.8 200.5 204.3 207.1 208.6 209.9 212.8 219.9 223.4 227.4 229.3 226.4 219.5 212.3 206.1 198.7 194 187.2 179.7 173 168.2 165.5 163.6 160.9 157.7 156.3 156.1
459.4 451.9 443 435.4 428.8 423 417.4 410 401.6 392.7 382.5 372.6 370.8 368.2 366.3 366.6 368.2 368.8 366.8 364.7 362 359.9 359.7 357.4 354.4 352.4 349.3 345.2 339.5 332.6 324.3 318.9 312.7 305.7 297.8 284.2 284.9 275.9 280.8 281 279.7 274.6 270 260.7 252.4 244.4 251.6 258.4 267.3 272.7 285.7 294.8 303.5 309.4 318.1 330 341.3 351.3 356.1 360.6 363 366 367.7 370.8 373.4 374 373.6 371.4 368.8 363.2 355.4 344.5 329 313.6 297.1 280 266.3 256.9 252.5 248.4 245.9 245.1 242.2 238.4 237 231.5 226.7 222.8 219.7 216.5 215.2 213.4 210.9 210 213.3 209.6 216.4 224.1 228.6 230.4 229.1 227.9 225.9 224.5 223.3 222.5 221.4 220 218.4 220.7 226.7 234.3 238.7 242.4 244.8 246.2 242.5 238.6 233.6 228.1 223.4 218.2 213.2 208.8 203.6 198.2 193.5 190.1 187.4 184.4 178.2 177.6 169.2 163.8 161.9 157.5 155.9 155.3 154.4 154.4 154.9 154.2 153.6 160.3 167.4 177.1 183.3 187.8 189 188 182 175.3 170.3 165.5 159.7 158.5 159.6 164.7 169.9 164 162.1 163.8 166.3 167 159.2 166.9 169.9 174.2 176.6 177.6 178.1 186.3 193.3 200.8 208.5 211.7 215 216.9 219.1 222.3 226.4 229 231.9 231.7 228.1 218.6 212.7 207.5 200.9 194.8 187.1 180 177.4 175.2 172 168.8 165.1 161.7 159.8 159.5
453.6 443.9 435.4 427.6 420.9 417.7 414.7 406.6 399.2 390.1 380.7 372.9 370.9 367.5 366.7 366.9 367.5 369 368.7 367.7 367.7 367.5 366.9 365.5 362.6 358.6 353.8 347.8 340.7 331.5 323.8 318.3 312.1 305.1 298.3 290.9 283.5 275.6 272.7 275.2 274.8 272.1 268.5 258.9 248.1 248.3 258 263.8 269.4 286.3 293.6 304.3 315.2 321.6 334.7 345.1 353.5 361.8 365.1 367.5 368.4 369.2 369.8 370.6 371.6 370.7 369.9 366.3 364.1 357.1 349.5 339.3 325.3 310.8 295.2 278.7 265.9 255.4 248.7 245.2 241 239.7 232.8 227.3 224.5 221.8 219.7 215.6 212.3 209 206.3 203.6 198.7 200.1 202.6 205.6 212.3 218.9 221.7 224 222.1 220.6 217.9 216.8 215.9 215 214.3 212.9 210.1 214.2 220.3 226.7 233.1 239 241 242.1 240.9 238.4 232 225.3 220.1 215.6 211.9 208.3 204.4 200.9 197 193.4 189.8 186.8 183.1 178.4 176 167.9 159.5 155.6 156.4 156.6 162.2 162.5 159.4 156.3 162 169.7 177.6 185.3 192 196.9 195.8 192.4 187.3 181.1 176.1 168.9 167.7 167 165.4 163.6 167.2 172.4 172.6 172.4 170.2 169.3 168.8 174.5 179.2 182.7 184.9 185.8 184.1 190.6 199.4 207.7 214 219.1 223.3 225.9 229.4 233.7 236.3 235 236.8 234.4 230.1 220.6 214.3 208.5 201.1 194.8 191.2 186.8 185.4 183.2 180.3 175.7 170.1 167.5 165 162.7
442.7 433.6 424.9 416.5 413.8 412.5 408.4 401.9 395.3 387.4 377.9 370.5 368.8 366.2 365.6 366.4 366.8 369.1 369.8 369.7 369.9 370.9 370.4 367.3 365 361.3 356.7 350.4 341.7 330.8 321.9 315.1 310.3 303.5 296.4 290.1 281.9 278.8 272.3 270.9 271.6 269.4 266.3 258.3 250.2 253.8 261.7 269.5 285 294 303.4 314.2 325.9 337.8 347.4 357.2 363.5 367.5 369.2 370.4 369.7 368.9 368.3 367.8 366.9 365.9 362.7 360.6 357.2 351.5 343.6 333 320.9 306.2 291.4 276.7 264.5 253.9 246.7 236.1 231.6 230.7 226.4 220.4 213.7 210 212.1 209.3 203 198.3 195 194.9 194.3 195.1 197.6 199.7 206 211.1 214.3 216.2 214.3 212.6 210.3 207.7 206.1 206 204.8 204.6 201 205.3 211.2 218.3 223.7 228.7 231.9 234.1 233.7 231 225.3 219 214 210.6 207.7 205 201.1 198.6 196.4 193.9 191.3 187.4 181.7 176.1 168.2 158.6 156.8 158.9 168.8 171.2 172.3 171.6 167.5 163.4 170.7 177.9 185.1 192.8 200.7 202.7 202 197.6 192.9 187.4 180.4 166.8 169.3 168.2 173.1 168.7 167.6 166.6 167.4 169.5 171.7 173.6 176.8 182.6 186.4 191.2 193.5 195.2 195.2 197.5 205.5 214.4 221 226.5 231 235.2 239.3 244.5 246.7 243.7 240.6 237.1 232.4 224.4 217.5 209.6 203.8 199.6 197.4 195.9 194.3 191.8 189.6 184.2 178.6 174.5 171.2 167
427.4 420 413.1 408 406.1 404.9 400.9 394.6 389.5 382.7 374.1 368.7 365.3 363.7 363.9 364.4 365.5 368.3 369.2 369.4 370.2 371.3 369.7 367.8 365 361.7 356.5 350.1 340.8 329.4 319.7 310.9 306.7 300.4 294.5 289.9 285.2 280.3 271.8 266.3 267.5 264.4 262.2 255.5 251.3 259.9 265.7 277.3 290.8 302.1 313.3 324.4 337.4 347.8 359.1 364.5 368.1 369.8 370.4 369.6 368.3 366.7 363.2 361.4 360.2 358.4 356.2 354.3 348.8 342.9 334.2 324 312.2 299.7 286.5 274.1 262.8 252.7 245.6 238.6 229.2 223.3 220.7 217.3 210.1 208 204.3 200.7 197 195.1 194.2 192.9 192.2 191.9 193.3 195.1 198.4 205.5 208.2 207 206.8 202.8 198.9 197 198.3 198.4 197.3 196.9 195 196.3 200.2 207.7 213.3 218.5 221.7 223.4 223.5 220.9 215.1 209.6 205.7 202.8 200 198.4 196.3 195.3 193.8 192 190.9 186 176.1 172.6 160.4 157.6 164.8 177.2 181.2 181.8 180.6 178.4 174.7 170 178.1 184.8 192.3 201.2 205.4 208.5 204.8 202.7 198.2 191.5 182.6 177.7 179.1 180.2 183.1 183 181.4 179.8 179.3 179.8 180.1 180.1 184.9 190.3 195.4 199.8 201.3 202.5 202.3 200.4 211.4 220.6 226.8 232.8 238 242.9 248.2 254.5 254.7 251.1 246.6 241.9 235.8 229.1 222.2 215 210 206 205.1 206.2 205.1 201.3 197.2 191.5 186.2 181.4 177 172
417.2 411.7 407.4 405 402.9 398.2 393.6 390 384.4 378 371.4 365.8 362.2 360 360.4 362 364.1 365.8 367.3 367.7 368.9 369.4 369.1 367.8 363.6 360.1 355.2 347.3 335.2 328.2 318.7 310.1 303.3 297.2 291.7 289 284.9 280.5 270.1 267.5 262.6 260.6 257.6 251.9 258.9 265.5 273.2 286.5 299 310.8 321.9 331.7 345.2 356.6 364.5 367.5 369.5 369.7 368.8 366.3 363 360.3 356.4 354.9 352.7 349.6 348 344.6 337.6 329.3 321.3 310.5 301.3 291.7 280.8 272.3 261.3 251.5 243.7 236.6 229.4 220.8 213.8 210.8 206.3 202.6 200.4 201.4 204.5 205.8 205.1 202 197.2 190.4 188.8 191.5 193.2 201.4 204.2 203.1 198.3 195 192.7 188.9 193.3 190.2 191.5 190.5 189.6 191 193.4 196.5 201.7 206 207.5 208.7 208.6 207.5 202.5 197 193.8 191.2 190.7 190.6 192.5 191.8 191.2 190.4 188.6 177.5 170.1 159.5 159.6 168.8 180.8 187.9 190.6 190.7 188.6 186.4 181.2 178.3 185.5 191.8 200.5 205.4 211.8 214.2 211.8 208.1 201.2 192.2 179.4 188.9 192.4 196.7 197.9 197.6 195.6 193.2 191.2 190.6 190.7 191 194.6 199.6 204.6 208.2 209.3 209.9 210.5 210.5 216.9 225.4 232.6 238.1 244.2 249.8 256.7 262.7 262.4 258 253.8 247.4 241 235.8 230.4 223.9 219.3 216.3 216.1 215.6 212.5 209 204.2 198.8 193.3 188.7 183.9 177.8
411.5 408.1 404.4 402.2 399.2 392.9 388.5 384.6 379.4 373.3 366.6 362 356.4 355 355.1 355.5 359.6 363.5 364.7 364.9 365.6 367.8 367.2 363.8 360.4 357.1 350.3 337.9 332.5 324.9 316.6 308.3 300.7 295.1 291.6 289.1 284 278.6 269.6 261.5 259.6 260.9 256.7 259.6 265.5 271.2 283.2 296.6 308.2 319.2 329.2 341.5 353.5 361.6 366.7 368.3 369.1 368.6 365.9 364 359.4 353.8 349.6 345.2 343.3 341.3 335.8 331.8 324.8 315.7 304.8 296.5 290.1 283.7 276.2 268.4 259.4 250.4 242.3 233.6 225.4 217.5 211.5 208.5 204.6 203.8 211.1 217.5 220.4 220.9 219.7 215 210.7 203.8 193.5 189.3 191.3 191.2 194.6 194.5 192 188.8 185 184.3 182.9 181.5 180.8 181.5 183.6 185.2 187.6 190.4 193.5 195.9 197.4 197.6 197.2 195.2 190 187.6 184.5 182.7 180 181.6 184.1 186.1 187.3 187.3 180.4 169.8 163 160.9 170.1 181.6 190.8 196.5 198.4 198.3 196.1 193.5 188.8 185.7 193 199.2 205.6 211.9 216.4 220.2 218.5 213.6 205.9 194 187.2 196.2 201.9 205.7 208.4 208.8 209 206.7 205.2 204.1 203.6 203.8 205.3 209.5 213.7 217.2 217.5 217.4 218.1 218.6 223 230.9 237.6 242.9 249 255.7 264.7 267.6 269.1 264.9 259.3 252.8 245.1 241.3 237.8 233.2 229.8 227.4 226 224.1 220.4 216.9 212.4 205.9 199.5 194.4 189 183.6
408.4 405.2 402.7 399.6 394.3 389.3 382.9 377.9 372.6 365.7 365.2 361.7 360.8 358 354.3 350.5 354 356.2 359.6 361.3 361.3 360.1 358.1 356.7 354 348.3 340.3 334.7 327.9 321.3 313.5 305.6 298.2 293.9 290.6 286.1 282.4 277.2 269.6 261.1 260 257.2 255.7 263.6 268 279.7 293.9 306.2 317.5 326.4 339.2 349.4 359 364.6 367.4 368.2 367.6 366.4 364 360.3 356.5 350.5 343.5 336.9 333.8 330.5 324.3 317.3 308.2 297.8 289.9 285.1 281.8 278.6 271.1 264.3 256.6 247.9 239 229 220.2 214 208.2 205.8 211.1 217.7 224.4 229.7 231.4 232.3 232.7 224.9 219 212.9 206.2 198.3 190.6 189.4 188.9 187.5 187.2 185.8 183.7 183.4 182.6 185.1 186.2 181.6 181.2 179.3 179 180.5 181.3 184 186.3 188.8 187.7 184.9 178.9 174.8 172.2 170.5 170.7 169.3 176.1 177.3 179.7 178.6 172.9 164.1 162.7 163.5 181.2 190 198.6 204.6 206.6 204.9 202.3 199.5 196.7 192.8 199.5 206.4 211.9 216.7 221.8 223.8 221.7 215.1 209.1 201.2 192.4 204 210.2 214.8 219.6 222 224.1 222.3 221.3 219.8 218.4 217.7 217.8 220.5 223.3 225.2 225.4 225 225.1 225.6 229.4 236.2 241.9 247.5 254 261.4 268.8 270.1 270.7 268.4 263.1 257.2 249.8 245.3 242.6 239.9 238.9 236.4 233 231.7 229 225.5 219.7 213.2 206.5 200.3 194.3 188.5
405.5 402.9 399 397.4 392 390.1 386.8 382.5 377.4 374.5 369.6 366.2 364.3 361.5 355.9 348.2 345.5 349.3 352.2 354.2 353.7 350.9 348.5 345.4 343.3 340 335.3 330.7 324.8 318.7 311.4 303.7 297.4 292.9 287.7 283.9 280.8 275.7 266.9 260.7 258.7 258.6 256.9 264 274.6 287 298.7 312.4 323.2 334.5 346.5 356.5 362.5 366.2 368 367.1 366.4 364.9 361.4 359.8 354.2 347.7 340.7 332.2 323.2 317.4 309.4 301.7 292 286.1 280.3 276.9 274.6 271 265.4 259.6 252.8 242.9 229.9 221.4 215.7 208.4 208.3 218.3 223.1 230.7 235.2 239.1 242.7 245.9 243.1 234.1 222.8 218.4 212.3 206 200.2 196.7 193.6 189 187.5 186.1 191.6 190.9 196.7 200.7 203.5 201.2 197.4 193.1 189.6 181.2 176.6 177.2 176.5 176.3 175 174.8 173.5 172.5 170.9 171.1 170.3 169 167.6 170.7 172.1 173.1 170.4 163.4 162 174.1 187.7 197.7 206.7 210.9 212.2 210.1 207.5 205.1 202 199.7 206.9 211.2 216.2 220.9 224.2 224.7 218.6 220.5 215.8 207.7 198.6 210.9 220.4 229.4 235.6 241.6 242.6 240.7 238.4 236.4 234.3 232.9 232 234.3 236.3 236.8 236.1 235.7 235.4 234.3 236.1 241.3 245.9 251.8 258.8 266.6 271.7 273.4 273.7 269.8 265.2 257.4 252.7 248.9 246.1 244.8 243.8 242.8 239.7 237.7 235.3 232.3 227.5 220.8 214.9 208.7 199.8 193.9
409 406.2 402.9 399.9 397.2 394.9 392.1 388.2 384.3 380.1 375.2 370.9 366.6 360.8 357 351.2 335.1 342.1 344.7 345.8 345.9 345 343.2 339.8 336.6 333.2 329.6 326.1 320.5 314.5 307.9 301.5 295.8 291.1 287 283.4 278.3 273.3 265.5 262.2 260.9 259 260.8 263 277.1 288.2 301.1 316.9 327.7 341.1 352.7 361.8 365.7 367.9 368 366.6 364.7 363.3 360.1 358.1 353.7 347.9 336.8 330.4 319.1 306.3 297.1 289.3 282 276.1 270.1 268.5 266.6 264.2 259 252.5 245.6 235.6 224.5 216.4 208.2 211.2 224.1 231.4 237.4 241.9 245.8 250.6 255.5 257.1 254 247.5 235.8 226.9 219.3 212.7 205.5 202.6 200.7 199.8 198.6 197.6 199.6 204.8 209.9 212.8 214.7 213.3 210.2 207.1 201.8 196.1 189.9 182 181.7 181.4 180.7 182.6 182.2 184.2 185.4 183.8 180.8 176 169.6 166.3 166.4 165.9 164.6 164 164.6 181.1 191.8 202 208.2 212.7 214.9 212.5 210.1 207.9 206.4 205.1 210.1 214.8 219 222.8 223.8 220.7 227.4 226.2 221.3 213.1 202.1 219.6 229.5 239.6 249.1 255.5 258.3 260.6 256.9 255.1 252.4 250 248.9 247.9 249.6 249.1 248.2 246.9 246.4 245 245.2 247.5 251.2 256.5 263.7 271.9 274.4 276.3 276.6 272.7 266.7 259.8 253.9 250.1 247.4 246.9 246.7 245.3 243.5 242.1 240.9 239 235.3 227.8 221.5 215.9 209.3 202.8
410.7 407.8 405.6 403 400.6 397.9 395.1 391.1 387.7 383.2 378.4 373.5 368.4 363.5 357.2 351.8 345.4 330.6 337.1 340.2 340.1 338.4 336.2 333.2 329.4 326.1 323.5 320.9 315.3 309.2 303.9 298.1 293 288 284 280.6 274.5 269.2 269.2 264.2 262.9 261.2 260.4 261.7 276.8 289.5 303.2 318.7 330.8 345.2 358.5 365.3 368.1 368.6 366.9 364.6 362.6 361.7 359.7 357.8 352.9 347.4 336.7 327.9 315.9 302.7 289.3 278.9 273.4 267.4 263.4 260.4 258.5 256.4 253.2 247.3 239.8 231.1 221.3 213.3 209.6 222.3 232.8 239.9 245.3 250.9 256.6 263.6 268.3 269.6 266.8 260.1 249.3 237.3 229.3 219.9 214.5 210.7 209 207.4 205.7 206.5 208.8 213.2 217.7 221.3 224.9 224.9 221 216.7 211.9 207.2 199.4 192.5 193.2 190.6 193.6 200 203.6 205.5 202.7 199.4 194.7 189.5 182.9 176.5 169.8 165.7 163.8 166.9 168.6 185 193.3 202.2 208.8 212.5 214.5 213.5 212.2 211 211.4 212.9 215.3 219 222.3 226.4 228.3 232.3 232.1 231.7 225.3 219.1 204.1 225.6 236.8 247.8 255.8 264.5 271.1 273.7 274.8 273.3 269.4 266.9 264.8 263.4 263 261.1 259.5 258.3 257.4 256.7 257.6 259.1 261 264 271.6 275.5 277.4 280.5 278.2 274.1 268.2 260.8 255.2 250 246.3 245.6 245.5 245 244.5 244.2 243.6 243.2 240.5 234 228.2 222.7 216.5 210.2
411.6 409.4 407.3 405.4 403.3 400.5 397.8 394.2 387.6 385.8 379.3 374.6 368.7 363.7 357.7 352 345.9 338.6 325.7 331.8 334.5 332.9 329.6 325.5 316.2 311.2 310.3 311.2 307.7 303.3 298.4 292.9 288.4 284.3 279.1 273.8 269.9 277.2 274.8 269 263 261.9 261.2 260.9 275 289.8 303.6 318.3 333.7 347.4 358.6 365.5 367.5 366.6 364.4 361.6 359.9 359.4 359 356.7 350.5 343.7 336 325.7 312.8 299.4 286.3 273.7 265.6 261.1 256.5 253.8 252.3 249.8 248.3 241.9 232.9 227.1 218.5 209.6 219 231.1 238.7 246.3 253.8 261.9 270.4 276.2 282.6 282.5 280 270.9 261.7 249.3 237.7 229.5 222.3 219.1 217 215.8 213 215.6 217.9 222 226.1 230.4 234.1 231.6 227.5 222.3 217 210.9 203.3 202.5 202.1 202.7 205.8 211.4 214.5 214.7 210 204.9 201.5 195.4 191 184.7 179.9 179.4 170.6 168.4 170.3 188.5 193.5 200.7 207.3 211.4 214.5 214.9 214.6 215.1 215.9 217.1 219.2 220.6 229.1 233.7 235.8 237.5 235.9 232.1 216.6 218 212.3 230.5 241 252 262 273.1 277.6 280.7 282.3 281.5 281.2 281.4 279.9 277.5 273.4 271.2 271.5 271.1 271.4 270.8 271 270.9 271.3 274.1 277.2 278.6 280.5 282 278.9 274.3 268.3 260.5 254.7 248.3 245 243.4 243.2 243.5 244 244.6 244.3 244.2 242.7 238.9 233.4 228.1 222.7 217.3
412.9 409.6 408.4 407.1 405.1 401.7 398.9 395.2 389.7 384.6 378.8 373.7 368.6 363.2 357.5 352.1 346.3 340 333.1 321.8 317.4 317.1 314.2 307.7 305.1 303 300 297.1 294.1 294.3 290.9 284.7 279.1 278.6 276.1 281.1 281 282.1 280.1 273.5 262.6 262.6 262.1 261.6 272.4 288.3 301.2 318.3 333.4 347.5 356.5 362.6 364.3 362.6 360.2 357.5 354.3 354.4 355.8 352.4 347 340.9 332.4 321.9 308.7 295.8 283.2 272.6 265.6 258.7 255.3 245.4 241.5 236.5 230 227.5 223.5 222.1 215 218.1 230.5 238.2 245.7 255.6 263.7 274.2 283.2 291 295.9 294.4 290.4 285.5 275.7 264.1 250.8 240.5 231.3 229.1 226.6 224.5 223.5 225.2 226.4 228.4 233.7 237.1 239.1 234.9 231.5 226.3 220.8 215.3 210.8 209.4 209 211.7 214.9 217.9 219.1 218 212.4 207.7 202.5 197.4 192.2 187.9 180.9 172.7 179 173.1 170.7 183.7 192 199.2 206 211.2 215.4 217.7 218.9 219.8 222 223.2 224.5 228.5 235.4 241 243.2 241.1 228.6 231 236.5 233 222 234.7 245.2 255.5 267.3 278.1 281.9 286 288.9 288 287.2 287.3 288 286.7 283.3 281.9 282.5 283.4 284 284.3 283.7 282.3 282.6 283.3 283.4 283.2 284.2 283.2 278.9 273.9 267.8 258.3 252.8 246.7 242.9 241 241.2 241.6 242.7 243.2 243.7 243.5 242.7 240.6 238.3 234.3 230.4 227.1
411.4 408.1 407.8 406.7 405.1 401.6 397.6 394 388.2 381.2 376.7 370.6 366.5 361.7 356.6 351.4 345.2 334.1 332.2 334.2 331 328.1 323.9 319 319 316.6 311.9 306.7 302 297.1 293.2 290.8 289.1 286.4 285.6 288.3 288.5 285.8 286.2 279.7 269.5 262.7 262.6 261.6 264.7 283.3 298 316.6 330.4 343.2 351.5 357.2 358.5 357.1 353.4 349.8 348.3 349.6 349.2 347.1 342.6 336.5 327.1 315.8 303.4 291.3 280 271.6 265.6 261 259 257.5 255.8 253 244.8 230.2 218.4 215.2 220.8 233.7 240.6 246.4 254.1 265 274.4 284.2 294.1 301.4 304.2 303.8 301.5 293.7 281.5 274.6 263.7 252.7 244.3 240.5 237.7 236.3 235 235 236.9 241.4 245.9 246.4 243.8 238.6 231.8 227.9 223.3 220.7 218.1 215.5 216.8 218.8 221 222.7 222.2 219 212.8 206.6 200.9 195.9 190.7 185.8 178 171.8 179.8 177.6 172.7 182 190.1 198.6 206.6 213.3 218 220.7 221.7 224.1 226.4 229.6 232.5 238 238.1 248 244.4 235.3 248.5 248.2 245.9 243 239.5 239.5 250.1 260.3 271.4 282 287 291.3 295.8 294.4 293.4 293.4 295.1 294.9 293.6 291 290.1 289.8 290.2 289.8 289.1 288.1 288.4 289.2 288.6 287.6 287.3 284.5 279 272.5 265.6 256 250.5 245.4 240.8 239 238.3 238.1 239.3 239.8 240.4 241.7 241.4 240.3 239.7 237.3 234.7 231.9
409.9 406.6 405.9 404.6 402.1 399.2 395.4 390 385.4 378.5 372.9 368 363.2 358.5 353.9 347.7 336.4 340.9 341.7 341.2 340 337.7 336 332.8 330.8 323.5 317.8 312.2 307.5 302.7 300.5 297.3 293.8 292.4 292.9 295.5 295.1 292.1 287.9 283.9 277.1 269.6 262.3 262.2 262.6 279.2 294.6 311.4 325 335.9 343.4 349.1 349.8 347.3 343.9 339.2 338.8 339.7 341 340 336.2 329.8 321 308.7 296.3 285.4 276.4 268.7 264.3 260.9 259.5 254.7 254.3 250.8 242.2 229.6 217.6 228.9 237.5 243.6 248.7 254.9 265 274.6 283.2 293.4 302.5 309.5 314.5 319.7 311.4 297.9 290.4 284.6 275.2 264.8 258.5 253.9 255.8 254 251.9 251.4 252.2 252.7 254 252 248.4 242.2 236.1 231 227.6 226.5 225.5 224.7 225 224.4 225.3 224.3 221.9 217.3 212 205.2 199.4 193.8 188.4 180.5 171.9 173.7 181.8 180.9 174.3 184.3 192.7 200.7 208.6 216.2 220.2 223.3 225.8 228.8 233 235.2 235.4 236.6 234.5 239.2 246 254.4 256.8 255.1 253.7 250.4 247.1 244.9 253.8 262.8 274.1 284.2 291.4 296.5 301.5 300.6 299.1 299.9 301.9 303.3 301.1 298.9 297 296.3 296.1 295.3 294.4 293.4 293.4 293.1 292.2 290.4 289.8 286.1 278.8 271.3 264.2 255 249.7 244.5 240 237.5 236.5 235.9 235.2 235.8 236.8 237.3 237.3 237.7 237.7 236.9 235.6 234.3
406.9 405.1 403.5 401.2 398.8 395.7 391.4 386.2 381 375.1 371.2 366.5 360.5 355.7 349 347.4 350 349.2 348.1 346.4 345.4 344.3 342.4 340.4 337 330.4 323.5 316.1 310.2 307.1 302.9 298.8 296.7 294.2 299.8 300.5 301.1 299.6 293.9 281.9 280.2 274.1 264.6 262.8 262.7 275.1 290.7 303.8 316.8 325.6 331.9 336.4 337 333.1 330.5 325.6 324.7 328.1 330.4 330.5 326.2 320.6 311.3 298.1 285.4 275.3 270 264.5 260.5 257.7 254.5 249.8 248.6 240.6 233 233.1 218.8 234.7 244.3 251 257 265.6 274.1 282.1 289.8 299 308.5 319.5 328.9 328.3 318.1 313 301.3 288.8 286.2 278.8 273.9 272.6 270.6 268.7 266.8 263.8 262.5 261.1 260.8 258.4 253.9 247.9 242.3 239.4 237.6 237.1 236.5 234.6 231.7 229.9 228.4 225.7 221.9 216.5 211 203.8 198 192.4 185.2 176.2 182.1 186.2 185.6 183.8 176.1 187.9 197.1 204 211.7 218.8 222.6 226.7 231.4 234.6 238.4 239.6 241 247.1 252.4 256.5 259.7 262.2 263.6 261.7 258.8 256.2 253.7 247.9 256.6 266.1 275.9 286.5 294.8 300.4 305.6 305.2 302.7 305.2 308.2 308.2 306.8 305.2 304.1 302.6 301.2 300.1 299.1 297.9 297.3 296.2 294.1 292 292.7 286.5 280.5 273.1 266.7 259.6 253.2 247.2 240.1 236.4 234.2 232.7 232.5 232 232.1 232.3 232.6 232.7 233 233.2 232.4 231.6
404 402.9 401.4 398.4 394.4 391.2 387.5 383.9 378.9 373.8 369.3 365.5 359.6 354.4 351.4 355.2 354.3 353.7 352.8 352.2 350.6 350.2 348.5 346 341.6 336.3 330.8 324.1 317.2 312.4 308.5 304.8 301.1 299.6 303.2 304.3 305.1 302.4 298.5 289.1 278.1 274.2 266.8 262.9 263.2 270.2 285.4 297.1 306 313 317.9 319.6 318.2 314.2 311.9 308.6 310.3 312.7 315.8 315.8 314.5 305.8 295.9 283.8 274.3 268.2 263.6 258.8 254.8 251.9 248.3 241.5 234.1 224.9 221.6 222.1 229.9 240 248.9 256.7 263.1 274 282.2 289.9 297.3 305.5 316.3 327.4 332.6 329.6 330.1 323.5 318.1 308 300 292.6 286.3 282.9 280.5 277 274.5 272 270.4 268.8 266.6 263.8 260.5 255.7 252.8 251.2 249.6 247.8 245.1 241.8 238.7 234.4 231.2 226.3 221 215 210.8 202.7 196.6 189 184.1 179.3 189.4 190.8 190.9 188 179.3 191.8 200.6 207.2 215.4 220.5 226.3 230.8 236.3 239.2 241.3 242.9 247.1 252.9 259.5 263.8 267.1 268.3 268.4 267.1 264 261.6 259.7 259.6 263.2 269.5 276.8 286.5 295.7 301.7 307 307.2 305.3 308 311.7 313 311.4 309.6 307 304.8 303.6 302.1 300.8 299.4 298.5 297 295.4 293.1 293.5 288.8 282.2 276.3 270.1 263.8 257.3 249.7 242.7 236 232.8 229.7 229.2 228.2 227.5 227.7 227.9 228 228.2 228 227.6 227.4
400.5 399.8 398.9 396 392.7 390 386.8 383.3 378.4 374.9 370.8 367.6 362.1 359.5 359.1 358.8 358 357.6 357.2 356.6 356 355.2 354 351.1 347 341.9 336.3 330 323.7 319 314.7 310.8 307.3 307.6 308.7 309 308.2 305.7 302.1 295 285.1 273.9 269.1 263.7 262.7 266.8 278.9 287.5 294.2 299.5 302.1 301.9 299.8 299.1 297.7 296.4 296.2 296.6 299.6 298.1 297.7 288.1 279.4 272.3 266.1 260.8 257.7 254 250.1 246.2 241.1 232.9 225 223 228.1 238 244 242.5 254 261.8 269.8 281.7 289.4 297.1 304.1 312.2 322.6 329.9 333.6 340.3 336.5 331.2 326.2 320.7 311.1 302.7 293.8 288.5 283.3 283.2 280.7 278.2 276.3 273.8 271.3 268.6 265.3 263.9 262.5 260.9 259.6 257.2 253.9 247.6 243.8 238.3 232.7 226.2 220.4 215 208.7 201.6 195.5 189.6 185 180.2 192 196 196.9 193.9 186.9 188.9 200.9 210.8 217.3 222.9 229.1 235.5 239.8 242.5 242.9 242.4 251.3 259 265.3 269.7 273.1 274.5 274.1 271.9 269.1 266.9 264.6 263.8 267.4 271.6 278.6 287 296 302.7 308.1 308.2 306.1 310.3 314.8 317.2 315.3 312.4 309.4 307 305.6 304 302.4 300.5 299.4 297.8 296.2 294.5 293.4 290.1 284.7 278.9 273 266.4 259.3 251.3 243.5 237 232.7 229.3 225.5 224.7 224.3 224.2 223.5 223.6 223.2 222.8 222.3 221.5
396.2 398.6 397.6 396.1 393.6 389.6 387.2 384.2 380.5 375.4 372.9 368.7 363.1 365.2 363.8 362.5 361.6 361.2 360.8 360.5 360.3 358.8 357.4 354.5 351.4 346.2 340.6 334.9 329.3 324.6 320 315.8 314.4 314.6 314.3 312.7 311.6 308.1 304.6 299 289.2 278.4 278.1 265.4 263.5 262.5 269.2 278.7 283.4 285.4 288.2 286.8 287 287.3 285.4 285.9 284 284.6 283.6 282.5 278.5 274.6 271.5 266.7 261.1 257.5 253.9 249.7 245.3 239.3 234.5 227 231.3 240.7 247.1 250.1 254.4 252.4 260.8 268 276.8 288.1 296 305 313.4 321.3 328.6 334.8 343 345.7 343.4 338.9 334.9 329.2 321.7 313.4 303.7 294 284.3 289.8 288.4 284.4 280.8 278 276.4 275.2 274.4 274.1 273.9 271.4 269.3 264.3 259 253.6 247.6 241.4 234.9 227.7 221.5 215.9 210.7 202.8 196.4 191.7 186.8 181.7 195 199.5 201.4 200.3 195.4 183.8 201.1 209.8 219.5 224.5 232 237.6 240.9 242.9 243.6 245.3 255.3 263.7 269.9 275 278 279.1 278.9 276.8 274.5 270.5 269.3 269 270.9 274.7 280.8 288.6 297.4 304.1 309.6 308.2 308.4 313.8 318.8 320.8 317.6 314.7 311.9 309.3 307.3 305.8 303.9 301.9 300.4 298.6 296.7 295 295 291.5 286.7 281 275.2 268.7 261.1 253.6 245.2 238.3 232.6 229.9 225.9 222 220.8 220.3 219.3 218.4 217.9 217.3 216.1 215.5
394.4 397.3 398.1 397 395.5 393.2 390.2 386.6 383.7 380.2 377.8 374.9 372.8 370.6 368.4 366.4 365.7 364.7 364.5 364 363.8 362.1 359.6 356.1 352.7 348.7 344.2 339.2 333.8 329.2 324.4 321.6 319.8 319.1 318.4 315.6 313.2 309.9 305.9 299.8 291.2 284.1 268.5 269.7 270.4 262.7 263.5 267.6 272.6 272.2 277.9 278.2 278.4 277.5 275.6 278.3 276.6 279.5 273.2 271.4 271.6 269.8 266.5 262.9 258.7 254.3 250.1 244.7 239.5 233.3 228.8 228.6 242.5 253.4 256 259.5 262.2 261.8 266 272.9 283.1 294.5 302.5 310.9 322.1 328.6 334.9 341.2 348.4 350.5 349.6 347.1 343.5 339.2 332.7 326.3 317.4 308 297.6 290.6 283.4 288.3 285.9 281.6 281.6 279.4 280.5 281.1 280.9 279.1 273.7 268.8 263.3 256.8 250.6 244.2 237.7 230.7 224.1 218 212.2 205.8 198.9 194.3 190 184.5 196.3 202.5 204.9 204.8 200.4 191.5 189.4 211 220.2 225.7 232.8 238.6 241.4 242.9 244.5 250.7 261.8 270 275.1 280.1 281.8 282.8 282.4 280.8 278.5 274.3 273.5 273.7 275.5 279.9 285.5 292.5 299.6 305.7 308.8 307.1 312.1 318 321.1 321.6 317.6 315.8 313.3 311.1 308.9 306 304.1 303.2 301.5 298.2 295.6 294.6 295.5 291.8 287.7 282.3 276.6 269.7 262.3 254.1 246.8 239.4 234.5 230.5 226.4 222.7 218.9 215.7 215.1 214.2 212.8 211.9 211 210.3
389.1 395.8 398.1 397.9 396.7 395 392.5 390 387.2 383.9 381.8 380.2 378.2 376.2 373.5 370 368.9 368 367.8 367.2 366.3 364.4 362 358.5 354.9 349.6 345.8 341.9 337.5 333.6 330.1 325.9 323.4 321.8 320.1 317.6 314.4 311.5 305.3 300.6 292.7 286.6 274 284.3 283.1 275.3 266.6 261.5 257.3 258.3 260 266.7 269.2 265.4 257.9 258.9 255.7 266.6 262.8 263.8 265.4 264 261.7 258.6 255.4 250.9 245.5 232.8 230.7 229.3 229.3 240.5 251.5 262.4 264.3 271 271.4 268.4 274.1 279.8 290.3 300.1 308.9 317.2 326 334.6 339.7 346.2 353.2 355.5 353.1 350.3 347.4 345 341.6 338.3 331.4 323.2 313 302.3 290.6 282.6 280.1 278.9 275.8 280.5 272.2 283.9 283.4 281.4 277.5 270.5 265.2 259.9 254.2 246.8 241.1 234.1 227.4 221.4 214.6 209.6 202.8 197.6 193.1 184.8 197.3 204.4 208.2 208.7 207.3 202.7 199.8 201.6 219.3 226.4 232.1 239.1 245.2 252 257 261.9 268.1 273.5 278.7 283.4 285.4 286.3 286.1 284.8 282.6 280.5 278.9 279.6 282.2 286.6 292.2 298.1 302.5 306.6 306.8 309.6 314.9 318.5 319.5 319 315.4 312.8 310.5 308.3 306.4 304.1 302.5 300.7 298.6 296.4 294.4 293.7 293.3 291.1 287.9 283.4 278 271.4 264.7 257.5 250.1 242.7 236.2 231.6 227.3 223.4 220.8 217.5 213.7 211.1 209.1 208.6 207 206.5
384.9 389.5 392.4 396.4 396.5 395.5 394.4 392.3 390.1 388.1 386.4 384.9 382.8 380.1 376.9 373.6 372.6 371.2 369.7 368.7 367.3 364.8 362.1 359.7 356 351.5 347.3 343.8 340.5 337.2 333.3 331.6 326.2 323.7 322.2 319.2 316.4 313 308.2 299.2 289.5 277.7 282.4 289.8 292.3 293.3 289.2 281.5 273 266.3 260.2 254.5 254.6 254.1 252.1 248.2 246.3 247 247.5 249 255.8 257 257.4 255 250.6 247 234.8 233.2 236.9 237.6 246 252.6 262.7 272.9 276.5 279.4 278.8 276.6 279 288 297.4 306.2 314.6 323.1 331.3 338.6 344.2 349.3 353.7 356.9 355 352.1 349.5 347.3 342.7 338.5 333.7 328.9 320.1 311.1 302.5 292.9 291.4 290.7 288.5 286.3 278.4 276.8 283 281.4 279.6 271.4 266.5 261.6 256.3 250.5 244.8 238.9 232 224.7 216.6 211.7 206.4 201.1 197.1 189.3 196.4 205.9 210.9 212.4 211.7 206.9 205.8 193.6 214.9 227.3 232.3 240.3 247.4 253.1 257.7 263.5 267.9 274.3 280.7 285.1 288 289.6 290.2 288.9 287 285.3 284.7 285.4 288.5 292.1 297.3 301.4 304.5 306.9 308.6 311.8 314.1 314.6 314.6 313.9 312.5 309.1 306.3 304.6 303 301.8 300.4 298.9 296.4 293.6 292 291.1 290.3 289.3 287 283.9 279.4 273.8 267.3 260.6 253.9 246.5 239.5 233.8 229.6 226 223.5 221 217.8 213.9 210.6 209.2 207.6 206
375.6 383.9 385.8 385.2 392.7 393.7 393.8 392.9 391.1 389.4 388.7 386.7 385.6 384.1 380.8 377.6 374.4 373.3 371.4 369.9 367.3 364.4 361.7 359.5 356.3 351.8 348.1 345.2 342.5 338.5 335.5 332.4 330.4 325.8 323 320.3 317.4 313.8 310.5 303.9 293.7 291 293.7 295 298.4 302.7 305.5 301.5 294.6 287.7 280.2 272.6 265.2 260.8 267.6 264 263.3 257.7 257 257.8 245.6 246.2 241.3 238.8 243.2 241.1 235.3 237.3 241.5 248.7 254.6 261.9 272.2 277.5 282.8 283.8 284.1 282.9 286 294.2 303.1 312.3 321.1 329.1 336 342.2 347.9 352 355.5 357 356 354.1 351.5 349.2 344.4 339.7 334.4 328.6 320.5 311.2 303.5 298.4 292.3 290.5 287.3 285.6 285.4 272.7 271.7 280.1 277.1 271.3 267 263.4 259.4 254.3 248.7 243.7 237.2 229.1 221.2 214.7 209.3 205.4 200 195.7 191.4 207.8 213.7 215.4 215 212.9 210.5 197.2 209.8 228.6 233.5 239.7 245.4 251.1 256.9 261.9 267.3 274.2 280.9 285.6 289.1 291.9 292.6 291.5 290 289.8 288.9 290.7 293.5 296.9 300.7 302.6 305.5 308.7 310.3 311.1 310.6 309.7 308.7 307.9 306.7 304.3 301.9 300.8 299.6 298.8 298.3 296.7 293.4 292.9 290.6 288.6 287.4 286.6 285.4 283.3 279.8 275.3 269.9 263.8 257.6 250.9 244.2 237.5 232.2 229 226.5 224.7 222.1 218.1 213.8 211.9 210.2 208.7
366.5 369.4 375.7 383 384 389.4 390.8 390.9 389.8 388.1 388 387.5 386.7 385.3 382.8 379.8 376.4 374.5 373.4 370.3 366.9 363.5 361.1 358.5 355.2 351.1 348.1 346 342.8 339.2 336.8 333.8 331.3 327.8 325.3 321.9 318.4 315.4 312.8 303.1 298.6 301.3 299.6 300.7 304.5 310.4 314.9 316.1 313.9 307.9 300 293.6 289.3 284.6 279.7 277.7 275.8 269.3 267.2 265.8 255.6 244.2 239.1 238.4 240.2 241.2 237.3 241 251.9 258.2 263.9 270.2 278.8 284 287.6 290.4 291.1 290.1 291.2 298.7 307.7 317 326.2 335.3 340.9 346.2 349.5 352.8 356.4 356.8 355.7 354.2 352.4 348.2 343.3 338.9 334.1 327.3 320.6 311.4 303.7 299.1 296.6 284.5 285.5 281.4 283.8 282.6 272.6 274.8 273.8 270.3 267.3 265 261.7 257.7 252.3 247.5 244 234.3 224.6 217.5 212.2 208.6 202 191 198.5 208.8 215.6 218 219.6 219.5 216.8 200.5 202 223.5 234.5 235.5 243.3 248.6 253.4 259.4 265.7 273.1 279.9 285.6 289.8 293.5 294.6 294.5 293.9 293.2 293.3 294.1 296.8 299.7 301.9 303.4 306.7 310.9 309.2 307.6 305.6 304.4 303.4 302.4 300.7 298.5 297.5 296 296 294.9 293.6 292.7 292 289.4 286.6 284.5 283.9 283 283 281.5 279.4 276 271.8 266.7 261.4 255.3 249.6 243.7 237.2 232.1 230.1 228.4 225.9 222 217.6 214.3 212 210.2
356 359.2 364.2 370.8 377 381.2 384 385.3 383.9 382.9 384.1 385.1 385.8 385 383.2 380.4 377.3 375 373.3 371 367 363 360.1 357.3 354 350.4 347.1 343.6 341.4 339.3 337.1 334.4 332.1 329.8 327 324.1 321.7 318.6 312.1 302.6 309.6 307.4 305.2 303.7 308.4 314.4 319.8 322.7 320.9 317.7 314.3 310.1 301.7 294.5 289.4 285.9 280.6 275.1 272.5 270.2 265.9 261.4 259.2 255.8 249.9 245.7 237.6 247.6 259.9 266.1 273.3 280 285.8 290.1 293.8 296.2 297.1 296.1 295.5 304.1 312.4 321.4 330.4 338.8 343.9 347.3 350.3 353.1 354.5 355.1 354.7 353.1 349.5 344.8 340.7 336.4 331.7 325 317.5 310.9 305.3 299.8 294.3 289.1 280.2 280.6 275.6 277.1 272.8 261.8 269.7 270.5 268.6 266.5 263.5 258.2 252.8 248.9 244.6 240.1 228.6 219.6 215.2 209.7 197.1 203.4 202.3 212 218.4 222.2 223.6 225.4 223.8 213.7 202.3 215.7 233.3 234.5 240.7 245.6 250.2 256.8 263.8 271 277.9 284.5 289.6 293.2 295.2 296.1 295.7 295.1 295.2 296.8 299.2 301 302.5 303.9 306.5 306.9 306 303.7 301.6 299.8 298.4 297.1 295.3 292.5 292.1 290.9 290.7 290 289.3 288.3 285.9 284.3 282 279.5 279.3 278.8 279.2 279.4 278 275.6 272.9 268.6 264.2 258.1 252.9 247.4 241.6 237.3 234.5 232.3 228.6 224.2 220.1 216.7 214.1 211.6
350.4 351.6 356.1 360.9 366.9 371.9 375.5 375.2 374.7 374.8 378.1 380.6 382.6 382.9 381.5 379.6 377.5 374.8 373 370.2 366.6 363 358.2 356.1 352.3 349.9 344.8 341.7 340.1 338.1 336.4 335 332.7 330.5 328.1 325.5 323.3 320.1 314.6 315.8 315.3 314 312.5 310.7 311.4 316.4 320.9 323.7 324 322.8 320.1 313 306.5 300.4 295.7 292.5 284.8 280.2 277.7 274.4 270.9 268.5 264.4 259.1 252.8 245.9 239.9 253.4 265.3 273.2 280.3 286.4 292.3 296.5 300.1 301.5 303.2 302.1 302.7 310.1 318.2 325.9 333.9 341.3 344.7 347.8 350.7 351.9 352.6 353.2 352.7 348.5 344.8 339.8 336.8 332.5 328.3 322.2 315.3 310.4 306.3 301.4 296.5 290.8 285 275.3 272.4 271 270.6 271.1 258.2 269.4 268.9 266.6 263.3 259.2 254.7 249.5 247.1 242.1 230.5 223.2 217.9 192.2 210.9 208.3 208.6 218.8 222.8 224.2 228.9 230.4 230.6 227 214.4 203.6 212.5 231.2 236.2 241.6 246.7 254 261.3 268.6 275.5 282.3 287.4 290.9 293.9 295.5 296.1 296.3 296.5 297.5 299.9 301.3 302.3 302.9 303.3 302.8 301.9 299.7 297.6 295.8 294.6 292 288.5 286.2 285.5 285.1 284.8 284.5 283.2 282.5 281 278.6 276.5 274.5 273.7 273.5 274.7 275.5 275.6 274.6 272.5 268.6 264.8 259.7 255.6 250.4 245.5 241.1 238.5 236.2 232.3 227.3 222.5 218.2 215.2 212
344.4 345.3 346.4 349.7 356.7 361.3 365 366.1 367.2 367.3 369.8 373 376.5 377.2 378.5 377.7 376.4 374.5 372.6 369.6 366.3 362.2 358.3 355.8 352 348.3 343.1 341.2 339.1 337 335.7 334.4 332.4 329.8 327 323.6 322.8 321.2 313.6 319.9 319.6 318 316.4 314.7 314.1 316.8 320 322.3 323.7 321.9 318.1 313.1 308.9 303.4 298.5 293.4 287.8 284.4 281.8 279.2 276.6 272.2 265 258.7 250.2 243.4 246.3 258.7 270.8 278.8 286.3 292.5 298.5 302.8 306.4 309.7 311.5 310.8 311 315.8 323.5 330.1 336.6 342.5 345.6 348.1 349.9 350.1 350.8 350.3 347.8 343.7 339.6 333.7 328.9 325.7 323 318.9 313.9 309.8 306.8 302.1 297.5 292.5 286.7 280.3 274.8 271.1 268.1 268.5 268.8 255.1 265.2 263.2 257.5 251.8 249.6 247.8 247.4 241.7 232.4 226.1 217.5 201.8 218.9 214.4 213.5 224.9 223.3 226.3 231.1 232.2 232.3 231.1 225.2 217.2 206.3 222.3 227.9 239 244.5 251.7 259.1 266 272.5 278.9 284.7 288.6 291.4 293.1 294.4 295 295.5 296.4 297.5 298.5 300.7 300.8 300.3 299.2 297.9 295.8 293.7 291.8 289.5 285.7 282.2 280 279.6 278.8 277.9 277.6 276.8 276.8 274.8 273.2 271.5 269.3 267.4 267.5 268.9 270.6 272.2 272.4 271.3 267.7 264.2 260.1 256.2 252.2 248.4 244.6 241.2 238.6 235.4 231.1 224.9 219.1 214.6 211.6
336.2 338.7 340 340.2 345.4 349.2 352 353.2 352.2 352.8 356.9 363.4 368.8 372.7 372 374.5 374.4 373.5 371.8 369.5 366.3 362.6 358.9 357.5 353.5 348.7 344.5 341.8 339.6 337.5 335.6 333.9 332 329.9 326.9 325.1 323.7 317.8 321.1 321.7 321.5 320.5 317.9 316.1 315.8 316.3 318 320 320.3 318.2 314.8 311.4 308.5 304.5 298.5 293.2 290.6 287 283.3 280.2 277.4 272 263.9 255 245.7 246.7 247.8 262.8 276 284 290.9 297.6 303 308.7 314.1 318.3 321.4 319.6 320.5 323.6 328.4 333.1 337.7 343.7 346.3 348.2 348.7 348.1 348.5 344.2 338.9 336.8 332.2 326 321.2 317.3 313.9 311.2 309.9 308 305.3 301.9 297.3 292.4 287.2 281.4 277.5 273.1 263.9 265.1 264.5 256.4 259.6 254.7 249.7 247.2 244.8 243.6 243.9 243.8 232.2 223.6 204.1 209.3 217.2 218.3 225.9 230.1 234.5 233.7 234.8 235.9 233.6 233.6 232.5 225.6 208.8 216.5 231.9 238.4 244.2 250.3 258.2 263.2 269.2 275.3 280.6 284.8 287.1 288.8 290.3 291.2 291.9 292.3 292.8 293.3 293.8 294.9 296.1 296.3 294.2 292 289.5 287.7 284.9 281.1 278.2 275 273.8 273.4 272.3 271.4 270.9 270.3 269.5 268.2 266.9 264 261.4 260.8 261.6 264.4 267 267.7 267.3 265.4 262.5 259.1 255.8 252.9 250.1 246.3 242.8 240.4 237.4 232.7 226.1 219.7 215.4 208.4
329.1 329.9 331.1 331.7 334.6 337.2 338.7 339.9 339.3 339.5 342.6 349.8 358.3 364.2 368.5 369.6 369.3 371.8 370.9 369.5 366.6 363.6 359.6 357.6 354.7 350.2 347.3 343.1 340.1 337.9 336 334.1 332.1 329.7 327.3 324.4 321.1 321.5 321.2 321.8 321.6 320.5 318.7 316.9 316.2 315.4 315.3 315.6 314.3 311.5 308.8 305.5 303.1 302.7 295.4 288 286.2 284.1 281.2 276.8 273.6 265.6 253.9 251.6 256.4 258.1 256.4 264.2 278.4 287.5 295.2 301.6 307.3 314.5 322.6 327.1 327.1 327.6 327.6 329.1 332.1 336.5 340 344.7 346.8 347.1 346.6 345.7 343.9 339.3 334 330.5 323.8 315 313.9 308.9 307.1 307.5 306.5 304.4 301.7 298.6 294.8 290.7 287.1 283.1 279.1 273.5 267.1 259.6 258.8 258.9 248.8 248.5 247.8 246.1 244.6 242.9 240.4 242.3 233.7 228.8 204.7 215.5 217.8 220.4 225.2 233.7 238.1 236.6 242.7 241.3 233.7 235.3 233.9 232.9 210.4 219.3 233.7 240.1 245.6 250.3 256.5 262.2 267.7 272.4 276.7 279.8 281.6 282.3 283.6 284.9 286.2 286.4 286.8 287.6 287.9 287.3 289.2 289.3 289.3 288 285.6 282.8 280 276.7 273.5 269.9 268.3 267.8 267.1 266.3 265.9 265.6 264.8 263.6 262.1 258.9 255.5 254.6 255.5 258.2 260.5 262.1 262.1 261 259.4 256.6 254.3 252.5 250.7 247.7 244.6 242.1 238.2 233.5 226.8 220.9 216.3 209.5
324.9 321.9 321.1 323.4 323 325.1 325.8 327.1 328.2 328.7 332.3 337.3 346.4 354 360.9 364.5 368.9 369.4 369.5 369.1 366.8 364 361.1 357.9 354.9 352 347.9 344.5 341.5 338.7 336.2 333.8 331.9 329 325.6 324.2 322.6 321.6 320.3 320.3 320.9 319.4 318.2 316.1 315.1 313.7 311.9 311.2 307.7 303.8 298.6 291.8 284.8 280.8 277.5 277.5 275 272.9 268.3 260.6 257.6 253.3 261.9 268.9 272 270.7 267.5 265.5 280.1 289.7 298.8 304.9 312.2 320.1 330 332.8 335.1 335 334.4 334.9 336.4 338.4 341.9 345.4 346.8 347 346.1 343.6 338.5 333.6 328.7 324 317 311.6 307.1 303.4 303 302.2 301 299.3 297.5 295.1 291.8 288.2 286 282.2 278.1 273 268 262.2 257 255.6 255.8 253.9 248.5 247.3 245.6 244.2 240.9 236.6 231.8 228.9 208.8 202.1 204.2 229 226.8 233.3 240.9 245.9 235.8 224.8 219 222 217.5 218.8 221.1 219.1 234.9 240.9 244.4 248.1 255.1 260.4 264.6 268.4 271.2 274 274.3 275.5 276.6 277.9 278.9 279.3 279.8 280.6 281.7 281.8 282.9 283.6 283.5 282.5 280.9 278.5 275.4 272.6 269.4 265.4 262.7 261.8 262.5 261.2 261.2 260.3 259.4 258.1 256.2 253.8 250.5 247.8 248.8 252.1 255.1 256.1 256.9 256.3 255.4 253.1 251.4 250.2 248.9 247.5 245.2 241.6 237.4 233.1 226.9 220.4 214.7 209.1
319.9 316.4 313.6 312.4 313.1 315.8 316.5 318 319.1 321.7 324.1 327.6 334.2 343.1 351.6 358.8 364.8 367.2 367.5 367.7 366 364.2 361.5 357.9 355.1 352.3 349.2 345.9 343.5 338.7 334.9 332 327 325 324 323.7 322.8 323.4 316.4 318.7 322.2 316.9 316.5 314.4 312.1 309.6 307.3 303.3 297.7 290.4 283 282.9 282.6 280.1 274.4 270 267.5 263.2 261.8 258.6 271.1 278.4 283.9 285.6 286 284.3 280.7 273.6 277.9 291.1 301.5 309 316.9 326 335.5 338.1 341.3 341.8 340.8 341 341.2 342.3 344.2 346.4 346.9 346 344 337 332.3 327.2 322.1 316.7 311.4 305.9 301.2 298.7 297.3 296.3 294.9 293.8 292.8 291.6 288.7 285.4 282.3 279.2 275.3 271.4 267.5 263.6 258.4 253.6 251.4 251.5 250.7 248.3 246.2 245.2 242.2 237.3 231.7 227.6 210.9 210.3 224 224.3 228.9 234.7 240.4 241.7 223.1 225.9 229.4 229 232.7 227.7 234.2 227.2 237 241.8 245.7 248 249.8 249.5 250.4 259.7 262.8 263.7 265.1 267.1 268.7 270.2 270.5 270.9 271.8 273.2 273.9 275.3 277 277.9 278 277.4 276 274.1 271.7 268.6 265.3 261.5 257.2 256.5 256.3 256.8 256.9 256.2 254.7 253 251.1 249 246.3 243.9 242.6 245.4 248 249.3 250 251.7 250.5 248.9 247.5 246.5 245.5 243.8 242 239.3 235.6 231.4 225.9 219.7 213.8 209.2
317.1 309.1 306.1 305.1 305.2 309.3 311.5 310.6 311.4 312.6 315.6 319.3 325.4 333.9 343 352.5 359.4 364 365.4 365.5 364.8 363.6 361.2 358.2 355.3 352.1 346.8 340.2 339.4 333.4 337.3 335.6 332.9 328.5 322.8 323.1 322.9 321 317.2 313.8 314 314.5 312.2 310.9 308.5 298.9 295.7 290.5 291.5 293.3 296.9 299.2 296.9 296.8 283.8 280.5 280.7 277.4 265.3 274.2 289.2 293.4 295.9 298.3 298.9 297.2 293.8 288.3 275.5 288.3 300.3 313.4 321.8 330.2 338.5 344.4 347.1 347.6 347.6 347.6 346.8 346.9 347.3 347.5 346.6 344.4 340.9 333.4 327.1 320.2 316 310 305.8 300.6 295.6 290.6 289.1 289.3 288.4 287.9 287.1 286.3 283.9 281.1 278.7 275.7 272 268.7 266.2 262.5 258.3 254.1 249.9 245.9 249.9 249.8 246.1 244.5 241.7 238.3 232.9 227.8 223.1 208.2 207.6 210.6 224.5 232.3 240.9 239.2 225.3 238.3 239.7 240.8 242.1 241.6 239.9 236.4 238.4 243.3 246.5 248.7 249.2 249.6 249.9 245.6 255 256.4 257.5 258.5 259.9 260.9 262.2 262.5 264.2 266 267.1 269.3 271 272.1 272.4 272.2 271.7 270.4 268 264 260.9 256.8 252.1 249.3 251.3 252.8 253.1 252.1 250.7 249.1 247.3 245.5 242.8 240 237.5 238.1 240.1 241.8 243.5 244.1 243.3 242.1 241.5 240.7 240.1 239.3 238.5 236.6 233 228.8 224.3 217.4 213 208.7
313.4 305.4 297.5 298.4 296.5 299.6 301.3 302.3 304.4 305.3 308.3 312.6 318.2 326 335.1 345.6 354.6 359.3 361.7 363.2 362.3 361.4 359.9 357.4 354.6 351.8 340.8 348.8 347.3 345.9 343.8 340.4 337.3 333.5 326.6 321.1 321.8 320 318.7 315 309.6 305.9 305.7 303.4 298.6 295.7 297.2 302.2 306.2 308.3 307.8 307.8 304.3 302.2 295.8 290.6 287.4 281.3 273 291.8 300.7 304.7 307.3 309.6 310.4 308 303 297.6 284.3 297.6 310.1 318 325.7 333.3 341.2 347.9 351.8 354.8 355.1 354.5 353.1 351.4 349.7 348.7 346.1 343.3 337.6 330.9 324.3 317.1 312.6 305.8 300.2 295.4 289.5 284.8 282.9 283.5 282.5 282.1 281.4 280.2 278.3 276.1 273.9 271.3 267 264.1 262.6 260.4 257.1 253.6 249.4 246.9 245.6 248.9 246 243.9 241.1 238 232.6 227.5 222.7 220.3 207.1 209.5 218.6 230.5 233.5 228.7 233.9 240.3 242.2 243.2 245 245.6 244 241.7 237.5 243.9 247.4 250.1 250.8 251.1 251.7 252.2 246 244.3 242.4 247.3 251.5 253 254.3 255.3 257.7 259.3 261.4 263.8 264.8 266.5 267.1 267.7 267.5 265.9 263.9 260.7 257.5 252.7 247.9 242.5 245.8 249 249.8 248.4 247.8 245 243.1 241.3 239.1 235.9 232.3 230.2 230.7 231.8 234.5 234.8 236.1 235 232.3 230.9 232.3 232.2 233.8 232 229.2 225.5 219.9 216.6 212.4 207.9
310.2 302.4 295.3 289.8 291.3 290.7 292.5 293.4 295.6 297.8 301.6 306.2 311.8 318.4 328.6 337.7 346.5 353.1 356.3 357.4 358.7 358.4 356.8 355.4 353.8 352.2 345.8 352.4 351.8 350.6 349.2 346.5 343.2 338.9 335.9 330.7 325.7 319.9 318.3 315.9 313.7 309.9 304.1 301.3 304.9 305.3 309.6 314.1 318.1 318.2 315.3 313.7 311 305.3 300.7 294.3 289.1 272.9 286.1 301.5 310.1 315.6 318.6 320 319.8 317.8 311.6 304.6 294.5 302.3 316.1 322.4 329 336.4 344.6 351.7 356.9 359.7 361 360.1 358 355.7 352.3 348.8 345.1 340.7 334.6 328.9 322.4 315.6 309.1 301.9 295.6 289 284.4 280.5 277.2 276.7 275.9 275.9 275.8 274.3 273 271.3 269.1 266.5 262.8 259.5 257.9 256.6 254.3 252 250.3 248.7 247.5 234.7 243.8 242.7 240.6 238.9 234.2 227.1 222.4 220.5 210.9 210 219.2 227.6 227 230.4 241.7 241.3 242.9 244.5 246.3 247.5 247.4 245.1 242.6 245.2 249.2 251.5 252.4 252.7 253.3 255.6 257.9 255.8 248 239.3 237.4 242.8 246 250.5 252.1 253.9 256.1 258 259 260.8 262.5 263.5 263.7 262 260.1 257.1 253.5 248.5 243.3 235 236.8 242.1 243.3 244.1 243.1 241.1 236.1 233.5 225.7 226.4 226.5 225.3 223.3 223.4 225 227 227 227.2 227.2 224.9 225.1 227.1 225.8 223.5 222.2 220.2 216.4 213.2 208.6 204.3
307.1 300.4 293.5 289 284.2 284.8 285.5 287.7 289 291.6 295.5 300 305.3 313 323.4 332.2 338.8 344.9 348.3 349.7 350.9 351 352 352.1 351.5 346.7 352.6 353.7 354.3 354 353 351.5 347.4 343.4 340.1 335.4 331.7 327.6 320.8 319.6 318 312.6 313.3 314.1 315 317.6 320.9 327.6 328.8 326.3 321.8 317.8 314.8 308.8 304 298.5 291.8 280 296.8 307.7 319.4 326.5 328.3 328.8 328.8 326 321 313.4 304.8 305.8 318.8 326.4 333.1 340.3 348 355.1 360.3 363.8 364.8 363.8 361.8 359.7 354.8 349.3 343.5 337.5 331.4 325.5 318.9 312.8 306.5 300.5 293.9 288.9 283 275.5 269.2 268.8 268.6 268.7 267.7 266.9 267.2 266.1 264.3 261.4 258 254.6 253.2 252.2 250.5 249.1 248.9 248.7 243.7 232.6 236.7 237.8 235.6 236.9 232.9 226.8 223.1 217.7 210.3 211.2 217.6 225.7 230.9 236.7 240.9 242 243.8 246.2 248.9 250.2 251 249 248 247.8 250.9 253.2 253.6 254.7 255.6 263.5 262.2 258.2 255.4 251.3 247.8 241 228.6 233.8 247.2 247.7 250.2 252.1 253.3 255.1 257.2 258.9 259.4 258.2 256.4 253.5 249.5 244.4 239.5 234.7 228.7 230.2 232.4 234.1 235.5 229.2 229.1 231.6 231 227.4 221.3 220.1 218.5 218 218.5 219.4 220.5 220.3 219.8 219 217.8 217.5 218.4 217 214.5 211.3 209 206.6 203.6 201.4
302.5 298 293.9 288.7 283.9 280.1 281.6 282.3 283.9 285.5 288.4 294.8 300.3 308.5 318.2 326.3 331.9 337.1 340.8 344.1 345.5 344.8 345 345.9 347.1 348.2 351.7 354 355.4 356.4 356 354.3 351 347.6 341.3 336.7 336.5 330.9 325.2 324.1 320.2 317.6 319 319.6 322.6 328.4 333.8 336.8 336.5 333.2 328.9 322.1 318.2 311.2 306 300.4 295.1 286.8 304.7 313.9 327 333 335.4 336.9 337.2 334.9 331.2 323.1 313.6 309.4 320.1 329.5 337.3 344.3 351.8 358.5 363.2 366.4 367.3 366.1 364.8 360.6 355.5 349.1 342.5 335.7 329.5 322.7 315.4 309.2 303.3 298.2 292.7 288.3 283.3 278.3 272.9 268.6 262.2 261.4 260.7 260.7 260.8 260.6 260 257.6 254.1 251.8 249.3 247.6 246.5 245.3 244 245.7 236.6 230.4 225.4 230.2 227.2 224.6 218.1 215.2 213.2 212 211.6 216.5 221.2 223.3 229.2 236.5 241.6 243 245.5 248.1 251.1 253.4 254.3 253.4 251 251 252.4 254.8 256.3 257.6 261.2 264.3 262.6 260.3 257.5 254.2 250.2 245.9 242 230.3 228.1 242.1 243.1 245.9 247.8 249.8 251.7 253.4 254.3 254 252.2 249.6 246 240.6 235.6 231.7 225.9 233.3 234.4 229.5 235.3 235.8 232.8 221.1 223.1 223.5 220.7 216.2 213.9 213.1 213.5 214.5 215.6 216.1 215.6 214.9 213.9 213.3 214 214.5 211 207.7 205.2 203.4 202.1 201.4
298.3 295.7 292.6 288.7 283.8 279.2 277.3 277.2 277.4 280.2 283.9 288.1 295.1 303.2 311.6 319 324.5 329.1 333 335.7 336.5 335.7 336 337.4 339.9 345.7 348.9 352.1 354.9 356.8 357.6 356.7 353.2 342.2 345.5 342.3 338.9 334.6 333.1 328.9 322.7 324.1 325.6 327.7 332.5 337.9 341.6 342.9 341.8 338 333.9 324.9 320.4 313.4 308.9 304.5 297.5 290.7 307.9 316.5 333.4 338.6 341.9 344.9 345.2 343.2 340.2 333.9 323.9 318.1 324 332.9 340.8 348.3 354.9 362.1 365.7 368.3 368.3 366 363.2 359 354 347.3 341 333.7 327 319.7 311.9 304.9 298.8 293.6 289.9 286.4 282.7 278.4 274.2 270.3 264.9 258 254.7 255.1 255.5 255.1 255.6 254.1 251 249 245.8 241.5 239.7 239.2 231.8 225.5 224.2 222.9 221.2 220.2 219.3 217.4 216.7 217.2 217.9 214.4 217.6 223.6 226.4 229.1 231 235.9 242.3 246.3 248.5 251.2 255 258.1 258.2 258.1 255.6 253.9 256 257.5 259.1 260.6 265.1 264.6 261.3 261 258.5 255 252.6 248 242.9 236.2 225 229 237.3 238.9 240.9 243.3 245.1 248.5 249.7 249.6 248.1 245.4 240.1 235.9 233.2 228.8 223.2 227.1 230.8 233.5 232.4 232.7 230.5 218.3 218.2 218.2 214.2 214.4 212.6 205.9 207.2 209.3 212.5 213.8 214.6 216.4 218.8 213.4 210.8 210.6 208.7 206.9 205.5 204.5 203.4 201.7
295.4 293.1 290.9 287.8 283.9 279.2 272.5 273.7 274.5 277.4 281.1 285.4 292 299.1 305 310.7 316.4 320.7 324.3 325.4 326.7 326.9 328.4 330.7 334.1 340.4 345.3 349.6 353.5 355.8 357.2 356 352.4 352.1 349 346.4 342.5 339.6 336.1 331.7 330 330.5 332.3 335.7 340.8 345.2 347.4 347.9 345 341.8 335.9 328.3 322.6 316.7 310.9 306.8 302 291 310.3 319.9 337.4 343.1 347.6 350.7 351.7 350.3 347.2 342.1 333.8 326.3 329.2 337 344.9 352.5 358.3 362.9 366 368.2 367.1 364.3 360.6 355.4 350.2 343.7 337.3 329.8 321.3 313.3 305.8 300.1 294.4 289.4 286.7 284.2 281.2 277.7 274.2 270.4 266 260.2 253.9 249.3 251.7 252.3 249.9 245.6 244 241 237.2 230.9 229.9 227.1 226.8 225.3 223.3 226 231.5 233.4 232 229.3 226.8 226.1 223.8 216.5 223.9 228.2 231.4 234.9 237.5 241.1 244.6 250 253.2 256.8 259.8 263 263.5 262.9 261.1 258.8 259.6 260.9 262.1 263.1 264.7 263.5 260.8 259.9 258.4 255.7 252.9 248.8 243.9 236 230.1 217.5 224.4 233.2 234.9 236.6 237.5 242.5 243.2 241 239.9 238.4 236.1 233.8 231 227.2 222.8 220.1 226.1 227.5 227.6 229.5 226.6 218.3 218 218.4 214.3 214.3 209.8 198.2 201.6 204.7 207.5 212.3 216.8 219.9 219.6 217.7 214.3 209.3 206.7 206 205.5 204.5 203.4 202.1
292.3 290.3 288 285.7 283 279.5 274.4 270.1 271.5 274.6 278.6 283.2 288.7 295.3 300.2 304.3 308.1 311.6 314.5 317 317.4 317.8 321.6 325.4 330.2 336.3 342.9 348.8 352.2 354.7 356.2 356.4 355.9 354 351.5 348.9 345.4 343 338.4 335.6 333.2 336 338.7 343.3 348.1 351.5 352.4 351.2 347.1 343.2 337.7 330.9 323.7 318.2 311.7 307.7 300.9 296.5 312.1 323.7 340.3 346.9 352.1 355.9 356.9 357.2 353.7 348.6 342 340.4 340.8 345.3 350.6 356.1 361 363.3 366.5 367.5 365.4 362 357.7 352.5 345.9 339.5 332.1 323.3 314.5 307 300.4 294.4 288.7 285.9 282 279.3 277.1 276.1 273.1 270.3 265.4 260.8 255.4 251.1 243.3 241 238.4 237.5 234.7 233.9 237.3 235.4 243 244.6 242.4 240.6 241.5 242.3 241.9 240.6 238.3 235 232.2 229 225.2 223 227 231.8 236.1 240.6 243.5 247.1 250.7 253 256.5 259.4 263.8 267.8 268.9 268.4 266.2 263.9 264.9 266.5 267.2 267 266.4 263.1 260.6 259.7 258.5 255.9 254 248.5 244.1 242.1 238.1 231.5 215.8 214.3 225.4 230.4 233.1 236.7 238.7 240.2 239.6 238.3 234.4 231.3 228.3 224.3 220 215.1 220.3 222 222.4 222.6 221.9 218.1 217.8 217.3 214.4 214.4 207.8 198.9 195.1 202.5 210.7 216 219.8 221.8 221.3 219.5 216.4 213.9 211.2 209 206.7 205.8 204.6 204.4
288.9 287 284.5 282.2 280.2 277 273.8 269 269.1 272.3 276.8 281.5 286.8 291.9 296.8 299.8 301.7 303.1 304.9 307.6 309.4 311.8 316.6 322.2 328.5 334 341 346.9 350.9 353.4 355.2 356.2 355.9 354.5 352.9 350.8 348 345.1 340.1 338.3 339.6 341 344.2 349.4 353.8 355.9 356.1 353.2 347.8 343.3 337.9 331.6 324.5 318.8 311.9 306.7 299.8 305.3 313 325.1 340.9 349.8 355.1 358.7 359.7 359.6 359.6 356.6 352.6 352.2 352.5 354.4 357 360 362.7 365 367.1 366.5 363.7 359.6 354.2 348.1 340.9 333.6 324.4 313.8 304.7 298.9 293.4 286.8 282.7 279.9 276.7 273.6 271.8 271.2 270 268.4 264.5 259.9 256.7 249.4 242.8 247.4 252.4 252.6 251.3 250.2 248.1 239.7 248.3 248.9 248 247.7 249.1 249.9 248.8 246.9 243.7 239.4 236 232 228.2 227.9 231.4 236.5 241.5 246 249.7 252.7 255.8 257.8 261 264.4 267.5 271 272.2 272.3 270.7 270.2 270.8 272.1 272.3 271.5 269.9 266.4 261 259.1 258.3 256.3 255.1 251.8 248.5 245.5 242.8 238.1 234.8 230.2 207.9 220.7 229.2 231.2 235.6 237.9 237.2 234.5 231.7 229.2 225.5 222.3 218 212.9 211 217.1 217.7 218.3 217.7 218.1 218.1 215.5 214.3 211.2 201.6 195.2 189.4 203.4 212.9 219.2 222.2 223.2 222.9 221.2 217.9 215 213.5 212.1 209.4 208.3 207.1 206.3
288 284.2 281.2 278.6 276.2 273.8 271 267.9 266.8 270.2 274.3 279.7 284.2 287.9 291.3 294.1 296.1 297.1 298 300.5 304 307.9 312.7 318.8 325.6 333 339.2 344.4 349.4 352.2 353.9 355.1 355.1 354.4 353.6 352.1 350.2 347.6 342.6 342.2 343.5 345.9 349.4 354.3 357.7 358.7 357.4 353.3 347.4 341.6 336.8 329.9 324.2 317.2 312.6 308.7 307 309.1 316 326.4 340.6 350.8 356.8 360.4 361.1 361.7 362.4 362.3 360.4 361.1 362.8 363.8 364.4 364.8 366.1 366.9 367.4 366.2 362.9 357.8 352.1 344.1 336.5 324.2 311.7 304 295.8 291.4 286.5 282.7 277.7 274.3 270.2 268.4 265.7 265.8 265.4 264.5 262.1 257.2 251.2 245.5 255.9 261.6 263 262.1 260.3 258.4 254.7 246.2 251.9 253.1 253.1 253.8 255.2 255.9 255.1 252.4 248.1 243.6 239.9 236.8 228.8 235.1 237.6 241.7 247.3 252.1 255.7 258.4 260.6 263.4 266.1 269.1 271 273.9 275.8 275.8 276 276.1 276.4 276.4 275.6 274.2 272 268.3 263.5 260.3 258.1 256.7 255.3 252.6 250.1 247.2 243.1 239.8 237 231.5 215.8 203.5 216.8 221.6 230.3 232.8 232.4 232.5 231 229.7 226.6 222.9 218.3 212 206.5 208.4 211.3 211.7 213.8 212.7 211.8 209.5 207 203 199.1 193.1 181.5 202.8 214.2 220.5 224.2 225.3 223.6 222.1 219.6 216.8 215.9 214.6 212.6 210.9 209.8 208.9
286.8 284 281 275.9 273.7 270.1 267.7 266.1 264.2 268.5 272.3 276.8 281 284.1 286.6 288.2 290.2 292.2 293.2 296.1 299.2 304 310.8 316.7 323.7 332.7 338.7 342.1 346.5 349.3 351.3 352.9 353.3 353.1 353 352.8 351.8 350.5 344.3 347 347.3 348.6 352.5 357 359.6 359.5 356.9 352.5 346.3 341.1 335.9 328.9 320.7 315.7 319.4 317.3 315 314.3 318.2 327 340.8 350 357.1 361.7 363.3 364 365.1 367.3 367.6 368.7 370 370.8 371.1 371.3 370.4 370.7 369 366.7 362.9 357.7 352.1 342.8 330.6 319.7 314 310.7 306.7 300.9 294.8 289.5 285.7 282.4 276.9 272.2 268.4 262.8 257.9 259.5 257.6 251.7 247.7 261.3 266.5 270.1 269.8 269.2 266.3 263.5 261.3 253.4 255.8 257.4 258.4 260.4 262.3 263.5 263 259.8 254.3 248.1 242.9 238.8 232.9 239.5 240.9 246.2 253.6 259.1 261.9 263.6 265.4 268.2 270.4 273.6 275.2 277.8 278.9 279 279.5 280.2 281.4 280.2 278.7 276.6 273.7 270.8 267.6 261.5 258.7 256.2 254.7 252.6 250.4 247.1 244.3 241.5 237.5 233.4 228.9 225.8 213.8 209.4 223.5 229 230.2 231.1 231.4 230.2 228.2 225 221.9 216.7 210.2 201.1 199.3 201.2 203.4 205.9 203.4 202.5 200.9 197.6 194 189.1 179.5 201.6 214.3 220.2 224.1 225 224.2 222.5 219.6 217.6 217.3 217.7 216.3 214.3 213.5 211.2
290.4 286.5 284.1 280.8 276.5 272.9 270.3 265.2 261.3 266.1 270.1 274.3 277.2 280 282.1 283.9 285 286.8 288 292 296.1 302.3 308.8 316.6 322.5 329.9 335.1 338.7 342.8 345.4 346.7 348.6 349.7 350.6 351.8 352 352.2 351.7 350.6 350.8 350.7 350.8 354.4 358.3 359.5 358.3 355.2 350.9 345.1 340.3 335.1 328 321.9 323.4 325.5 323.6 321.6 322.4 323.4 329.3 339.2 348.7 356.7 361.7 365.5 366.6 370.4 371.9 373.7 374.7 375.7 376.6 377.2 376.3 375.1 373.9 371.8 369.4 365.6 360.2 354.3 345.4 337.3 330.2 326 321 314.3 307.5 300.6 296 291.1 286.9 281.8 276.9 272.3 267.1 261.6 256.6 251.3 257.1 264.4 270.7 273.7 275.6 274.8 273.7 271.7 269.4 265.9 261.8 261 263.7 264.7 266.7 269.9 271.2 270.9 266.9 260.1 252.4 246.6 242.2 238.7 237.2 242.1 249.1 258.1 262.2 267.3 269.3 270.9 272.1 274.2 275.6 278.2 280.8 281.8 281.5 282 282.9 283.1 282.9 281.4 278.4 275.2 272 268.8 265.1 261.2 256.6 254.5 252.5 250.5 247.6 244.3 240.9 237 233.2 228.9 224.1 218.2 203.8 212.1 223.4 227.2 229.2 230.4 230 228.8 226.9 225.4 221.4 217.5 211.9 205.2 196.8 189.7 192.9 197 198.5 196.7 194.3 190.3 184.9 180.6 201 212.6 218.2 221.2 222.6 221.8 219.9 219.3 220.6 221.6 221.4 220.2 218.9 217.3 215
297.7 293.5 289.1 285.6 279.9 275 270.4 265.5 261.3 262.3 267.8 270.9 274.2 276.1 278.1 280 281.1 282.5 283.9 288.7 293.6 299 306 313.9 317.9 326 330.3 334.3 338.3 341.1 343.5 343.9 345.2 347.2 347.9 349.8 351.4 351.3 352.1 352.5 352.5 352.3 355.1 357.8 358.4 356.4 352.8 348.4 343 338.7 332.5 326.3 326.7 328.7 331.2 330.7 329.5 331.6 333.7 336 337.5 348.2 355.9 362.2 366.3 371.7 375.4 378.1 379.8 380.5 381 381.7 382.3 381.2 379.4 377.7 375.3 372.5 368.3 363.2 356.2 350.1 343.1 337.4 332.7 327.1 319.4 312.2 305.2 299.3 293.6 288.6 283.2 277.9 272.8 268.3 263.9 255.8 261.7 267.9 272.6 276.7 278.6 279.5 279.4 278.7 276.8 273.6 268.5 264.1 264.9 267.6 270 274.1 276.6 277.5 275.9 271.9 265 257.5 251.8 246 242.8 239.5 243.7 251.5 260.5 265.9 271.3 273.9 275.7 276.9 277.8 278.3 279.8 281 281.5 282.2 283.1 283.6 283.4 282.9 280.9 278.6 276.5 273.3 269.5 266.6 262.8 258.1 254.9 252.8 250 247.2 243.5 239.5 235.9 230.8 224.7 221.7 216.8 210.9 194.2 210.7 220.6 225.5 226.6 227.9 228.5 228.3 228.1 226.2 222.8 218.3 213.3 206.9 199.1 186.6 186 190.7 191.9 190.2 185.2 179.6 177.5 195.8 210.8 215.8 217.9 218.1 218.2 220.1 220.4 221.2 222.1 222.7 222.5 220.6 218.7 217.4
305.2 301 295.6 289.4 282.9 277.1 271.4 266.2 261.2 259.9 264.5 267.5 270.4 273.2 274.6 276.3 276.9 281 284.2 288.2 291.6 296 302.8 310.1 317.3 321.6 325.5 329.1 332.7 336 338 338.5 339.6 341.3 343.6 345.7 348.3 350.1 352 352.9 353.1 352.7 354.9 356.4 356.5 354.2 350.3 346.6 341.6 337.8 330.2 330.9 331.5 333.5 336.3 337.4 337.5 339.5 341.7 343.8 346.3 350.2 358.3 365.4 370.3 375.5 379.2 382.2 384.4 385.4 385.9 386.5 386.4 385 383.3 381.5 378.9 375.7 371.5 366.5 360.5 353.6 348.2 343 337.1 331 322.9 315.4 308.2 300.6 294 288.6 282.9 277.3 272.3 268.1 262.8 260.9 269.7 274.1 279.2 282.8 284.4 284 283.7 282.2 280 276.6 272.2 266.6 268.1 271.6 276.4 279.7 281.5 281.5 278.1 273.4 267.6 261.2 254.7 250 246.2 245.1 247.2 253 260.5 268.2 273.3 276.5 278.6 278.4 279.5 277.9 278.7 278.9 279.5 280.6 282 283.6 283.1 282.4 280.5 278.7 276.8 274.1 270.2 269.1 264.6 260.1 256.1 253 249.8 246.7 242.8 238.9 236.1 231.6 229.4 224.5 217.8 211 207.3 188.2 198 215.4 220.8 224.5 226.7 227.2 228 228.2 226 222.2 217.2 210.9 203.3 196.2 187 178.2 183.1 184.3 181.1 175.3 172.3 194 204.4 211.1 214.4 214.8 216.2 218.4 219.3 220.4 221.5 222.2 222.2 220.9 219.4 217.3
311.8 305.5 295.3 294.7 284.5 278.1 271.4 265.7 261.5 253.5 259.7 265 266.2 270.3 274.4 278.5 280.3 282.3 284.5 287.3 290.2 294.5 299.8 306 313.5 317.8 321.5 324 326.2 329.4 330.5 331.8 333.5 335.2 337.8 341.2 344.2 347.7 350 351.6 352.5 352.4 353.6 354.7 353.8 351.3 348.9 345.4 341.1 335.6 330.4 334 336.6 338.5 341.5 343.5 344.5 346.9 349.9 352.6 355.3 357.7 364.1 369.5 374.3 378.6 382.5 386.3 388.7 390.1 390.5 390.6 391 389.9 387 385.4 382.6 378.6 375.2 371.1 366.2 359.3 352.7 345.9 340.3 333.6 326.3 317.5 309.3 300.8 293.4 288.3 282.5 276.8 271.6 267.6 262.1 269 274.8 278.8 287 290.3 290.5 288.4 286.8 285.3 282.6 279.4 274.1 267.6 271.5 277.3 281.7 284.4 284.3 283 279.3 274.7 269.3 263.7 258.1 253.2 250.6 248.8 249.7 255.4 261.9 268.5 274.9 278.9 278.1 279.3 278.5 276.5 275.7 275.2 275.3 276.7 279 280.8 281.9 280.8 279.5 277.6 275.4 273.1 269.9 267.8 265 261.4 257.6 253.6 249.8 247.2 243.4 240.9 238.4 236.3 233.2 229.4 224.3 220.4 215.2 206.6 183.8 203 212.3 217.3 221.6 224.3 226.6 228.9 227.9 225 221.2 215.5 210.3 203.7 195.5 186.4 174.8 174.8 173 169.2 168.5 189 195.6 202.9 208.1 212.1 213.7 214.5 215.5 218.3 220.4 220.8 220.2 220 219.3 217.1
315.4 308.9 301.3 294.3 284.7 276.7 270.9 266.3 262 253.1 260.6 266 270.8 274.4 277.4 280.2 282.1 283.2 284.2 286.3 289.3 292.8 297.7 304.8 311.1 315.1 318.6 319.9 321.5 322 322.5 323.7 325.5 327.7 331.3 334.4 339.8 344.6 347.9 348.8 349.9 351.3 352.5 353 351.6 350.3 347.7 345.5 341.9 338.2 335.9 337.3 341.1 343.4 346.5 349.6 351.5 355.8 359.4 362.1 363.6 365.3 369.8 373.7 377.7 381.4 385.1 388.4 391.3 392.3 392.6 393.3 393.4 392.5 389.4 388.8 386.4 383 380.5 376.4 371.8 365.1 358.9 350.6 343.1 336.1 328.6 320.3 311.3 302.2 294.1 287.8 282.1 276.3 270.9 267.1 267.9 274.5 279.9 286.6 292.7 295.3 294.4 292.1 289.6 287.2 284.6 280.5 275.7 271.1 276.7 281.5 285.5 287.7 287.1 284.8 281.2 277.1 271.9 267.2 262.5 258.2 254 252.5 251.5 257.6 264.4 269.4 275.1 278.7 278.8 278.6 276.2 273.2 271.2 270.4 270.6 272 274.6 276.7 278.1 278.4 277 276.2 273.4 270.8 267.8 265.2 262.4 259.7 256.4 250.9 249.1 247.9 244.4 242.5 241.1 240.2 238.1 234.7 230.7 226.3 220.5 215 197.7 184.9 198.4 205.8 213.2 219.2 224.1 228 229.3 227.1 224.2 221.5 215.9 210.6 204.1 196.4 186.2 174.1 168.2 160.3 165.6 180.6 190.5 196.9 203.1 205.8 207.8 210 212.3 213.8 215.3 215.6 216.3 216.6 215.6 213.9
316.4 309.1 302 293.2 282.9 276.4 270 266.1 261.9 254.6 260.6 266.7 271.8 276.5 279.7 281.4 282.6 282.1 284.6 285.9 288.1 292 298 303.6 309.6 313.4 316 316.8 316.2 315.7 316 317.5 319.1 321.2 324.9 329.9 335.8 341.6 344.3 346.4 348.4 349.6 352.1 351.9 352 351.1 349.1 346.7 342.9 342.4 340.2 341.1 345.3 348.5 351.9 354.5 358.5 363 366.5 368.5 370.8 372.6 374.5 377.5 380.2 383.5 387.1 389.9 392.8 394.8 395 394.4 394.7 393.5 391.9 390.3 388.3 387.8 385.7 381.8 376.8 370.1 363.5 356.7 347.6 339.5 331.1 321.5 311.9 302.6 293.1 287.4 281.8 276.5 271.3 269.2 273.9 279.8 285.2 292.5 297 298.7 298 294.2 291 287.9 284.9 280.3 275.8 275.6 281 285 288.6 290.5 289.2 286.9 283.3 279.1 274.6 270.4 266.3 262.4 258.5 256.2 253.8 259.4 265.8 270.8 275.6 276.2 276.6 275.3 272.7 270.2 267.9 266.2 265.9 266.6 269.1 271.6 273.7 273.7 273.3 273.2 270.6 267.7 264.6 262.7 259.3 255.8 252.7 251.1 249.3 247 245.1 245.8 245.1 244.2 241.9 238.4 235.1 230.5 226.4 221.7 213.3 197.5 178.1 194 205.5 212.8 220.3 226.1 228.8 228.3 226.7 223.9 220.4 215.4 209.8 203.4 200.2 193.3 183.1 170.7 154 166.1 180.6 189.4 196.5 200.1 201.9 202.2 204.1 206.3 208.5 209.1 211.1 211.5 210.7 209.5
314.8 308.6 301.5 291.9 284.5 276.7 271.1 266.4 260.8 254.3 260.1 266.1 271 276.2 279.4 280.7 282.1 282.9 284.1 284.7 287.5 291.7 297.4 303.3 308.4 311.5 313 313.2 311.8 311.2 310.4 311.6 313.5 316.1 320.8 324.7 331.4 337.6 340.8 343.8 346.3 347.9 349.6 351.5 352 351.6 350.9 348.3 346.7 345.5 345.4 345 347.3 350.5 353.4 358.2 363.4 368 371.7 374.2 375.8 377.5 379 380.8 383.8 386 388.5 391.4 393.6 394.9 394.4 393 391.2 391.5 391.4 390.4 390.4 390.6 388.6 384.8 380.3 374.8 367.1 360 353.4 339.9 333.3 323.8 313.9 304.4 294.4 288.4 282.1 276.2 272.4 276.5 281.1 284.3 291.3 296.9 300.4 299.9 299.1 296.2 292.3 287.3 284.2 279.6 277.4 278.7 284.6 288.4 291.1 293.1 292.1 289.2 285.6 281.5 277.8 273.7 269.7 266 261.9 258.2 258.1 262.8 266.3 270.7 274.2 275.2 274 271.9 269.1 265.5 262.2 260.1 259.8 260.8 262.8 265.3 267.5 268.4 268.6 267.7 266.8 264.1 261.2 258.1 255.5 253 251 246.6 247 248.5 249.7 249.5 248.8 247.6 245.2 241.9 238.4 234.7 231 225.4 218.8 211.7 200.2 174.7 194.8 205.3 214.6 221.4 226.8 227.8 227.3 225.4 221.9 219.2 214.5 211.3 207.9 200.1 190.8 179.5 166.3 152.8 166.6 179 185.7 189 192.3 194.6 196.6 199.1 201.3 201.4 203.6 205.1 204.6 203
312.7 308.3 301.6 294.1 286.2 278.9 272.4 266.3 260.1 249.3 257.9 264.3 269.3 275.3 279.2 278.8 280.5 282 282.5 283.8 286.8 290.8 296.5 302 306.2 308.6 308.7 309 308.1 306.8 306.7 307 309.7 313.1 316.9 321.8 327.9 333 337.2 340.5 342.2 345.9 347.9 349.9 351.2 351.6 350.9 350.9 350.1 349.1 348.4 348.9 349.9 351.9 355.6 360.6 365.7 371.1 374.5 377.3 379.8 382 383.6 385.2 387.3 389.3 391.1 392.9 394.5 394.3 392.8 390.7 389.2 389.1 389 388.7 390.6 391.2 390.2 386.8 382.8 377.1 370 362.1 354.8 345 335.8 326.3 316.3 306.4 298 290.8 284.3 274.3 280 283.7 286.3 289.3 296.9 301 303.2 301.9 300.5 296.8 293.2 287.8 284.1 283.1 281.5 284.7 288.5 291.3 294.4 295.6 294.3 291.7 288.1 285.1 281.3 277.4 273.4 269.8 266.2 262.8 263.7 267 270 272.9 273.8 273.3 271.5 268.5 264.9 261.7 257.6 254.3 253 253.8 256.5 258.6 260.5 262.4 263.1 263.2 262.2 259.8 256.5 253 251 249.6 248.8 249.2 250.3 250.9 251 250.9 250.7 249.4 247.4 244.2 240 236.2 233.2 229 222 214.7 206.2 194 172.5 196.5 207.3 215.7 221.5 224.5 225.1 224.6 222.7 220.8 217.8 214.5 210.7 204.3 196.3 185.7 172.5 158.3 153.5 165.8 175.5 180.4 184 186.5 188.3 190.5 192.1 193.2 194.8 195.9 194.7 194.3
309.7 306.3 300.6 292.9 286.9 279.6 272.9 267.5 260.1 248.2 256.8 262.1 268.1 273.1 275 276.6 278.3 279.9 280.7 282.7 286.8 289.5 294.9 300.1 303.5 305.6 305.9 305.3 304.7 304.2 304 304.2 306.1 310.3 314.7 319.2 324.2 328.8 332.5 335.2 337.3 342 345.7 347.3 348.3 350.4 351.5 352.9 352.8 352.2 352.2 353.4 352.7 354 357.4 361.9 367.1 372.9 377.1 380 382.9 384.7 386.3 387.9 389.6 390.8 390.6 391.8 392.9 392.5 390.6 388.2 385.8 384.9 384.8 385.7 387.9 389.1 388.6 386.5 383.1 378.3 372 363.9 355.7 347.3 336.4 327.8 317.4 307.4 299.9 293.6 285.8 280.7 286.8 289.6 292.2 297.6 302.3 304.7 304.5 303.8 300.4 297 293.1 288.6 286.7 288 285.9 287.5 290.7 293.6 296 297 296.5 294.6 291.7 288.6 285.6 281.5 276.7 272 268.6 267.1 268.8 270.9 272.6 273.3 274.1 273 270.1 265.8 261.3 256.7 252.3 248.9 246 246.3 248.6 250.7 252.2 254.7 256.4 257 255.9 253.9 251.3 248.7 245.9 245.3 246.3 247.6 248.6 249.4 250 250.7 250.7 249.3 247.5 244.7 240.7 236.8 234 230 224 216.1 206.8 196.3 178.8 188.6 199.4 207.8 216.1 220.3 221.3 221.3 219.3 219.1 217 214.3 209.8 203.9 197.1 188.3 177.4 163.6 146.1 152.6 162.7 171.3 176.1 178.8 180.4 181.7 183.5 184.8 185.8 186.1 185.2 184.2
305.9 303.5 299.6 293.3 289.3 280.2 273.5 266.7 258.8 248.5 254.2 260.4 266.3 270.3 272.7 274.3 276.3 276.9 279 281 284.2 288.2 293.6 297.4 300.6 302.5 303.1 302.8 301.5 301.2 301.3 301.3 303.2 307.2 311.9 316.7 319.6 323.2 326.5 328.4 331.3 337 341.6 344.2 345.9 348.1 351.4 353.8 355 355.3 354.9 355.3 355.4 356.1 358.4 362.1 368.1 373.4 377.6 381.1 384 385.9 387.5 388.7 389.6 390.5 390.3 389.9 390.3 389.1 386.9 383.7 380.9 379.4 379 380.6 381.8 384 385.3 384.5 382.1 377.5 372.1 364.4 356.2 347 336.7 327.9 318 309 301.9 295 290.9 289.6 292.6 294.4 297.7 303.8 305.8 307.7 307 305.4 301.3 297.4 293.1 291.1 291.7 291.7 289.4 289.7 292.1 294.3 296.7 297.3 297.4 296.1 294.2 291.8 288.4 283.9 277.5 272.9 269.3 270.5 272.1 274.3 274.7 275.4 274.3 272.3 268.4 263.3 257.8 252.4 248 242.9 237.6 236.2 238.7 242.5 245.4 247.9 249.7 250.1 249.9 249.1 246.6 243.4 240.6 238.6 241.7 243.6 245.1 246.1 247 248.1 248.3 247.5 244.5 242.2 238.9 236.5 235.4 230.1 224.3 215.8 206.3 195.6 181.7 170.4 192.3 201 208.9 214.5 216 216.4 214.3 210 212.1 210 206.2 201.5 196.4 189 180.1 169.8 153.5 135.8 148.7 159 166.1 170 171.1 171.6 171.7 173.1 175.4 176.1 176.9 176.6
301.6 299.9 297.3 292.3 288.1 279.5 273.2 265.5 257 246.2 249.4 257.9 262.7 267.3 270.3 272.3 273 274.6 276.8 279.1 282.9 287.3 291.8 296.9 298.4 300 300.3 300.4 298.8 297.7 296.9 300.1 301.8 306.8 311.9 314.8 317.9 320.2 321 319.7 324.3 330.6 336.1 338.8 341.9 345.5 349.9 353.8 357.1 358.6 357.4 355.8 356.1 356.9 358.6 361.6 366.8 372.4 376.1 378.9 381.8 384 385.5 387.1 388.3 388.6 388.6 388 387 384 380.7 377 374.1 372.2 371.5 372.9 374.6 377 379.2 380.6 378.7 375.3 370.6 363.1 355 345.4 336.1 327.8 318.4 310.1 303.2 298.6 295.7 294.3 296.2 298.8 304.1 307.7 309.8 309.4 307.9 305.3 301.3 296.2 294.2 294.8 295.1 293.8 291.9 291 293.2 295.1 296.5 297 297 296.4 295.1 293 290.1 285.2 277.5 271.9 270.4 272.7 275.1 276.6 276.8 276.3 274.6 271.4 267.6 261.6 255.9 249.9 243.6 237 230.1 226.6 229.2 233.9 238.8 241.3 243.7 245.2 245.2 243.1 240.1 237.3 233.8 230.1 235 237.9 239.8 241.4 241.9 242.6 243.1 242.9 242.1 240.3 238.8 237.6 233.9 229.7 223.1 215 205 194.7 179.1 164.1 184.6 196.1 203.6 208.5 210 209.4 208 207.9 206 203.5 201.1 197.8 192.8 187.1 180.3 171.4 160.2 146.2 133.1 145.3 152.7 158.6 162 162 162.2 163.9 166.7 168.2 168 166.2
296.3 295.7 293.5 290 284.4 278.9 271.9 263.6 255.1 242.1 246.7 255.3 260 264.7 267.4 268.1 269.3 272.2 273.3 277 281.5 286.5 290.7 293.5 295.9 297.8 297 297.1 296.8 295.5 293.4 296.9 301.9 307.2 310.7 312.4 314.1 314.8 313.6 312.8 317 322.7 328.1 333.1 337.8 342.8 348.7 353.5 357.7 360.4 359.4 357.6 357 356.4 357.2 359.2 363.7 368.1 372.2 374.7 377.1 379.2 381.1 382.9 384.5 385.5 385.8 384.9 383 379.6 373.8 369.9 366.3 363.1 360.5 362.3 364.6 368.8 370.8 372.2 372.3 370.4 365.6 359.9 353.4 345.5 336.6 328.2 318.7 311.5 306.2 302.1 297.7 298.2 300.1 303.9 308.5 310.8 311.4 310.6 308.2 304.1 299.3 295.4 294.6 295.3 296.9 295.9 293.7 291.8 292.8 293.5 294.2 294.6 294.2 293.9 293.5 292 288.7 281.1 273.8 268.8 270 274.1 276.9 277.6 277.2 276 272.9 268.8 264.1 259 254 247.5 241.2 234.9 227.1 217.6 218.8 224.9 230.4 234.1 236.2 238.5 238.8 236.8 234.3 228.7 226.5 223.3 227.5 231.4 234.2 236.1 236.9 237 237 238.3 238.4 236.7 236.3 235 231.9 227.5 221.5 214.5 206.1 194.2 179.4 163.3 176.6 189.8 197.1 200.6 201.4 204.3 202.7 199.6 197.5 198.9 195.4 191.9 188.6 184.4 178.9 172.1 164.8 152.4 142.4 131.8 140.7 149 151.7 152.4 153.7 156.2 158 157.4 156 153.3
289 289.8 287.1 284 281 275.5 269.5 261.7 247.9 237.8 242 249.9 254.4 259.5 262.1 263.6 264.5 268.2 271.2 276 281.5 285.7 289.6 291.9 292.8 294 293.1 294.2 294.2 292.7 289.7 296.1 301.4 306.7 308.8 310.5 311.4 309.4 306.4 305.8 310 314.2 318.3 324.8 332.2 339.6 346.9 352 357.7 360.7 360.4 359 356.6 354.6 354.1 355.1 359 361.4 366.5 368.2 368.8 370.5 372.8 376.5 378.2 379.3 379.9 379.5 377.6 373.4 367.8 361.9 356.7 351.3 349.6 350.1 353.1 356.6 361.5 365.1 366.1 364.8 361.8 357.8 353.1 346 338.4 330.7 320.8 312.4 306.9 302.2 300.5 301.5 304.4 308.7 312.1 313.6 313 310.9 307.9 302.9 298.1 296.1 296.9 297.4 298.3 296.9 294.3 291 290.2 290.1 289.1 289.6 290 290.4 290.2 288.6 284.8 277.5 268.5 262.6 267.6 274.1 277 276.6 274.8 272.2 268.3 264.6 260.1 253.2 248.9 243.4 238.3 232.4 226.4 220.7 208.9 212.1 219.9 225.6 228.5 230.7 232.5 232 229.9 226.6 223.1 217.1 220.5 225.1 228 230.2 231.2 231.4 231.3 231 231.6 232 231.7 230.5 228.7 225.6 220.8 214.7 206.9 197.1 182.9 167.1 166.5 180.3 188.5 192.7 193.6 193.7 193.8 193.9 192.9 191.8 190.3 187.2 184.6 180.5 175.7 170.4 164.3 155.6 143.5 137.6 127 137.1 140.3 142.2 143.1 145.5 146.3 145.4 143.6 138.8
281 281.5 280.2 278.9 277.7 273.9 268.7 261.5 251.5 239.8 234.7 242.7 247.6 251.7 256 257.4 260.6 264.6 270.6 276.7 282.2 285.8 288.8 290 290.1 289.8 289.9 290.4 290.8 289.4 288.7 295.6 301.9 306.3 308.9 310.8 309.3 305.6 300.4 298.7 302.4 305.5 309.8 316.7 327.3 337 344.1 350.3 356.7 360.1 359.8 357.8 354.5 352.8 351.8 352.7 354.1 355.5 358.1 359.8 359.9 361.1 364.8 369.1 371.7 372.7 373 373 371.1 366.9 361.5 355.5 348.5 342.2 337.1 337.3 340.2 344.7 350 355.4 358.6 358.9 357.5 355 351.2 346.9 339.2 330.7 321.4 313 307.2 304.2 303.6 305.5 308.4 312 314.3 314.9 313.5 310.6 306.6 301.7 298.4 297.3 297.4 297.4 296.8 295.2 292.4 288.7 285.4 283.9 282.5 282.1 283.3 284.9 285 283.3 278.5 274.3 263.8 256.6 263.1 273.2 275.8 274.8 272.4 268.4 264.6 259 253.1 248.4 242.9 238.6 233.9 228.7 223.1 218.2 211.3 198.3 211.1 216.7 221.1 224.5 226.4 226 224.9 222 218.7 210.8 211.7 216.4 220.9 223.4 224.7 225.4 225.1 224.8 224.6 224.9 225.4 225.5 224.2 221.5 217.2 212.5 206.6 197.4 184.9 169.9 157.8 169.1 177.9 182.8 184.9 185.6 186.5 186.4 186.1 185 183.1 180.5 177.2 173.7 169.6 165.4 161.2 156.6 147.6 141.5 134.8 122.2 131.9 134.5 133.4 134.7 133.9 132 129.5 128.2
272.6 272.1 273.1 274.1 273.9 272.2 267.7 261.6 253.3 242.8 228.8 235.6 242 245.8 249.2 252 257 262.8 271 277.4 282.1 284.6 286.8 287.9 287.3 286.2 286.1 286.4 285.9 285 290.7 297.8 303.1 306.4 309.4 309.2 306.5 301.4 294.9 293.7 294.4 297.5 302.4 311.7 323.3 332.4 340.4 348.8 354.4 356.9 356.5 354.9 352.6 349.9 348.2 348.4 349.5 351 352.1 352.7 352.6 354.5 359 363 365.7 367.4 366.9 368.1 366.2 361.4 355.4 347.7 340.7 332.2 324 324.2 326.1 330.9 337.5 344.6 349.7 352.6 353.5 352.2 349.8 345.5 338.6 330.5 321.1 313.4 309 306.8 306.7 308.6 310.9 313.6 315.1 314.6 312.5 309.2 305.8 302.7 299.3 297.5 295.9 294.5 293.2 291.9 289.2 285.5 281.4 277.6 275.3 273.7 274.3 276.6 278.4 277 274.3 269 257.7 250.4 258.2 269.9 272.8 270.9 266.5 261.9 254.6 250.8 246.1 241.4 237.3 232.9 228.1 223.8 218.8 213.5 208 199.9 199.1 206.7 210.5 215.4 218.6 219.8 218.4 215.9 212.8 207.3 204.8 208.2 213.3 215.9 217.6 218.3 218.6 218.1 217.9 217.8 217.9 218.1 218.4 217 213.9 209 203.3 196 187.5 173.3 159.5 157.4 165.7 172.1 174.2 175.6 176.5 177.5 178.5 177.5 175.8 172.2 170 166.3 162.8 159.7 157.4 153.7 148.8 142.6 136.2 129.3 118.6 117.1 125.5 125.4 124.8 123.8 123.2 122.7
263.4 265.2 267.6 269.3 270.1 269.6 267 262.1 256.5 245.5 233.9 227.9 236.3 240 243.7 249 255.2 263.3 271.5 278.1 282.8 284.9 285.4 285.6 284.3 282.9 282.5 282 278.4 284.3 296.4 297.8 302.7 306.2 307.7 307.4 303 298.1 291.3 286.2 288.5 290.6 298 307.6 319.6 328.5 338.3 346.4 349.9 349.7 348 348.8 350.8 347 343.9 342.9 343.3 345.3 345.9 346.1 345.8 348.9 353.8 357.8 361.9 365.7 366.2 365 363.4 357.8 351.3 343 333.6 322.4 314.6 312.8 314.8 319.8 327.1 335.7 342.2 346.2 348.4 348.4 346.3 341.5 336.8 330.2 322.3 315.3 311.3 309.1 308.8 309.8 312.1 313.5 313.8 313.1 310.8 307.4 304.9 301.7 298.4 295.1 292.2 289.9 288 286.2 284.2 279.9 275.1 270.5 266.8 265.8 266.9 268.2 269.6 269.2 266.9 262.2 252.1 243.3 251.2 260.8 264 262 258.6 254.4 249.6 245 239 233.1 229.9 226.3 222.3 217.9 213.5 208.4 203.2 196 190.2 196.6 201.3 205.6 209.5 211.2 211 209.7 206.4 202.1 196.1 197.4 204.3 208.7 211 211.8 212.5 212.1 210.7 210.2 210 210.6 211.9 211.5 209.2 205.2 200.6 193.4 186.5 177.5 166.1 159.3 153.7 160.2 162.8 164.5 166.6 168.1 169.7 169.5 167.5 165.5 163.4 159.8 156.6 152.9 150.1 146.9 143.5 139.7 135.9 131.7 125 118.8 116.3 117.8 119.4 118.7 118.4 117.6
257.3 259.8 261.5 264.2 266.3 266.5 265.1 262 256 246.9 238.9 222.7 229.6 232.7 241.3 248.3 256.5 265.3 271.5 276.6 280.7 283.7 283.1 282.7 282.1 279.9 278.5 272.9 282.4 289.5 296 299.7 302.8 303.3 304 303 300.2 295.1 288.8 282.1 277.4 286.1 295 305.4 316.5 326.8 336 343.8 347.6 345.2 344.8 345.9 346.9 342.3 338.9 337.1 336.8 337.3 337.9 337.8 338.3 342.2 348.5 354.8 360.4 365.3 365.1 362.9 360.2 355 348.8 339.9 328.9 314.7 307.1 301.5 306 311.6 317.8 327.7 335.3 339.8 342.3 342.6 340.1 335.9 332.7 329.2 323 317.1 313.5 311.2 309.8 309.7 310.6 311.7 311.9 310.4 307.8 305.3 302.6 299.2 295.6 291 287.5 283.7 281.4 279.8 276.4 273.3 269.1 263.9 259.9 258.1 259.2 260.6 262.9 262.4 260.3 255.3 246.1 235.3 240.7 250.9 253.7 253.7 252.1 248 241.7 236.2 230.2 226.6 223 219.4 216 211.8 207.5 202.6 198.2 192.5 185.6 186.1 191.7 196.1 199.2 201.1 201.4 201.5 200 196.7 191.4 187 193.7 198.4 201.8 203.4 203.9 204 203.1 202.6 202.3 202.4 203.2 203 201.8 199.2 196 191.3 185.6 179 170.2 162.4 157 149.3 154.8 155.8 158.2 159.4 160.9 161.4 160.8 158.8 156.4 153.1 149.2 144.8 140.6 138.1 135.6 134.6 132.8 130 126.5 121.9 112.1 112.7 115.6 115.3 114.6 114.3
253.3 254.2 256.1 259.2 261.3 263.2 261.4 257.5 253.6 247.4 241 231.5 221.2 232.2 242.4 249.7 258.3 264.8 270.5 275.7 278.8 279.8 278.7 278.7 279.6 276.4 270.5 274.7 284.2 292.4 297 299.4 299.3 299.3 298.4 297.9 295.7 291.2 285.3 278.3 273.4 279.7 291.7 302 312.7 323.8 332.5 340.2 343.5 343.3 343.8 344.1 342.1 338.5 333.3 328.8 329.2 329.6 329.1 328.2 328.7 335.5 345.3 353.3 359.2 363.1 363.2 363.3 357.7 352.7 346.6 338.3 331.1 319.4 306.1 295.9 295.3 302.8 310.9 320.5 328.6 333.1 335.1 335.1 332.3 331.1 328.3 325.7 321.7 318 314.6 310.5 308.6 306.8 307.1 307.6 307.6 306.2 304 301.4 298.6 295.6 292.1 286.4 280.6 277 274.9 272.5 270.1 267.2 263 257.8 253.4 249.1 251.1 253.2 255 255.2 253 248.8 239.8 226.4 231.7 239.7 242.8 242.7 242.2 239.1 233.9 228.7 223.5 219.8 215.2 211.7 208.2 203.6 199.9 196.1 192.4 188.6 183.4 176.5 183.3 186.2 189.3 191.8 192.6 192.3 192.5 190.7 186.2 180.1 184.1 188 192.1 194 194.2 195.1 195.2 196.1 195.4 194.5 195.4 195.7 194.8 193.8 190.8 186.9 182.3 176.8 169.6 163.7 158 152.8 146.9 147 149.1 151.7 152.2 152.6 152.4 150.5 148.2 144.7 141.6 139.2 135.9 132.7 132.7 130.6 129.5 127.9 126.2 123.8 119.3 115.2 110.5 110.2 108.5 105.2
246.7 249.7 252 253.4 255.7 256.9 256.4 253.6 251.5 247.2 241.7 233.4 219 231 241.6 248.4 257.9 264.4 268.9 273.6 276.7 277.2 275.6 274.8 274.3 270.3 266.7 278.3 286.8 294.8 296.8 297.5 295.1 292.6 292.4 292.2 291 287.1 282.8 277.2 266.3 275.8 287.7 297.5 309.2 319.5 328.5 336.3 339.8 340.2 341.2 340.2 335.2 331.8 326.9 319.7 321.2 322.3 318.6 317.4 322.2 333.5 343.7 352.5 357.2 360.4 361.2 359.6 355.4 350.9 345.2 336.9 329.2 320.2 309.4 298.3 288.4 293.3 304.4 314.9 322.1 326.3 326.9 326.4 325.4 325.3 323.4 321.6 319.5 316.7 313 308 305 303.3 302.2 302.4 302.3 301.3 299.7 297.4 294.3 291.2 286.8 281.1 276 271.6 268.8 266.1 263.7 260.9 256.3 252.2 245.7 237.1 241.5 244.9 247.7 247.6 246.4 242.1 235.3 225.9 221.9 228.3 230.5 232 231.2 229.7 227.2 223.1 218.6 212.3 207.6 203.1 199.8 196.4 192.8 190.6 187.9 185 181.1 175.5 175.1 177.9 180 181.2 182 183.3 183.3 182.1 180.1 175.7 177 179.1 182.9 184.8 184.7 185 184.1 182.1 181.4 180.9 181.9 181.9 182 181.3 179.4 177 171.9 170.1 165.7 160.9 156.8 152.5 146.5 143.4 143 145 146.4 146.2 145.5 144 142.1 140 137.9 135.7 133.1 131.4 130.1 129.9 127.2 125.8 124.4 122.8 120.1 117 113.6 104.2 103.5 99.6
242 243.3 245.5 247.6 250.6 252.1 252.4 251.6 249.8 247.1 242.4 235.2 217.6 228 238.2 247.2 255 262.8 267.5 270.9 273.1 273.1 271.6 271.7 269.4 262.9 271 280 288.8 295.3 293.2 290.6 286.7 286.6 286.4 286.3 284.8 282.2 279 273.4 267.3 270.2 282.4 293.4 305 316.9 325.1 332 335.1 334.2 334.2 332.2 328.2 323.5 318.8 311.8 312.9 312.8 310 307.1 322.2 335.1 344.1 350.9 354.4 357.1 358.4 356 352.7 348.4 342.9 334.3 327.1 318.1 309.4 299.7 289.1 284.5 298 308.7 317.4 320.2 320.9 319.8 318.9 318.5 317.2 316.6 315.2 312.6 308.7 304.3 300.7 298.8 297.8 296.6 296.6 295.4 294.1 292.1 289.3 286 280.6 275.8 272.1 267.4 263.8 260.4 255.6 252.5 247.1 242.5 240.2 232.9 233.3 236.9 239.5 240.4 238.3 234.7 230 223.2 211.5 215.4 218.3 220.4 221.1 221.2 218.3 215.4 211.4 206.7 200.7 196.5 191.8 188.6 187.3 184.9 183.2 181.4 178.5 173.7 168.3 169.6 171.6 173.9 175.1 175.9 176.1 175.2 173.3 170.7 167.8 170.7 173.1 175.3 176.9 177.4 177.1 176.9 176.1 175.1 173.2 172.2 170.6 169.9 169.4 168.2 166.4 163.6 160.7 157.5 154.7 152.7 150.1 146.6 141.3 140.2 140.4 140.4 140.5 139.5 137.9 136.3 134.6 132.3 130.5 129 127.9 126.2 125.2 124 122.5 121.2 119.1 116.5 113.7 109.3 104.9 109.6
237.2 238.2 240.3 242.5 244.9 248 249.3 248.9 247.9 244.9 241.2 235.9 219.1 222 236.4 245.5 253.6 259.3 264.8 269.9 270.8 270 268.2 266.7 263.6 259.5 272.3 282.2 291.1 293.1 289.7 285.5 281.6 279.9 280.2 279.9 279.2 277.6 275.2 270.3 263.8 265.7 279.2 291.9 303.3 314.3 322.5 327.9 329.1 327.5 325.6 323.3 319 314.6 309.7 302.3 301.2 302.8 300 309 324 334.8 342.4 348.5 351.7 353.8 353.6 352.2 348.4 344.1 339.5 330.9 324.7 315.8 306.5 298 289.7 276.6 289.1 301.5 311.3 315 315.6 314.6 312.6 311.8 311.2 310.3 309 306.3 303.4 299.7 296.4 293.9 292.3 291.2 290.5 289.6 288.1 286.4 283.1 279.3 275.3 271.5 268.4 264.5 259.9 252.6 247 243.3 238.5 234.1 229.9 226.5 223.2 228.1 230.7 231.7 231.6 228.4 223 217.3 210.7 203.7 207.8 211.1 213.2 212.2 210 207.4 204.7 201.3 196.8 190.6 185.3 182.4 180.1 179.3 177.7 177.2 174.7 171 166.8 164.9 165.8 168.1 169.5 169.8 168.2 167.5 166.5 165.6 163.7 165 165.5 166.8 168 168.2 168.7 168.9 170.5 168.5 168.7 168.9 169 168.2 166.8 165.5 163.9 160.7 158.7 154.7 153.1 150.9 148.4 146.4 143.8 138.9 137.6 136.3 136.4 136 135 134.6 132.5 130.5 128.7 127.3 126.1 124.8 123.7 122.4 120.7 119 116.7 113.5 110.1 110 113.2 115.9
232.9 234.5 236.6 239 241.4 244.5 245.6 245.6 244.8 242.4 239.4 233.3 218.3 220.3 234.4 243.6 251.1 256.2 261.6 265.5 266.7 266.2 264.2 261.2 259.4 262.5 273.9 284.1 289.9 289.7 285.2 280.7 275.8 275 274.7 274.2 273.6 272.6 270.8 266.3 259.8 263.8 276.6 289.4 301.3 310.9 319.5 324.1 325.4 321.3 317.9 313.7 308.8 304.3 299.2 293.3 291.6 290.4 298.6 311 323.7 333.2 340.8 345.5 348.3 349.5 348.3 345.3 342.2 339.1 334.3 328.3 319.9 307.8 304.3 294.9 286.8 279.7 282.3 294.8 304.1 308.9 309.3 308.1 306.4 305.1 304.4 302.7 301.6 299.8 297.2 294 290.3 288.7 286.3 285.1 283.6 283.2 281.2 279 276.5 273.9 270.9 268.4 264.6 261.1 255.9 248.8 241 235.1 229.6 225.3 220.2 216.3 208 217.5 220.8 221.6 220.7 218.4 216 211.8 206.9 198.4 198.1 201.6 203.1 203 202.2 200.2 198.2 195.4 190.8 183.7 178.8 175.2 173 172.9 173.4 173.1 171.2 169.3 166.6 161.8 160.9 162.2 163.1 161.7 161.1 160.7 160 160.2 159.7 161.3 161.5 162.2 162.9 163.4 163.8 164 163.7 163.8 164.2 164.8 164.7 163.5 164.2 163 161.6 159.8 157.6 153.5 150.4 147.7 145.3 142.9 141.1 138.8 136.4 135.1 133.6 133.3 132.5 131.7 130.4 129 127.3 125.9 124.6 123.1 121.3 118.9 117.7 115.3 113 109.9 114 118.1 120.6 123.2
228.2 231.5 233.7 235.3 238 240.2 241.2 241.8 241.1 239.2 236.1 229.9 215.6 217.7 232.6 240.9 247.6 253.1 257.9 260.8 261.1 261.6 260.4 257.2 252.6 264.8 275 283.9 287.4 285.8 281.3 276.9 273.1 270.1 269.5 268 268.1 267 264.6 260 248.5 263.7 275.9 287.9 299.9 310.9 318.3 321.5 320.2 316.2 309.8 305 299.7 296 290.5 284.8 279.6 287.7 299.7 310.4 321 329.7 337.7 340.3 341.7 341.2 339 336.4 334.6 333.2 328.5 323.1 316.6 310.6 298.9 288.7 275.8 273.8 276.6 288.3 296.7 300.8 302.8 300.6 299.3 297.8 296.9 295.7 294.5 292.3 290.2 287.2 284.3 281.5 279.8 278.2 276.9 276.1 274.4 273 270.9 269 266.4 263.7 260.4 257.5 252.6 246.5 240.4 231.6 221.5 217.6 211.7 208.3 200.8 206.1 209.1 211.8 211.8 210.3 208.4 204.7 200.7 194.8 188.2 191.5 193.6 194.1 193.6 191.6 187.6 183.2 180.5 176.4 174.1 171.7 168.9 167.8 168.4 168.5 167.7 166.5 164.1 161.4 157 158 157.7 157.6 156.9 156.6 156.4 156.3 156.8 156.4 156.8 157.6 158.5 159.5 160.2 160.3 160.5 161.1 161.8 161.7 160.5 159.4 157.6 156.2 155.5 155 153.6 151.4 148.7 146 144.1 142.5 140.8 139 136 133.7 132.8 130.8 128.9 127.5 127.9 127.3 125.8 124.4 122.3 119.4 117.5 114.9 114.9 113.5 114.6 118.1 124.6 126.9 127 128.7
224.3 228.1 231.3 231.8 234.3 235.3 236.3 237.3 237 235.6 232 226.2 214 214.9 230.5 237.7 244.8 249.4 253.5 255.7 257 257.9 256.8 254.4 253.1 266.3 275.3 282.8 285.3 283.9 280.2 275.5 271.7 266.6 264.1 263.1 261.5 260.1 256.9 250.7 247.3 264 275.9 289.5 301.5 311.3 317.3 318.8 316.4 311.5 305.4 298 292.4 287.5 282.1 274.6 277.3 287 298.2 309.3 318.9 328.5 333.4 334.8 335.3 333 329.6 328.2 326.4 326.8 322.3 318.3 312.5 305.4 293.5 288.9 281.9 271.3 270 282.7 291.4 293.2 292.6 289.9 287.6 286 285.6 287.6 286.4 281.4 281.7 277.5 275.9 273.9 272.8 271.4 270.2 269.2 267.6 266.4 265.1 263 260.8 258.6 256.3 253.4 249.8 243.3 237.3 230 222 213.1 203.5 200.5 197.1 196 199.5 202.3 202.7 201.6 200.5 198.1 194.2 189.1 183.3 184 185.7 185.1 183.9 181 178.4 175.6 174.5 172.2 170.1 168.3 165.3 163.4 164.1 164.3 163.5 162.1 160.8 159 157.1 155.6 155.5 155.3 155.6 154 153.5 153.5 153.8 152.2 152.7 153.2 154.1 155.1 155.4 155.6 155.9 156.8 158.3 159.2 159 157.9 157.5 156 153.9 152.8 152.2 150.3 148.9 146.9 145.1 143.7 142 140.3 138.2 137.3 135.1 134.1 133.1 131.3 126.1 124.8 124.4 122.8 119.6 118.3 121.1 121.3 120.6 121.3 123.9 126.5 129.8 131 131.8 131.8
220.7 224.9 228.3 229.8 230.3 231.2 231.6 233.2 233 231.7 228.7 223.3 214 209.2 228.6 236 242.8 246.6 248.5 250.9 252.3 252.6 252.2 249.3 255.5 268.1 276.8 282.8 285 283.9 279.9 275.2 270.4 264.2 259.4 257.1 254.9 252.7 249.9 245.8 252.4 265.4 278.2 290.8 302.9 309.8 313.7 315.3 312.7 307.5 301.5 295.4 288.1 281.1 275.7 267.3 275.1 285.6 296.5 307.6 317 326.2 329.6 329.9 328 327.2 321.4 317.4 320.6 318.6 316.7 312.6 307.9 299.8 287.7 285.3 277.8 269.4 265.2 276.8 284.3 284.9 284.3 280.5 275.6 277.2 280.9 280.9 280.3 277.7 272.4 267.1 266.3 260.1 265.4 264 263.4 261.7 261.3 260.2 258.5 254.5 254.6 253.1 251 247.9 244 238.3 232.8 227.1 220.6 214.3 206.8 199.4 190.6 187.3 188.8 193.5 195.1 194.6 193.3 191.6 188.9 184.9 180.4 177.9 176.7 176.4 176.4 174.5 173.6 172 170 167.9 166.6 165.3 162.9 159.5 160.5 160.6 159.4 158.2 157.2 155.9 154.9 153.4 153.5 153 152.5 152 150.9 150.9 150.7 148.8 149.1 149.8 150.3 150.7 150.8 150.9 151.1 152.1 152.7 153.8 153.3 153 153.4 152.9 152.9 153.1 151.9 151 149.9 148.6 146.9 144.8 142.7 140.9 139.6 139 136.4 134.8 131.7 130.1 127.5 126.8 125.6 126 127.9 129.3 129.3 129.9 129.2 129.3 130.9 132.5 135.6 137.7 139.3 141.5
216 219.7 222.4 225.3 226.3 226.6 227.4 229.2 229.6 228.7 226.2 219.6 212.5 216 227.1 234.1 240.3 242.7 244.2 245.6 247.8 247.3 245.9 239.6 259.7 271.9 279.4 285.4 288.6 286.3 281.7 276.7 270.4 262.8 257 251.9 248.9 245.2 243.1 241.2 254.1 267.1 279.9 292.4 301.7 306.3 309.2 310.2 308.7 303.6 296.8 290.3 284.6 278.6 267.4 258 271.6 283.9 296 307 317.6 322.7 326 326.1 324.7 321.6 313.2 308.9 314 313.3 310.7 307.5 299.9 297 291.2 282.6 274.4 265.9 256.2 272.2 276.6 278.2 277 274.3 271.3 272.9 275.2 277 275.7 272.9 268.5 263.3 259.4 256.2 254.3 256.1 254.7 255.3 254.9 253.1 249.6 249.2 247.9 246.7 245.2 241.8 236 233 228.9 223.2 217.9 212.1 207 200.6 194.6 187.4 181 182.4 187.7 187.7 186.8 185.4 182.9 179.4 175.6 171.9 171.8 172.3 170.8 169.8 168.9 167.9 165.9 164.2 163 162.2 160.4 158.3 157.1 157.2 156.3 155.1 154.2 153.4 152.6 152 151.6 150.6 150.1 149.5 148.9 148.7 148.2 146.8 147.1 147.1 147.7 147.7 147.4 147.3 147.4 147.6 147.3 147 148.2 149.3 150 151.6 153.6 155.2 154.4 153.6 151 149.3 147.9 146 144.5 143.7 142.3 140.8 139.7 138 137.9 136.3 136.3 134.4 134.7 135.8 136.4 136.8 136.3 136.3 136.2 136.8 138.7 142 144.3 146.8 149.1 149.7
205.9 210.1 215.5 218.7 221.2 222.1 223.4 224.9 225.7 225.1 221.9 216.5 204.7 217.7 225.7 231.9 236.6 238.7 239.6 241.1 243.5 242.9 241.6 249.2 265.6 275.9 283.4 289.6 292.2 289.7 283.6 277.1 270 262.9 256.4 250.2 242.4 239.1 233.4 246 258.6 270.5 282 291.7 297.3 300.9 302.1 295.4 297.4 298.5 292.8 288.1 282.8 276.3 268.6 255.5 269.4 283.1 295.6 309.4 317.3 320.9 322.1 323.6 319.8 314.2 313.4 305.7 306.9 306.7 304.2 301.6 297.6 295 287.4 279.5 271.5 262 248.9 265.1 271.2 274.4 272.4 269.7 266.8 269.2 270.8 272.6 270.8 267.4 263.1 258.6 254.6 248.8 245.9 248.9 248.3 246.3 246 245.4 244.1 242.3 241 240.8 238.8 234.8 231.1 228.1 223.5 218.9 214.4 209.7 205 200 195 189.4 182.9 176.5 178.4 179.6 179.5 178.7 177.7 175.6 172.6 169.4 167.8 166.2 165.4 164.7 164.1 163.3 161.5 159.9 158.6 158.2 157.6 155.9 153.6 153.9 153.6 152.7 151.8 152.1 151.6 150.7 150.1 148.4 148 147.2 146.9 146.5 145.9 144.2 144.8 144.7 144.8 144.8 144.7 144.7 144.7 144.7 146.9 147 148.5 149.7 151.4 153.7 156.2 157 156.5 155.1 154.4 153.5 151.4 149.8 149.4 148.2 146 145.3 145.3 144.2 144.5 144.3 144 144 144.1 144.5 145.3 145.4 145.8 146.5 146.7 147 148.4 151.3 152.9 153.5 153.5 152.7
207.9 205.4 207.9 211.9 214.6 216.2 217.4 218.7 218.6 218.6 216.2 212.9 202.9 215.5 224.2 229.1 232.9 234 233.9 233.9 234.5 231.4 241.5 258 271.8 281.1 288.6 293.6 294 290.2 283.2 276.8 269.4 262 255.6 248.9 241.5 232.5 236.7 248.4 259.9 271.4 282.7 288.3 290.4 292.7 295.5 295.6 296.8 293.6 289.2 285.4 280.2 273.6 262.5 248.7 267.9 282.8 297.4 311.2 316.6 318.6 318.1 316.6 315.5 312.3 308.4 302.9 300 299.5 298.7 296.9 294.8 291.2 283.9 276.5 268.6 258 242.7 256.8 264.8 267.4 267.3 264.8 263.3 266.5 267.2 266.2 263.5 262.3 257.6 254.5 249.7 243.8 237.6 237.7 238 238.4 238.5 237.7 236.9 233.8 233.3 233.4 231.6 230.3 226.8 222.8 219 215.1 210.8 206.3 202.4 197.6 192.7 187.7 182.3 177.1 173.2 173.2 173.4 173.7 172.8 170.9 168.6 166.8 162.7 161.1 161.4 160.7 159.9 158.6 157 155.5 154.3 153.4 153.3 152.4 151.3 151.3 151.1 150.8 150.2 150 150.1 148.9 148.7 147.4 145.3 145.2 144.9 144.5 144.1 143 142.9 142.8 142.6 142.8 143.3 143.8 144.3 145.9 149.1 151.8 153 154.9 155.6 157.4 158.9 160.3 160.2 159.8 159.2 158.6 157.2 156.8 156.8 156.5 156.1 156 155.7 155.7 154.7 154.5 153.9 154.3 154.5 156.3 156.6 156.1 153.4 152.7 152.6 152.9 155.4 156.6 157.2 157.1 156.5 155.4
214.6 211.8 200 201.4 205.2 207.5 208.5 210.3 211.8 211 209.7 208.9 199.5 210.4 220.2 225.1 228 228.1 227.6 225.7 231.2 245.8 257.9 266.9 278 287.4 294.3 297 296.8 291.7 284.2 276.8 269.5 261.3 254 246.4 239.8 229.6 234 246.8 258.4 269.8 278.2 282.1 283.6 284.5 286.5 288.1 288.5 287.7 285.9 281.8 276.4 268.5 251.8 249.3 268.8 284.3 299.7 310.7 314.7 316 314.4 313.2 311.2 307.5 302.8 297.9 292 292.6 292.5 290.7 289.2 285.3 280 273 265.2 256.3 243.6 248.8 257.9 261.6 260.4 258.9 259.4 263 264 262.5 260.5 257.1 254 250.1 243.3 237.3 231.3 230.2 228.3 229.3 229.4 229.1 227.8 225.4 225.4 225.9 225.4 223.7 220.6 216.6 214.9 210.3 206.5 202.4 195.5 194 189.1 184.2 179.3 175.3 171 168.8 168.4 168.5 167.8 166.5 164.9 163.4 160.5 159.3 158.2 157.5 156.4 154.6 153 151.5 150.6 150.1 149.6 148.8 147.5 148.7 148 146.8 145.9 146.3 147.5 146.9 146.9 146.2 143.9 143.1 142.7 142.2 141.8 141.3 141.1 141 142.7 143.5 144.6 145.8 147.6 149.9 152.1 153.8 156.2 159 161.1 163.8 164.7 166.4 166.6 166.8 167.1 165.4 164.2 164.9 165.6 165.5 165.4 164.9 164.1 163.6 162.5 160.8 159.3 159.1 159.3 159.7 159.2 157.7 157.1 156.7 157.3 158 158.9 159.9 160 159.9 159.3 157.9
225.4 221 212.7 204.2 196.4 196.4 198.8 201.9 204.6 204.8 204.3 202.9 196.2 212.4 218.1 220 222 221.4 217.8 230.3 244.7 254.6 264.4 274.7 284.2 291 296.1 299.9 298.3 295 288.5 279.3 270.7 262 255 247.4 239 231 226.7 242.7 254.7 267 273.5 275.9 276.3 276.2 278 279.6 281.4 281.8 279.8 276.7 270.1 260.8 241.6 252.5 271 285.7 300.4 308 311.8 313.1 311.3 310.6 306.7 302.6 297.3 292 285.5 281.1 282.2 283.3 281.3 278.3 273.7 268.8 261.4 252.7 243.7 237.3 250.8 253.8 253.6 251.8 255.7 259.4 260.5 258.6 255.8 252.5 248.6 244.5 239.6 233.4 226.5 222.2 222.1 221.8 221.8 221.3 218.4 216.2 217.2 218.3 218.4 217 214.7 211.7 207.9 204.3 201.4 197.2 192.5 187.7 184.2 179.6 176.4 172.9 169.8 168 165 165.1 164.7 163.8 162.1 160.2 158.3 156.8 155.5 154.6 153 151.1 149.5 148.3 147.6 146.8 145.7 145.3 145 144.6 144.3 144.5 144.7 143.8 144.3 144.6 144.6 143.6 142.3 141.7 140.7 140.1 139.9 139.5 138.5 140.2 141.9 142.7 144.3 145.6 146.9 149 151.2 153.6 156.2 159.2 163.4 167.1 170.5 171.7 172.6 172.7 172.7 171.8 170.3 169.8 168.7 168 166.6 164.9 163.3 162.6 160.9 159.6 158.9 158.4 158.2 158.6 158.5 158.3 158.8 159.4 159.9 160.1 160.6 161.2 161.4 161.6 160.9 159.6
236.1 232.7 226.4 220.5 212.3 200.5 191.6 196.6 197.6 198.5 199.4 194.5 202.7 211 215.5 215.8 213.3 215.5 228.2 241.5 250.7 259.8 269.2 278.2 284.7 291.2 295.9 298.4 296.8 293.5 288.7 282.4 273.5 266 258.2 249.7 239 230.9 221.6 238.7 250 261.1 266.8 270 268.5 267.4 267.8 269.2 270.2 273.1 273.3 271.3 265 247.1 236.3 255.5 272.8 287.5 301.9 305.8 308.2 308.7 307.6 305.1 301.9 298 293.2 287.9 280.9 275 273.6 273.8 273.6 271.5 268.2 263.9 257.1 249.8 242.3 228.2 243.3 246.6 246.4 249.9 254 256 256 253.2 250.7 245.7 242.1 237.5 233.3 228.2 223.4 217.3 216 215.5 215 213.6 211.9 209.9 209.7 210.5 210.5 209.5 207.5 204.4 200.7 196.7 193.1 191.3 186.7 183.5 180.3 176.4 173.1 170 167.9 166 164.8 161.9 162 161.6 160 157.8 155.8 154 153 151.8 150.2 148.5 146.9 145.4 144.7 143.8 143.3 143.2 143.9 144 143.9 143.9 144 142.9 143 143.1 143.1 142.6 141.3 140.1 139.2 138.8 138.1 137.5 136.4 137.9 139.3 140.3 141.5 143.2 144.7 146.8 149.6 151.6 153.7 156.8 160.2 163.2 165.3 166.8 168.2 169.5 170.8 170.8 170.1 168.6 167.2 165.7 164.1 162.6 161.2 159.8 158.4 157.4 156.7 156.6 156.7 156.9 157.5 158.8 160 161.3 161.8 161.9 162.1 161.5 160.8 159.7 158.7 156
242.9 240.2 236.7 231.1 223.1 213.7 199.5 193.4 192.7 193.9 192.7 191.3 199.8 207.3 208.3 206.3 209.3 222.5 235.6 244.2 252.2 261.3 269.5 277.3 284.5 289.9 292.4 292.8 290.8 288.4 285.6 282 276.4 270.6 264 255.4 243.6 231.6 218.9 232.7 243.2 252.9 260.3 263.4 262.1 258.5 257.9 258 259.5 262.6 264.3 260.2 246.5 231.1 237.8 259 275.1 289.7 300.1 304 305.6 305.3 303.4 299.9 296.2 293.2 290 284.3 277.6 270.6 266 266.3 266.9 265.1 263.9 258.9 252.9 246.6 239.3 229.9 236.5 240 240.3 246.9 250.9 252.1 250.4 247 242.9 239.1 235.1 231.5 227.8 223.4 218.9 214.6 209.5 209.5 209.5 208.3 206.4 204.3 202.6 201.9 201 199.8 198.7 196.7 192.7 190 187.7 185.3 182.9 180.1 176.9 173.5 170.6 168.4 166.2 164.7 163 163 158.6 158.1 157.6 155.3 153.5 151.8 150.8 150.1 148 146.8 145.4 143.6 142.7 141.7 140.6 140.1 142.4 143.7 143.8 143.7 143.6 143.5 143.8 143.4 143.5 141.5 140.6 139.5 138.4 137.4 136.8 136 134.7 135.1 136.8 137.8 138.7 140.4 142.3 145.2 148.1 150.4 152.7 155.4 157.9 160.3 162.1 163.9 164 164.2 165.1 166.5 167.8 167.2 166 164.2 162.5 160.8 159.3 157.9 156.4 155.3 154.6 154.3 154.4 155 156.1 157.5 158.7 160 160.4 160.8 160.3 159 157.5 156 153.9 150.2
247.3 244 240.7 235.5 228.1 220.3 210.2 196 190.3 191.7 191.3 189.7 197 202.8 202.5 199.7 210.1 225.3 235.6 243.6 250.6 258.4 266.6 274.4 281.7 285.5 284.8 283.9 281.7 280.5 279.5 280 279 275.3 269.8 261 250 236.4 225 223.8 234.9 243.6 250.5 254.9 254.5 250.8 240.7 239.4 241.5 244.4 248 242.9 232.5 225.1 245.8 263.2 278.8 292.2 299.6 303 303.7 302.3 299.3 295.4 291.3 288.9 286.2 281.7 274.9 268.1 261.1 261.2 261.3 260.8 258.3 253.9 248.5 242.6 235.7 228.5 227.4 230.8 239 244.5 245.7 245.6 244.2 239.8 236.6 233.3 229.9 226 222.2 217.9 214.1 210.9 207.5 203.7 204.7 203.2 201.2 199.2 197.4 196.1 193.6 191.9 190.1 189 187.5 185.5 183.3 181 178.6 176.6 174.2 171.5 168.3 167 164.9 163.1 161.2 159.5 157.7 155.5 153.7 152.8 151.3 150.6 149.8 148.5 146.9 146 144.5 142.5 142.7 142 140.9 138.3 141.7 142.8 143.4 143.3 142.8 143.9 144.4 144.9 144.8 143.4 141.9 140.4 139 138 136.9 135.3 133.3 133.1 134.2 136 137 138.2 141 144.3 147.3 150.1 152.2 154.8 156.7 158 159.5 160.2 160.7 161.2 161.8 162.8 164.8 164.7 163.8 162.5 160.8 159.5 158.1 156.6 154.9 153.7 152.8 152.2 152.9 153.3 153.9 154.9 155.8 156.8 157.4 157.3 156.6 154.6 151.7 149.1 146.6 143.5
245.2 244.2 241.8 236.1 230.7 224.8 218 208.8 197 188 186.6 185.5 192.1 195.5 197.3 198.8 211.3 223.1 232 238.2 244.1 252.4 261.6 269.7 275 276.9 276 274.6 273.5 272.7 274.9 277.3 279.7 279.4 274.4 265.9 254.7 243.2 231.2 215 226.3 234.7 241.5 246.6 244.2 234.8 224.1 221.4 219.9 222.2 225.3 225.7 219.5 228.6 248.8 265.4 281.7 295.4 299.8 302.4 301.6 299 295.3 291.8 287.8 284.9 281.4 277.3 271.8 265 258.8 255.2 257 256.6 253.5 249.2 244.3 239.1 232.7 226.1 220.6 231 235.6 239 240.3 238.7 237.8 234.9 231.6 227.9 224.3 220.6 216.1 212.4 209.2 207.5 203.9 198.2 199.2 198.1 196.2 194.6 193.6 192 189.9 187.9 186.7 185.4 183.8 182.7 180.3 177.7 175.1 173.2 172 169.9 167.7 168 167.7 166.3 164.4 162.3 160.8 159.5 158 155.7 154.1 151.7 151.4 150 148.4 147.9 147.3 146.6 145.4 143.6 142 140.2 138.2 139.8 140.7 140.8 140.8 141.9 143.1 144.2 144.6 144.6 144.1 142.6 141.5 140.5 139.1 137.6 135.8 134.5 130.2 133.8 135.2 136.9 139.5 143 146.5 149.3 151.6 153.8 155.4 156.6 157.1 157.6 158.1 158.7 159.3 160.2 161.9 161.9 161.5 160.3 159.4 158.1 156.8 155.2 153.6 152.5 151.8 151.4 151.8 152 152.1 152.7 153.5 153.6 154.1 153.5 152.1 149.9 146.5 143.3 140.6 137.5
241.5 240.6 238 234.4 230.7 226.6 222.4 215.9 206 194.9 186.5 183.9 185.6 188.9 193 197.8 208.9 218.9 225.5 231.1 236.5 243.9 254.6 263.4 266.2 266.7 266.3 265.4 263.7 265.8 268.7 273.4 277.1 279.2 276.4 269 258.1 246.4 236.2 224.7 211.5 224.9 232.2 234.3 224.9 212.3 208.1 205.6 204.5 207.9 211.7 213.8 220.5 234 252.5 269.8 285.1 295.7 300.3 302.4 299.7 295.6 292 287 283.3 279.5 275.8 271.6 266.7 261.1 254.8 250.3 251.4 252.1 249.8 245.9 241.5 236.5 230.3 223.5 215.9 225.2 230.2 231.7 232.8 232.7 231.5 229.5 225.4 222.7 219.3 215.2 211.8 208.8 205.1 202.6 200.1 197.9 195.2 194.4 192.8 191.8 190.9 189.8 187.8 186.8 186 184.1 181.9 180.1 178.4 176.5 173.9 173.3 172.3 172.1 172.4 171.5 169.9 167.7 165.9 164 162.5 160.8 159 157.6 156.3 155.1 153.5 152.7 151.9 150.6 148.6 146.8 144.9 143.1 141.7 140.1 136.9 135.4 137.5 138.1 138 138.8 140 141.4 142.3 142.8 142.9 143.2 142.5 141.7 140.4 138.9 137.4 135.5 132.9 129.5 132.9 135.9 138.6 141.9 145.4 148.4 151.1 153.2 154.8 155.2 155.9 155.9 156.2 156.8 157.3 158.4 159.5 159.5 159.1 158.6 157.8 156.7 155.1 153.8 152.5 151.3 150.4 150 150.3 150.3 150.2 150.5 150.5 150.3 150.1 149.3 147.9 145.7 142.2 138.2 135.3 130.8
236.2 234.7 234.2 233 230 227.7 224.5 219.2 210.4 200.9 191.2 182.6 178.9 181.8 186.9 195.8 203 210.7 217.2 221.7 228.4 235.6 245 252.7 255.4 257.1 255.6 256.2 254.9 257.7 261.7 266.7 273 276.4 277.2 271.4 262.6 250.3 241.4 233.2 217.6 210 218.8 217 205.2 195.1 198 208.2 216.4 218.9 219.1 222.1 233.4 248.8 263.9 279.3 289.8 296.8 300.8 301.2 298.5 293.9 288.1 283 277.7 273.4 268.8 266.5 262.1 256.6 250.9 244.8 246.5 247.9 246.1 242.9 239.1 234 228 220.9 208.7 218.7 222.6 225 226.2 226.5 226.1 224.2 222.7 218 214.6 210.6 207.8 204.9 201.7 199.7 196.8 194.8 193.2 190.7 190.3 189.6 188.7 188 186.8 186.1 184.8 182.8 180.5 178.5 176.8 174.9 176.2 175.3 175.1 174.8 174 172 170 168 166 164.4 162.7 161.4 160.3 159.7 156.8 155.6 153.9 153.6 152.4 149.7 147.3 145.3 143.3 141.5 139.4 137.7 136.8 133.3 134.9 135.2 135.7 136 137.5 138.8 139.8 140.4 140.8 141.2 141.2 141 140.2 139.2 137.7 136.3 134.9 129.8 130.6 135.9 139.6 143.3 146.4 148.9 150.6 152.8 153.7 154.6 154.9 154.8 155.1 155.6 155.8 156.5 157 157.1 156.9 156.7 155.9 154.8 153.3 152 150.9 149.8 148.9 148.6 148.6 148.1 147.8 147.9 148 146.8 146.3 145.8 144.2 141.5 137.9 133.9 130.1 125
228.6 229.1 229.3 228.1 226.6 225.4 222.9 220.2 214.1 204.9 192.9 182.5 184.1 178.3 178.1 183.8 192.9 200.1 205.7 211.3 218.7 226.6 236.7 243.6 248.2 248.7 248.3 247.4 246.5 249.5 254.7 260.4 267 272.3 275.3 272.6 265.5 255.6 246.3 237.7 228.4 205 198.8 198 191.7 204.1 216.1 226.8 234.6 238.2 245.1 251 259.4 268.2 281.6 287.6 295.2 299.6 301.5 302 298.8 294.6 288.5 283 273.9 269.3 263.9 260.5 256.9 252.5 247.4 241.7 240.7 242.4 242.2 239.7 236.2 231.1 225.6 219.5 212 211.5 215.1 218.4 220.1 221.1 220.5 219.1 216.7 214.2 210.6 207.5 204 201 198.2 195.5 192.6 191.2 190.9 189.9 188.9 187.7 187.4 187 185.8 184.8 183.4 182 179.1 178.4 177.3 177 177.5 177.4 176.8 175.1 173.5 171.6 169.5 167.7 165.9 164.6 163.5 162.4 160.7 159.3 157.4 155.3 153.4 151.7 150 147.8 145.5 143.2 140.9 138.6 137.2 136 135.2 133.9 132.1 132.5 133 134.1 134.9 135.6 136.7 137.5 138.6 138.9 139.6 139.8 139.6 139.2 138 136.6 135.1 132.5 127.8 135.4 139.6 143.6 146.7 148.7 150.6 152.2 153.1 153.9 153.9 153.8 153.8 153.8 154.1 154.3 154.7 155.1 154.6 153.8 153 152 150.8 149.8 148.6 148 146.8 146.4 146 145.5 144.9 144.4 143.9 142.8 142.9 142.5 140.9 137.9 134.2 128.5 122.6 117.6
220.4 218.8 219.9 221.2 221.9 219.6 218.1 216.9 212 206.3 198.4 185.1 184.5 178.7 175.9 175.1 180.4 186.8 193.3 200.8 208.7 218.5 229.4 235.7 239 241.3 241 239.4 237.3 240.4 247.4 254 260.6 266.2 270 270.3 265.3 256.4 246.7 239.1 231.4 221.3 199.2 189.7 200.8 215.8 231.3 243.8 250.5 253.9 260.7 266 274.3 281.2 287.5 294.2 299.2 302.2 303 302.8 300 295.6 289.4 282.4 275.6 267.5 260.4 255 251.6 248.1 243.7 238.3 234.7 238.2 237.9 236.3 232.8 228.1 223.5 217.9 211.7 200.9 208.9 211.9 214.3 215.7 215.5 215.3 213.4 211.4 208.5 204.8 201.4 197.5 194.6 192 189.3 188.5 188.4 187.7 187.2 186.5 185.9 185.5 184.5 183.9 184.4 184.3 181.9 180.9 180.1 179.6 178.7 177.6 176 174.3 172.5 170.8 168.9 167.4 166.3 165.4 164 162.3 160.7 159.4 156.2 153.9 151.5 149.1 147.3 145.5 143.1 140.8 139.3 137.6 136.4 134.9 134 133.3 132.3 130.9 129.9 130.2 132.5 133.4 133.3 133.5 134.6 135.9 136.7 137.4 137.7 138 137.3 135.9 134.3 131.7 125.4 134.2 138.4 142.1 145.3 147.7 149.9 151.3 152.3 153 152.8 152.2 151.7 151.4 151.5 151.7 151.5 152.1 151.8 151.3 150.2 149.2 148 146.9 145.6 144.8 144.2 143.5 142.7 141.8 140.7 140 138.8 137.8 139.3 139.7 137 133 126.5 119.5 110 102.6
204 205 205.6 207.5 210.8 211.6 210.8 209.5 205.7 201 197.9 185.5 177.8 177.1 174.8 173.2 173.4 173.8 179 186.2 196.8 209.2 220.4 226.8 230.9 233 234.6 233.6 231.7 233.1 238.2 245.5 253.1 258.7 262.2 263.6 258.9 250.6 243.1 235.7 228.7 217.8 195.6 186 204.5 226.8 243.4 254.6 262.2 266.9 271.2 275.4 281.1 287.4 294 299.1 302.4 304.2 304.2 302.8 300.3 295.7 290.3 282 275.3 267.3 259.4 252.8 247.7 243 239.6 233.8 228.3 232.5 232.6 231.5 228.7 224.7 220.3 215.4 210 203.9 202 206 209.3 211.4 211.1 211.6 210.4 208.4 205.8 202 198.1 194.1 191.4 189 186.6 185.7 185.8 186 185.5 185.3 184.6 184.4 183.9 185 185.9 185.2 184 182.3 180.5 179.2 178 176.7 175 173.2 171.6 170 168.4 167.5 166.5 165.3 164 162.4 160.5 157.9 155 152.5 149.9 147.9 145.6 143.1 140.9 139.8 139.7 140 139.5 138.1 137.2 136.5 135.5 133.9 130.1 128.9 127.9 129.8 130.9 131 131.6 132.1 133.3 134 134.5 134.6 134.5 133.5 132.5 130.5 123.7 130.6 134.1 138.3 141.3 144.3 146.8 148.6 149.5 150.4 150.9 150.2 148.5 146.6 148.9 149.1 150.9 149.9 149.3 148.9 147.7 146.4 145.1 144.1 142.8 141.7 140.9 140 139.5 138.3 136.8 135 133.8 134 135.7 135.5 132.8 126.9 115.9 103.8 95.3 92.4
191.9 189.4 189.3 189.9 190.4 191.5 192.9 193.2 191.7 185.9 180.9 180.6 185.2 183.5 181.1 177.4 173.9 171.3 170.7 171.1 181.5 196.2 210.2 219.6 221.9 224.3 226.4 227.1 225.3 225.7 228.7 235.1 242.3 250 253.6 253.5 249.7 243.3 236.3 230.4 224.7 208.1 183.5 186.3 213.9 235.2 251.4 261.4 271.1 275.5 277.6 282.1 287.4 293.4 299 303.3 304.9 305.2 304.1 302 298.9 294.9 288.8 282.4 275.5 268 259.5 252.3 246.3 239.7 233.2 229.6 222.2 225.6 226.3 226.1 224.1 221 217.3 212.8 207.8 202.6 195.8 197.8 203.5 207.7 208.9 209.1 207.7 205.4 202.4 199 194.2 191.2 188.8 187.1 185.3 184.1 184.1 183.8 183.7 183.2 184.1 184.5 185.1 186.4 186.3 185.7 184.3 182.2 180.4 178.8 177 175.4 173.9 172.3 170.8 169.5 168.2 167 165.8 164.5 163.2 161.4 159.8 157.3 154.8 152.4 149.8 147.3 143.5 143 142.9 144.5 144.7 144.1 143.2 141.9 140.6 139.5 138.5 136.5 134.4 133 129.2 127.3 127 126.6 128.9 129.2 129 131.4 131.2 131.1 130.9 130 129.2 128.1 123 126.5 129.6 132.7 135.8 138.4 140.5 142.4 144 145.4 146.2 144.6 144.4 144 144.8 145.8 147.5 148.1 147.4 146.4 144.9 143.5 142.2 141.5 140.4 139.9 138.7 137.5 136.3 134.8 132.8 130.1 128.9 131 132.5 131.1 125.2 112.7 102.4 94.1 109.2 119.2
206.8 206.5 203.9 201.4 198.8 194.3 190.8 188.2 185.1 188.2 199.5 205.1 207.8 207.5 203.5 196.9 188.6 182 178.6 176 168.1 181.8 196.4 206.8 212.1 216.4 218.6 219.8 219 217.1 218.9 224.1 229.1 235.1 239.8 241.6 240.5 235.7 230.3 225.7 218.6 199.7 181.7 198.1 220.4 240.3 256 265.4 273.2 277.1 280.8 286.5 292.4 298.3 302.4 304.9 305.4 304.8 303.1 300.9 297.1 293 286.7 280.4 274.5 267.5 260.4 252.5 245.7 238.9 231.6 224.5 216.6 217.1 219 219.9 219 217.1 213.7 210.6 206.3 201.5 194.9 190.1 198.8 203.2 204.4 204.7 204.1 201.9 198.6 194.4 190.3 188 186 185 183.7 182.2 182.1 181.9 182.3 182.1 183.7 186.1 188.9 188.8 187.8 185.8 183.7 181.7 180.2 178.5 176.5 174.9 173.4 171.8 170.2 169.1 167.7 166.5 165.2 163.8 162.3 161 159.5 157.2 154.9 152.6 150.2 146 146.3 148.7 145.9 148.7 147.6 148 146.8 145.8 144.1 142.8 141.4 137.6 137 136 132.9 130.9 127.9 126.3 125.4 124.6 126.2 127.8 128.1 127.9 127.7 127.1 126.5 125.5 121.9 121.5 124.8 127.2 129.5 131.1 133.2 135.4 137.5 138.9 139.7 140 138.8 140.8 141.7 143.3 144.8 145.5 144.7 143.6 142.1 140.6 140.2 139.9 139.4 138.1 136.4 134.3 132.1 129.1 126.7 124.2 121.6 126 124.4 118.5 105.6 100.4 96.7 113 120.8 125.8
223.2 223.2 222.3 220.8 219 216.1 211.7 203.8 189.6 205.3 214.4 220.2 222.1 222.4 220.1 215 203.7 195.2 190.1 185 177.4 166.5 182.7 192.4 199.4 204 209.1 213.1 213.9 210.8 207.6 212.1 217.2 222 226.1 230.1 230.6 228.9 225.3 222.7 214.8 193.7 179.5 201.4 224 241.5 254.2 263.6 270 274.4 281.1 287.9 294.9 299.1 302.4 303.9 303.4 302.3 300.7 297 293.4 289.7 283.5 277.5 272.5 266.2 259 252.8 244.6 237.7 231 224.1 219 210.7 212.6 213.9 214.1 212.6 210.5 206.8 204.7 201.1 195.2 187.8 191.2 197.4 199.3 199.7 198.3 195.5 192.1 188.9 186.4 183.8 182.5 182.4 181.5 180.3 180.4 180.1 179.8 182.6 185 188.3 189.7 189.2 187.9 185.3 183.3 181.7 180.5 178.6 176.3 175 173.3 171.8 170.3 169.1 167.3 166 164.7 163.2 161.5 160.2 158.8 156.8 154.9 152.4 149.3 146.5 151.4 151.5 149 152 151.8 151.1 150.3 149.4 147.2 146.4 143.7 140.6 141.3 139.5 136.9 134.3 131.8 129.8 125.3 124 123.3 121.8 122.7 123.1 124.5 124.7 124.3 123.5 122 117.1 121.9 122.5 123.1 124.7 125.3 128.2 130.5 132.7 133.9 133.6 133 135.9 138 139.5 140.7 140.4 139.9 139.8 138.1 136.7 135.9 135.4 134.1 132.5 128 125.2 119.7 117.7 115.9 115.1 114.4 112.6 106.8 102.2 93.8 96.6 115 119.9 125.5 132.5
232.8 233.3 233.3 231.4 228.2 223.9 217.7 207.2 207.9 218.2 224.2 229 231.2 231.8 229.2 223.9 215 207.3 199.1 192.4 186.5 174.1 167.1 181 187.1 191.4 196.8 202.1 202.8 202.2 193.3 198.4 204 211.6 215.4 221.5 224 223 223.3 218 208.9 192.4 178.4 199.5 220.8 236.9 247.8 255.4 262.3 269.3 279 286.9 293.9 298 300.1 300 299.4 297.6 294.8 291.3 287.7 283.4 278.2 274.6 270 264.2 256.7 249.6 243.3 236.1 229.4 223.6 218.1 212.4 206.1 208.7 208.7 207.6 206 204.3 202.2 199.2 195 189.7 185.4 190.8 192.9 192.1 190.9 189 186 183 180.7 178.8 177.8 177.6 178.8 178.2 178.6 180.2 183.4 185.8 187.4 188.9 189.7 189.2 187.5 185.6 183.7 182.4 181 179.3 177.4 175.4 173.8 172.1 170.5 168.9 167 165.6 163.8 161.2 160.5 159.3 157.4 154.6 151.9 149.2 147.5 147.9 153.5 153 152.4 154.8 154.7 154.6 154 152.8 150.7 149.7 145.1 146.8 146.6 144.1 141.8 139.1 136.6 133.9 131.4 129 125.2 122 120.4 119.5 118.7 120.7 117.7 117.5 118.4 115.9 115.6 116.3 118.6 119.5 120.6 122 123.4 125 126.5 126.9 127.1 128.8 132.4 134.6 135.5 135.1 134.9 134.4 132.4 129.1 127.3 124.8 116.7 111.3 105.8 102 98.6 97.6 98.4 97.9 102.3 97.7 94.9 100.4 112 121 120 124.7 129.4 135.6
241.8 243.3 241.5 238.8 233.9 227.8 219.9 205.2 220.8 228.6 233.4 236.5 238.1 238.2 235.3 231.6 224.5 216 207.3 198.5 193.7 186.8 168.2 165.6 173.8 177.5 183.7 187.3 187.2 185.1 181.7 183.1 187.9 194.4 201.5 206.7 213.8 219.2 219.6 214.4 206.2 194.1 176.4 192.3 211.9 226 237.3 245.4 254.2 264.4 275.3 283.7 291.1 295.6 294.9 293.6 292.5 291 288.8 284.4 280.1 277.2 273.8 270.2 266.6 259.8 253.3 248.1 240.9 233.6 228 222.8 217.3 212.1 206.7 201.2 203.7 203.1 202 200.5 199 196.5 194.2 189.7 183.3 182.9 184 184 182.8 181.3 179.7 177 175.3 174.4 174.5 174.4 176 177.2 178.7 181.2 183.1 185.4 187.9 189.7 190.6 190.5 189.5 186.8 184.5 182.6 181.4 179.8 178.2 176.5 174.6 172 170.7 168.7 166.9 165.1 162.8 160.4 158.2 156 153.6 151.4 152.3 152.8 149.5 152.9 154.2 154.2 155.9 157.5 158 158.4 158.1 157.2 155.6 154.3 150.7 153.5 153.7 152.5 150.8 148.7 145.1 141.2 137.2 133.8 131.2 128.8 126.6 125.1 126.7 125 124.9 123.6 122.6 119.7 116.8 113.9 113.6 114.6 116.2 117.7 118.6 119.1 120 120.6 120.4 123 125.7 128.5 130 130.3 129.7 128.9 126.2 121.9 112.7 102.5 98.2 98.1 97.4 97.6 100.8 102.2 97.7 97.8 96 98.3 107.7 117.2 122.6 125.8 124.8 127.6 131.7 137.7
249.9 250 247.5 244.2 237.8 229.5 221.1 217.7 231 237.4 242 243.1 243.7 242.7 240.2 236.8 232.8 224.8 217.4 209.4 202.1 196.5 187.6 176.6 168.9 164 168.6 174.3 174.6 173.4 170 168.3 172.7 176.8 184.4 192.3 202.4 212.4 217.3 213.5 206.4 196.3 179 180.6 198.9 213.2 225.1 231.8 245.9 259.5 271.3 279.3 285.6 289.3 288.5 287.1 285.7 284.3 280.4 275.5 273.7 271.5 268 264.9 260.5 254.8 249.2 243.5 237.8 231.9 226.8 221.8 217.1 212 206.4 200 196.8 198.4 198 197.3 195.9 194 192.2 189.4 185.1 177.8 179.3 178.4 176.6 174.7 174.4 173 170.3 174.7 176.2 178.7 178.5 178.3 178.5 179.7 181.4 183.9 186.9 189.7 191.2 191.8 190.8 188.9 186.5 184.2 181.9 179.6 177.9 175.8 173.8 172 170.4 167.9 165.5 164.2 163 160.3 161 160.4 159.2 158.3 156.8 154 154.2 156.7 158 158.3 158.1 160.4 161.4 162.3 162.1 161.4 160.1 158.4 155.9 159.1 160.5 159.8 158.9 156.9 152.4 148.1 144 140.7 137.6 134.1 130.3 133.3 133.9 133 131.9 129.6 127.5 125.4 122.4 119.2 115.2 112.2 111 112 112.9 114.4 115.3 115.7 115.8 118.1 120.9 123.8 125.7 125.9 125.8 123.7 119.8 110.1 100.4 98.5 98.7 106.3 104.3 114 117.9 119 118.9 116.9 117.2 119 120.6 123.8 126.1 128.2 129.5 131 135.5 140.7
257.8 257.1 252.8 247.9 241.4 232.3 217.6 228.5 239.2 245.8 250 251.4 250.3 248.2 244.5 240.2 237.6 234.8 229.8 223.6 216.9 209.3 200.7 191.1 185.1 178 161.9 162.9 162.3 161.2 160.5 158.7 159.4 159.8 168.9 179.8 191.7 203.6 212.2 212.7 208.8 201.1 187.5 172.2 184.2 202 215.9 227 240.3 254.2 266.8 275.5 279.4 282.4 281.9 280.5 278.1 275.9 272.1 270.1 267.6 265.5 262.8 258.8 254.5 249 243.6 239.6 235.5 229.9 225.3 221.3 216.8 211.6 206.4 201.5 196.5 192.4 192.4 193.4 192.8 191.8 189.2 186.6 183.6 179.5 175.6 175.6 174.7 173 172.8 171.3 172.9 174.1 175 177.1 178.6 178.2 178 178.1 179 180.5 184.1 187.7 190.2 191.1 191.6 190.6 188.6 185.9 183.3 180.7 177.7 175.3 173 170.9 168.9 167.9 167.2 166.3 165 162.8 163.4 162 161.1 160.1 158.6 155 157.6 160.2 160.7 160.8 159.2 162.2 163.9 165.4 165.6 164.7 163.2 161.3 159.5 162.2 164.8 164.9 164.1 162 158 154.2 150.5 146.7 143.2 139.5 129 140.1 140.8 139.6 137.6 135.9 133 130 126.9 124.4 121.9 118.3 116.1 115 112.6 109.5 109.3 110.5 111.9 115.1 117.9 120.8 122.6 123.1 122.4 120.2 114 99.7 99.6 102.1 105.5 116.2 119.4 122.6 125 126.8 127.8 127.7 128 128.4 130.1 130.4 130.6 132.7 134.8 136 138.9 144.3
265.1 263 256.7 250.4 243.7 231.8 223.8 239.6 248 255.6 259.3 260.2 259 256.5 252.8 248.6 244.9 245.5 243.8 239.3 232.4 222.4 213.6 203.1 200.4 196.6 191.9 186.4 182.6 184.2 185.9 182.2 173.9 159.3 157.4 168.2 184.1 197.5 206.6 210.9 210.5 202.7 193.1 175.5 173.7 191.1 207.4 223 236.5 250 261.9 269.1 272.6 274.7 273.9 271.4 268.7 266.5 264.4 263 261.2 258.1 255.2 251.8 248 243.4 239.9 236.5 232.6 228.1 224.3 220.5 216.1 212.3 207.1 202.1 197.7 193.6 189.2 189 189 187.3 184.6 183 180.8 178.1 173.8 173.5 173.1 172 172 171.7 166.5 170.5 172.4 173 174.2 175.8 176.4 176.5 176.7 178.4 181.4 184.9 188.9 190.9 191.4 190.8 189.4 187.1 184.3 181.2 178.2 175.6 173.8 172.1 170.8 169.9 168.8 167.7 165.1 165 165.1 163.6 162.4 160.9 158.1 156.3 159.6 161.2 163.1 163.8 161.9 162.3 164.1 166 166.4 166.4 165.4 164 163.5 164.1 166 167.2 166.1 164 161.5 158.9 154.9 150.9 147.1 143.3 142.6 145 144.9 143.2 141 138.9 136.2 133.1 130.3 127.7 124.7 121.8 121.3 120.1 118.3 115.9 114.3 108.1 107.6 112.1 115.3 117.8 119.5 119.6 118.3 115.4 104.3 100.1 102.8 111.8 117.4 121.5 125.3 128.5 131.7 134.6 135.8 137.6 138.8 138.8 139 137.5 136.2 136.9 139.1 141.2 142.3 148.4
269.8 266.3 259.4 251.5 243.3 230.7 233.6 247 255.6 262.1 265 266.7 266.3 264.8 262.2 259.4 257.6 258.5 258.7 257 251.8 239.8 228.8 220.8 217.6 215.6 212.9 210.7 211.6 212.3 209.1 198.8 184.5 168.7 158.4 156.5 173 189.1 201.6 207.4 211.4 205.3 196.2 181.2 169.1 182.8 200.7 218.6 232.8 247.4 258 262.5 266.8 266.9 264.9 262.2 259.5 257 255 253.7 251.7 249.8 247.3 245.1 242.3 239.7 236.5 233.3 229.9 225.5 222.2 218.7 215.4 211.5 206.9 202.6 197.8 194.1 190.4 186.4 184 183 181.8 179.5 177.3 175 174 170.4 171 170.8 170.2 169.9 167.3 166 168.1 169.4 170.1 171.2 173 173.4 174.8 177.3 179.9 184.1 187.8 190.4 191.2 191.2 190.1 187.5 184.7 182 179.1 177.2 175.6 174.2 172.6 171.4 170.2 168.4 166.6 167 166.5 165 163.2 161.4 158.6 159.7 162.6 163.8 163.8 164.6 166.4 163.8 164.6 165.8 167.6 168.4 168.9 168.2 168.6 168.5 168.6 168.8 167.6 165.4 163.4 160.7 157.3 153.2 148.8 144.3 146.4 148.2 147 145.1 142.8 140.6 138.4 135.6 132.9 130.2 127.7 125.9 124.9 123.2 121 118.9 116.8 114.9 111.4 106.8 112.4 114.5 116.1 115.7 112.8 106.8 100.4 102.4 106.7 117.1 123.8 128.4 132.1 135.7 141.4 145.5 147.4 148.5 148.2 147.6 146.7 143.4 140.7 140.1 143.3 145.6 148.8 151.1
270.8 266.4 259.2 251 243.5 226 241.6 253.5 262.7 267.6 270.4 273.1 273.1 272 270.8 270.1 270 271.4 271.7 269.9 266 260.3 250.3 240 236.6 233.9 234.9 237.2 236.4 232.3 221.6 207.5 193.1 177.5 162.5 157 160.5 178.6 194.8 203.8 210.9 207.1 197.2 188.6 168.2 172.7 193.4 213.7 226.5 240.8 250.3 256.7 259.2 259.4 257.4 253.4 250.3 247.5 245.2 243.6 242.7 242 240.2 238.4 236.7 234.8 232.1 229.6 226.6 222.3 219.4 216.1 212.8 209.7 205.4 200.7 197.4 193.4 190.4 188 184.2 180.7 179.4 176.9 174.7 172.8 171.4 169.6 168.1 168.3 167.3 166.7 166.1 163.1 164.3 165.9 167 168.5 170.3 172.3 174.2 176.7 179.9 184.1 187.5 190.3 191.4 191.8 190.6 188.8 186.5 183.7 181.2 179.5 177.8 176 174.2 172.6 171.1 168.8 169.1 169.1 168.1 166.3 164.4 163 159.6 163.1 165.7 167.3 167.6 166.5 167.1 169 168 167.5 169.8 171.3 172.4 171.9 172.8 172.9 172.7 172.4 170.3 167.8 165.2 161.9 157.9 153.7 150.1 147.7 150.7 151.2 149.3 147.2 144.9 142.4 140 137.5 134.8 132.4 130.5 128.8 127.3 125.4 123 120.4 117.5 114.7 112.3 106.4 106.7 110.6 111.4 109.1 104.1 101 102.6 104 115.3 122.6 129.3 133.9 138.1 143.5 148.6 153.3 156.1 155.7 155.5 152.2 149.1 146.7 144.4 143 145.9 149.1 152.5 155.4
270.6 265.3 258.2 249.9 243.4 234.2 248.5 259.4 268.4 274.4 276.7 278.6 279.5 280 280.8 280.7 280.9 281.5 282.7 280.2 277.1 272.6 268.7 264.2 259.3 255.9 252.9 250.9 244.5 237.5 226.5 213.5 200.2 184.9 171.7 156.9 156.8 166.4 183.7 201.3 208.3 208.3 200.5 190.5 173.9 166.8 182.8 202 218.8 232 241.3 247.6 251.5 252 248.9 246.4 243.1 239.1 235.4 234.6 234.8 235.2 234.2 232.8 231.3 229.3 226.9 224.5 221.6 219.3 216.5 213.5 210 207.3 202.7 199.3 195.8 192.7 190.4 188 184.4 181.8 180.6 180 178.3 176.2 174.5 171.9 169.1 166.8 165.1 164.4 164.4 162.8 161.6 162.8 164.6 166.7 168.9 171.1 173.4 176 179.5 183 186.2 189.2 191.2 191.7 190.8 189.9 187.7 185.2 182.7 180.7 178.8 177 175.4 173.4 171.6 170.2 170.5 170.5 169.4 167.5 165.2 163.3 163.6 164.9 167.1 168.7 170 169.6 168.9 168.6 170.7 169.5 171.9 173.8 175.2 175.6 176.9 177.4 176.9 175.9 173.3 170.4 167.3 163.9 160.5 157.3 154.2 154.2 154.4 154.4 152.4 149.8 146.8 144.2 141.8 139.3 136.8 134.4 132.3 130.3 128.5 126.3 123.7 121.1 117.6 114.5 112 111.3 103.9 103.8 103.3 103.8 101.7 102.6 100.5 110.6 119.1 126.7 133.1 138.7 144.6 150 154.6 159.8 161.4 161.3 158.8 155.1 152.3 149.9 147.6 146.7 149.3 153.1 156.3 158.3
269.5 264.5 257.4 250.1 238.9 243.5 255.1 265.5 273.3 278.9 281.8 283.9 285.1 286.4 287.9 288.9 290.4 291.8 293 291.4 288.7 284.4 279.2 274 269.9 265.4 259.8 253 245.4 239.1 230.7 218.9 206.8 192 176.9 164.4 156.1 157.8 178.2 197.7 205.7 207.8 203 192.5 178.5 164.9 173.2 193.4 208.7 222.7 232 237.8 242 243.1 241.1 238.6 235.2 231.2 228.5 228.6 229.7 229.7 229.1 227.9 226 223.7 221.4 218.8 217.7 215.7 213.7 211.1 208.1 205.1 202.3 198.7 195.2 192 188.3 186.5 185.8 184.7 183.5 182.4 180.8 179.6 178.8 176.8 174.5 170.4 166.3 163.5 161.4 161.5 158.9 159.7 161 164.1 166.9 169.6 172.2 175.1 177.9 181.1 184.4 187.7 190.3 191.8 191.5 190.5 188.5 186.3 184 181.7 179.4 177.6 176.1 174.7 173.1 172.2 172.3 171.5 170.1 168.4 166.2 166.4 166.8 167.7 169.7 171.3 171.9 173.6 169.8 174.2 173.9 172.2 172.7 176.4 178.2 179.6 180.2 180.9 180.3 179.5 176.9 173.6 170.6 167.3 163.9 161 158.9 159 158.7 157.8 155.4 152.5 149.5 146.8 143.8 141 138.6 136.3 134 131.8 129.5 127 124.4 121.9 119.4 117.1 114.6 113.8 111 108 105.2 102.8 101.3 101.4 104.6 113.7 122 129.2 134.9 140.1 147.3 152.8 158.5 161.7 164.1 164.5 161.5 158 154.7 152.7 149.9 149.9 153 155.9 158.7 160.3
269.2 263.6 258.6 253.6 245.2 252.8 261.8 270.7 277.1 280.9 284.5 287.6 289.2 291.6 293.4 295 296.3 297.8 299.1 298.6 296.7 291.5 286 281.8 277.2 271.1 262.8 254.5 248.4 240.1 232 222.1 211 199.3 187.4 171.7 156.3 154.6 171.4 191.9 202.2 205.6 202.6 191.1 180.6 161.4 167.1 187.5 201.8 213.7 222.6 227.6 230 231.6 232.4 229.9 227 224.1 223.4 224 224.5 224.4 223.5 222.1 220.1 218 215.8 214.9 213.3 211.7 210.5 208.1 207 204.2 200.7 198.3 196.3 194.4 191.2 188.9 187.3 186.4 185.3 184.1 183.1 182 181.1 179.5 177.2 173.5 169.9 166.4 164.3 162.3 159.1 157.6 158.3 160.7 164.4 168 170.8 173.6 176.7 179.8 183.1 186.3 188.9 190.8 191.9 191.2 189.6 186.8 184.9 182.6 180.3 178.4 177 176.2 175.1 174.3 173.8 172.9 171.6 170.1 169.2 170.1 171 172 174.6 175.8 175.6 177.4 178.9 179.2 178.2 176.3 174.9 180.3 181.4 183.5 184.2 185.3 184.9 184.1 181.4 177.4 174.6 171.4 168.2 165.3 163.7 163.5 163.8 162.7 160.3 156.5 152.9 149.5 146.8 144.5 141.5 138.9 136.4 134 131.4 128.4 126.3 123.9 121.5 119.3 116.6 114.5 112.3 109.3 106 102.9 102.2 104.9 110.5 117.9 124.6 129.8 135.8 142.2 147.5 152.6 158.4 161 163.9 164.5 161.5 158.3 156.7 153.9 149.3 153.3 155.5 157.7 160.1 161.7
269.3 264.9 261.4 257 250.3 259.6 267.5 274.6 279.4 282.9 286.5 289.9 291.8 294.3 296.6 299.3 300.1 302.1 302.9 302.7 298.5 295.2 289.5 283.5 278.2 271.7 264.6 256.5 248.5 239.4 231.4 223.1 213.8 203.4 192.6 177.4 164.8 154 164.6 189.4 199.7 200.7 198 189.3 178.1 160.6 164.6 184.8 195.4 207 213.4 219.1 221.6 223.3 223.4 221.7 220 218.1 218.8 219.3 219.5 219.2 218.1 216.3 214.5 213.4 212.5 211.7 210.5 207.2 205.6 205.4 204.2 203.7 203.6 202.5 200.6 197.7 194 190.9 189 187.7 186.6 185.9 184.8 183.3 182.3 181.2 178.9 175.5 172.1 168.7 166.1 164.4 161.5 157.3 156.5 157.8 161.5 165.6 169.5 172.4 175.3 179.4 181.6 184.3 186.8 189.4 191.1 191.4 190.5 188.6 186 183.6 181.3 179.3 178.2 177.5 176.6 175.9 175.2 174 173 172.2 173.5 176 177.5 178.2 179.7 180.5 181 181.5 182.6 183.1 182.3 180.5 180.4 181.5 184.7 187.2 188.3 189.3 189.6 188.8 187.1 183.5 180.4 176.5 173.6 171 169 168.6 168.3 167.7 165.8 162 157.8 154.6 151.1 147.9 145.1 141.7 138.8 136.2 133.6 131.5 128.7 126.2 123.8 120.5 117.6 114.6 112 109.6 104.5 103.3 104.8 108.7 113.5 119.4 125.5 130.2 138.5 145.3 151.3 155.1 158.2 160 161.7 161.3 160 157.5 155.3 153.6 149.5 153.9 156.5 159.3 161.1 161.5
271.1 267 262.2 262 256 265.4 271.8 278.1 281 284.5 287.3 290.3 291.4 293.1 296.2 297.4 299 299.9 300.2 299.2 296.3 293.1 288.2 282.3 276 269.1 264 256.7 246.7 238 230.4 222.3 214.2 205.1 194.8 181.2 169.4 154.6 160.1 185.8 195.7 195.4 192.5 183.7 176.4 160.2 166.4 183.7 192.9 199.9 205.5 210.6 213.6 215.3 215 214 212.7 212.4 214 214.8 214.9 214.3 212.7 210.8 209.8 209.2 207.9 206.3 204 203.2 203.8 204.7 205.9 206.9 206.4 205.4 203.7 201.8 198.5 195.6 192.8 190.8 189.1 187.8 186.1 184.6 183 182 180.2 177.2 173.2 170 167.1 165.2 162.9 159.1 154.9 156.3 159.2 163.3 167.4 171.4 174.5 177.3 180.6 184 186.4 188.6 190.6 190.2 189.3 188 185.8 183.8 181.7 180 179.2 178.4 178.4 177.5 176.7 176 175.7 176.4 178.4 180.7 181.9 182.7 183.5 184.3 184.8 185.4 186.6 187 186.6 186.6 188 190.1 191.7 192.8 193.6 194.2 194.4 193.9 193 191 187.7 184.3 181.4 179.6 177 175.2 174.5 174 173.7 168.4 163.5 159.7 156.2 152.7 149.4 145.7 142 139.6 137.1 134.3 131.9 129.1 126.2 122.4 118.5 115.7 111.3 108.5 102.9 102.9 106 109 113.1 119.5 125.5 128.5 136.3 146.1 151.4 154.6 156.1 157.7 158.7 157.7 156.7 154.9 153 152.7 148.2 152.5 156.5 158.6 160 160.7
274.2 270 267.5 264.8 264.6 271.2 275.5 280.3 283.1 286 286.9 286.2 287.8 288.1 289 289.4 290.7 292 292.5 291.7 291.1 288.4 284.7 277.8 272 266.1 261.1 254.2 243.8 234.9 228.6 222.9 214.2 207.6 199.3 185 171.2 156.4 157.8 180.6 190.7 192.4 189.2 180.1 171.3 157.9 172.3 182.4 189.4 193.8 197.5 201.9 205.4 207.8 207.9 206.8 206.3 207.2 209 211.2 210 209.2 207.7 205.6 204.5 203.9 201.7 200.4 200.3 201.7 204.2 206.5 207.4 207.5 207 206.5 205.3 203.7 202.1 199.4 196 193.4 191.2 189.3 187.5 185.5 183.7 181.8 179.9 177.4 173.9 170.4 167.5 164.3 162.3 159.8 155.2 155.9 157.3 161.6 166.4 170.9 174.5 178.8 181.9 184.5 186.4 187.6 189.4 189 188.6 187.4 185.8 183.9 182.4 181 180.1 180.1 180.1 180.2 179.9 179.5 179.8 180.9 182.7 184.3 185.7 186.7 187.4 188.3 188.9 189.6 191.7 193.1 193.6 193.7 194.3 195.9 197.9 199.3 201.2 203.5 203.4 202.9 201.6 200 196.9 193.6 191.4 189.6 186.3 182.9 181.5 180.8 176.8 173.8 168.8 165.1 161.5 157.9 153.9 149.9 146 143.5 141.1 138.4 135.6 132.1 128.3 124.4 120.6 116.7 112.6 105.5 101.9 103.2 107.4 111.9 115.6 121.3 125.7 130 137.6 145.3 150 152.5 153.6 155.3 155.6 154.9 154 152.4 151.7 150.2 146.7 151 154.5 155.4 157.2 158.4
278.8 274.8 270.9 269.9 270.4 276.2 279.4 284.1 287 287.1 285.9 280.4 281.1 280.9 281.1 280.4 279.8 280.3 280.9 281.2 280.2 278.5 275.1 270.9 266.2 260.3 256.4 245.3 237.7 231.1 226.4 221.5 214 207.9 200.6 187.9 174.1 154.1 151.3 165.4 176.5 183.1 180.6 173.7 164.9 157.4 169.1 177.4 183.7 187.8 191.5 195.7 199.7 201.8 201.9 201.1 200.3 202.1 205.8 207.3 205.9 203.8 202.2 200.1 198.3 196.6 195.7 197.6 200.2 202.6 205 206.5 207.1 207.6 207.5 207.1 206 204.5 203 200.3 197.4 195.4 193.3 191.1 188.5 185.9 184 181.6 179.6 177.4 174.2 170.8 167.3 164 160.8 157.7 154.4 154.9 158.2 162.1 166.6 171.1 174.6 179.3 182.6 184.3 186.2 188 189.4 189.7 189.3 188.4 186.8 185.3 183.9 182.7 181.7 180.9 181.4 181.9 182 182.5 183.3 185.1 186.5 188.2 189.7 190.9 192.7 194.4 195.9 197.7 199.3 201.4 203.5 204.7 205.4 205.9 208.3 210.1 211.9 213.7 213.5 212.6 212 209.9 207 203.5 201.2 198.4 193.8 189.9 187.6 183.1 182.3 177.8 173.4 170 166.3 162.4 158.2 153.8 150.6 147.7 145.1 141.5 138.3 135 130.7 126.4 123.1 117.6 112.6 105.2 103 103.5 108.4 116.1 120.2 121.3 123.9 128.7 134.2 140.6 145.7 148.6 149.7 152.3 152.1 151.8 151.7 150.4 149.4 145.2 145.8 149.5 152 153.6 153.7 156.1
287.3 280.7 277.8 277.1 278.7 282.9 286.2 289.2 290.7 289.8 287.3 282.5 277.1 276.9 273.9 271.5 270.2 269.2 268.4 268.5 267 265.7 262.6 259.5 255.9 252.5 247 240.3 232.8 225.5 223.1 218.5 212.2 206.8 199.4 191.3 179.2 163.8 150.5 155.3 162.9 167.8 170 167.4 160.8 154 162.9 170.2 176.5 181.1 186.8 190.8 194.2 195.7 195.9 195 194.2 197 200.1 201.5 200.2 198.4 196.5 194.4 191.7 192 194.6 198.1 201.7 203.7 205.5 206.5 207.6 208 207.5 207.2 206.5 204.9 203.3 201.2 198.3 196.6 193.8 191.4 189.2 186.7 184.1 181.5 178.7 176.6 173.4 170.3 166.8 163.2 160 156.9 153.2 156 161.4 166.2 170.1 173 174.7 177.3 180.9 184 187.3 189.7 191.1 191.4 190.8 189.6 188.3 186.7 185.2 183.7 183.1 182.4 182.9 183.4 183.7 184.7 186.2 188.3 190.5 192.3 194.2 196.5 199.2 202.2 204.8 208.5 210.8 212.5 214.2 214.7 214.9 215.7 216.7 218.1 219.5 219.8 219.4 218.4 217.5 216.5 213.8 210.7 207.4 203.3 198.9 195.4 191.9 189.3 185.3 181.1 177.3 173.6 169.9 166.2 161.8 157.1 153.9 151.1 148.1 144.3 141 137.1 132.6 128 123.6 119.4 113.3 106.8 103.5 103.9 107.4 114.6 119 120.2 120 122.9 128.1 134.4 139.5 142.5 145.2 148 149.2 150.4 150 148.6 147.3 143.5 144.7 148.3 149.5 151.6 150.5 151.5
297.9 291.8 287 286.4 287.7 290.1 292.7 294.4 294.2 293.3 291.8 286 279.8 274.2 271.4 266.3 262.2 259.7 258.3 256 255.2 253.8 253.1 250.7 248.9 244.9 239.3 233.5 225.1 218.1 214.9 212.8 206.3 200.9 196.9 190.1 182.5 170.3 152.5 151.1 151.4 155.2 158.6 160 157.9 152.5 158.1 163.5 169.1 176 181.8 185.3 188.3 190.4 190.8 190.1 187.3 191.3 193.9 194.4 193.8 192.4 189.2 187.2 188.9 192.2 195.6 199.1 201.7 203.9 205.3 207 208.2 208.4 208.2 207.7 206.9 205.5 203.2 201.2 198.7 196.8 193.5 191.1 188.7 185.9 183.4 181.2 178.5 174.9 172.9 168.2 164.8 161.1 158.2 153.8 153.9 162.7 166.4 170.6 173.8 176.1 177.6 179 181.5 184.8 188.1 190.7 192.2 192.7 192.2 191 189.7 188.2 186.6 185.1 184 183.9 184.6 185.2 186.1 187.4 189.1 191.4 194.2 196.6 199.6 203.4 206.8 210.1 213 215.2 216.5 217.5 218.9 219.7 220 219.9 220.7 221.8 222.1 222.7 222.7 221.6 220.7 219.4 217.5 214.3 209.8 206.3 201.8 197.7 194.3 191.3 187.5 183.2 179.6 176.4 172.6 168.4 164.1 159.8 156.1 153.2 150.4 146.9 143.4 139.1 135.4 129.6 125.4 121 114.6 111.5 103.9 103.2 105.5 111.9 115.6 117 117.9 121 125.3 129.8 134.7 137.4 141.9 145.6 148.2 149.1 148.2 147 144.6 141.9 141.1 145.5 147.9 149.6 147.8 147.5
306 301 296.6 296.7 298.4 301.2 301.8 300.8 298.5 298.5 296 290.5 284.5 277.9 271.7 264.6 257.4 249 245.7 244.1 244.3 244 243.8 242.1 240.5 237.2 232.1 219.9 212.5 205.2 199.4 192.3 188.8 187 182.5 180.9 178.2 170.3 156.6 149.3 149.5 149.9 149.7 150.2 153.9 151.6 154.6 159.7 165.5 170.2 174.9 179 182.6 185 185.8 185.5 181.3 184.3 186.4 187.3 186.6 185.2 184.6 186.3 189.4 193.1 196 198.7 201.1 203.2 204.6 206 207.7 208.2 208.2 207.9 206.6 205.2 202.9 200.3 198 195.6 192.7 190.5 188 185.2 182.8 180.8 177.9 174.5 171.8 167.2 163.3 159.7 155.5 151.5 161.8 169.5 172.8 172.9 173.7 178 180.4 182.1 183.3 185.3 188.6 191.3 193 193.8 193.6 192.5 191.2 189.7 188.2 186.6 185.3 185.5 186.5 187.4 189 190.4 192.2 194.8 197.6 200.4 203.9 207.5 209.6 213.5 215.9 218.3 220 221.4 222.3 223.3 223.4 223.5 223.5 223.6 223.9 225 224.8 223.5 222.1 220.9 219 216.3 212.8 207.9 203.9 200.5 197.1 193.9 189.6 184.8 181.2 178.1 174.8 170.2 165.9 161.8 158.2 155.5 153 149.7 145.3 141 136.2 130.7 126.7 122.2 116.1 113.5 106.2 103.2 102.9 109.4 113.3 114.5 115.9 119.9 124.4 128.6 131.5 134 139.2 144.2 146.6 146.6 145.4 143.9 143.7 142.6 137.5 141.3 146.3 147.9 140.9 148.9
315.1 310.9 307.8 306.4 304.6 305.6 305.6 305.2 304 302 298.2 293 286.6 280.1 273.6 267.3 261.8 255.9 242 232.9 232.1 232.8 233.5 233.8 232.7 229 223.6 210.2 197.1 187.7 182.1 170.6 168.1 167 164.7 164.9 161.5 157.2 161.1 158.1 149.4 149 148.6 148.8 149.5 150.7 152 155.5 160.2 164.8 169.5 173.1 176.9 179.2 180.4 179.2 175.8 178.1 179.4 180.2 180.7 181.2 183.8 186.8 190.2 192.8 195.5 198 200.6 202.3 203.4 204.3 205.6 206.6 206.6 206.3 205.7 204.6 202.4 198.9 194.9 194.5 192 189.5 187 184.7 183.3 180.7 177.3 174.2 170.5 167 162.4 158.4 152 154.9 168.5 176.2 178.2 178 179.7 182.2 183.2 184.4 186.3 188.1 189.8 192 193.8 194.7 195.1 194.3 192.7 191.3 189.8 188.2 187.1 186.8 187.5 189.4 191 192.3 194.7 197.8 200.3 202.4 205.9 209.5 212.5 215 217.5 219.7 221.3 222.6 223.3 223.6 223.7 223.7 223.5 223.2 224.1 225.2 225.1 224.4 223.4 222.2 220.7 218.4 214.6 211.2 207.6 203.8 200.3 196.7 191.9 187.5 183.9 181 178 174.3 169.1 164.8 161.3 158.6 155.6 151.6 147.3 142.5 137.4 132.4 127.4 123.1 117.3 114 107.6 102.6 103.2 103.8 109.7 111.2 114.4 118.5 123.4 126.6 129.5 133.3 137.6 142.4 143.9 143.2 143.4 144.7 145.5 143.5 136.2 132.4 142.5 143 146.6 145.8
324.2 320.9 316.1 315.2 311.4 309.7 308.4 307.4 306.1 303.7 299.9 294.8 286.4 279.7 273.4 267.3 261.1 254.4 244.5 231.3 222 218.9 221.1 223.5 223.5 220.9 211.6 194.6 179.9 176.7 178.9 183.4 184.7 182.9 181 178 177.6 178.6 175.4 171.4 162.9 152 148.4 147.4 148 149.4 150.2 151.3 154.6 159.8 164.7 169.1 171.2 172.3 173.4 172.7 170.3 171.1 173.4 175.3 176 180.7 184.5 187.5 190.1 192.4 194.8 196.6 199 200.8 202 202.6 203.8 205 205 204.9 203.9 203.1 200.8 198.1 194.3 193.5 191.1 188.4 186.3 184.5 182.2 179.8 177 173.9 170.4 166.5 161.3 157 149.2 161 176.1 183.6 184.8 184.6 184.2 185.5 186.2 187 188.3 190.2 191.8 194.1 195.9 196.5 196.8 196.1 194.7 193.2 192 190.7 189.4 189 188.8 190.5 192.4 193.6 195.7 198.1 200.7 203.6 206.7 210.1 212.7 215.2 217.6 219.4 220.7 221.2 222 222.1 222.1 222.3 222.3 222.2 223 224.1 224.3 224.1 223.5 222.3 221.5 220.1 216.9 214.4 211.7 208 204.2 200.6 196.2 191.6 188.2 185.4 181.8 177.3 173 168.9 165 161.8 157.9 153.4 149.2 143.8 138.4 133.2 128.1 123.8 118.7 112.7 107.2 103.1 103.1 103.2 106.6 109.1 113.4 117.6 121.5 126.1 129.8 133.4 136.4 139.9 141.3 142.2 143.4 144.5 143.1 141.3 136.9 131.1 138.1 143.5 143.2 141.7
333.4 328 323.4 318.3 313.4 310.7 308.9 306.6 305.3 303.7 298.8 290.4 284.2 277.6 269.8 261.2 252.4 244.4 237.2 228.7 221.6 215 209 209.5 206.2 200.6 194.6 181.2 186.3 195 198.9 202.3 201.5 201.5 201.9 201.8 199.2 197.3 193.2 186.2 176.8 165.7 154.6 147.4 146.3 146.8 146.7 147.2 149.2 153.8 160.4 164.9 166.4 166.5 166.6 165.7 165.7 166.9 169.4 171 175.9 180.2 183.9 186.8 189.4 191.9 193.5 195.2 197.2 198.9 200.3 200.7 200.9 202.3 202.7 202.6 201.5 200.3 198.3 195.9 193.9 192.5 190.7 187.5 185.4 183.3 180.9 178.4 176.7 174.5 170.5 165.8 160.8 155.2 147.1 164.9 179.4 190.2 192.1 190.2 189 188.5 189.2 190.1 191.2 193.4 194.6 196.2 198.1 198.8 198.5 197.9 196.7 195.3 194 192.8 191.6 190.9 190.5 191.6 192.6 193.5 194.6 197.4 200.2 203 205.7 209 211.6 214.1 215.9 217.4 218.2 218.6 219.1 219.6 219.7 220.1 220.1 220.2 221.2 222.6 222.7 222.9 222.7 221.9 221.1 220 217.6 215.9 213.7 210.8 207.8 204.3 200.4 196.8 193.2 190 186.2 181.9 177.4 173.1 169.2 165 160.9 155.2 150.5 145.1 139.3 134.3 129 124.6 119.5 113.2 106.2 103.2 103.2 103.6 105.2 109.1 113.1 116.9 121.7 125.9 129.2 131.7 134.4 137.2 139.5 140.8 142.4 143.1 140.8 135.9 130.7 128.8 138 142.8 141.6 139.8
341.4 334.5 327.6 320.3 314.9 309.5 306.3 302.3 300.6 297.8 291.5 286.9 281.1 270.7 258.1 245.6 237.8 228.8 222.8 211.5 207.4 203 192.7 190.5 187.2 185.8 184.9 197.9 204.8 208.2 210.6 211.5 213.2 214 214.4 214.2 211 208.6 201.9 196.2 186.9 176.3 161.4 157.3 151.5 147.5 145.5 145.8 146.1 147.8 154.9 157.1 158.6 159.7 160.2 161.5 162.2 165.1 166.7 171.2 175.4 179.1 182.5 186 188.6 190.3 192.3 193.5 195.1 196.7 197.6 198.3 198.3 199.6 199.6 199.1 198.7 197.6 196 194 192.2 190.6 188.6 186.5 184.4 182.2 179.7 177.4 175.7 173.3 169.3 165.3 161.1 155.1 146.7 162.3 178.9 192.3 196.8 194.1 192.2 191.9 192.3 193.6 195.2 197 198.4 199.4 200.7 201.3 201.2 199.9 198.3 196.6 194.8 193.8 192.2 191.2 190.8 190.7 190.5 191.9 193.3 195.6 198.3 200.9 203.8 207 209.7 211.8 213.4 214.4 214.3 214.8 215.4 215.6 216.3 217.3 217.7 217.1 218.8 220 220.3 220.1 220.4 220.4 219.4 217.9 216.9 216 214.4 211.9 208.5 205.9 202.7 199.6 196.9 193.7 189.8 185.8 181.7 177.4 173 168.8 163 157.6 151.7 146.5 140.6 135.7 131.1 125.9 120.4 113.4 104.8 103.1 103.5 104.1 105.8 109.1 113 117.4 122.5 125.4 127.6 130 132.4 134.9 137.3 139 141.2 140.9 138.2 131.1 126.5 125.6 134.2 139.6 140.4 138.9
347.2 339.4 331.2 322.3 315.6 307.8 302.8 297.6 292.8 289.5 286 282.5 271 257.5 245.9 237 227.3 216.6 206.5 205.6 207.5 208.2 208.7 212.8 214 211.3 211.5 214.7 218.5 221.7 223.2 225.3 226.1 226.1 225.6 222.7 220.3 214.5 207.3 201.3 194.4 185.9 179.3 171.3 164.2 156 148.9 144.6 144.8 144.8 145 144.3 151.6 154.1 155.1 156.2 160.5 160.3 165.9 170 174.3 177.8 181.3 184.2 187.3 188.4 189.1 190.6 192.5 194 194.6 195.2 195.5 196.3 196.3 196 195.5 194.4 193.2 191.1 189.4 188.2 186.7 184.5 182.8 180.9 178.4 176.1 174.2 172 168.8 164.9 161.2 156.2 146.7 158.3 171.8 187.7 196.4 196.8 193.7 194.2 195.8 197.7 199.7 201.2 201.8 202.5 203.4 203.2 202.4 201.1 199.5 197.3 195.6 193.5 191.8 190.3 189.1 188.5 188.4 190 191.7 194 196.4 198.9 201.6 204.4 206.3 208.2 209 209.4 209.5 209.4 209.8 209.5 209.4 209.8 210.2 211.3 212.8 214.3 214.9 215.5 215.9 216.2 216.3 216.1 215.9 215.7 214.4 212.1 209.2 206.5 203.2 200.2 198.4 194.7 191.9 188.8 185.1 181.8 177.3 171.9 165.6 159.6 153.7 148 143 137.9 133 127.8 122.3 114 103.7 103.3 103.7 104.3 106.3 109.1 112.4 116.9 121.5 124 126 128.2 130.7 133.3 136.4 138.6 139.1 137 134.2 130.8 129.3 123.7 130 135.6 137.2 137.2
351.8 343.1 333.7 323 314.7 308.1 300.2 292.1 283 281.2 277.3 268.9 255.8 245.4 237.6 228.7 216.6 208.2 218.2 224.2 225.4 226.1 227.1 228 228.2 228.6 228.2 230.1 233 236.8 237.1 236.5 236 234.9 232.1 229.1 224.1 217.3 209.7 204.1 199.5 193.4 185.9 177.9 172.9 161.5 157.4 148.3 143.7 144.1 144.2 144 146.3 149.3 150.7 152.6 157.9 162.6 166 169.4 172.5 176.3 179.2 181.4 183.5 184.6 186 188.2 189.7 190.6 191.5 192.1 192.5 192.8 193.2 192.9 192.2 191.1 189.5 187.8 187 186.3 184.4 182.4 180.8 179.1 176.9 174.6 172.9 170.7 167.8 164.7 161.6 157.8 145.2 155.6 164.3 174.1 185.4 191.9 192.4 195.2 197.5 200.3 202.6 202.7 203.1 203.5 203.9 203.7 202.8 201.5 199.9 197.9 195.4 193.1 191.5 189.5 187.4 186.8 187 188.4 189.7 191.6 193.9 196.2 198.4 200.6 202.3 203.3 203.7 203.4 203.3 203.3 203.9 203.9 203.2 203.3 204.3 205.9 207.4 208.6 209.2 209.8 210.2 210.5 211 212 212.8 212.4 211.5 210.4 208.2 205.5 203 200.9 199.2 195.6 193 190.5 187.8 184.5 180 173.7 168 161.8 155.7 149.9 144.7 139.6 134.9 130 124.6 114.9 104 103.1 103.9 105.2 108.1 109.3 111.4 114.8 117.9 120.3 122.8 126.6 129.9 133.1 134.5 135.6 134.3 132 130 132.6 132.7 124.9 123.2 131.9 132.3 134.1
352.6 343.3 333.4 321.6 314.9 307.6 300.6 289.2 276.8 267.8 261.2 251 241.2 233.8 228 217.5 218 225.8 234.1 238.1 239.5 240.1 240.9 242 244.7 244.5 243.7 244.7 247.4 249.4 247.2 244.6 242.9 238.8 235 230.3 223.8 216.3 209.2 204 200.7 194.9 189.1 183.9 174.2 165.1 158.6 150.9 144 143.2 143.3 143.1 142.9 143.7 147 155.3 160.2 163.9 166.8 169.1 171.4 173.9 176.7 177.9 179.5 181.4 183.4 185.4 186.9 187.5 188.3 189 189.7 190.2 190.1 189.6 188.6 187.6 185.9 184.8 184.2 183.1 181.6 180.3 178.8 177 174.8 172.4 170.4 168.5 166.3 164.4 162.1 158.6 144.4 154.6 163.9 171.1 178 185 190.2 195.3 199.2 201.5 202.3 202 202.7 203.8 204.5 204.4 203.6 202 200.1 197.6 194.6 192.7 190.7 188.9 186.6 185.6 185.2 186.3 187.4 189.1 190.9 192.5 194.6 196.5 197.8 198.4 198.3 198 198.2 199 199.5 199.6 199.4 199.8 200.8 203.1 203.6 204 204.2 204.1 204.3 204.8 205.7 207.2 209.3 209.3 208.1 206.7 205.2 203.9 202 200.6 198.2 194.2 191.8 189.4 186.9 183.7 179.9 174.8 169.5 163.3 157.2 151.6 146.2 140.5 135.9 130.6 125.3 116.3 104.7 104.8 104 106.3 111.8 113.3 113.8 115.6 116.7 119.9 122.1 125.8 128.2 130.4 131.4 131.1 129.4 126.7 126.4 130 129.9 125.2 120.8 125.9 126.9 129.7
352.3 342 332 322.5 315.1 307.8 300.3 289.5 280.9 271.9 262.3 251.2 239.3 231.3 222.6 218.8 231.8 241 245.9 251.4 252.4 252.9 252.5 255.2 257.1 259 259.7 259.5 259.6 258.2 254.5 250.9 245.5 239.8 235 229.3 221.5 213.7 207.9 201.9 199.1 194.3 188.7 184 177.6 170.6 162.9 153.6 151 143.4 141.7 142.5 142.1 142.6 145.9 155.3 161.2 164 167.4 168.7 170.2 171.9 173.6 175.3 176.6 180.3 182.2 183.2 183.8 184.5 185.5 186.3 187.4 187.6 187.7 187 185.7 184.1 182.9 181.7 180.5 179.6 178.3 177.3 176.3 174.8 172.5 170.2 167.9 166 164.2 163.8 162 156.4 143.4 155.2 165.5 171.9 178.2 183.2 187 191 195.5 199.1 201 202.4 204 205.3 206 205.8 204.7 203 199.7 196.6 193.3 191.4 189.1 186.8 185.1 183.6 183 183.9 184.9 186.3 187.8 190.3 192.2 192.9 192.9 193 193.2 193.4 193.9 195.4 196.5 196.7 196.3 197.6 199.2 200.7 201.5 201.6 200.8 200.5 201.6 202 202.4 204 206.6 207 205.4 203.9 203.4 202.1 200.8 199.4 196.7 192.6 189.8 187.4 185.4 182.3 178.7 174.3 169.2 163.7 158 152.4 146.7 140.9 135.3 129.4 123.5 116.8 105.9 103.9 103.7 106.6 113.5 117.2 119.8 120.6 120.1 119.4 121.3 124.6 126.1 127.1 128.1 127.5 126.3 125.6 124.2 125.8 127.9 125.3 119.1 124.8 128.2 130.8
352 341.5 332 323.3 314.4 307.8 299.8 289.6 282.9 274.9 267.1 257.9 245.7 234.7 221.6 232.2 243 251.8 258.6 263.8 266.6 267.6 269.1 269.5 270.3 270.6 271.6 270.1 268.3 264.3 260 252.1 245.4 238.1 232.4 226 217.9 211.2 205.8 200.4 196.1 191.6 186.7 181.5 175.4 169.5 164.3 159.9 153.7 151.4 144.1 142.2 141.6 141.5 141.5 152.7 159.7 162.9 165.4 167.2 168.5 170.1 171.6 174.3 176.5 178.3 179.4 180.2 180.7 181.5 182.6 184 185 185.1 185 184.2 182.9 181.5 180 178.5 177.3 176.1 175.3 174.6 173.6 172.3 170.6 168.5 165.7 164.4 162.5 162.8 161 155.3 142.3 157.4 163.8 169.4 174.4 179.7 184.6 188.5 193.4 197.5 200.9 203.4 205 206.1 207 206.6 204.8 202.1 198.8 194.8 192 189 186.7 184.4 182.8 181.3 180.7 181.1 182.3 183.7 185.1 187.3 188.1 188.9 189.1 189.2 189.2 189.4 190.5 192.3 193.5 193.3 193.9 195.7 196.7 198.1 199.2 199.6 199.7 199.5 200.8 201.4 201.9 202.6 204.4 204.7 203.3 202.5 202.1 200.6 199 197.1 193.9 190.2 187.2 184.9 183.1 180.3 176.5 172.3 167.6 162.7 157.5 151.9 145.8 139.3 133.2 127.3 121.2 116.7 109.2 104.8 105.9 107.1 115.7 120.8 123.3 124.7 124.2 123.7 122.9 123.5 125.6 126.9 126.9 126.8 126.2 124.9 123.3 124.9 126.6 126.2 119.2 126.1 131.5 133.8
353.1 341.9 332.4 322.9 311.3 305 296.5 288.2 282.9 276.1 267.6 257.9 247 231.6 230.5 244.8 255.3 265.1 271.2 278.5 278.6 280.3 281.9 281.1 280.6 279.5 277.7 274.2 269.9 267.6 259.7 250.1 239.2 234.4 227.6 219.6 213.4 206.9 202 196.3 190.4 186.5 181.8 177.2 171.9 167.8 165 159.8 155.4 152.4 152.3 141.9 141.4 141.4 140.8 147.6 156.4 160.7 163.2 164.8 166.5 168.4 170.9 172.5 173.7 174.7 176.1 177.1 177.8 179 180.5 182 182.5 182.2 181.8 181.2 180.2 178.8 177.1 175.7 174.5 173.3 172.4 171.9 171.2 170.3 168.7 166.3 163 162.6 160.6 160.4 158.5 153.6 140.7 159 162.8 167.2 173.9 179.8 184.5 188.8 192.8 196.6 199.9 202.9 204.5 205.1 205.1 204.8 203.5 201.2 197.9 194.1 190.6 187 183.6 181.3 179.5 178.9 178.6 178.3 179.4 180.6 182.1 183.3 183.8 184.9 185.3 185.5 185.5 185.4 186.2 187.1 188.2 188.2 189 190.1 191 191.7 192.3 192.4 192.7 196 197.4 198.5 200.1 200.2 200.8 201.5 201.4 200.9 200.5 197.9 196.1 193.6 190.1 186.1 183.1 181.2 179.4 176.7 173.5 169.5 165.4 160.9 155.8 150 142.6 136.4 130.8 124.9 120.1 117 111.1 107.3 105.1 107.1 117.4 123.4 127.1 128.3 128.6 126.8 125.8 124.8 125.4 126.6 127.3 126.9 126.1 124.7 121.9 121.9 123.3 125.3 119.1 122.6 124.5 122.2
354.9 343.2 332.6 319.4 303 300 293.1 285.9 280.9 273.5 265 254.2 241.4 229.9 244.5 256.3 266.7 276.1 283 287.3 289.9 291.3 290.6 289.4 287 284.2 279 270.3 270 264 255.3 242 238.3 228.3 222.1 213.6 209.1 202.7 196.1 190.9 185 180.2 176.1 172.3 168.9 165.2 161.7 157.4 154.3 151.9 153.2 149.6 139.2 140.8 140.7 139.8 152 156.3 159.5 161.9 163.9 165.8 168.5 170.3 171.4 172.3 173.2 174.1 174.9 176 178.3 179.2 179.6 179.4 178.9 178.3 177.4 176 174.7 173.2 171.8 170.3 168.9 167.9 167.7 166.9 166.1 163.4 160.4 159.8 158.6 157.8 154.7 149 141.5 159.2 165.2 170 175.7 181.4 187 190.1 192.9 196.2 199.4 202.1 203.6 204.2 203 202.6 201.3 199.3 196.1 192.2 188.1 184.6 181.2 178.7 176.8 176.4 176.2 176.5 177.3 177.2 179 179.9 180.4 181 181.2 181.3 181.4 181.5 181.9 182.7 183.4 183.4 184.5 185.5 185.8 186.1 186 185.3 185.8 189.9 192.5 195.1 197 196.8 196.3 196.7 197.2 196.4 196.1 193.6 189.8 187.7 184.6 181.1 178.6 177 174.7 171.4 168.9 165.7 162.3 158.2 152.7 146.5 140.4 134.3 128.9 123.7 118.8 115.3 110.8 109 106.1 105.8 115.6 125.7 128.7 131.3 130.4 130.8 129.2 125.3 124.6 125.2 126.9 126.4 125.5 125.4 122.4 119.2 120.5 123.7 118.3 122.6 126.4 130.7
357.3 344.7 332.9 318.5 299.5 288.2 286.4 282.9 274.6 267.1 258.2 245.6 234 245.9 256.3 267.2 278.1 287.5 293.8 298.5 300.7 299.1 297.4 296.7 291.9 284.8 279.5 264.1 265.3 257.6 248.6 242.5 231.5 222.6 216.8 210.6 204.4 198.4 192 185.6 180.4 175.4 172.3 169.2 165.3 161.2 158 155.9 149.6 149 149.7 149.1 142.7 138.9 140.1 139.2 142.6 151.9 155.8 158.8 161.1 163.1 164.8 166.6 168.2 169.8 170.9 172 173 173.3 175.3 176.5 176.7 176.5 175.7 175.5 174.8 173.6 172.3 170.3 168.3 166.8 165 164.1 163.9 163.6 163.1 160.9 158.5 157.6 155.8 154.7 150.7 144.9 138.7 155.8 163.4 170.4 176 181.8 188.5 191.8 195 197.8 199 200.4 203.1 203.9 202.7 200.9 198.7 196.5 193.5 190 186.1 182.4 178.9 176.7 174.5 173.1 172.4 172.4 173.3 173.5 175.4 176.4 177 177.5 177.7 177.6 177.8 178.3 177.8 178.4 178 178.8 179.9 181.5 182.1 182.6 181.7 180.5 182.9 185.6 187.7 191.8 194.2 194.4 194.1 194.6 194.9 194.3 192.3 188.6 184.9 182 178.2 175.1 173.4 171 168 165.7 163.4 160.8 157.2 153 148.5 143.4 139.3 133.4 128.9 125.3 123.1 121.2 117.9 108.8 105.1 103.9 109.5 126 129.6 132.8 131.6 130.3 129.6 126.4 125.1 124.8 125.5 124.9 125 125.4 121.9 118.5 120 125.4 125.2 117.4 125.8 129.4
359.7 347.1 334.2 315 302.5 289.1 273.7 267.2 263.5 256.7 246.1 245.9 252.4 258.5 268.1 277.4 289.7 296.8 303.9 308.4 308.2 303.5 302.3 297.6 288.8 283.4 276.3 263.1 257.2 248.8 236.5 236.3 224.2 218.1 212.7 207.3 200.9 195.2 188.5 182 176.9 172.5 169.7 166.3 162.2 158.9 156.4 156.9 157.5 155.5 153.4 147.8 145.5 139.9 139.7 139.3 138.9 147.3 152.9 155.8 157.9 159.9 161.6 163.3 165.3 166.8 169.1 170 171 171.3 172.1 172.9 173.5 173.4 172.8 172.2 171.7 170.6 169.7 167.6 165.3 163.2 161.6 160.7 160.2 159.9 159.5 158.1 156.7 155.5 153.8 151.9 147.8 141.6 138 149.4 160.1 168.8 176.2 183.2 188.9 193.9 200.1 203.2 204.2 204 204 203.6 201.7 199.1 195.9 192.9 190.2 186.9 183.7 180.2 176.9 174.6 173.1 171.5 169.6 169.1 170.2 170.3 171.6 172.5 173.6 173.9 174.2 174 173.8 173.4 174 174.8 174.6 174.2 175.5 176.1 176.4 176.5 176.2 176.1 177.8 180.2 183.6 187.5 190.8 192.6 193.1 193.1 193.7 191.8 188.9 185.8 182.9 179.4 176.2 172.9 169.8 167.3 164.6 161.9 159.7 156.7 153.7 150.5 146.7 140 138.1 138.8 136.7 133.6 130.3 127.3 123.3 115.2 105.6 104.3 107.5 113.4 127.4 127.3 129.3 129.9 129.4 128 125.6 125.8 124.9 123.1 121.4 123.6 124.2 118.7 120.7 128.5 125.6 115.9 123.1 128.8
360.6 349.8 338.5 324.5 311.9 297.3 285.5 274.7 264.7 254.8 252 258.6 264.9 272.7 281.5 290.5 298.5 306 312.6 314.6 312.7 300.7 301.5 296.1 287.1 277.9 272.2 259.1 244.2 234 239.6 233.5 224.9 215.4 211.9 205.4 198 191.1 184.9 179.4 174.9 170.6 167.3 164.2 160 156.8 155 154 154.2 156 154.1 150.2 148.6 143.6 137.4 138.9 138 145.1 149.1 152.2 155.2 157.3 159 160.5 162.6 164.8 166.7 167.9 168.7 169.1 169.5 169.8 170 170.1 170 169.4 168.5 167.4 166 164.4 162 159.9 158.1 157.3 156.5 156.3 156.1 155.7 154.4 153.5 151.5 149.5 145.3 137.2 136.9 150 159.8 168 175.8 184 191.4 198.8 205.5 209 209.6 209.2 207.7 204.4 200.6 197.4 194.3 191.1 187.9 185.2 181.9 178.3 175.4 173.5 171.7 170.4 167.5 165.6 165.3 165.5 167.4 169 169.2 169.9 169.8 169.8 170 170.4 170.9 170.9 170.6 170.7 171.1 171.4 171.7 172.2 172.9 173.7 174.9 176.9 180.2 183.7 186.5 190.1 192.6 194 195 193.5 191.5 188 184.2 179.9 176 172.5 169.2 166.2 163.4 161 158.4 155.7 153.4 150.5 149.5 149 148.2 145.9 143.1 140.1 136.9 132.8 128.4 123.9 113.9 104.8 103.5 107.7 115.1 118.1 124 127.1 127.4 126.9 123.4 123 122.9 122.3 119.2 118.7 120.4 116.4 118.3 122 120.7 117.4 111.4 123.4
362.7 353.5 343.6 329.8 317.6 306.4 291.6 281.9 271.6 261.8 267.1 272.4 278.1 285.7 293.8 302.2 308.9 316.3 320 319.6 316.1 306.9 299.8 287.2 280.1 274.1 265.5 254.2 243.3 232.9 233.4 227 219.9 213.3 208.2 200.9 193.3 187.4 182.4 177.3 173.4 169.1 164.2 160.3 161.9 160.4 157.2 153.8 150.4 150.3 149.7 149.6 148.2 146.7 140.4 138.3 137.8 141 145.4 148.3 152 154.6 156.4 157.3 160.5 162.7 164.6 165.8 166.1 166.6 167 167.1 167 166.8 166.5 166.5 165.4 164.1 162.1 160.6 158.9 156.8 155.1 154 153.4 153.6 154.1 154.1 152.3 150.9 149 146.5 141.5 135 139.2 152.6 161.6 169.7 177.8 186.3 195.4 202.2 208 211.2 212.6 213 211.7 208.6 204.6 199.9 195.9 190.7 186.3 183.1 179.7 176.3 173.6 171.6 170.1 167.2 165.3 161.9 161 160.2 161.4 163.5 164.7 165.4 165.9 166.4 166.9 167.3 167.9 167.8 167.7 167.9 168.1 168.2 168.6 169.4 170.5 172.5 174.9 178.4 181.8 184.3 188 190.9 193.9 196.6 197.3 196.6 194.3 190.3 185.6 181.2 177.1 173.3 169.7 166.2 163.4 161 158.8 156.8 156.4 156.3 155.7 155.5 154.1 151.9 149.3 146.6 142.6 138.3 134.1 130.4 123.8 113 105.8 103.7 106.7 107.6 111 116.6 124.4 123.4 120.7 117.4 119.6 119.4 117.5 115.6 116.4 114.3 114.8 117.1 110.4 109.1 110.5 120.2
362.8 355.3 347.1 334.8 322.4 311.8 299.8 287.7 271.4 278.2 283.1 287.2 292.2 298 305.3 312.3 318.3 322.7 323.8 320.1 311.7 304.2 296.8 287.5 270.6 267.4 255.3 246.5 237.4 231.4 223.9 223.1 216.6 207.6 200.4 193.9 188.2 183.8 179.2 174.6 170 168.5 168.9 169.9 168.9 166.5 162.8 158.3 154.6 150.6 148.1 145.6 145.9 145.6 142.4 137.8 137.3 137 139.4 145.7 149.1 152.1 154.2 155.5 158.7 161 162.6 164 164.2 164.4 163.7 163.7 163.7 163.6 163.5 163.7 162.6 161.2 159 157 154.9 153.4 151.6 150 150.2 150.8 152.1 152.6 151 149 147 143.5 140.4 133.4 144.6 153.3 162 170.9 181.2 190.1 198.3 204.8 210.1 214.1 215.9 216.6 215.9 213.2 209.2 204.1 197.9 190.6 186 182.5 178.1 175.3 172.5 170.8 168.8 165.8 163.8 161 157.6 158.1 158.8 159.6 160.9 161.6 162.2 163.1 163.9 164.3 164.8 165 165.3 165.8 166.1 166.2 166.1 166.4 168.6 171.4 174.5 178.1 181.9 185.9 189.9 193.7 196.8 198.4 199 198.5 195.6 191 185.9 181.8 177.7 173.9 169.7 165.8 163.1 161 159.3 158.1 158.2 158.9 159.6 160.1 159.7 158.2 155.7 151.7 147.1 142.5 138 133.8 128.9 122.2 113.1 106.2 103.8 107.1 103.1 106.4 109.6 111.6 114.5 113.4 112.8 115 113.5 114.6 112.2 113.7 112.5 115.8 111.4 119.9 107.9 115
361.1 354.7 347.2 338.3 326.8 316.4 308.6 296.7 290.4 293.7 296.3 298.7 302.6 308.9 313.9 318.9 323.8 325.2 322.9 316.8 307.6 299.2 289.9 280.5 269.3 259.1 248.9 240.7 234.9 226.3 219.7 218 212.1 201.1 195 189.5 184.2 178.9 174.5 176.6 177.5 176.8 177.3 177 175.5 172.3 168.3 162.9 159.5 155.7 151.4 147.1 144.5 141.3 140.8 138.1 137.2 136.6 135.9 138.9 146.7 149.5 151.1 153.8 157 159.3 161 162.3 162 161.9 161.7 160.2 160.5 160.8 161.5 160.9 159.8 158 156.1 153.9 152.1 150.4 148.6 147.3 147.5 148.8 149.6 150 148.6 147.4 145.3 141.4 138.3 132.9 142.8 152.9 161.4 170.6 183.3 193.3 200.7 207.3 212.2 215.3 217.8 219.1 218.8 216.6 213.8 210 204.4 197.6 190.6 185.6 181.4 178.6 175.8 173 170.1 167.1 165.6 162.6 159.8 155.1 155.7 156.7 157.5 158.1 158.9 159.7 160.7 161.3 161.8 162.4 162.8 163.2 163.7 164.2 163.9 163.9 166.5 169.2 172.3 175.7 181 185.6 190.1 194.4 198.2 200.6 200.2 199 195.9 190.2 185 181.1 177.2 173.1 169.1 165.2 162.3 160.4 159.1 158.4 159.1 159.9 161.6 163.4 163.7 162.6 159.4 155.6 150.7 145.5 140.3 135.7 131.5 125.6 121.6 115.6 108.3 105.4 104.4 102 101.4 101.7 102.9 102.9 102.8 103.4 103.5 105.6 106.3 106.8 111.7 110.9 117.3 109 106.9 108.5
359.1 352.6 346.7 338.8 329.9 321.5 314.2 309.4 304.8 306.1 306.6 310.7 312.6 316.1 320.8 323.2 324.4 323 318.8 310.8 301.3 292.6 282.1 273 263.6 252.4 242.7 234.2 227 219.9 213.4 210.3 203.9 196.8 190.9 185.6 180.7 184.1 185.6 185.8 185.5 185.9 185.5 183.6 180.9 176.9 172.9 167.8 163.2 158.9 155.3 151.5 147.4 144.6 141.7 139.7 136.7 136.1 134.5 140.3 143 145.9 148.5 152 155.8 158.2 159.7 160.7 160.6 160.4 159.7 158.1 157 158 158.6 158.1 156.9 154.6 152.9 150.9 149 147.2 145.6 143.8 144.1 145.8 146.1 146.1 146.1 145.2 143.6 140.4 131.8 131.5 144.8 153.2 161.9 171.5 186 194.9 201.9 207.6 212.4 215.9 218.6 220.6 221.1 219.8 217.2 213.2 208.5 203.1 196.4 190.3 185.8 182.7 178.7 175.7 172.9 170.2 167.8 164.7 161.2 157.4 152.8 152.8 154.2 154.6 155.4 156.4 157.1 158.1 158.6 159 159.2 160 161.1 161.7 161.2 160.9 162 164.1 168.5 174.3 180.2 184.6 188.8 193.8 198.5 201.2 201.1 200.1 195.5 189.1 183.8 179.8 175.5 171.4 167.6 164 161.4 159.5 158.8 158.2 158.7 160.2 162.9 164.8 165.6 164.4 161.3 157.4 152.1 148.2 143.2 137.7 134.3 129.8 125.6 120 114.4 111.4 108.9 107.3 105.1 102.2 101.5 101.3 101.3 101.5 100.8 100.4 99.5 101.4 108.8 105.7 111.7 110.9 108.1 109.6
355.1 350.3 345.6 339.2 332.5 326.5 320.5 315.8 315 316.3 318.7 320.5 321.6 323.2 322.9 321.5 320.3 316.4 309.8 302.9 293.9 283.4 272.1 263.3 254.7 245.4 236.4 228.8 222.3 213.8 207.3 204.2 200.4 192.3 186.1 187.6 190.8 192.4 193.2 194.1 194.6 193.6 191.1 188.1 184.8 180.5 176.3 171.7 167 162.4 159 155 150.7 147.2 144 141.6 137.8 136.1 135 134.8 138.3 143.2 147 150.1 153.9 156.7 157.9 158.8 159.2 158.7 157.3 156.1 155.1 154 154.9 154.7 153.2 150.9 148.9 147.3 145.7 144.1 142.6 141 141.6 143.1 143.6 143.8 143.8 142.7 141.2 138.7 130.4 132.1 146.7 154.8 164.1 174 186.4 195.6 202.3 207.7 211.5 215.4 218.2 220.4 221.5 221.6 219.5 216 211.2 205.9 200.1 193.9 189.1 186.1 181.5 177.7 174.7 171.8 168.6 165.5 161.4 157.8 153.9 149.5 149.7 150.7 151.2 153 153.5 154.5 155.3 155.8 156.3 157.4 157.9 158.4 158 158.1 159.9 163 167.5 173.6 179 183.4 187.5 192.6 197 199.1 198.9 197.8 192.8 186.9 182.2 178.1 173.6 169.5 165.9 162.5 159.9 158.2 157.2 156.9 157.3 158.2 161.2 163 163.6 162.3 159.8 156.3 152.1 147.5 145.1 142.7 138.3 132.9 127.5 123.9 120.9 117.8 114.6 112 110.7 111.1 110.7 108.5 105.5 106.8 107.5 105.4 102.5 100.5 99.3 102.5 104.7 107.2 107.9 110.4
348.1 346.8 343.2 338.9 333.9 328.7 324.3 322.1 322.4 326.1 327.4 327.7 326 323.7 320.4 316.5 312.3 307.3 301 295 284.3 273.4 263.5 254.5 245.5 236.6 230 223.4 217.1 208.9 204.1 199.7 192.7 195 195.2 196.6 197.6 198.8 199.9 200.3 200.4 198.6 194.7 191.2 188.2 183.5 179 174.7 169.8 165.7 162.3 157.8 154 150.9 147.9 143.9 143.7 135.5 135 133.9 134 138.2 144.4 148.5 152 154.5 155.9 156.7 157 156.2 154.5 153 152.6 151.3 150.4 150.7 149.3 147.1 145.7 144.4 143 141.4 139.8 137.7 139.5 141 141.7 142.2 141.6 140.5 138.8 136.6 128.9 134.8 150.2 159.1 166.9 175.9 186.3 195 201.1 205.8 209.3 212.5 215.5 217.9 219.8 220.6 219.9 217.4 213.3 208 201.8 196.6 192 188.5 186.4 180.7 176.8 173.2 169.9 165.9 161.8 157.7 153.7 149.8 146.2 146.7 146.6 148.6 150.1 151.1 152.2 152.9 153.6 154.3 154.4 154.6 154.3 155.5 159.1 163.6 168.2 172.8 177.8 181.4 184.9 189.1 192.9 194.8 195.3 193.7 188.5 183.8 179.9 175.8 171.6 167.5 163.7 160.7 158.3 156.6 155.1 154.4 154.8 155.6 157.3 158.9 159.2 158.5 157.4 155.5 153.3 152.2 150.9 146.8 141.4 136.1 131.5 127.8 124.8 122 118.4 114.9 107.7 113 112.7 112.7 110.6 108.7 107.4 106.8 104.8 102.2 100.9 99 100.4 105.9 106.5 109.1
338.9 339.8 339.5 336.5 332.9 329 324.3 323.4 326.3 330.5 330.5 329.4 325.8 320.8 315.6 310.1 304.7 299.4 293.4 284.6 275.4 264.3 254.3 244.7 235.2 228 222.8 217.9 213 207.5 202.4 196.7 199.1 199.1 201.2 203.1 203.7 204.5 204.1 203.3 202 198.9 195.2 192.6 189.7 186.1 181.9 177.3 173 169 165.1 161.1 157.7 154.6 151.2 147.2 144.8 140.3 135.1 134.2 133 132.5 141.5 145.9 150.2 152.3 153 154.1 154.4 153.2 150.5 149.5 148.7 147.6 145.3 145.4 145.6 143.6 141.8 141 140.6 139 137.3 135.6 137.4 139.1 140.4 141.3 141.4 139.9 138.1 136.6 127.7 142.2 150.9 159.3 166.8 174.6 182.7 190.5 196.6 201.1 205 208.5 212.5 216 219.1 220.3 220.1 218.5 214.4 209.4 203.9 199.5 195.4 192.3 188.9 184.5 179.6 175.3 170.8 166.4 162 157.5 153.5 149.6 146.5 144 142.9 143.6 145.4 147.3 149 149.8 150 150.1 149.9 150.2 151.6 156.4 162 166.4 170.5 174.2 178.1 182.2 183.8 186.4 189.7 190.9 189.6 187.1 185 181 176.9 172.8 168.7 164.9 161.2 158 155.6 153.6 152.1 151.2 151.2 152.4 153.9 155.2 156.2 156.3 156.4 157.2 157.1 156.7 153.8 148.7 144.7 140.5 136.4 132.3 129.1 125.5 122 118 115.4 112.7 115.1 114.4 112.6 110.2 109 107.2 104.6 102.5 100.6 98 99.3 98.3 102.7 106.2
325.9 326.6 331.9 331.8 328.8 325.1 322.6 322.7 326.4 329.8 328.3 326.1 322 315.6 309.2 302.4 296.7 290.9 282.5 273.3 264.5 254.3 244.5 236.1 228.7 223 218.3 214.1 210.8 205.7 203.7 203.1 201 204.8 207.2 208.6 208 206.1 204.7 203.4 200.1 197.4 194.5 193 190.6 188 184.9 179.8 175.9 172.1 168.3 166 163.4 159.9 155 150.5 146.1 138.5 135 134.1 134.1 132.4 132.8 143 147.5 150.4 151.5 152 152.7 151.8 149.3 147.3 145.4 144 141.6 140.9 141.6 140.5 138.7 137.7 137.4 136.4 134.5 133.7 135.2 136.6 137.9 138.9 139.1 138.6 137.1 129.8 126 140.3 149.2 157 165 171.9 178.1 184.8 190.2 195.4 200.9 207.6 212.1 215.7 218.1 219.8 220.7 220 216.3 215.7 209.6 205.5 201.8 198.3 194.1 190.4 184.5 178.7 173 167.7 162.5 157.8 153.4 150 147.1 144.4 142.1 140.8 141.8 143.9 145.6 146.2 146.5 146.8 149.1 151.8 156.2 160.7 165.7 170.4 174.1 177.6 180.4 182.2 184.2 187.1 189 189 187.9 185.6 183.1 178.3 174 169.8 166 162 158.3 155.1 152.9 150.5 149.1 148.3 148.4 149 150.4 151.6 152.9 154.4 157.2 158.7 159.4 158.3 155.7 151.4 148 144.7 140.6 136.1 132.4 129.2 125.9 123.5 121.6 115.7 116.8 115.2 113.3 111.1 109 106.7 103.4 102.1 99 100.7 101.8 101.3 98.5 99.2
326.6 320.8 323.4 323.1 321.6 318.2 315.9 318.8 323 324.9 323.7 321.2 315.5 308.5 300.6 293.1 287.9 281.7 274.7 265.4 254.5 245.2 235.8 229.3 224.1 220.1 215 210.1 204.2 206.5 207.6 205.2 207.7 210.2 211.9 211.5 208.3 205.5 203 201.4 197.6 196.5 194 192.8 191.2 189.3 186.4 181.6 177.1 174.5 173.1 171.9 168.4 162.7 155.3 146.1 141.9 136.2 134.5 133.9 133.4 132.6 131.9 131.3 141.7 145.9 150.1 151.1 150.7 150.7 148.4 145.6 143 141.4 139.6 137.1 137.4 136.9 136.4 134.6 134.5 134 132.5 131 131.6 133.1 134.9 136.1 136.2 135.6 134.5 133.4 125.5 137.6 144.6 152.4 160.3 166.4 173.2 181.2 188.7 195.5 201.4 206.4 210.8 215.4 218.3 220 221.3 221.4 220.9 218.2 214.7 211.4 207.2 202.8 198.1 193.2 188 182.3 176 170.1 164.1 158.6 154 150.4 147.6 144.8 142.3 140.1 138.9 140.1 141.6 142.1 145.1 148.4 152.4 156.1 160.5 164.8 169.2 173.5 176.1 178.4 180.5 182.8 185.1 187.6 188.9 188.2 186.9 184.4 179.9 175 170.5 166.3 162.3 158.9 155 151.5 149.5 147.1 145.7 144.6 144.8 145.3 146.4 148.2 150.3 153 156 159 160.1 158.9 156.8 153.9 150.8 147.6 143.5 139.2 135.3 132 129.6 127.6 125.5 122.8 109.7 115.7 114.6 112.3 109.6 109.3 102.7 101.4 99.1 99.1 102.3 101.4 100.3 97.3
324.7 304.1 310.2 314.1 313.1 310.3 309.7 311.2 315.5 317.7 316.4 312.4 306.6 299.4 292.4 285.2 278.5 272.2 264.6 255 246.8 238.3 230.4 224.4 220.2 216.1 210.9 210.5 210 209.3 208.6 209.5 211.3 213.1 212.7 209 205.5 203.4 200.8 198.4 195.7 194.6 193.2 192.8 192.1 190.3 187.7 183.2 179.3 177 176.9 174.9 170.6 163.3 145 138.4 137.9 142.8 137.1 136.3 133.5 133.1 131.2 130.8 131 140.9 147.3 149.7 148.2 146.8 144.4 142.1 140 138.4 136.8 135 133.6 134 133.4 132 131.5 131.1 130.2 128.6 128.7 128.6 129.4 130.7 131.2 130.9 131.1 129.4 124.6 129.4 136.5 148.4 158.5 166.9 174.5 180.9 188.3 194.9 201 206.5 211.5 215.3 218.8 220.6 222 222.5 222.3 220.8 218.4 214.6 210.6 206.2 200.7 195.7 190.2 184 178.4 171.7 165.7 159.6 154.8 150.4 146.8 143.7 141.6 139.7 137.7 137.8 140.3 144 148.7 152.1 155.6 158.8 162.5 166.4 170.7 174.3 176.7 178.3 180.1 181.9 184 186.4 187.4 187.8 185.6 180.8 175.3 170.7 167.1 163 159 155 151.2 147.7 145.4 143.8 142.2 140.8 141.1 141.4 142.7 144.8 148 151.1 155 158 159 157.9 156.6 154.3 152.1 148.8 145.5 142.3 138.9 135.7 133.3 131.3 128.7 125.5 116 117.1 112.5 109.6 106.5 104.4 102.7 100.1 100.4 98.1 102.2 102.4 100.7 100.2
321.4 304.3 299.4 303.4 302.8 302 299.8 302 306 308.2 307.1 303.8 298.8 292.7 283.5 276.8 270.1 261.4 254 247.8 240.3 232.9 226.5 221.6 218.2 217.6 216.3 214.1 213.4 213 212 211.4 211.9 211.3 209 206 204.2 201.3 198.5 195.8 193.1 192.1 192.3 192 192 191 186.9 184.8 181.3 178.7 177.8 175.1 169.2 154.2 141 151.5 150 150.6 149.2 146.5 139.3 135.3 132.2 130.8 130.8 129.6 138.9 143.2 143.2 141.5 139.7 137.1 135.5 134.1 132.9 131.4 130.4 131.5 131 130.7 130.3 130 128.9 127.8 127.4 126.9 127.6 127.7 127.5 127.7 128 123.3 123.2 132.8 139.1 147.6 157.3 164.9 171.8 179.8 186.2 192.7 199.2 205.1 210.8 214.5 217.9 220.2 221.7 222.8 222.8 221.9 220 216.4 212.5 208 202.7 196.9 190.5 184 177.9 171.7 165.7 159.7 154.5 149.9 146.4 143.5 141.5 140 138.1 138 141.8 146.3 150.9 154.6 158 161.2 165 169.1 172.4 174.8 176.6 177.4 179.5 180.6 183.3 186 186.9 186.7 181.8 175.7 171 166.1 162.4 158.8 154.8 150.5 146.7 144 141.7 140.2 138.8 137.4 137.2 137.7 139.1 141.1 144.5 148.3 152.5 155 155.7 155.8 154.8 153.3 151.4 149.6 146.9 144.3 141.4 138.7 136.2 133.3 129.4 125.6 122.2 115.2 113.8 110.2 106.4 102.3 99.2 98 98.8 94.3 97.2 102.4 101.7 101
326 308.8 289.4 290.8 293.6 291.8 288.1 289.7 294.6 297 296.9 294.2 289.6 283.8 277.7 271.4 264.1 255.3 248.3 242.4 235.2 229.7 226 223.6 220.8 219.4 218.4 216.7 215 214 212.2 211.1 209.2 207.8 206.2 204.5 201.9 198.8 195.8 190.1 185.3 184.3 186.7 190.1 191.6 191.1 188.6 182.6 181.8 176.8 175.7 168.7 155.7 141.3 145.5 161 159.7 157.2 154.3 150 146.4 142.3 137.8 131.2 130.3 129.5 129.6 130.8 129.5 129.4 130.3 130.6 129 128.1 127 126.9 126.4 127 128.5 128.4 129.5 129.4 128.6 127.1 125.4 125.2 125.8 125.9 126.6 126.7 126.6 121.8 121.6 131.3 138.4 147 154.5 161.7 168.4 175.2 182.2 188.4 194.9 200.8 206.5 211.6 215.8 218.8 221.3 222.4 222.7 222.4 220.9 217.7 213.5 208.7 202.8 196.3 190 183.3 176.3 170.3 165 159.9 154.9 150.1 146.6 143.9 141.8 140.5 137.5 138.3 142.2 147.2 152.2 155.8 159.3 163.1 167.3 171 173.6 175.3 176.1 177.3 177.8 179.3 181.4 182.7 181.4 178.8 175.2 170.7 166.2 162 157.9 154.1 150 145.6 142.6 140.3 138.1 136.5 135.6 134.6 134.4 134.4 134.8 136.8 140.2 143.9 147.3 149.6 151.3 151.8 151.8 149.7 151.1 149.6 146.8 143.8 141.1 138.4 135.6 132.2 128.4 124.5 121 108.5 113.6 110.1 107.5 103.9 99 95.1 95.2 92 96.6 99.4 101.8 101.3
333.1 316.2 299.3 279.1 279 281.1 276.5 278.4 283.2 286 285.1 284.7 282.1 277.3 272.1 265.8 259 251.8 244.5 239.4 235 230.8 228.5 225.8 223.2 221.7 219.6 218.4 215.4 213.1 210.9 209.9 206.9 206 203.2 201.4 198.3 194.3 188.6 184.8 188.7 188.5 181.2 186.6 189.4 190.7 188 181.1 169.9 166.4 160.9 153.8 143.1 151.5 164 163.3 162.4 158.7 155.9 152.6 149.6 147.2 143.8 134.7 134.4 128.9 128.9 128.3 128.1 128 127.2 126.5 126.2 125.6 125.2 125 124.9 124.6 123.9 123.6 122.9 122.4 122.3 122.2 121.6 121 121 123.3 123.7 124.1 124.7 120.9 121.7 129 135.7 143.3 150.8 158 164.7 171.3 177.4 184 190.3 196.2 202.5 208.1 212.5 216.1 218.7 219.8 220.3 220.1 219.3 216.2 212.2 206.9 201.2 195 188.5 181.4 174.9 169.5 164.2 158.9 154.5 150.4 146.9 144.3 141.9 140.2 136.6 137 142 146.1 151.1 155.9 159.9 164.1 168.2 171.5 173.3 173.4 174.6 175.1 175.9 177.3 178.9 179.8 178 174.7 171.6 167 162.8 158.7 154.6 150.6 146.8 141.5 139.7 137.1 135.3 133.9 133.2 132.4 131.6 131.7 131.4 132.4 134.7 138 140.5 143 144.7 145.6 148 148.3 147.3 145.6 143 140.8 138.9 136.5 133.5 130 126.2 122.3 118.5 111.7 112 107 104.4 102.4 100.4 93.1 93 90.8 95.2 99.7 101.7 101.3
335 324.7 308.3 292.6 279.2 264.8 264.1 268.2 272.3 275.3 276.4 275.7 273 270 266.5 261.2 255.1 248.7 242.9 239 236.4 233.8 229.4 228 225.3 223.4 220.5 218.5 215.4 212.5 210.2 208 204.5 203.3 198.8 196.4 189.5 188.6 191.3 189.8 188.4 187.5 187.2 185.5 180 185.4 176.4 171.2 162.8 155.5 153.8 150.7 164.9 169.9 169.9 167.2 164.2 159.7 157.7 154.1 151 148.4 139.2 142.3 145.6 144.1 139.3 128 127.1 127.7 127 126 126.1 124.6 124.9 124.5 123.9 123.9 123.6 123.1 122.7 122 121.7 121.3 121.7 121 120.1 119.9 119.4 118.9 119.3 119.2 124.2 127.1 130.7 138.2 145.3 152.1 159.5 165.8 171.8 178.4 185 191.2 197.1 203.3 208.3 212.1 214.5 215.8 215.8 214.3 214.4 213.6 209 204.2 198.3 191.9 186 179.4 173.3 167.9 162.6 158 153.8 150.3 146.7 144.1 141.8 139.5 135.6 135.8 141.1 145.4 150.8 155.9 160.5 164.9 168.5 170.4 172 172.3 172.5 172.9 174 175.9 177.8 177.6 175.4 171.9 168 163.6 159.6 155.5 151.8 147.8 143.5 140 137.5 135.4 133.3 132 131.3 130.1 129.1 128.7 128.2 128.6 129.9 131.3 133.8 135.7 136.6 137.5 139.4 140.6 140.1 139.5 138.3 137.1 135.7 133.1 130 126.4 123 119.2 115.4 111.8 108.3 104.5 101.7 99 95.3 90.6 89.4 89.5 91.4 102.5 101.6 101.3
336.3 326.6 315.4 302.3 290.3 278.3 267.3 248.7 252.5 261 265.3 266 265 263 260.3 257 252.5 247.7 243.5 240.4 237.9 234.8 230.7 228.3 226.4 224.1 222.3 219.3 215.7 211.3 208.8 205.7 203.1 193.4 191.1 191.7 192 190 188.4 186.9 183.8 185 185.5 185.9 185.3 182.5 182.6 181.2 169.6 154.7 156 168.9 175.7 173.2 171.3 167.4 166.3 162.5 159.9 156.3 153.5 147.2 150.9 149.6 151.2 152.6 153.6 154.4 152.5 147.9 146.8 143.7 144.5 142.1 138.6 136.4 132 126.7 124 121.6 122.3 121.2 122.1 120.6 119.5 120.9 119.1 119.8 119.6 119 118.5 118.7 119.5 124.5 127.1 132.8 139.8 146.6 152.7 159.7 165.5 171.7 178.6 185.8 191.8 198 203 206.8 209.6 210.8 210.3 209.4 208.9 207.6 204.7 200.5 194.4 188.7 182.6 176.6 171.4 166.3 161.9 157.3 153.7 150.2 146.6 143.5 140.8 138.6 134.2 132.5 139.7 144.3 149.3 154.3 159.1 163.6 166.6 168.3 168.7 169.9 170 170 169.8 171.3 172.2 172.1 170.5 167.6 163.8 160.3 156.7 153.3 149.2 145.2 141.4 138.3 135.5 133.5 132.1 130.7 129.5 128.4 126.6 125.8 125.6 125.2 125.9 126.6 127.5 128.2 128.2 129 130.7 132.2 133.4 134.6 134.2 133.3 131.4 128.3 125.3 121.5 118 114.3 110.1 107.2 104.9 100.8 98.8 96.5 93.8 93.7 90.3 88.1 88.1 97.7 101.1 101.7
334.7 325.4 316.8 305.5 293.9 283.5 271.1 257.1 238.8 247.3 252 255.5 256.8 255.9 255.7 253.6 251.7 248.7 245.3 242.2 239.3 236 231.9 228.7 227.1 225.3 222.9 218.7 214.9 208.5 206.2 202.4 190.8 192.4 191.8 189.1 187.5 186.4 184.5 181 181 181.5 180.9 181.8 182.5 182.6 183.2 180.9 171.5 157.2 166.4 178.8 177.5 174.9 171.8 169.8 167.4 164.2 161.6 159.6 155.8 148.9 155.3 154.4 156.4 159.7 163 166.5 170.9 172.2 170.5 167.5 163.3 161.8 158 153.8 149 141.3 138.9 137.8 135.6 133.4 133.6 134.3 133.6 132 130.2 122.9 119.2 118.7 117.2 117.4 117.5 117.3 123.3 128.9 134.9 140.5 146.2 152.1 157.9 164.3 171 179.1 184.8 191.2 196.4 200.1 203.2 204.2 204 203.7 203.3 201.8 198.8 194.8 190.4 185.3 179.6 174.6 170 165.5 161.2 156.9 152.6 148.9 145.2 142.2 139.6 137.2 133.9 128.6 136 140.6 145.6 151.3 156.5 160.4 162.7 164.3 165.2 165.3 165.3 165.1 165.4 165.8 166.4 166 165.1 163.3 160.4 157.2 154.6 150.8 146.7 142.8 139.3 136.6 134.3 132.7 130.9 129.6 127.8 125.9 124.3 123 123 121.8 122.6 122.6 122.8 123.6 123.4 123.3 124.4 126.3 128.7 129.4 129.3 128.5 126.4 123.7 119.6 115.1 110.8 107.3 105.6 104 101.8 98.1 96 93.3 93.3 93.3 88.3 87.4 87.5 88 100.9 100.7
329.3 321 313.8 304.1 292.9 284 268.8 245.4 248.5 242.2 238.3 242.9 246.7 248.9 250.6 250.5 249.9 249.3 246.7 243.6 240.2 237.1 233 228.8 227 224.6 221.4 216.7 212.4 207.3 201.4 192.7 192.6 188.4 189.2 186.1 185.7 183.3 181.2 180.1 180.1 179.8 180.8 181.6 179.6 177.6 178 175.8 163.2 165.3 176 180.4 178.9 176.5 174.4 172.3 169.5 166.2 162.8 160.6 157.8 152.4 160.1 159.6 161.8 164.8 168.6 173.4 179 182 180.4 178.6 175.4 172.1 169.6 167.7 163.2 154.3 147.8 143.3 141.4 140 140.4 139.7 139 137.2 134.9 133.6 131.5 129.6 127.7 117.5 117 116.4 115.9 120.9 129 135.3 140.7 145.6 151.5 156.9 162.8 169 176.5 183 188.6 194.3 196.3 197.1 197.4 197.3 196.4 194.6 191.8 189.3 185.5 181.1 176.9 172.8 168.5 164.3 160.3 156.2 151.9 147.9 144.4 141 138.1 135.6 132.1 128 132.7 137.2 141.8 147.9 153.7 156.8 158.7 160.1 160.9 161.1 161.3 161.1 160.9 161.5 163.1 162.4 161.4 159.6 157.7 154.9 152.5 148.5 144.5 140.9 138.2 135.6 134.3 132.6 130.4 128.5 125.7 123.5 121.7 120.3 120 119.3 119.7 119.2 118.6 119.1 118.9 118.8 119.3 120.6 121.8 122.6 122 121.3 118.5 115.1 111.4 107.9 106.1 103.8 101.5 100.1 97.7 96.3 93.5 93.3 93.1 93.6 89.3 86.8 86.6 86.2 87.8 100.3
322.8 312.9 306.5 297.7 289.1 279 266.8 258.2 251 245.6 241 229.9 236.1 241.1 245.6 248.9 249.6 249.2 247.3 244.4 240.6 237 233.4 230.4 226.3 223.7 220.2 215 209.2 201.1 195.2 194.2 191.5 186.9 185.4 184.9 181.7 180 178 176.9 177.2 178.4 178.6 179 179.1 179.3 172.7 167.1 173.4 181.7 183.5 182.2 181.2 179.3 177.2 175.1 172 168.6 166.4 163.8 164.7 161.5 163.5 164.8 166.8 170.3 174.3 179.2 185.3 188.3 188.9 186.6 184.2 180.1 178.6 177.2 172.3 165 158.5 152.5 149.3 146.1 145.4 144.7 144.1 142.3 140.1 138.1 137.1 136.2 134.9 131.7 127.8 115.7 115.6 115.4 120 129.1 135 139.7 145.8 151 156.8 162.5 169.1 175.2 180.5 185.2 188.6 190 191.2 191.4 190.7 188.7 186.8 184.8 182 178.9 175 171.2 167.1 163.3 159.4 155.4 151.2 147.1 143.6 140.2 136.9 133.9 130.8 126.4 130 134.1 138.5 143.8 149.7 153.2 155.7 157.8 159.4 159.5 158.6 159.1 160.7 161.9 162.3 161.2 159.9 157.9 155.6 152.9 149.6 146 142.9 139.5 137.7 136.1 134.5 133.3 129.6 127 124.2 121.6 119.6 117.7 117.3 116.8 116.2 115.6 115 114.4 114.2 114.2 113.2 113.2 113.4 113.8 114.3 112.8 111 108.3 106 103.9 101.9 100.7 99.1 95.9 103.2 93.8 93.2 93.5 93.6 91.2 88.4 86.3 85.8 86 86.2 93.7
314.7 305.5 299.6 290 280.8 271.7 263.4 256.5 250.8 245 238.5 231.9 225.4 233.4 242.2 246.8 248.8 248.7 247.5 244.5 240.5 237.4 234.1 230.2 224.8 222.2 219.4 212.3 208.2 200.5 195.6 194 186.2 186.4 182.9 182.2 179.7 178.3 176.6 175.3 176.6 177.1 176.8 176.3 175.2 173.5 171.2 176.9 183.7 185.5 185 184.1 183.4 182.1 179.8 177.5 174.9 172.9 169.7 167.4 168.1 167.9 165.6 169.8 172.2 175.3 178.8 184 190.2 194.2 195.5 193.9 191.5 188.1 184.8 182.9 178.7 175.3 172.2 164.5 158.3 153.8 151.8 149.3 149.5 148.3 147.2 145.7 144.4 143 141.3 138.4 134.6 131.1 119.5 115.1 114.9 120.1 129.1 134.5 139.3 144.7 150.5 156.8 162.4 167.7 173.2 178.1 181.3 184.2 185.3 185.6 184.9 183.9 182.2 180.4 178.4 175.5 172.7 169.5 166.1 162.2 158.6 154.7 150.2 146 142.4 138.7 135.2 133.1 130.1 125.8 127.2 131.8 137.3 143.3 148.1 152 155.5 157.4 157.9 157.1 156.1 158.7 161.4 161.7 161.4 160.3 158.5 155.1 151.1 147.9 144.8 142.8 140.8 138.5 136.8 135 133.1 130 127.4 124.9 122.2 119.6 117.6 115.6 114.4 113.1 112.8 111.8 111.1 110.6 110.6 110 109.7 109.6 109.2 108.8 108 106.7 104.3 101.3 98.7 97.2 96.4 96.9 94.8 103.8 104.8 91.2 92.2 91.7 89.1 88.9 86.6 85.6 85.6 85.8 86.7 93.1
304.4 298 290.4 280.5 272.9 265.1 258.4 252.7 246.2 240 236 231.3 224.9 228.8 238.1 244.1 247.6 248.1 246.5 243.8 239.8 237 233.5 229.7 225.7 220.6 216.7 211.9 205.2 199.7 194.7 189.7 187.6 183 179.3 178 176.7 175.5 174.6 175.4 176 176.3 175.7 176.2 176.4 173.5 171.6 180.1 184.7 186.4 186.5 185.9 185.4 183.6 181.5 179 178.1 174.9 171.7 171.8 172.1 172.1 167.8 172.9 176.2 179.4 182.7 187.8 193.7 197.9 200.5 199.8 197.5 194.4 190.5 187.2 184.5 181.7 180 172.3 166.1 162.4 158.7 155.7 155.3 154.9 154.2 153.2 151.3 149.1 146.7 143.6 140.6 136.2 131.2 118.8 114.7 113.6 118.8 128 132.6 137.1 143.4 148.7 155.5 160 167.6 172 175.5 177.7 178.9 179.6 179.4 178.7 177.9 176.4 174.3 172 169.8 167.3 164.4 161.3 157.6 153.5 149 144.6 140.3 136.3 133.5 131.6 129.9 126.8 124.1 128.7 134.9 138.8 143.5 147.2 147.6 150.6 150.3 151 149.4 153.3 155.3 156 155.7 153.1 150.1 146.5 142.7 141.2 139.6 138.3 136.6 135.2 134.3 132.2 130.5 127.4 125.1 122.2 117.9 115.2 113.3 112.3 111.9 111.1 110.7 110.1 109.5 109.2 109.3 109.2 109 108.4 107.7 107 105.4 102.5 99.4 97.7 95.6 94.7 94.7 93.5 93.5 105.5 100.3 89.2 88.8 86.4 88.6 87.5 85.9 85.5 85.3 85.5 85.8 97.9
293.4 285.4 277.4 270 264.4 258 252.7 245.9 240.9 236.7 232.6 229.7 224.4 221.8 232.7 241.4 245.6 246.3 244.9 241.9 237.9 234.5 231.2 227.5 224.1 220.5 214.3 208.8 199.8 195.6 192.4 189.6 186 179.6 178.1 176.3 175.2 172.8 172.6 171.7 174.3 174.6 174.6 175.2 175.6 172.7 172.7 181.1 184.6 187.3 187.6 187.1 186.4 185.3 183.4 182.1 179.5 176.1 176.1 175.5 176.4 174.9 174.2 174.7 178.5 182.5 185.9 190.9 196.7 201.1 203.8 204.2 202.2 199.5 195.6 192.5 190.2 187.9 184.8 180.4 175.8 170.1 166.4 163.4 161.8 159.9 159.4 158.4 156.7 154.4 151.8 149.3 146.4 141.7 135.8 130.7 122.2 112.9 113.4 118.3 124.5 126.4 132.3 133.5 138.8 145.5 150 152.7 157 163.2 168.4 169.1 169.2 168.5 167.7 167.1 165.8 164.2 161.9 160.2 158 155.3 152.1 148.6 145 141 137.2 134.8 132 130.3 127.2 124.4 120.8 120.7 120.5 119 119.9 120.3 120.9 124.4 133.4 132.8 129.5 132 131.2 129.3 127.7 123.9 123.9 122.1 118.6 117.8 118.4 126.7 131.8 130.3 129.2 121.1 120.8 122.8 119.1 115 113.4 112.5 111.4 110.4 109.4 109.2 108 106.7 104.2 101.9 101.2 105.5 106 105.6 104.5 102.3 100.9 98.5 96 95.6 95.6 93.8 92.9 92 92 104.1 88.6 87.8 87.2 86.7 86.4 85.9 85.7 85.3 85.1 85.3 85.8 99.8
277.9 270.3 263.7 259.3 255 251 246.8 241.8 238.2 234.4 230.5 227 222.6 215.4 228.7 239.5 243.2 243 241 238.3 235.4 231.6 228.2 224.7 220 217 213.2 203.8 200.2 195.7 190.9 185.8 183.5 178.7 176.9 175.3 173.4 171.4 169.6 170 171.3 172 174.1 174 172.9 170.3 175.5 179.9 183.8 186.8 187.7 188 187.4 186.7 185.2 183.1 180.7 179.7 179 178.9 179.8 177.6 179.3 178.8 181.3 184.4 189.1 193.5 199.3 203.9 206.7 207.6 206 203.4 200 196.3 193.8 191.5 189 187.4 183.4 177.5 172.1 169.2 166.4 165.1 164.4 162.5 160.6 158.7 155.8 152.8 149.7 144.7 140.4 135.1 128.5 121.3 112.6 113.7 116.7 123.2 125.2 125.5 128 129.1 130.1 130.9 135.3 143.8 151.1 158.3 157.8 158.1 158.5 158.6 157.4 157.4 155.1 153.2 150.5 148.1 146.2 143.5 140 136.9 134.7 132.7 127.7 123.4 123.4 121.8 119.6 117.8 120.6 126.3 127.5 126.4 121.6 119.3 118.4 119.6 121.1 118.4 117.4 117.2 119.2 116.2 114.3 115.3 113.1 113.2 114.9 114.7 113.7 113.4 112.7 112.8 112 111.4 111.1 110.7 111.1 109.5 107.4 106.2 106.2 105.4 104.7 104.1 105.3 108.5 106.5 99.7 99.9 100.9 99.9 98.9 97.8 97.4 96.1 96.5 95.1 94.1 93.4 92.3 100.3 90.4 88.5 87.7 87.6 87.1 86.5 86 85.4 85.1 85.1 85.6 90.3 95.4
263.4 255.4 250.1 248 246.3 244 241.7 239.1 236 232 228.6 224.5 220.6 212.3 224.7 236.4 239.6 239 236.9 234.7 231.8 228.5 225 221.6 216.9 212.1 206.3 201.7 197.6 193.7 188.8 182.4 180.8 177.1 175.5 172.6 170.4 168.8 168.2 167.6 167.4 167.9 168.6 169.4 169.8 170.5 174.7 178.1 181.7 185.1 186.4 187.9 188.5 187.8 186.7 184.4 182.7 182.4 181.8 181.6 182.3 180.6 183.8 184.5 185.8 187.5 190.8 195.7 201 205.8 209.4 210.8 209.6 206.7 203.8 200.6 196.9 193.6 191.4 190.6 187.9 182.7 178 173.7 170.4 168.2 166.7 164.3 162.4 160.4 157.2 152.7 150 146.6 142.5 137.7 132.6 127.6 113.2 113 113.2 115.6 122.3 127.2 130.8 134.6 138.2 139.7 130.4 129.4 129.8 131.4 133.4 133.9 136.3 137.4 138.4 137.8 138.5 132.8 130.1 128.3 127.6 126 123.5 122.1 121.1 121.4 121.7 121.5 121.6 121.6 120.5 117.9 120 124.8 125.5 125.2 124.9 124.4 124.8 124.9 124.6 124.3 124.6 123.9 117.4 112.6 112.1 112.8 111.7 113 110.5 110.5 109.8 109.7 108.7 109.3 108.4 107.4 107.3 106.7 106.4 106 106.9 105.7 107.5 108.2 109.9 108.8 108.9 107.9 108.2 106.5 101.7 98.3 97.8 96.7 97.3 97.9 97.3 97 93.7 92 91.2 90.6 103.9 103.8 88.5 87.6 87.3 87.2 86.8 86.2 85.5 85.3 85.2 85.1 85.9 92.1
253 246.1 239.2 237.9 239 240.8 238.9 236.1 232.9 229.2 225.9 222 216.5 207.5 219.5 230.2 234.1 234.9 232.8 230.4 227.7 224.2 220.5 217.9 212.6 205.6 201.1 198 193.6 190.2 186.1 181.9 177 175.2 173.1 169.4 168 166.3 165.2 165 164.6 165.1 165.7 166.6 167.4 169.5 173 176.2 179.3 182.1 184.6 187.2 188.3 189.2 188.3 186.3 184.4 184.4 184.7 184.4 185.3 183.8 188.3 189.9 190.4 192.2 193.5 198.1 202.3 207 211 212.8 212.3 209.7 206.6 203.6 199.8 195.8 193.5 192 189.3 185.3 181.4 177 173.6 170.4 167.8 165.4 162.6 159.7 157 153 149.5 146.2 142.2 138.1 134.7 130.2 125.4 109.8 112.6 112.2 113 121.9 125.1 129.6 131.3 134.7 136.8 138 135.6 131.8 129.3 129 129.9 133.2 129.7 122.7 127.9 125.4 124.7 124.6 123.7 129.1 126.3 121.5 121.9 121.6 122.2 121.1 121.2 120.8 120.8 119.6 115 122.6 122.7 122.4 121.9 121.3 121.3 121.5 122.3 122.5 122.6 118.4 112.8 113.3 123.1 124.2 124.7 123.8 123.5 121.5 120.8 123.8 115.4 110.2 113.7 123.2 113.4 108.5 113.3 115.2 113 110.4 111.3 110.8 109.2 108.3 107.7 107.1 107.2 107.4 106 102.4 100.6 98.6 95.6 95.9 95.3 97.3 91.8 91.5 91.7 100.4 104.9 90.4 88.9 87.6 86.7 86.4 86.3 85.8 85.4 84.4 85 92.7 86.7 86.3
245 238.3 231.7 231.2 236.3 238.6 237.2 233.1 230.1 226.9 223.4 218.8 213.8 205.2 214.5 222.8 228.2 229.5 228.2 225.4 222.1 218.7 214.9 211.1 203.1 199.4 196 193.1 188.9 185.3 182.4 179.7 175.4 171.5 169.3 166.6 165.6 164.3 162.8 162.6 162.2 162.3 162.9 163.9 164.7 167.5 171.3 174.5 177.7 180.3 182.8 185.5 187.6 189.1 189.5 188.2 186.3 186.1 187 187.6 188.5 187.1 191.7 194.5 196.2 197.4 198.2 199.4 203.8 207.9 212.1 214.5 214.6 212.4 209.4 206 202.5 198.7 196.2 192.6 189.8 186.5 183.1 179.1 175.1 172 168.6 165.2 161.7 157.3 152.7 149.1 146.1 143.6 140.5 136.9 134 130.3 126.3 121 111.6 111.2 110.8 109 117.4 123.8 126.1 127.8 128.3 127.5 127.5 132.2 134.1 135.5 135.7 133.9 133.1 125.2 133.4 133.1 134.3 134.4 134.8 135.6 136.7 135.9 133.7 130.3 125 122.2 119.5 119.8 119.7 119.6 117.1 115.3 118.3 118.4 117.6 117.7 118.2 118.2 119.3 120 120.1 119.1 113.6 121.9 122.5 122.9 122.7 122.6 123.1 124 125.4 125.4 124.6 123.9 123.5 123 121.5 118.7 116.3 114 111.5 110.2 109.9 108.9 108.4 107.1 106.5 106.5 106.1 106 105 102.7 101.5 98.2 96.4 93.8 93.2 92.6 91.9 94.2 93.3 103.8 93.4 92 89.6 87.9 87.4 86.1 85.5 85.1 84.8 85.1 85.5 91.6 86.8 86.7
238.5 232.8 226.6 227.8 233.9 235.8 234 230.5 227.6 224.8 220.9 216.2 209.6 202.7 206.4 216.3 221.8 222.3 222.8 219.4 215.1 212.5 209 204.1 198.3 194.7 190.9 187.7 184.4 180.9 178.1 175.8 174.1 171.3 165.8 164.7 163 161.9 160.9 160.5 160 159.8 160.2 161.1 162.7 165.5 169 172.8 176.3 178.7 181 184 186.6 188.7 190 190.2 188.6 187.8 188.7 190.5 191.4 192.6 195.1 197.6 199.4 201 202.8 204.1 204.5 208 212.3 215.4 215.9 214 211.3 208 204.2 201.1 197.4 193.3 190.1 187.4 184.2 180.5 176.5 172.6 169 163.6 158.5 157.3 153.8 149.4 144.1 139.3 137.2 134.6 132.8 129.9 126 121.6 112 111.1 110.6 110.5 109.8 113.4 118.8 121.8 122 122 121.8 121.8 122.7 123.3 125.5 126.1 125.6 118.8 125.1 127 128.2 130.2 132.4 133.5 135.7 135.9 132.5 129.3 126.6 123.8 120.4 117.6 117.6 117.5 116.8 109.1 112.7 114.8 114.4 115.8 116.6 115.6 115.6 116.1 116.1 115.6 113.5 116.7 116.8 117.9 118.6 119.9 120.8 121.2 121.2 121.6 121.9 122 121.5 119.6 117.5 115.1 113.1 111.4 110.2 108.8 109.1 109 107.7 107.1 106.8 107.3 108.8 108.2 104.5 103.4 101.7 99.2 98.5 97 94.8 95 96.9 95.4 103 95.7 93.1 92.2 89.1 89.6 88.2 86.5 85.6 85.1 86 85.1 85 84.8 88.5 86.2
234.9 228.3 222.8 224.2 229 230 228.6 226.7 224.8 221.9 217.3 210.2 204.5 199.5 198.3 209.3 214.9 214.6 212.3 211.1 202.6 199.9 199.7 196.5 192.7 189 186.5 182.3 179.3 176.7 173.1 172 169.3 167.2 163.3 162.3 160.6 159.4 158.2 158.3 158 157.7 157.8 158.4 160 163.1 166.2 170 173.9 176.7 179.2 182.2 185.2 187.7 190 191.2 190.9 189.5 190.3 192.3 193.6 196 198 200.2 202.4 204.5 206.2 207.2 208.6 210.5 212.6 215 216.3 215.2 212.3 209.5 206.1 202.5 198.7 194.4 190.8 187.8 184.8 181.1 177.6 173.6 169.7 165.5 166.6 165.1 162.7 157.1 150.4 143.7 137.8 131.8 129.8 127.8 125.3 122.3 118.1 111.6 110.5 110.5 109.6 108.7 108.9 110.5 117.4 118.6 118.8 119.2 120 119.9 119.4 119.9 120.5 118.9 119.9 121.4 122.6 124.5 125.6 127.6 128.8 128.5 129.1 128.5 125.9 122.6 120.5 115.9 116.3 117.2 115 111 109 112.8 113.4 113.1 113 112.7 112.6 111.7 111.7 109.2 110.1 110.1 110.5 112.1 113.7 115.7 118.1 118.1 118.5 118.3 119.4 118.3 116.9 114.5 112.2 110.8 109.8 108.7 108.3 108.5 110.3 110.4 110 110.4 110.1 110.6 109.9 109.3 107.4 105.7 103.5 101.4 100.6 99.4 98.9 99.1 98.3 101.9 96.6 94.6 93.2 91.7 89.2 89 88.5 87.2 86 85.2 85.2 86.6 85.1 85.5 86.1 88.6
230.1 224.5 221 218.3 222.3 223.6 222.5 220.7 218.9 215.9 211.1 208.1 205.1 198.7 193.2 200.9 206.4 205.5 200.8 197.4 197.5 193.9 189.5 189.7 185.7 181.9 179.7 176.4 175.1 173.3 169.6 168.4 165.2 162.5 160.1 159 157.9 156.3 156.3 156.1 156.1 155.9 155.4 155.9 156.9 160.2 163.6 167.1 170.9 173.9 177.1 180.3 183.6 186.3 189 191 192.4 191.4 191.9 193.7 195.6 197.8 200 202.1 204.4 206.6 208.4 209.7 211.5 213 214.1 214.8 216.4 215.5 213 210.2 206.9 203.3 199.7 195.5 192.2 188.3 185.5 182.1 178.9 174.7 171.5 171.7 173.2 172.8 169.6 164.8 157.6 149.4 140.7 134 128.3 125.3 123 120.9 118.5 116.9 114.9 110.9 109.6 109.3 108.8 107.5 107.7 107.5 106.8 106.8 106.3 109.2 115.7 115.7 116.4 113.8 115.7 116.6 117.2 118.9 118.7 119.9 121.8 121.4 120.8 120.4 120.3 119 119.3 114.9 113.5 113.2 111.3 110.3 107 108.9 112 113.1 110.6 108.2 107.2 106.7 107.2 108.2 109.2 109.5 108 108.9 111.3 113 113.8 115.8 116.3 116.1 116.6 116 114.9 114 111 110.4 110.1 109.5 109.1 110.5 113.1 115.7 116.4 115.7 114.4 112.7 111.1 109.9 108 106 103.2 102 102.1 100.8 101.5 100.7 101.5 100.8 98 96.3 94.4 92.4 90.6 90.3 89 88.8 87.7 85.9 86.2 86.7 85.2 84.9 84.6 87.9
226.1 222 218 213.8 215.2 216.7 217.3 215.8 214 212.9 211 207.7 204.1 197.9 190.3 195.3 198.7 198.8 195.9 192.8 190.9 187.7 184.7 184 177.5 174.4 172.1 171.6 170.3 167.8 165.4 163.5 161.6 159.1 157.4 156.3 154.9 153.5 153.7 153.4 153.8 153.5 153 153.8 153.8 157 160.3 163.6 167.5 171.4 174.3 177.8 181.4 184.6 187.3 190.2 192.1 192.9 192.6 194 196.3 198.7 201 203.4 205.6 207.9 210.1 211.8 213.5 215 215.7 216.1 216.2 215.5 213.6 210.8 207.6 204.1 200.5 197 193.6 190.2 186.8 183 179.6 177.6 175.4 175.3 176.4 176.3 173.3 168.1 161 153.6 144.8 137.1 131 126.2 123.1 120.3 118.6 116.8 116.2 115.6 110.6 110.2 109.4 108.1 105.4 106.7 106.3 106 105.7 105.3 105.6 110.3 113.4 107.9 108.2 114.3 113.9 114.2 113.7 114 115.6 116 116.7 115.8 116.5 116.8 115.8 111 112 112.2 111.1 106 106.2 107.1 110.1 111.2 107.7 105 106.4 106.3 106.3 105.7 108.9 110.4 109.3 106.6 107.6 111.9 114.3 115.2 115.4 114.1 113.8 113.4 112.8 113.3 112 109.4 108.7 109.7 111.5 111.7 115.3 118.8 118.2 116.9 115.6 113.7 112 109.7 107.7 105.5 103.3 102 102.3 104.2 101.5 101.1 101.7 100.9 100.2 98.4 96.8 94.6 92.3 92.2 90.5 89.3 88.8 88.1 88.4 88.9 87.5 86.2 84.3 86.6
223.8 220 216.6 213.6 210.8 212.3 213.8 213.5 211.7 210.8 208.5 205.8 202.8 196.2 188.4 194.6 195 193.1 189.3 186.2 183.5 180.8 179.3 175.7 172.3 168.7 167.1 167.9 164.9 163.6 161 159.2 158.1 156.2 154.7 154.1 151.6 150.1 151.1 151.1 151.3 150.8 150.7 150.7 150.9 153.9 156.9 160.2 163.8 167.7 171.7 175.6 179.2 182.5 185.4 188.5 191 192.7 193.2 194.3 196.8 199 201.6 204.1 206.5 209 211.3 213.2 215 216.3 217.7 218.5 218 216.2 214.2 211.3 208.4 204.9 201.4 198.3 194.6 191.3 188.2 185 182.5 180 178.5 178.1 178.6 177.9 174.5 169.2 162.6 155.2 147.8 140.5 135 130.3 125.6 122.3 119.3 116.9 115.8 114.2 113.3 114 110.4 110.1 106.6 106.2 106 105.6 105.3 104.8 104.6 104.3 103.9 103.6 102.8 102.5 102.2 111.7 113.2 112.7 112.6 112.8 114.6 113.9 113.6 114 111.1 109.3 112.2 112.3 111.4 107.8 102.9 105.1 106.9 107.1 107.7 109.2 109 108.1 105.1 106.4 109.7 108.9 108.6 107.9 107 109.1 113.6 115.1 115.8 112.9 112.1 112.3 113 112.4 109.8 109.8 110.9 112.1 113.3 113.8 115.8 118.5 116.7 116.2 115.2 113.1 110.6 107.8 105.1 103.9 101.9 101.5 102.4 106.5 103.9 102.7 102.4 101.3 100.3 99.8 99.4 96.7 94 93.4 92.8 91.5 90.5 91 90.8 89.9 89 88.2 85.7 84.5
222.1 218.7 215.1 212.5 210.5 207.3 208.5 208.4 206.8 204.9 199 193.4 190.9 188.4 191.7 189 184.6 184.5 182.3 179.7 178.2 174.1 171.1 171.4 169.7 164.5 161.4 159.7 159.3 158.2 157.3 155.2 153.7 152.7 151.4 151.8 150 147.6 148.3 148.8 148.7 148.4 148 148 149 151.1 153.3 156.5 160 164.5 168.7 172.1 176.3 180.4 183.8 186.9 190 191.6 192.6 193.2 195.5 199 200.9 203.8 206.6 209.1 211.6 213.7 215.8 217.4 218.8 220.1 219.9 218.3 215.5 212.3 209.4 206 203 200 196.5 193.4 190.3 187.3 184.9 182.5 180.5 180 180.6 179.5 175.2 169.4 162.6 155.6 148.6 143.3 138.9 134.1 127.9 126.4 122.8 117.8 118.6 116 115.6 115.3 114.1 114.1 113.1 104.2 105 105.1 104.8 104.3 104 103.7 103.4 103.2 102.7 102 101.3 101.1 101.1 107 110.5 109.8 110.5 111.5 108.9 107.3 107.4 108.7 112.8 112.4 112 111.1 102.6 104.6 108.1 109.7 110.6 110.7 109.8 108.6 103.7 105.7 107.4 106.5 105.6 106.2 107 105.8 109.1 111.2 110.3 110.1 110.7 111.5 112.1 110.6 110.7 111.8 112 112.7 114.3 113.8 114.7 115.3 114.4 112.6 110.6 109.3 108.2 106.9 106.2 103.1 102.1 103.2 104.3 104 105.1 103.8 103.2 102.5 100.6 99.9 98.8 97.8 96.5 94.4 93.9 93.6 92.5 91.9 91.7 90.5 89.8 89 87.7 87.5
221.8 218.1 215.1 211.4 206.6 207.1 204 202.5 201.2 199.2 202.5 199.2 197 192.6 177.2 177.2 181.6 178.6 176.4 174.4 171 167.5 165.5 163.3 162.6 160.3 158.8 157 155.3 154.2 152.8 151.9 151.1 150.1 149 148.3 148.3 146.3 145.9 147.2 146.7 146 145.9 145.8 146.8 147.6 150.1 153.1 157.2 161 165.2 169.5 174 178.1 181.7 185.5 188 190.5 191.4 192.6 194 197.1 199.8 202.1 205.2 207.9 210.5 213.1 215.4 217.6 219.7 220.8 220.8 219.8 217.2 214.4 211 207.6 205 202.3 199 195.5 192.4 189.4 186.7 184.5 182.5 181.3 181.7 179.6 176.1 169.4 162.5 156.1 150.1 145.1 140.1 135.4 134 131.4 125.2 123.5 123.4 119.2 117.1 116.9 115.8 114.7 113.9 113.2 103.8 104.6 104.5 104.3 103.4 103.1 102.8 102.8 102.3 101.5 100.7 100.3 100.2 100 100.5 108.2 108.3 107.3 103.7 104.5 107 109.1 112.5 112.6 112.8 109.1 101.7 107.1 110.8 111.4 112 111.1 109.8 108.1 102.4 105.8 105.8 104.6 103.4 104 105.2 104.9 101.9 100.8 104.7 108.9 108.4 109.3 110.3 110.3 110 110.7 110.7 111.1 112.1 112 110.7 111.1 108.8 106.4 105.1 104.9 104.2 105.1 104.6 101.9 99.7 99.5 103.7 102.8 103.5 103.4 103 103.1 100.5 98.9 98.3 98.6 97.4 95.8 95.2 95 94.3 92.6 92.7 91.5 90.3 89.8 88.7 84.6
221.6 218.2 214.5 213.8 211.3 208 204.4 199.8 199.8 199.8 199.6 196.2 193.6 189.8 185.5 183.2 177 172.5 170.8 173.8 176.4 177 176.7 175.3 171.3 169.1 167.1 162.5 157.4 153 152.8 150.7 149.3 149.2 148.3 147.3 146.1 144.4 143.6 145.1 144.1 143.8 143.8 143.9 144.6 145.9 148 150.8 154.2 158.1 162.1 166 170.5 174.5 178 181.6 185.4 188.3 190.9 192.2 193.6 195.4 197.1 200.2 202.9 206.1 209.3 212.1 214.7 217.4 219.7 220.9 221.2 220.4 218.6 216.5 213.8 211.1 207.7 204.4 201.4 198 194.9 191.5 188.5 186 183.7 181.4 179.1 177.3 172.8 168.1 162.5 157.8 152.6 147.2 142.4 140.8 138.8 134.7 130.2 129.5 126 121.6 124 121.2 118.6 117 115 113.7 112.7 110 104.7 103.4 103.1 103.4 102.2 102.5 101.8 101.1 100.4 99.8 99.4 99.7 99.5 99.2 100.4 100.7 100.9 106.8 107.3 107.9 107.8 107.4 106.6 101.8 100.6 108.6 110.5 110.9 111.4 111.2 109.3 106.2 102.2 103.5 104.4 103.3 102.6 102.6 102.1 102.9 103.8 104.5 100.5 99.6 103.3 105.2 106.6 108.5 109.4 109.7 109.8 109.5 109.4 109.1 107.3 105.4 104.1 102.2 101.7 102.4 101.8 101.8 101.2 99.2 99.1 99.3 101.5 101.5 100.3 102.1 103.2 102.6 102.1 99.8 98.6 99.1 97.7 96.4 96.3 96.1 95 93.6 92.6 92.6 90.9 89.4 83 83.8
218.5 216.8 217.1 216 214 211.6 209.7 206.2 201.2 202.2 205 202.3 200.6 198.8 197.7 196.7 194.5 193 188.4 193.3 193.4 192.4 190.8 188.8 187 185.8 185.9 176.6 167.4 161.8 157.6 154.4 149.4 147.9 146.7 145.9 145.2 144.2 142.3 141.5 141.3 141.6 141.8 142.2 143 144 146 148.3 151.6 154.6 158.8 162.1 166.7 171.2 174.2 177.5 181.6 185.3 188.6 191.6 193.1 194.5 196.5 198.7 201.3 204.6 207.7 210.6 213.7 216.2 218.5 220 220.2 219.2 218.1 216.6 214.5 212.3 209.8 207.5 204.5 201 197.8 194.4 191.1 187.8 184.4 180.7 176.8 173.6 170.5 166.1 161.6 157.3 153.5 149.4 147.8 145.2 142.8 136 135.2 134.9 133.2 130.9 129.9 126.8 124 120.7 117.8 115.2 113.7 112.1 111.6 110.2 108.7 103 102.3 101.9 101.4 100.8 100.3 99.9 99.5 99.3 99.1 98.7 98.7 98.1 98.3 97.4 99.6 99.6 106.4 107.4 96.6 104 108.2 109.6 110.8 110.4 110.3 112.7 111.1 108.3 100.3 101.5 103 103.1 102.1 99.8 98.6 100.3 102.3 99.1 98.2 92.3 99.6 101.5 102.9 105.3 107.3 108 107.7 107.6 106.3 105.8 106 104 101.4 99.7 99.3 99.3 99.1 99 97.6 98 99 98.2 98.5 100.4 98.3 98.8 100.7 102.3 102.9 101.5 100.6 100.9 99 97.3 96.6 96.2 95.2 94 92.6 91.7 88.8 87.6 83.5 83.7
223.6 221.3 221.9 220 218.2 216.3 214.1 212 212.1 205.2 214 214 211.5 209.8 206.6 201.9 198.3 194.9 192.8 193.7 194.6 193.6 190.6 188.7 187.7 188.4 189.8 187.3 183.1 178.4 168.9 162.7 157.1 151.5 145.4 144.3 143.3 141.3 139.7 138.6 138.6 139.3 139.1 141.7 141.7 142 143.3 145.9 148.3 151 154.4 158.3 162.3 166.5 170.1 173.7 177.6 181.9 186.6 190.1 192.2 194 195.5 197.2 201.1 204.5 207.3 209.7 211.9 214.2 215.6 216.7 216.9 216.5 215.5 214.5 213.5 211 208.5 207.4 205.9 203.4 199.5 197 193.7 190.6 186 182 177.1 172.7 167.9 164.9 161.4 158.3 156.6 153.4 151 147.8 142.4 139.4 139 137.5 137.1 136.8 134.6 132.7 130.8 127 123.7 120.3 117.3 114.6 113.8 111.8 110.2 109 106.8 100.6 100.7 100.4 97.7 98.9 98.8 98.8 98.8 98.4 98.1 97.6 97.2 97 95.9 95.4 94.6 95 98.6 106.7 108.6 110.1 110.9 110.6 109.7 111 109.4 108.3 95 98.9 100.5 102.9 101.6 96.4 96.4 96.2 94.6 91.6 90.7 89.2 96.4 100.7 102.7 104.6 106.4 106.5 105 103.8 104 103.6 103.2 103.2 100.7 97.8 97.1 96.6 96.6 96.3 97.8 99.2 95.9 95.5 96.3 97.6 97 97.4 98.9 100.4 102.8 101.7 103.3 101.8 99.9 98.1 97.3 95.9 95.4 94.3 92.2 91.3 87.9 86.3 83.6 83.4
229.3 225.5 225.5 224.2 219.6 215.3 213.3 212.1 211.5 210.5 213.8 215.3 215.5 210.8 206.8 201.2 196.3 193.2 190.9 190.2 188.6 186.8 187.8 186.8 185.3 185.3 187.9 187.6 188.3 186.8 183.9 176.2 169 158.3 152.8 149.5 142.9 142 140.4 138.5 136.7 136.9 137.3 140.2 140.5 139.1 140.7 143.2 144.9 147.6 150.4 153.6 157.7 161 165.4 169.2 172.9 178.2 183.4 187 189.9 192.3 193.8 197.1 201.5 204.8 206.1 208.1 210.1 211.4 211.9 211.8 211.1 211.3 211.5 211 210.5 208.9 206.9 205.7 205 202.7 200.2 198.2 195.1 191.1 186.9 183.3 180.3 176.5 172.5 169 165.3 162.2 158.7 155.8 152.8 149.9 143.8 143.6 141.8 139.3 140.5 140.6 137.7 137.2 136.9 134.1 131.3 128.1 125.2 121.2 119 116.1 114.5 112.9 111.3 111.7 111.5 111.6 109.9 105.8 97.9 98.6 98.2 98.2 97.8 97.2 96.9 96.6 96 95.5 94.7 94.4 93.1 95.1 97.5 99.5 101.2 101.6 107.1 108.4 106.9 101.1 91 89.5 88.7 88.3 87.6 87.7 87.6 86.9 86.7 86.7 86.3 85.6 85.2 100.7 104.4 105.7 106.5 105.3 103.5 102.9 103.3 102.3 102 100.5 98.1 96.3 95.6 94.1 95.5 95.2 95.4 96.4 96.4 93.9 92.7 93.5 93.9 96.2 98.5 100.5 102.4 101.9 104.4 102.8 99.4 97.6 97.1 94.9 93.4 91.2 92.4 89.9 88.6 86.4 84.1 83.4
229.1 224 221.7 218 214.7 211.5 209.5 208.7 208.1 207.2 206.8 207.4 206.8 202.7 199 195.7 191.8 189.1 187.1 185.4 184.2 183.3 183.3 182.5 181 180.4 180.1 181.9 183.7 185.1 184.4 181.4 178.1 169.4 157.7 153.3 148.6 144.9 142 138.8 136.6 135.4 134.7 136.3 137.5 137.6 137.7 140.1 141.9 144.2 147.5 149.7 152.9 156.2 159.9 163.9 168.1 173.4 179 182.9 185.9 188 191.4 195.3 200.4 204.6 205.6 207 208.3 208.7 208.5 208.1 206.3 205.4 205.8 205.1 205.5 205.5 204.3 203.2 203.6 201.8 200 197.9 193.7 190.8 187.3 184.4 182.4 179.2 175.8 172.5 169.2 165.4 163.3 161.3 158 152.7 149.3 147.9 145.2 145.2 146 145.7 143.6 144 143.3 141.8 139.6 136.5 133.6 130.4 128.4 124.3 122.1 121 120.1 119.1 119.4 117.8 117.1 114.3 114 117 106.4 100 95.7 96.9 96.8 96.5 96 95.4 95 94.5 94.1 93.6 93.4 92.8 92.4 92.2 92 91.6 92.6 90.6 90.4 89.8 89.1 88.8 88.3 88.1 87.6 87 86.7 85.2 86.8 85.9 85.3 85.5 106.9 107.2 106.2 103.3 100.9 101.3 101.2 101 101 98.3 95.9 94.6 93.3 95.8 92.1 92.1 92.9 94.2 94.1 93.1 91.8 90.8 92.7 98 101.6 102 104.3 103.4 103 102.1 98.4 96 95.3 94.1 91.7 92.6 89.3 88.8 88.2 88.2 85.4 83.6
221.5 216 212.2 208.1 204.7 202.2 201.7 201.6 201.1 200.2 199 197.5 195 192.8 191.1 187.9 184.8 182.6 179.6 177.9 176.4 175.2 174.3 174.2 173.9 173.4 173.5 173.9 173.8 176.1 179.1 180.9 178 173.6 169 158.1 150.1 146.5 142.6 140.6 136.5 135 133.9 133.7 134.7 135 135.5 137.4 139.4 141.6 143.6 146.1 148.9 152.1 155.6 159.1 162.9 168.1 174.1 178.1 181.5 184.8 188.3 191.8 196.7 200.9 204 205.7 206.6 206.4 205.5 204.8 202.6 200.8 200.4 199.9 200.3 200.8 200.5 199.8 201.1 200.4 198.9 196.8 193.3 190.4 188.5 186.2 184.2 180.7 176.4 174.3 171.1 167.9 166.2 163.8 160 155.9 154.4 152.9 151.6 152.1 152.4 151.3 151.3 151.3 151 152.6 151.8 148.8 144.8 140.5 137.4 133.8 131.8 130.8 129.4 129.4 128.5 128.3 128.2 126.4 124.8 123 120.2 116.7 115.3 105 99.2 93.7 95.9 95.2 94.9 92.7 93.2 93.7 93.2 92.8 92.3 92.1 91.8 91.4 91.2 91 90.5 90.1 89.6 89.1 88.7 88.1 87.6 87.3 89.2 103.9 104.2 87.8 84.2 84.9 102.8 107.1 104.2 101.3 98.9 98.9 99.3 98.8 98.1 95.5 93.8 92.9 95.9 89 91.1 90 90.1 90.8 90.5 90.1 88.9 88.5 90.2 93.2 96.8 99.3 101.8 101.5 100.5 98.7 95.4 93.1 93.1 93.5 92.7 91.2 90.3 89.6 89.5 88.4 84.5 83.8
208.4 206.1 203.2 200.6 198.3 196.8 195.4 193.6 192.2 190.5 189 187.3 185.4 183.3 181.5 178.9 177 175.8 174 172.7 171 169.1 168 166.6 164.8 163.8 164.2 166.6 167 169 171 172.2 173.1 171.1 168.5 163.9 154.1 147.2 142.8 140.4 137.7 135.3 133.5 132 132.8 133 133.5 134.7 136.6 138.7 140.7 143.1 145.8 148.9 152.2 155.4 158.7 162.1 167.8 171.4 175.3 179.6 183.9 187.9 192.9 197.1 200.5 203 204.2 204.1 202.9 200.9 198.4 195.6 194.7 194.1 194.6 195.4 195.7 194.9 196.7 196.6 195.4 194.2 189.9 186.6 182.3 184.6 183.8 182.1 178.8 177.2 175 173.3 170.2 166.3 160.9 157 158.7 158.8 158.8 158.2 158.5 158 157.7 158.4 160.5 163.1 163.7 161.2 156.8 153.8 149.5 146.6 144.7 143.3 141.7 141.5 141.4 141.3 139.8 138 135.3 132.1 128.5 124.7 122.1 121.7 119.7 115.4 108.5 105 97.5 93.8 93.7 95.5 93.5 92.7 92.2 92.2 91.5 91.2 90.9 90.5 90.5 89.9 89.1 89.8 89.5 86.4 86.6 86.5 103 103.5 101.2 85.3 95.4 85.3 105.8 103.2 99.5 97 96 97 97.8 98.4 96.6 94.8 92.6 95.3 89.8 88 88.9 87.6 87.8 89.3 87.6 87.6 87.2 87.4 90.1 93 95 96.3 97.2 97.6 97.2 95 94 93.7 93.3 92.5 89.4 90.2 90.7 90.5 90.2 87.9 84.4 83.9
190.1 188.3 185.7 186.2 187.1 185.1 184.2 182.3 181.5 179.9 178.1 176.5 175.9 174.5 172.8 171.8 170 168.7 167.8 167.8 166.8 164.9 163.1 160.9 158.6 157 156 157.6 160.8 164 164.8 166.8 168.6 168.2 166.5 165.9 158.9 150 143.5 140.9 138.7 136.3 133.8 132.1 131.4 130.9 131.8 132.3 133.9 136.2 138.5 140.7 143.3 145.5 147.7 151.6 154.5 156.3 158.9 163.3 167.7 172.6 177.1 182 187.3 192 196.3 199.3 200.5 200.7 199.2 196.3 193.1 190.6 189.3 189 189.1 190.3 189.9 189.3 190 190.4 189.2 187.1 184.6 181.4 179.5 178.8 179.7 180.2 178.9 177.6 177.1 175.5 172.6 166.6 160.1 166.1 167 166.1 164.8 163.5 164 162.9 162.8 164.3 166.1 168.8 169.4 168.2 166.6 164 161.4 159.3 157.5 156.6 155.8 157.6 158.3 157 150.7 147.8 143.7 139.6 136.8 133.7 129.8 125 122.4 118.3 113.6 112.6 110.6 108.6 111.5 108.9 103.2 99.8 105.1 98.5 93.1 91.1 90.5 90.2 88.4 88.2 89 88.8 89.2 89.8 92.5 104.4 106.2 104 100.2 85 87.7 91.9 102.6 100.4 97.4 94.4 93.9 95.9 97.8 97.9 96.2 90.1 92.2 89.6 87.6 86.9 85.8 86.4 86.3 86.9 85.7 86.5 85.7 86.5 92.9 92.4 92.9 94.6 94.6 93.5 93.8 94.5 94 93.8 92.3 90.3 90 89.3 90.8 90.9 90.3 89.4 87.3 84.5
165.7 165.7 168 169.2 171.3 171.3 171.4 171.4 169.4 167.9 167.6 169.2 169 168.7 167.4 165.9 164.8 163.6 162.8 161.8 161 160 159 157.2 154.7 150.4 150.5 153.1 156.1 157.6 158 160 164 163.8 162.1 162.5 162.3 155.7 145.3 142 139.7 137.2 134.8 132.8 130.5 129.7 129.9 130.4 132.5 132.8 134.4 137.1 139.9 141.8 145 147.9 152.3 151.7 153.9 157.2 160.7 165.1 169.1 174.4 180.2 186.1 190.6 194 195.4 196 194.2 191.5 188.8 185.5 183.9 183.5 184.2 184.4 184 183.7 184.1 184 183.1 181.5 179.5 177.8 176.6 176 176.3 176.2 175.7 175 173.8 172.5 170.4 165.4 166.1 169.5 170.3 169.7 168.5 167.5 166.9 165.6 166.2 167.7 169.4 170.3 171.7 172.1 171.4 170 168.2 166.2 166.3 165.4 167.6 170 171.5 169.4 148.6 164.6 158.8 151.3 147 142.1 138.6 133.8 128.2 124.7 122.3 119.7 117.7 116.3 116 113.7 114.1 113.1 114.3 112 103.5 105.3 98.4 93.3 94.8 106.6 105.9 106.5 108.9 103.2 108.2 109.6 110 107.5 104.2 99.4 99.5 85.1 93.5 96.2 95 93.6 93 95.7 96.9 96.9 93.8 89 88.1 86.9 86 84.6 84.8 86.4 86.5 85 84.8 84.2 84.5 85.5 86.4 87.1 88.6 92.8 94.3 91.8 89.7 91.8 92.4 92.1 90.9 91.5 91.9 92.2 93.3 91.3 89 89.3 85.2 84
154.8 155.1 149.2 155 157.3 158.1 158.4 156.5 155.4 153.4 152 155.6 160.9 161.8 161.4 159.4 158.7 158.3 157.9 156.8 156 153.9 154.7 154.5 153 149.2 147.3 150.2 151.3 150.9 151.2 154.8 157.2 157.4 157.8 157.2 159.1 158.3 150.2 145.7 141.3 138.3 135.8 133.5 130.6 129 128 128.7 129.7 130.3 132.9 134.6 136.1 137.9 141 143.5 145.4 147.4 149.3 152 154.4 157.3 160.1 164.5 170.1 176.5 182.1 186.5 189.1 189.5 187.4 184.9 182.8 181 178.7 177.8 178.7 178.1 177.5 176.7 177.2 176.8 176.3 175.5 174.8 173.8 173 173 172.3 172 171.4 170.3 170.5 169.3 167.5 168.4 170.8 171.1 171.3 170.4 169.7 169.7 169.2 168.2 168.8 169.6 171.2 172.3 173.7 174.6 173.9 173.6 172.3 171.7 173.2 175 177.9 182.2 188.5 189.6 187.5 184.3 177.9 169.8 160.1 153.6 147.9 144.4 139.1 135.4 132 128.3 126.4 124 123.6 121.1 120.5 119.5 117.5 115 114 113.2 112.4 111.3 110.1 109 109.4 109.5 110.3 110 113.2 113.5 112.7 110.4 107 104.9 103.9 87.5 83 82.3 95.4 92.9 91.8 94.1 94.4 92.8 89.2 87.8 88.5 85 84.5 84.3 83.5 85.8 84.9 84.1 84.5 84.1 84.4 83.5 84 85.9 86.9 87.6 87.8 90.9 89.9 90.9 92 89.2 89.8 92.6 93.1 93.6 94.4 92.7 89.1 87.8 85.2 85.5
