ncols 200
nrows 200
xllcorner 390000
yllcorner 600000
cellsize 50
454.3 456.6 459.2 461.4 461.5 460.2 459.9 459.8 459 459.8 460.8 460.8 457.6 452.8 445.8 437.2 427.7 419.8 415 409.4 404.3 397.5 391.3 384.8 376.2 365.8 356.2 338.9 324.7 320.8 325.2 331.2 333.7 331.1 320.3 299.8 275.9 248.4 225.1 223.7 234.4 244 263 286.6 315.4 347 371.2 376.1 378.3 381 381.8 384.3 383.1 371.6 359.6 357.3 365.4 372.1 376.4 383.3 390.8 399 408.4 406.3 404.6 402.4 400.8 398.6 397.8 397.7 400.7 405.2 411.5 416.4 418.5 415.2 415.2 416.3 413.4 413.2 414 413.1 407 404.6 402.4 400.8 397.3 394.3 391.9 386.8 381.8 376.3 370.6 365.4 357 348.7 345 351.1 354.5 361 364.6 373.5 379.2 384.9 391.6 396 399.9 400.7 400.5 399.5 395.8 391.6 386.2 381.1 375.7 370.2 366.3 363.6 360.1 357.9 355 351.2 347 342.1 336.4 329.6 322.1 314.7 307.2 301 294.7 289.4 284.3 279.5 271.3 260.8 256.4 261.3 265.2 264.5 266 268.1 270 270.4 272.6 271.7 269.8 268 266.9 266.1 264 258.5 253.7 246.7 238.2 235.2 231 227.6 225.1 212.5 217.2 212.5 203.8 200.3 188 190.2 197.9 204.3 225.4 239.6 240 237.4 231.2 224.6 217.7 212.6 209.5 207.1 204.9 200.5 197.7 193.4 188.6 185.5 182.4 178 180 178.7 172.2 162 161.2 166 179 183.1 185.8 188.1 190 192.1 195.8 197.7
451.3 454.3 456.5 458.1 458 456 455.8 457.6 456.7 455.7 454.9 453.7 450.9 445.3 440.2 433.5 425 419.5 414.2 408.8 404 397.6 391.5 383.4 375.6 366.5 353.3 344.6 338.2 321.7 309.1 314.2 318.3 320 315.9 300.8 282.1 257.2 225 223.5 231.1 239.1 268.9 300.6 336.6 354.1 364.5 368.5 375 377.2 379.1 380.4 380.6 380.2 382.7 383.3 386.5 390.4 394.2 399.1 404.8 411.3 409.1 403.4 398.2 397 396.2 392.7 389.3 387.8 391.4 398.7 401.4 404.9 405.3 404.5 405.1 407.5 408.4 406.6 406.5 406.9 406.8 404.5 402.7 401.2 400.8 399.8 395.1 391.1 386.2 380.4 373.9 369.2 365.2 358.5 349.9 334.7 347 352.4 361.2 367.7 373.2 379 385.4 391 395.7 398.3 398.1 396.8 394.2 388.8 384.1 379.3 373.3 368.2 364.1 363 360.7 358.7 355.7 350.2 344.2 338.8 333.6 327 319.7 312.2 304.6 297.8 291.7 286.8 281.4 272.7 262.6 263.5 271.8 274.2 273.8 273.4 275 277.8 278.8 282 282.7 282.9 283 280.8 279.7 277.2 273.7 267.2 261.4 255.9 246.3 245.5 236.8 233.4 226.3 216.5 214.3 209.1 212.5 207.1 191.3 186.3 189 202.6 222.7 237.2 239.1 236.1 231.3 225.5 216.4 211.5 209.7 208.3 203.1 198.5 195.6 191.7 188 184.2 180.1 178.1 180 176.9 166.4 167.4 166.5 167.8 179.6 183.4 185.8 188.2 190.7 193.2 195.7 197
447.5 451 454.4 455.5 454.6 451.9 451.6 453 452.5 451.1 449.2 448.3 445.9 440.4 436.6 429.9 423.3 417.5 413.5 408.4 403.8 398.7 391.2 384.1 376.9 369 360.8 355.1 347.6 333.4 312.9 297.5 299.9 300.7 300.6 294.5 282.9 260 225.3 223.5 226.2 254.8 286.1 320.3 329.5 334.6 347.9 363.3 368.2 370.6 371.1 373.2 375.6 380.5 385.5 388.3 393.5 398.2 399.2 399.8 402.7 405.3 402.6 397.4 391 389.7 386.3 384 380.2 377.7 382.7 390 392.6 394.1 392.8 393.5 396.3 396.8 397.7 397.8 399.7 400.9 401 400.4 400.9 401.2 401.8 401.2 397.6 393.8 388.5 383.1 377.7 372.2 366.6 361.3 352.1 345.6 334.5 346.3 355.6 361.4 367.1 373.8 380.5 386.5 392.5 395.1 395.9 394.7 390.5 386.5 381.1 375.2 369.8 365.5 361.6 359.1 356.5 354.1 350.3 343.9 339.8 334.2 328.7 323.1 315.6 308.3 301.5 294.8 289.1 283.3 274 264.9 271.3 281.1 287.1 286.6 284.6 283.8 283.4 285.3 287.6 290.2 293.6 294.6 294.4 292.9 290.3 287.2 282.8 278 271.9 266.3 253.6 255.3 248.3 239.4 233.3 221.9 214.5 217.7 215.1 213.5 204 185 186 204.8 225.1 234.9 237.6 236.2 231.4 226.8 218 209.1 208.8 204.9 199.4 195.8 192.9 188.9 185 181.1 178.3 176.6 176.6 174.7 165.7 169.4 167.8 166.8 179.2 183.7 186 188.8 191.4 194.5 195.6 195.5
445.1 448.1 451.4 451.9 448 444.3 445.3 446.5 445.6 444.4 443.8 442.8 441 437.2 432.9 427.9 422.8 417.1 413 408.4 403.6 396.6 390.5 382.5 376.2 369.4 363.1 357.8 351.7 343.5 326.7 304.1 286.7 283 283.1 282.1 281.5 256.3 223.6 223.2 232.4 259.9 278.6 297.7 305.7 322.1 344 359.9 362.5 362.3 363.9 365.9 369.5 376.5 382.7 387.3 391.2 395.7 395.4 394 395.5 395.5 391.5 387.3 382.7 379.9 377.8 374 371.9 368.7 373 377.6 380 380.6 381.2 382.7 385.5 386.6 387.2 388.4 391.5 392.5 393.9 396.3 398.9 399.7 400.8 400.3 397.2 393.4 389.2 384.5 380.5 376 370.9 365.2 359.1 351.1 337.3 330.7 346.7 353.9 359.2 368.7 376 382.3 387.7 391.4 391.9 390.4 387.6 382.4 377.9 372.1 366.2 360.9 356.4 353 350.1 348.6 344.8 338.8 334.7 329.3 323.6 317.6 311 304.8 298.5 292.6 287.6 276 270.3 279.7 288.6 295.5 298.4 298.2 297.1 295.8 292.4 294.6 295.4 299 301 303.1 302.6 301.9 300 298.8 293.5 288.8 282.6 277.2 267.3 263.7 254.7 242.7 236.4 218.9 220.9 218.2 217.7 216.1 211.1 188.5 186.3 213.3 224.8 231.1 234.3 232.5 229.7 225.1 217.4 204.4 203.3 200.6 196.8 193.1 189.8 186.5 182.6 179.2 176.4 175.3 174.4 172.9 166.9 163.6 165.9 173 178.5 184.5 186.7 188.5 190 192.4 194.9 194.9
441.4 444.7 446.6 446.3 442.8 437.8 436.7 438.9 439.2 437.9 438.3 438.5 437.1 434.9 431.7 427.6 422 416.1 410.8 406.6 399.6 392.6 385.5 379.1 373.8 368.4 363.4 359 354.5 347.1 337.5 323 304 283.2 262.6 266.7 266.6 248 222.4 221.3 232.6 253.7 270.5 286.1 306.7 330.4 347.5 356.4 357.1 355.5 355.2 356.1 361.7 371.3 379.8 382.7 385.7 388.5 387.5 385.7 386.6 384.2 381.1 378.2 373.6 369.5 366.5 364.1 362.2 359.3 362 366.3 365.9 367.4 369.2 373 374.5 378.4 380 380.5 382 383.6 387.2 391.6 394.8 398.3 400.5 403.1 402.5 398.3 392.4 387.6 383.2 378.8 373.9 370 363.5 358.7 349.4 331.5 325.1 335.1 350.5 362.8 371 377.9 382.6 386.1 387.4 386.4 383.1 378.9 375 369.9 364.2 357.7 351.9 346.9 344.7 342.2 337.7 333.5 329.6 324.3 319.4 313 307 301.2 296.7 291.7 281.6 274.3 286.1 295.5 302.6 307.9 310.2 309.9 307.3 304.9 302.6 306 307 309.9 310.7 310.3 309.8 309.7 308.5 306.7 302.4 296.5 290.5 284.8 278.8 269.6 257.8 244.6 234.5 224 228.3 224.2 217.3 214.1 207.2 192.4 183 191.1 200.7 211.9 217.1 219.2 219.6 218.2 211.6 199.9 197.4 195.6 192.4 189.2 186 183.8 180.4 177.3 175.5 176.1 175.7 173.1 168.2 165.9 169.2 176.6 180.1 185.2 187.5 186.7 187.6 191.7 192.3 193.2
438.5 439.2 439.1 439.5 435.4 429.3 427.1 428.6 428.9 430.7 433.1 434.2 433.4 431.7 427.4 423.3 416.8 410.8 404.7 397.6 391.2 385.6 380.1 374.4 371.5 367.2 363.1 359.6 357.2 352.8 345 333.9 319 298 279.8 261.8 241.6 241.1 222.7 220.5 230.2 253.9 284.2 305.2 323.4 343.1 350 354.4 352.5 347 344.6 347.5 358.9 368 374.4 376.4 377.9 378.9 378.2 377 377.1 375.1 372.2 367.2 362.2 357.3 353.9 354 352.1 348.9 349.6 351.9 353.3 355.5 359.3 362.9 365.3 368 371.2 372.6 374.9 378.3 382.4 388.4 392.8 397.1 400.5 403.4 403.3 399.6 393.6 389.5 386.1 383.2 379 373.6 367.7 363.6 358 349 336.9 322.3 330.8 348.8 364.1 372.3 376.7 379.7 382.2 381.8 380 377.1 372.7 367.8 362.4 356.2 348.7 342.8 338.8 336.9 332.9 329 324.7 320 314.5 308.3 303.6 298.9 295 287.7 274.5 287.6 298 307.3 312.7 316.2 317.8 316.5 314.8 312.5 311.4 313.2 314.2 316.6 317.8 317.7 316.8 315.4 314.3 313.7 309.4 299.2 294.9 289.9 282.4 268 256.5 245 226.8 225.4 226.5 223.5 222.6 219.3 215.8 204.5 189.6 183.3 187 182.8 197 200.6 201.2 204.6 201.2 195.6 191.2 189.6 187.3 184.1 182.8 180 176.8 174.5 173.6 174.7 172.9 167.8 167 172 177.4 179.8 181.4 185.7 185.8 185.9 188 191.2 193.7 193.3
433.1 432.4 429.8 430.9 426.3 419.3 417.1 417.9 420.5 424.8 429.3 431.2 430.7 427.3 421.6 416 408.8 401.4 394.8 387.9 380.7 376 370.7 367.6 366.9 363.6 359.7 356.5 355.2 352.3 345.8 339.3 330.6 318.2 303.9 283 257.7 237.6 219 219.6 228.9 263.9 294.8 319 337.2 345.9 350.3 348.4 345 339.7 338.2 344.3 356.8 367.2 369.5 369.2 368.9 367.9 367.5 366.5 366.4 367.1 366.6 359.8 353.4 348.8 344.9 343.4 342 339.5 340.3 340.7 342.5 344.7 348.8 353.5 357.6 359.7 362.3 366 370.1 375.8 381.8 387.3 392.5 396.4 400.5 402.9 402.1 400.2 397.9 394.6 390.4 386.6 382.3 375.9 370.3 364.7 359.5 352.2 342 323.5 317.1 333.1 353 364.6 372.2 375.8 378.5 377.8 376.2 374.7 370.1 366.2 361.5 353.6 345.5 338.6 332.4 329.5 326.8 322.9 318.6 314.8 309.8 304.7 300.1 296.4 294 283.1 286.4 297.3 307.9 316.5 320.8 322.6 322 319.6 318.3 315.5 316.2 318.6 319.1 321.9 323.7 324.4 323.3 319.6 316.1 314.6 308.4 298.8 293.9 287.6 274.5 264.5 251.9 240.7 231.1 226.4 226.9 227.9 226.3 223.1 219.4 212.2 204 198.7 194.3 190.3 177.5 180 184.2 195.1 194.1 188.7 185.2 183.2 181.7 179.6 179 176.4 174.2 172.9 172.2 170.8 168.9 166.8 171.1 177.5 181.5 184 184.1 186.1 186.4 187.3 190 194.1 195.4 194.8
427.8 424.6 422.2 420.5 416.4 410.7 408.6 409.2 414 420.1 426.6 429.3 427.1 421.5 415.5 408.6 402.3 394.4 384.6 377.3 370.6 362.2 359.2 359.2 359 356.2 354 352.7 349.8 346.5 344 339.7 333.7 326.1 316.2 296.8 266.7 243.7 222.2 218.8 237.1 271.8 302.3 321.4 335.4 344.5 344.9 342.1 335.8 332.1 332.6 343.6 355.4 361.2 362.1 360.3 359 357 357.2 354.7 355.1 356.8 355.3 351.9 346.2 341.7 337.6 335.1 334.4 331.8 332.1 332.7 333.2 338 345.4 349.4 352.1 354.2 357.9 364.3 370.4 379.1 385 390.5 394.3 398.6 402.6 405.5 405.4 405.5 404.4 400.3 394.9 392.5 386.6 380 372.3 366 359.6 353.3 344.7 332.3 310.4 321.8 342.3 359 369 375.8 378.5 377.5 375.8 374.1 371.1 366.4 360.7 353.5 345.3 337.7 331 324.3 320.3 316.2 312.8 309.8 306.3 303.5 300.1 298.2 291.7 284.3 297.2 306.2 315.6 320.8 325 326.5 324.9 322.1 318.8 317.2 317.7 321.2 322.2 324.2 326 328 324.1 317.8 312.9 308.3 302.1 294.3 287.9 278.9 270.7 261.1 246.9 232.3 230.9 227.6 230.9 230.3 229.6 228.1 223.5 213.4 205.8 200.3 195.7 191.5 184 174.8 175.3 175.4 179.8 184.5 181.5 178.8 176.4 175.9 175.2 173.4 171.1 169.6 169.7 169.2 166.9 168.8 174.9 180.3 183.8 185.4 187.1 188.7 188.6 189.6 193 196.3 198 196.9
420.7 416.9 413.7 409.4 406.6 401.8 400.6 402.6 409.8 418 424.1 425.2 421.3 414.7 407.1 400.6 393.5 386.3 376.8 366 354.5 345.3 343.3 348.9 349.2 347.7 347.3 346.8 345.6 343.3 341.4 337.7 333 327.2 317.1 305.7 276.3 251.3 227.4 216.8 234.6 264 292.1 315.7 334.4 340.9 338.9 334.5 328.7 326.1 328.9 343.1 352.4 354 353.1 351.3 347.7 345.2 343.6 339.1 342.5 344.4 345.7 341.9 339.4 335.1 331.8 329.4 328.4 326.3 326.8 327.1 327.5 335.3 342.3 347.2 347.3 352 359.1 366.7 375 382.3 387.4 390.6 394.4 400.4 404.8 408.4 408.6 409.1 408.7 403.3 398.3 392.6 386.6 379.8 373.9 366.4 359.3 351.2 342 330.8 309.2 316.2 337 355.6 367.2 372.5 375.8 377.3 373.7 371.3 367.2 363.2 358.2 351.2 342.1 334.7 327.3 321.7 317.4 313.2 310.1 307.5 305.2 302.7 300.6 295.6 284.1 295.6 306.8 315.6 320.7 324.3 326.4 328.2 326.2 322.8 319.3 318.1 317.8 319.8 322.1 322.9 324.1 324.4 321.2 315.8 309.2 301.6 296.4 288.8 281.7 274.9 265.5 255.9 236.1 239.1 229.9 234 235.3 232.8 232.2 230.5 224.7 217.4 208.1 201 195.8 192.6 188.7 176.4 174 173.3 172.6 170.5 172.9 174.1 171.3 170.5 169.8 169.3 169.1 168.5 167.7 167.6 167.2 170.8 177.8 183 186.3 188.3 190.1 191.5 191.7 192.2 194.8 196.1 197.1 196.9
413 409.3 405.1 401.2 397.8 395.1 393.3 397.7 406.9 417 419 419.6 415.2 407.1 399 391.7 384.5 375.4 366.7 351.3 337.8 333.1 333.5 341.9 341.2 339.4 338.9 338.6 338.7 339.2 337.2 335.1 330.9 326 317.9 304.5 281.4 255.7 230.6 216.7 221.3 250.2 280.4 310.5 333.9 338.3 334.5 328.7 322.5 318.8 325.8 339.4 346.5 346.1 344.4 341.3 333.3 332.1 330.9 323.4 334.6 334.6 333.9 332.9 330.5 327.7 324.2 321.7 321.4 319.5 318.2 318.2 327.3 332.8 338.3 339.9 345.5 353.1 362.2 369.4 377.4 383.3 387 389.9 393.5 399.3 404.1 409.3 410.7 410.3 408.1 403.8 398 391 385.5 377.9 369.8 363.8 355.9 344.8 332.3 320.1 299.2 320.8 344.7 359.6 370.2 373.3 371.5 373.1 370.8 368.7 365.1 360.7 354.2 346.6 338.4 330.1 322.9 318.9 314.8 311.6 308.1 305.2 302.9 301.2 298.8 287.4 297.4 305 314.3 321.7 326.2 327.7 328.8 328.6 326.4 323.3 319.8 318.4 317.4 319.7 320.7 322.1 321.4 319.6 314.1 310.2 303 296.3 289.7 281.2 276.6 268.7 262.1 248 234.2 233.4 238.7 238.2 239.1 235.8 234.6 232.1 226.5 220.2 209.6 207 197.6 196.7 193.5 187.4 182.4 175.5 173.1 171.1 169.4 168.2 167.6 167.8 166.8 166.4 167 167.3 166.3 165.5 168.1 173.4 179.4 184 187.5 190.9 193.6 194.4 194.6 193.2 193.4 194.8 195.9 196.1
409.6 406 401.8 396.5 392.2 388.4 381.1 390.5 401.3 408.9 413.5 413.3 408.7 400.9 391.7 383.3 373.6 363.5 348.3 336.2 324.9 320.4 326.6 337.5 334.1 332.5 331 331.6 332.6 333.2 333.1 330.5 326.5 322.2 316.9 307.6 286.7 261.5 234.3 215.7 215.7 242.4 273.1 304.7 326.6 335.4 331.2 326.7 315.8 311.8 322.6 335.8 339.6 337.4 330.2 320.6 310.4 308.2 307.4 306.6 323.3 325.2 324.8 323.6 321.5 319.3 315.1 309.4 308.4 303.8 308.7 316.9 323.1 328.8 332.5 337.7 346.8 356.7 365 371.2 377.8 382.2 384.3 387.3 392.1 399.5 404.2 409 410.3 408.7 405.6 402 396.3 392.3 384.3 374.4 364.9 355.6 346.7 334.5 323.6 308.8 304.1 326.5 348.9 362.6 372.3 377.3 372.6 366.3 361.6 360.8 356 349.3 346.9 338.8 331.7 324.4 318.6 316.3 313.6 310.4 307.2 303.9 300.6 299.4 292.1 293.8 303.1 309.7 317.3 322.6 325.5 325.9 325.1 324.1 322.6 321 318.5 317.9 317.8 318.9 320.6 321.6 319.3 315.9 310.1 304.2 296.4 290.1 281.2 275.5 269.4 263.3 255.9 239.5 247.3 246.8 243.4 241.6 240.4 237.7 237.3 234.2 227 228.4 221.9 213.9 205.9 200.6 193.8 188.6 184.4 181.3 179.4 175.3 170.5 167.7 168.3 167.5 165.4 164.9 164.9 164.2 163 164.1 168.2 174.5 180.6 185 189 192 194.8 195.8 194.3 192.9 192.7 193.3 194.4 192.3
413.4 406.5 396.3 392.2 387.4 383 372.8 382.5 391.7 401.5 407.1 406.1 401.2 393.1 383.9 372.1 359.6 346.5 329.7 318.4 311.7 307.3 316.4 317.9 314.8 319.1 321.4 320.9 325.4 328 328.1 325.2 320.2 317 312.6 306 291.8 265.3 238.9 216.3 215.3 232.3 263.4 291.5 308.5 322 328.3 325.2 311.9 306.3 322.9 329.1 330.7 323.5 306.5 295.7 289.3 284.9 285.3 289.5 308.3 316.4 315.1 314.9 311.7 307.7 303 295.8 294.4 296.7 300.1 308.4 315.8 319 325 336.3 349.7 360.5 365.6 370.4 375.2 377.7 381.3 385 388.9 397.3 402.3 406 406.7 405.6 402.3 397.6 393.6 389.1 381.6 370.6 362.3 350 336.2 324.8 314.3 301.9 306.7 328.7 349.9 363.4 371.6 374.1 370.5 367.7 365.9 364.1 360 355.5 344.1 334.4 325.3 318.9 313.2 310.5 310.3 306.5 304.8 303.1 299.4 295.1 297.3 297.5 307.6 314.8 319 321.9 322 322.7 321.7 320.4 319.4 317.7 316.7 315.6 314.8 316.1 317 316.7 312.7 308.1 304.3 296.6 289.4 283.3 274.6 269.3 264.3 253.8 247.7 250.4 253.9 251.8 247.8 243.1 241.2 239.6 238.3 237.8 239.4 234.6 228.1 221 215.4 205.6 194 189.7 188.4 188.1 186.1 180.1 177.8 174.5 164.9 165.8 163.7 163.9 163.6 162.5 162.1 163.6 168.4 175.1 180.9 185.5 189.2 192.4 195.2 196.5 194.5 193.3 192.5 192.4 193.6 192.2
412.9 409.2 405 399.8 392.9 373.7 363.8 372.3 383.5 392.9 401.2 398.3 392.3 385 372.7 360.2 345.2 327.4 315.6 307.9 301.3 292.8 292.4 293.4 291.9 297.5 307.1 308.2 317.5 323.2 323.1 320.3 315.4 311.3 304.8 300.4 294 271 244.7 218.3 214.3 221 251.1 273.9 289 313.5 326.8 321.8 311.4 299 314 318.6 315.7 301.9 286 277 270.5 269.2 270.6 273.9 288 300.1 303.2 300.7 296.6 293.3 290.3 291.6 304.2 312.6 311.8 313.4 317.8 324.5 334.4 345.6 352 357.9 363.3 368.4 372.7 375.8 379.2 382.9 387.2 393.7 398.5 401.9 402.2 401 397.6 392 387.5 384.5 376.8 367.9 354.9 341.8 327.4 314.1 303.1 291 309.7 331.6 351.1 364.7 372.6 375.1 375.4 374.6 374.5 370.9 365.9 359.6 351.9 343.8 334.9 327.5 322.1 317.7 314 309.9 307 304.6 302.8 296.9 303 307.6 313.4 318 320.8 322.6 321 319.5 318.2 316.8 317.5 316.7 315.3 312.8 309.6 310.3 310.2 308.4 304.5 300.3 295.6 289.3 281.1 271.6 263 258.4 256 252.5 260.2 259.1 255.2 251.9 249.3 244.3 241.7 240.3 242.8 245.4 244.5 238.3 232.3 225.3 218.6 211.3 195.9 191.3 189.6 189.8 185.5 180.7 177.4 174.2 172.1 169.5 166.7 163.7 162.4 161.3 162 162.1 166.7 173.9 179.9 185.1 188.9 192.2 196 197.3 196.1 194.6 193 192.9 192.9 190.7
411 410.2 408.1 402.6 394.9 382.7 362.3 364.6 373.8 383.6 389.3 386.2 380.1 370.8 358.3 346 332.4 316.2 306.5 298.2 291.2 282.3 274.6 273.4 274.9 281.4 293 294.4 305.8 312.1 315.5 310.8 305.9 294.6 287.6 285.4 284.2 271.6 246.7 221.9 213.8 213.9 235.8 257.1 285.9 314.1 325.9 322.8 310.3 291 290.8 292.1 296.6 281.3 269.9 259.6 254.3 252 252.3 258.8 268.2 280.9 283.6 278.3 272.5 275.9 295 308.3 316.5 319.8 327.1 331.4 334.7 338.8 347.8 353.9 357.9 363.4 366.1 370.3 373 375.7 378.1 380.3 385.4 389.4 393.8 396.9 397.6 395.8 392.5 387.9 384 379.2 371.1 363.5 352.8 337 322 306.9 298.6 292 316.3 339.4 357.6 368.8 377.4 379.3 381.3 382.9 382.9 380.2 373.7 367.9 358.2 347.4 338.7 330.6 324.7 321.1 317.1 313.1 310.1 307.3 304.3 305 307.3 312 316.9 320.4 322.4 323.1 321 317.7 314.5 312.5 312.5 313.6 312.1 309.1 305.3 301.8 300.9 299.2 295.2 291.2 285.6 273.7 269 265.4 262.1 260.3 255.4 259.7 260.9 257.9 254.2 250.9 248.6 245.6 240.7 241.3 245.2 246.7 244.8 240 234.1 226.3 219 206.5 199.5 190.9 192.8 187.8 183.1 178.5 177.5 174 171.8 170.3 168.3 165 162.2 161.5 160.3 161 166.2 172.4 178.3 183.6 188.3 192.1 195.4 196.5 196.5 195.1 193.9 193.4 191.3 189.1
409.1 409 405.7 398.9 390.1 381.3 367.1 350.7 363.3 375.6 377.7 374 365.2 356.8 344.8 333.3 318.8 308.8 297.3 284 285.7 290.5 292.1 285.2 265.3 265.4 278.5 281.3 286.4 289.2 289.3 290.6 285 276.1 269.9 266.3 264.3 259.8 244 224.7 212.8 211.9 224 250.5 284.7 312 326.6 326.4 310.9 293.4 272.1 274 273.9 263.3 249.3 252 262.4 269.7 274.3 270.1 258.2 266.6 266.2 270.8 288.8 300.6 315.5 322.1 324.7 328.5 333.1 337.8 342.5 348 354.3 360.2 363.9 366.8 370.4 373.2 374.4 375 376.4 378.6 382.3 385.3 389.3 392.8 392.5 391.3 388.1 385.5 382.5 378.3 370.2 360.5 351 337.8 320.2 301.8 292.1 296.1 320.1 342.8 363.7 374.8 381.1 383.4 386.6 388.4 390.3 388 382.4 375.7 364.8 351.2 340.8 332.4 326.3 322 318 314.5 311.4 308.8 307.7 309.3 312.3 315.3 317.4 319.8 321.5 320.7 317.9 314.5 311.1 308.7 308.5 309.4 307.9 304.2 299.7 295.3 291.5 288.9 284.2 279.9 273 269.1 266.2 262.3 258.4 256.7 257.8 260.1 258.6 256.4 253.3 251 248.7 244.2 242.8 242.1 244.5 245.3 244.1 240.4 232.6 222.4 215 206.9 196.5 195.4 190.4 184 179.4 177 174.9 174 171.6 170.5 168.6 166.7 162 160.3 159.3 159.6 163 168.6 175 181.9 186.8 191.5 193.5 195.4 195.6 194.3 192.6 191.7 189.2 186.7
406.4 405.2 402.2 394.5 386.2 377.8 368 354.2 349.4 365.7 366.9 361.6 355.2 346.9 334.7 322.6 313.8 298.2 292.4 306.5 314 317.4 315.2 298 276 261.5 259.8 266.9 266.6 268 268.8 268 264.5 261.3 254.4 248.9 244.8 244.5 241.7 226 211.9 211.7 211.3 247.8 282.3 315.1 332.7 331.3 318.5 301.8 280.3 254.5 254 243 251.3 271.7 288.2 293.7 296.8 295.2 284 272.2 271.1 284 303.1 312.9 321.6 328.4 330.2 333.2 339.2 345.4 350.5 354.1 360 365.7 369.2 371.3 374.3 377.5 377.8 375.8 374.6 376 379.1 382.4 385.9 388.2 387.7 387 386.6 385 382.3 377.8 370.9 363.6 353.6 340.5 320.1 302.3 283 297.6 320.8 344.1 361.4 374.8 382.6 385.4 392.2 395.4 394.5 391 384.8 379.2 368.5 353.4 342 333.3 327.5 323.4 318.9 316 312 310.2 310.2 311.3 315.9 316.6 316.4 317.4 317.2 315.6 313.9 310.6 307.2 305.2 303.9 302.8 302.1 298.7 293.2 287.7 282.3 278.4 272.5 269.3 265.5 264.7 263.5 259.9 257.5 258.3 259.7 258.8 256.8 254.6 250.8 250.2 248.5 246.5 243.4 242.3 243.1 241.8 238.7 234.2 226.4 218.8 207.9 199.6 196.8 192.5 184.8 181.1 177.7 176.2 173.3 172.6 171.5 169.9 167.9 165.9 164.3 159.9 158.8 158.6 158.9 164.3 171.9 179.2 184.8 189.2 191.5 193.3 193.6 192.1 190.3 188.5 186 184.5
402.3 402 400 394.1 385.2 374.1 365.4 355.3 340.9 352.1 352 348.6 345 337.6 326 317.8 298.1 300.8 318.4 331 332.4 329.7 323.8 307 282.7 269.7 258.4 250.6 248.2 249.1 246.4 242.3 248.5 246.6 239 232.3 225.9 222 219.6 217.8 212.6 211.6 210.6 246.4 281.9 315.7 329.7 328.8 322.6 303.9 277.9 254.2 238 249.8 270.1 291.4 305 315.1 316.3 315.6 310.5 293.5 288.8 288.4 310 320.7 325.8 330.3 334.6 338.2 346.6 350.5 354.5 359.8 364 367.7 371.8 374.3 377.6 379.1 378.2 375 372.7 373.9 377 378.6 382.8 385.2 385.5 385.8 385.6 383.6 380.7 376.5 371.1 363.4 356.6 342.9 320.9 302.3 284.1 293.1 316.1 339.4 358 372.7 382.3 388.2 395.4 397.9 395.1 391.8 386.1 380.4 370.3 355.9 344.8 334.7 329.5 324.4 320.5 316.6 314.1 313.9 312.7 311.6 316.6 317.1 316.2 314.4 312.8 311.6 310 306.3 302.4 300.5 299.1 297.3 295.4 292.6 285.8 280.5 276.4 270.4 267.8 265.2 262.4 262.2 258.1 256.4 256.1 258.6 257.7 255.9 253.3 250.6 252.5 251.5 249.5 244.9 241.8 240.7 238.4 233.7 228.9 225.4 220.1 212.8 200.7 200.5 193.3 186.9 184 179.3 176.9 174.5 173 171.8 170.4 168.9 167 165.2 162.8 160.5 158.2 158.4 157.7 161.1 170.1 176.6 181.8 187.1 189.8 190.4 189.9 188.6 186.9 185.2 183.9 183
400.1 399.9 398.5 393.9 387.2 374.4 364.5 354.5 342.9 330.6 334.6 333.9 331.1 327.6 319.3 303.8 309.2 325.5 339.1 345.7 345.8 340.8 332.1 317.6 292.3 274.5 270.3 263.9 261.7 258 251 245.6 237.8 234.1 234.3 243.8 249.1 249.1 237 221.8 213 209.2 210.8 247.5 282.8 317.3 325 324.5 317.3 295.3 267.6 248.2 238.4 267.5 291.4 307.7 319.8 331.4 332.4 326.5 321.5 309 306.6 308.1 316.3 324 329.6 334.7 338.6 343.6 349.9 354.8 362.7 366.9 370.9 372.1 375.3 378 379.1 378 374.7 371.1 368.7 368.3 371.1 375.8 378.7 380.6 383.3 384.6 384.3 384.5 381.7 378.3 373.5 370.2 364.6 349.7 324.1 303.9 285.3 283.7 306.1 330.4 351 368.7 383.1 391.4 395.4 394.7 390.3 387.2 383 379.5 370.3 358.1 347.7 337.7 331.1 325.6 321.5 319.2 318 316.3 312.3 311.5 315.4 316 314.7 312.5 309.4 308.3 306 303.2 299.6 295.9 294 291.7 289.1 284.3 279.1 273.7 269.9 265.1 261.2 256.9 253.6 251.8 253.5 251.9 252.7 254.2 254.1 253.1 251.4 251.5 251.7 249.9 246.8 242 239.1 235.1 231.5 228.6 224.8 218.7 212.2 201.8 197.2 193.1 188.2 184.6 180.5 177.9 175.9 174.3 171.9 170.2 169 167.6 165 162.3 162 162.2 157.6 156.4 156.4 158 168.1 174.3 179.6 184.5 188.1 189.5 188.6 185.5 183.9 182.8 181.7 180.4
400.2 401.5 400.6 397.4 392.1 384 372.6 360 349.9 339.9 326.2 317.3 318.5 313.4 305.6 317 334 346.9 355.9 356.1 351.2 345.4 336 322.3 296.8 302.8 297.8 290.9 290.7 287 279.3 275.1 258.7 249.5 261.5 272.2 270.4 258.4 240.5 224.3 210.3 209.2 212.7 250.4 288.3 315.3 323.8 320.9 310.6 285.3 258.7 232.9 251 281.4 305.7 321.3 332.8 339.1 341.6 335.2 329.5 324.6 326.7 329.8 330.7 330.4 333.8 338.3 341.3 347.2 352.2 359.6 364.1 367.5 369.4 372.4 375.4 377 377 374.3 369.9 366.3 364.5 363.6 364.3 367.5 372.4 377.1 381.8 385.4 386 386.3 385.1 381.6 379.3 375.2 369.8 358.1 330.5 308.5 289.7 274.8 297.9 319.4 342 363.1 378.7 387.8 392.2 392.7 390.2 385.9 380.4 378 370.6 357.9 347.9 339.1 333.3 328.4 324.3 323.3 320.7 314.8 311.8 314.1 314.5 314 312.7 308.3 305.9 305.2 303 300.4 296.9 291.5 287.3 284.1 281.7 276.5 271.6 268.6 264.6 258 252.6 248.3 247.7 249.3 247.9 245.8 247.1 249.4 250.1 248.8 248.4 248.5 249.3 246.7 240.6 236 232.7 228.7 224.3 220.7 216.9 209.3 200.8 198.5 190.6 186.7 183.9 182.1 180.8 177 175.6 173.2 170.8 168.4 166.9 167 164.3 161.2 159.8 159.4 157.2 156.4 155.1 157.4 165.1 172.1 177.4 182.1 185.6 187.7 186.4 183.7 181.7 180.6 179.4 178.6
400 403.6 404.4 402.7 399.2 393.2 385.8 375.7 363.2 351 340 332.2 324.1 321.9 326.4 336.7 351.6 361.8 362.1 357.8 352.1 345.6 336.9 324 318.2 325.4 327.5 323.8 322.6 316.7 308.4 294.4 268.6 269.5 286.3 290.2 282.7 264.8 243 223.9 208.7 207.3 225.5 262.9 295.3 308.9 316.3 315.5 304.6 276.6 249.8 227.6 257.7 289.3 314.5 332 338.1 340.9 342.7 340.1 338 338.9 338 338.3 336 335.2 337.4 339.1 342.9 349.1 353.9 358 360.9 365.5 366.7 369.5 371 371.7 370.1 368.6 364.8 361 359.6 359.5 360.6 362.4 367.6 376.8 383.7 386.9 389.6 389.5 387.3 384.4 381.4 377.8 372.4 364.4 340.3 315.7 297.6 275 285.2 308.7 333 355.6 373.6 382 387.5 391.1 390.7 386.2 377.2 373.1 367.5 356.3 346.5 341.7 336.7 330 328.8 324.6 319.7 317.2 314.6 314.8 313.4 312.5 309.6 306.3 303 302 299 295.6 292.1 286.8 282 277.7 273.2 270.2 267.2 261.1 256.5 250.2 245.9 244.9 244.5 242.6 240.6 242.1 243.3 244.8 245.5 247 247.3 245.2 242.1 238.4 235.6 231.3 228.5 224 219.9 211.6 204.4 200.2 194.8 191.3 187 184.4 183.2 181.3 178.4 176.5 174.4 171.9 169.1 166.7 165.9 165.4 163 159.5 156.7 156.4 155.9 155.8 154.8 154.7 162.2 171 177.1 181.3 184 185 184 182.2 180 178.5 177.9 177.8
400.2 404.7 407 406.8 404.7 399.7 394.5 388.5 381.1 370.1 360.2 352.8 346.3 343.1 348.1 353.4 358.6 361.6 361 356.8 351 345.7 338.6 333.3 333.5 338.3 340.8 339.6 335.4 327.3 319.8 295.5 271.5 287.3 302 306.3 292.4 270.2 245.2 223.9 208.6 206.6 227.9 263 289.2 300.3 306.9 306.5 298.5 269.2 244.8 229.8 260.6 291 316.5 335.8 338.6 341.6 343.6 341.8 342.2 344.5 343 342 340.2 339.1 339.5 341.3 343.6 350.1 354 356.8 359.1 360.3 362.3 363.9 364.6 365.5 365.3 361.3 358.1 355.7 354.1 354.1 354.9 360.6 369.9 379.8 386 390 392.2 390 387.5 384.1 380.9 377.2 373.1 366.9 355.5 328.8 304.5 283.2 272.5 298.4 323.2 347.1 365.6 374.9 382.2 383.2 386 380.9 372.7 367.8 360.2 351.6 345.2 340.5 335.7 332.3 328.7 324.9 324 320.1 316.8 314.4 313.2 312.1 308.5 302.5 298.4 295.4 292.4 287.6 284.9 281.1 277 264.9 264.8 259.8 254.8 252.2 249.9 244.8 242.4 239.5 237.9 236.9 236.1 237.8 240 242 243.4 243.8 243.2 242 237.5 234.6 231.7 228.9 225.3 220.4 213.6 204.3 196.6 197.3 193.5 187.5 184.9 182.1 180.6 177.6 177.3 175.3 173.2 171.1 168.1 165.2 163.9 161.7 158.7 156.7 154.8 154.6 154.7 154.9 153.5 153.5 161.8 170 176.4 180.1 183.3 183.5 183 180.6 178.5 177.5 177.3 177.4
399.3 404.6 407.9 408.6 407.1 402.3 397.4 393.2 386.6 379.1 371.8 362.9 358.3 355.5 356.4 357.6 358.2 359.6 357.9 354.5 350.9 347.3 344.9 343.5 345.8 349.5 350.1 345.4 338.4 330.7 315.5 296.3 285.3 302.6 316.1 315.4 301.5 275.7 250.1 225.7 208.4 206 225.5 257.5 281.5 295.6 299.2 300.2 292 263.2 238.1 232.5 264.5 292.6 312.6 329.3 334.9 339.8 343.4 346.2 348.1 349.8 348.3 348.5 345.3 342.7 341.8 342.4 343.5 348.7 351.5 354.4 356 355.4 356.3 358.1 361.1 361.2 358 354.8 351.7 349.7 348 348.1 355.8 365.5 374 382.5 388 391.9 392 389.4 386.8 383.4 379.6 375.4 371.6 366.8 363 338.7 310.9 291.3 269.4 287.6 313.3 336.4 354.8 367.3 374.8 375 376.3 372.3 365.7 359.9 354.3 347.5 345 341 335.8 330.6 331 328.2 323.3 320.2 316.8 312.8 310.1 307.5 304.6 297.9 292.8 288.1 281.1 277.3 275 270.3 265.8 257.6 254.6 250.3 247.3 245 242.5 240 237.3 234.5 233.1 233.1 233.7 236 238.7 240.8 241.1 240.7 238.3 236.4 233.6 230.5 226.8 222.6 215.1 207.3 204.2 198.2 192.4 192.2 188.1 184.4 183.9 181.1 180.4 177.1 175.8 174.2 172 169.9 167.3 164.1 161.2 159.3 157.6 154.9 153.6 153.8 153.8 153.9 153.4 152.4 160.3 168.5 174.2 178.4 181.4 182.8 181.9 180 178 177 177.2 177.5
396.2 400.4 405 407.1 405.9 401.6 397.1 392.3 386.2 378.2 370.1 363.6 360.2 358.8 357.2 356.7 356.2 356 355.2 355.1 353.2 351.9 352.3 351.9 353.8 355 350.7 346.9 340.3 331.3 312.5 295.8 302.7 314.8 323.7 323.3 307.6 283.7 255.9 232.9 209.1 206.6 220.3 247.7 271 282.3 290.3 295 287.5 259.8 232.8 230.3 261.9 280.7 296.8 310.8 327.5 336.8 345.6 351.1 352.5 351.7 350 348.2 345.8 342.6 340.6 339.6 342.2 345.6 347.6 348.5 347.6 347.7 348 349.5 354 353.7 351.5 348.8 345.5 343.8 342.5 347.7 359.4 369.2 376.6 383.9 387.3 389.9 388.8 387.5 384.5 382.1 378 373.4 369.8 364.8 360.8 346 317.9 293.7 269.1 274.7 301.4 325.3 346 360.3 367.5 365 362.1 359.5 354.2 349.7 344.2 341 341 337.4 330.1 336.5 335.8 331.8 326.8 321.1 316.2 310.7 307.6 303.7 298.5 291.9 284 278.1 271.8 265.7 261.5 257.7 252.9 248.5 243.9 242.1 240.1 237.9 236.6 235.9 233.9 231 231 231.6 233.1 237.1 241.7 243.5 242.9 240.2 238.9 235.2 231.5 227.6 219.4 214.2 210 204.4 200.4 196.1 191.5 188.5 186.6 185.2 183.3 180.1 177 175.1 175 173 170.9 168.7 166.5 163 160.6 158.7 156.2 153.4 152.7 152.9 153 153 152.4 152.2 158.6 166.6 172.6 176.6 179.7 181.9 181.5 179.6 177.7 177.2 177.5 179
393 397.3 399.6 402.9 404.7 400.7 393.7 387.3 381.2 373.2 366.5 361.9 358.9 355.9 354.8 354.1 353.2 353.8 354.4 355.1 356.6 356.4 357.9 358.8 360.4 359.2 354.1 345.9 340.1 330.4 313.9 304.4 315.3 326 333.6 332.4 317.7 294.1 267 242.6 217.5 205.9 209.6 229.4 249.4 262.8 276.2 287.7 280.4 256.1 233.5 224.4 249.8 264.4 283.9 308.3 328.2 339.3 345.2 349.8 349.7 348.4 346.8 343 341.1 339.1 336.9 336.5 339.3 340.9 343.4 343.1 341.3 339.4 338.2 338.5 340.1 344.5 344.6 341.7 339.7 338.6 340.4 351.5 364.5 372.7 378.6 383.2 387.2 386.5 388.2 388.6 385.9 382.1 377.2 372.4 367.6 362.1 357.4 348.8 323.3 296.6 274.8 265.3 290.1 316.8 339.7 350.9 356 356.3 350.6 343 337.4 336.3 333 330.8 332.7 333 336.2 336.6 332.5 329.4 325.1 318.5 311.1 306.2 303.4 298.7 291 282.4 272.7 265.7 257.2 254.4 250.8 247.2 242.8 238.9 235.1 233.7 233.7 233.2 232.6 231.7 230.2 228 231.6 235 239.9 243.2 245.3 244.9 242.2 239.3 235.7 231.4 226.4 222.6 218.4 212.6 207.3 201.1 196.1 193.1 190.6 188.6 185.6 183.6 179.9 176.9 175.6 175 174.5 171.9 169.7 167.5 164.9 162.1 159.5 157.6 154.5 151.9 152 152 152.2 152.2 151.2 151.4 157.1 165.7 170.7 174.4 177.4 179.7 180.4 179.3 177.2 178.8 180.1 183.7
392.3 394.5 396 396.9 399.8 397.3 390.3 381.6 373.4 367.4 362.7 360 356.7 354.4 351 349.8 349.5 350.4 353.7 355.2 357.5 360.5 363.3 365 364.5 360.1 354.8 349.5 342.8 335.2 322.7 314.5 323.7 334.3 338.7 337.1 329.6 306.7 280.4 256.2 230.9 206.9 203.9 212.5 225.6 240.6 256.5 271 275.5 250.1 227.5 223.1 248.5 274.5 297.4 316 328.8 337.5 342.3 343.8 345 343.7 341.1 339.1 338.6 336.9 334.2 333.1 336.8 339.5 337.6 336 334.5 332.3 330.1 329.2 331 333.1 335.5 335.2 333.9 335.7 345.4 359.3 367.6 374.2 380.1 384.7 384.1 384.3 385.8 385.2 382.1 378.3 373.7 367.5 362.5 358.7 353.7 345.5 327.1 300.6 279.2 259.3 282.7 310.7 332.2 341.9 346 343.8 336 326 321.3 317.5 315.8 318.5 324.2 327.7 329.3 332.2 329 324 319 312.7 304.2 299.1 295.3 287.9 280.2 270.9 260.9 251.5 248.3 244 237.5 237.4 233.4 230.9 229.4 226.9 226.4 226.8 228.3 228.1 227.1 229.9 235.4 243.9 247 247.7 244.1 241.1 237.4 233.1 229.2 226.4 225.1 220.3 213.7 207.4 202.8 197.5 194 190.9 188.3 186.1 183.5 180.5 177.1 176.3 176.2 175.2 173.3 171 169.5 167.6 164.8 161.4 158.6 156.1 153.5 150.8 151.4 151.4 151.4 151.1 150 150.7 155.8 163.7 169 172.2 175.1 177.2 178.6 179 176.8 180.5 183.6 184.8
391.8 393 394.3 394 392 388.4 382.9 376 368.1 362.6 358.2 355 353.7 352.2 348.6 346.6 346.6 347.9 350.9 355.4 358.9 363.3 366.7 369.3 366.9 361.2 355.3 350.6 345.7 339.4 329.9 325.4 330.6 337.6 341 341.2 339 322.5 295.3 269.3 242.1 220.5 203.9 203 207 223.3 239.2 253.3 261.4 245.2 220.3 223.4 255.9 287.3 306.5 318.1 327.6 337.1 340.7 342 341.4 339 337.5 335.4 335.7 332.6 330 330.7 335.3 335.8 334.6 330.9 328.2 325.3 323.2 321.9 324.4 327.4 328.8 328.3 334 348.6 354.4 363.4 369.5 373.8 377.1 378.2 381.2 380.9 380.2 378.9 375.5 371.1 366.1 359.8 356.7 353.5 349.1 342.4 331.2 303.8 280.6 259.7 275.6 302.7 320.5 329.6 329.6 324.6 316.3 310.7 304.8 299.9 300.1 305.1 314.4 296.3 280.4 279.5 285.6 281.3 293.6 304 297.5 291.5 283.9 277.2 269 257.6 249.4 245.2 240.4 235.9 231.1 227.3 225.3 223.6 222.8 221.3 221.6 222.3 223.6 223.4 226.4 232 240.8 246.7 247.1 243.8 240 234.8 229.3 226.9 225.2 221.9 219.9 212.6 206.3 202.8 199.4 197.8 194.4 191.1 186.3 183.6 181.2 178.1 175.9 175.7 175.6 174.4 172.1 169.9 168.6 167.7 164.8 161.3 158.7 156.2 152.6 150.6 150.4 150.5 150.4 149.3 148.9 149.4 151.9 161.7 167 170.1 172.6 174.7 176 177.5 177.1 180.1 184.4 186
390.2 391.8 393.2 392.7 390.1 385.6 377.1 370 364 358.7 355.7 352.2 349.1 347.1 345.5 343.3 342.8 343.4 346 353.6 359.1 364.5 368.5 368.5 364.8 361.3 355.2 350.3 345.1 340 333.8 331.5 336.3 340.2 342.6 345.5 343 333.1 307.8 282.4 263.2 245.5 221.6 201.6 201.6 202.1 222.1 235.7 243.3 238.9 210 227.7 261.8 292.1 307.7 319.5 327.2 337 339.6 339.2 338 336.2 333.7 331.6 329.9 329.3 327.2 326.5 329.7 330.8 329.1 326.7 324 320.4 317 315.6 318.5 318.7 318.2 332.3 343.6 354.5 361.9 365.9 368.5 371.6 370.9 371.2 371.8 371.8 370.9 369.4 366.5 363.9 359.6 354.1 350.6 346.2 341.9 335.6 328.9 307.9 284.1 264.5 267 292.8 304.4 307 304.1 302.8 300.3 292.4 286.4 283.8 288.3 296.3 284.1 254 239.7 241.6 243 251.1 259.2 287.9 293.2 284.8 276.4 266.3 254.2 249.3 242.4 236.9 233.6 229.3 225.8 222.5 218.1 216.7 217.1 216.4 217.9 218.8 219.4 217.5 223.7 231 240.3 242.5 239.8 234.4 230.5 225.2 223.2 221.5 219.7 215.9 213.1 209.5 206.3 205.1 202.7 197.3 193.6 188.7 185.2 183.8 179.1 177.3 175 175.2 174.3 172.7 170.7 168.7 167.7 166.2 163.8 161.6 159.1 156.7 153.8 150 149.5 149.5 148.7 148.3 147.9 148.9 151.6 159.5 161.9 168.3 170.4 172 173.4 174.3 176.5 179.4 183.9 187.1
387.8 391 390.6 389.3 386.1 379.1 371.9 366.3 360.4 355.9 352.3 349.2 346.2 343 341.4 339.9 339.7 339.4 340.9 345 352 358.1 362.2 361.1 358.2 354.2 350.4 345.8 342.1 338.9 336.1 336.5 339.3 342.8 346.1 345.8 343.8 336.9 321.3 298.6 284.1 269 245.1 221.1 201.6 200.6 201.2 216.1 231 228.1 206.9 235.8 268.6 296.5 307.3 316.6 324.1 332.9 337.9 336.1 333.9 329.8 327.7 326.4 324.2 323.1 321 321.9 323.5 326 323.2 321.8 319.1 313.8 311 309.1 307.2 311.3 324.7 343.1 354.2 359.9 364.9 369.1 368.9 367.6 365.6 364.7 365.8 364.2 363 362.2 361.3 359.3 353.8 349.4 343.6 338.3 332.4 326.7 320.5 309.9 288.7 269.3 256.8 277.7 280.4 275.6 276.2 277.1 272.9 268.1 268.5 273.8 279.4 273.7 260.3 257.4 242.2 254.2 257.7 256.4 273.6 282.8 280.7 274.8 263.7 253.9 245.8 240.6 236.5 232.2 227.8 224.6 221.7 219.5 215.7 213.3 213.2 213.2 212.7 214.1 215.2 216.1 217.1 223.5 228.5 229.5 227.5 223 220.3 219.1 217.4 216.8 215.1 212.4 212.2 213 212 207.8 202.7 197.1 191.6 186.9 183.2 179.7 177 175.3 174.3 174.1 172.7 171 169.9 170.1 168.8 166.5 164.2 162.1 158.4 155.6 152.6 149.9 148.4 148.4 148.3 148.1 147.8 147 153.3 157.1 159.7 164.4 167.8 169.7 169.3 173.8 176.3 178.9 183.6 187.9
386.4 389 387.1 384 379.7 372.5 366.9 361.6 357.1 352.9 349 346.8 344.6 341.8 338.2 336.1 336 335.9 336.7 339.9 343.9 348.5 351.3 351.1 348.8 345 340.6 339.8 338.5 336.9 338.2 339.7 342.5 345.2 348.3 345.5 342 338.5 329.6 317.3 298.8 285.4 264.7 239.4 216.5 200.2 200.1 200.2 213.7 212.4 210 241.8 272.8 291 299.5 307.4 314.5 323.3 331.6 330.7 325.1 321.6 319.8 317.7 316.8 314.5 313.4 312.8 314.2 319.2 316.3 313.5 309.6 306.2 303.1 298.7 305 318.9 336.4 348.7 357.2 363.2 365.3 368 369.4 364.4 361.1 359.1 357.9 356.8 356.5 355.8 354.1 351 345.2 340.7 335.4 330.2 324.2 319.8 314.2 306.3 294.6 276.9 254.1 256.3 259.4 258.8 260.6 258.9 257.5 258.3 260.2 262.8 269.7 256.5 256.2 257.5 258.8 267.2 274.8 274.6 273.9 268.6 263.3 255.5 248.8 243.7 239.3 236 232.8 228.8 224.3 221.4 218.3 214.4 210.7 212.4 207.5 207.6 209.7 208 208.9 209 208.9 213 213.6 214.9 213.1 212.8 213.8 213.6 213.6 213.8 213 213.1 212.7 215.3 214.2 209.6 201.2 194.2 191.7 185.3 181.6 178.9 176.6 174.1 172.7 172.7 171.2 171.5 172.4 171 169.2 166.8 164.6 163.3 160.5 157.1 153.5 150.2 148 148.1 148 148 147.8 146.2 149.6 153.7 157.7 161.4 163.9 165.2 170.1 172.6 175.6 179 183.5 188
385 383.8 380.6 375.7 369.8 365.9 361.6 358 353.9 349.9 346.5 344.1 342.1 339.7 336.8 333.7 330.9 331 332.4 335.6 338.7 341.9 342.8 341.6 341.1 337.4 332.8 331.6 332.7 336.3 341 343.6 347.8 350.3 349.5 346.6 342.1 337.6 329.3 322 309.5 297.9 277.2 254.8 232.8 217.7 200.3 198.4 198.9 202.8 217.5 243.9 271.6 276.4 281.2 286.7 296.7 308.6 318.6 319.8 315.2 309.8 305.2 305.7 307.2 305.4 304.6 304.6 304.7 303 301.5 299.7 294.7 291.7 294.6 308.9 321.5 334.9 346.1 356.9 362.6 365.2 368.1 367 365.5 361.6 358.9 352.8 350.1 346.6 348.2 344.8 342.7 339.3 333.7 329.4 324.3 317 313.3 310.2 306.3 301 294.2 281.9 265.8 251.5 246.1 246.7 255.7 259.8 258.2 254.7 253.8 254.9 259.3 263.4 256.2 258.7 258.7 255.2 250.3 250.8 249.2 246 246 241.5 239.7 237.5 234 231.3 227.8 224.1 221.1 217.6 212.9 210.2 206.6 204.8 201.3 201.8 203.2 201.8 201.1 200.8 201.8 203.7 203.9 202.9 201.8 203.3 204.5 205.9 207.5 208.1 208.2 207.9 207.2 209.5 208.6 202.1 197.2 192.5 188.7 184 180.1 178.3 176.3 174.2 172.7 171.6 172.6 173.8 173.3 171.5 169.3 166.9 165.8 164.6 161.9 158.4 154.5 151.1 148.1 147.4 147 146.9 146.8 145.6 146.9 150.4 154.5 157.9 159.3 165.1 170.1 172.2 176.1 180.7 184.3 187.2
381.7 376.9 371.8 367.9 363.1 360.2 357.3 354.7 350.5 347 343.9 341.5 339.5 337 334 330.9 327.6 325.5 327.3 330.7 333.7 332.8 332.6 333.6 332.5 329.5 326.8 326.2 330.1 337.1 343.5 350.8 354.4 353.9 350.6 346.1 342.4 333.8 326.5 321.1 314.2 306.6 293.2 269.9 250.1 239.5 224.7 204.7 198.3 199.4 213.2 231.6 249.7 257 261.6 265.5 273.4 281.9 294.1 301.6 296.5 290.2 285.7 284.4 287.3 292.5 292.2 292.2 290 288.1 284.4 282.2 284.2 301 313.4 325.2 335.7 346.1 355.8 361.1 366.3 369.2 368.1 366.4 362 357.7 352 347.3 339.9 333.1 333.8 331.7 328.3 324.2 319.9 316 310 305.5 303.3 300.1 297 296.7 291.8 283.9 277 270.3 258.5 242.2 253.5 257 254 251 247.6 245.2 242.9 245.9 246.8 244.4 241.7 240.8 240.1 239.2 237.4 236.5 235.3 235.7 234.6 232.1 228.2 225.6 222.3 216.2 213.2 210.9 209.2 205 205.2 205.3 202.8 199.8 199.7 198.3 195.4 195 194.7 195.6 196.5 195.7 194.8 195.2 196.8 198.4 200.6 201.9 201.6 200.7 200.4 198.5 199 196 194.6 191 185.9 182.1 179.3 177.7 176 173.7 171.8 173 174.6 174.4 173.5 171.6 169.4 167.8 166.7 164.5 162.5 158.7 155 152 149.3 147.1 146.2 145.7 146 145.3 145.7 148.1 151.3 155.1 160 165.3 168.9 172.1 176 180.7 184.2 187.1
375.5 369.5 363.1 360.5 358.1 356.5 355.5 353.6 351.9 347.6 342.9 339.2 335.8 333.6 330.8 327.9 325.6 321.1 321.6 324.3 327.1 325.9 324.7 324.1 322.1 321.3 317.1 316.4 326.5 338 350.1 357 359.7 358.1 352.7 346.5 340.6 333.8 327 321.5 316.7 310.2 303.7 288.7 272.2 265.5 249.2 226.5 201.4 196.6 197.8 212.7 229 238.3 242.9 245.6 249 254.6 264.6 275.7 276 269.9 264.6 263.8 265.9 271.7 276.7 277.8 276.9 274 272.3 284.6 302.2 316.7 326.8 339 350.3 358.1 363.6 367.8 367 368.4 368.2 363 360.2 357.5 352.1 345.6 338.6 328.6 322.2 317.5 316 312.9 312 307.8 302.8 298.2 295.3 291.1 288.3 285.7 282.5 277.9 272.9 268.1 260.3 241.7 250.9 250.9 250.8 247.1 240.8 237.3 238 236.2 235 234.7 234.6 233.4 233.7 234.2 234 233 230.3 230.2 227.2 224.7 221.7 219.6 216.3 211.5 208.5 206.5 204.8 202.7 202.9 202.3 200.7 195.7 195.3 195.1 191.4 189.2 189.4 188.9 188.9 188.5 187.9 188.2 189.7 191.2 193.5 194.4 194.4 193.9 193.4 192.3 190.3 189 187.7 185.8 183.1 180.8 178.4 175.8 173.2 171.8 173.1 174.2 175 174.3 173.3 171.9 170 168.5 166.6 164.6 162.2 158.8 155.4 152.4 149.8 147.6 146 145.6 145.2 144.2 145.1 147 150.1 154.5 159 164.8 168 171.7 175.3 179.2 183.4 185.8
369.5 362.7 357.6 355.1 354.3 354.2 353.2 352.1 350.8 348.3 343.6 338.7 335 331.1 327.8 324 322.2 319.8 315.6 315.9 315.8 316.2 317.8 316.2 312.9 310.2 308.3 313.7 326.9 341.1 351.6 361.1 363.2 360.7 355.9 348 340.1 333.9 327.7 321.7 318.2 313.2 305.3 298.4 293.3 287 269.9 245.3 220.5 196.2 195.9 197 211.3 221.6 225.8 226.2 226.4 231.4 238.8 248.4 250.4 249.8 245.2 241.3 246.3 248.9 257.7 260.9 264.1 281.3 294.6 310.4 322.6 333.1 343.6 352.4 358.1 364.4 368.2 372.1 373.4 371.6 367.2 360.8 356.9 353.2 348.3 343.8 335.5 326 313.3 306.3 305.1 302.9 301.6 298.8 295.7 290.5 286.1 282.9 277.7 273.8 269.8 266.2 263.5 260.8 257.5 242.2 240.8 236.7 233.3 229 223.5 223 226.2 226.8 230.8 231.4 228.9 227.1 226.6 227.1 227.4 225.7 224 222.4 219.8 217 215 212.6 210.4 207.8 206 204.1 202.2 200.7 199.9 198.1 196.1 192.9 190.5 189.2 188.1 185.3 184.5 184.3 182.8 181.8 181.8 182.2 183.4 184.4 185.6 185.6 185.9 186.6 187.4 186.9 185.1 183.5 181.9 180.4 180.5 177.7 175.1 172.6 171.6 171.5 171.6 172.6 173.1 173.7 173 172.2 170.6 168.8 166.7 164.6 162.2 159.2 155.8 152.9 150.3 148.6 146.7 144.2 144.3 144 143.6 145.8 149.1 153.5 158.9 163.9 167.9 171.5 175 178.8 182.2 184.2
360.6 355.2 351.5 350.4 351 352 352.4 350.9 348.1 346 343.7 339.3 336.2 331.3 327.9 324.7 321.5 318.9 314.2 309.1 309 310.1 310 305.6 299.3 299.3 290 300.6 310.8 317.3 332.4 351.5 362.6 359.2 352.8 346.1 337.3 332 326.4 321 316.2 311.2 305 299.7 299 290.1 280.3 263.9 240 217.2 200.7 195.2 195.3 208 206.5 205.9 208.7 215 218.7 221.6 225.1 228.8 242.1 253.7 259.1 262.1 266.3 273 290.1 300.4 314.4 329.6 341.7 351.6 357.1 361.2 364.7 369.9 374.2 376.1 378.3 374.9 367.7 360 356.8 351.4 346.2 342.1 334.8 323.6 315.5 306.5 298 292.2 291 288.4 285.3 281.1 277.6 272.7 268.9 265 261.6 259 257.6 255.5 254.7 250.4 246 247.9 247.3 244.8 242.5 236.4 230.4 218.7 215.6 216.5 218.1 223.7 222.4 219.8 219.9 217.9 216.1 215.4 213.9 212 210.3 208.5 206.1 204.1 202.6 200.9 198.8 198 196.7 195 194.1 192.4 187.5 186.3 184.7 183.1 181.4 180.2 179.5 177.8 177.1 177.4 178.1 178.4 178 177.9 178.1 179.7 179.6 180.3 179.5 178.5 177 176 175 172.9 171.7 170.9 170.2 169.5 169.7 170.3 171.2 172.1 172.4 171.9 170.4 168.4 166.3 164.2 161.7 159.3 156.2 153.6 151.2 149.6 147.4 144.3 143.1 143.5 143.6 144.8 147.9 152.6 158.8 163.1 167.5 170.9 173.4 176.8 179 181.7
355.9 349.8 345.7 345.6 347.8 350.7 352.5 352.3 348.7 345.1 342.2 338.9 334.8 331.6 329 326.1 321.2 320.5 315.3 313.4 310.8 309.9 294.8 294.1 291.1 288.5 285.3 276.7 289.4 297.4 314.5 325.8 330.7 333.8 336.3 339.4 333.5 328.5 324.1 316.9 311.5 306.2 301.3 295.9 293 287.9 278.2 267.5 245.9 225.7 210.5 194.5 194.1 198.3 209.7 229.7 233.3 233.6 235.1 239.8 248.5 259.3 272.2 281.9 286.2 285.2 285 291.4 305.2 318.5 330.3 342.2 354.8 363.1 369.1 373.3 374.2 374.9 376.9 378 375.4 372.5 363.9 357 352.8 347.3 341.8 336.7 328.8 318.6 311.3 303.9 297.5 291.1 283.6 278.6 274.5 270.5 266.9 261.2 260.3 259.1 256.5 255.3 254.4 254.4 253.6 251.3 248.2 247.4 247.5 244.1 241 237.6 233.1 226.8 223.8 217.7 212 211.4 211.8 211.9 214.7 213.8 211.9 210.9 210.2 209.2 208 206.8 204.5 201.8 200.1 198.5 196 195.3 193.9 192.8 192 188.1 185.8 184.2 182.4 180.8 179.5 177.4 176.6 174.4 172.7 172.6 173.6 173.8 174 173.2 173.3 174.5 175.3 175.3 174.3 174.2 174 172.5 171.2 169.7 168.3 168 167.8 167.2 167.3 168.8 169.8 170.8 170.8 170.3 168.6 166.7 165.2 163.8 161.5 159.1 156.9 154.5 152.1 150.2 147.9 144.6 142.5 142.4 142.2 142.8 146.6 150.9 156.5 162.2 166.8 170.4 173 175.6 178.4 182
352.5 345.2 342 343.5 347.1 350.1 350.9 350 348.7 346 342.5 339.9 336.4 332.9 329.8 326.3 322.7 320.1 320.5 318.8 315.7 312.3 308.2 307.7 305.5 306.2 306.9 293.4 274.1 277.4 292.7 297.7 302.3 305.9 314.5 330 332.1 324.2 319.4 313.1 306.1 300 294.7 289.9 286.4 281.8 272.7 259.4 241.2 222.2 206 193.1 193.7 196.2 217.9 247.3 264.1 263.7 266 269.9 277.7 289 300 306.9 309.8 307.5 306.3 310.6 320.4 334 346.7 360.1 369.6 376.8 380.3 381.2 378.3 377.2 376.2 374.1 369.8 364.8 358.2 354.3 344.1 337.7 333 328.3 320.6 312.7 306.1 300 294.8 289.8 278.2 271.3 272.3 269.8 265.8 260.9 257.3 254.7 252.4 252 252.1 252.7 252.5 249.7 246.4 244.6 241 238.6 236.8 233.8 231 227.6 223.4 219.5 213.4 209.6 207.6 206.8 204.8 206.3 209.4 207.9 207.8 207.4 205.5 204.4 202.7 199.4 197.2 195.6 194.2 192.3 191.5 190.7 189.2 187 185.6 183.7 181.6 178.4 177.9 176 173 171.1 169.9 169.3 168.5 167.3 170.7 171.9 170.8 171 171 171.3 170.3 170.1 169.7 168.7 167.5 166.8 166.4 165.5 165.1 164.8 165.1 166.6 168.1 168.9 169 168.3 166.9 165.6 164.4 163.1 161.5 159.4 157.2 155.5 152.2 149.2 147.7 145.1 142.3 141.5 142.1 142.5 147.2 150.4 154.6 161 165.4 169 171.6 174.8 178.4 180.4
346.7 339.9 334.6 342 348.8 351.9 353 352.7 350.7 348.2 346 341.2 337.3 333 329.8 325.5 324.5 323.9 326.2 325 322.6 320.5 319.1 319.7 323.7 326.5 328.5 311.6 295.6 275.5 265.8 271.2 275.2 282.6 296.5 318.1 330.1 324.7 317 309 300.5 292.8 285 282.5 279.1 274.7 265.7 250.9 230 212.8 194.9 192.4 192.4 194.3 222.4 257.7 288.6 293.1 293.3 296.7 300.9 308.7 317.6 321.3 321.5 319.1 318.3 320.8 328.5 342 354.6 364.9 374.9 380.9 385.2 383.6 380.4 374.4 372.3 366.4 358 351.8 349.2 340.9 331.3 325.1 321.7 316 311.1 305 299.7 294.1 288.5 282.8 274.9 270.1 263.5 263 260.6 256.4 254.3 252.4 250.7 248.4 246.1 246.9 245.4 244.2 241.6 236.8 234.1 231.8 229.6 226.3 223.6 220.4 216.8 213.8 211.2 211.4 212.3 208.6 203.3 201.8 201.5 203.2 202.9 202.1 200.5 198.8 197.9 195.9 193.5 192 190.6 190.8 189.2 188.2 187.5 185.9 183.8 182.7 180.5 175.4 173.9 172.8 172.1 170.7 170 168.9 168.3 167.3 165.5 164.1 167.1 167.4 167.6 167.4 167.3 167.1 166.1 165.7 166.3 166.4 164.9 164.1 163.1 162.2 162.8 163.9 165.9 166.3 166.2 165.6 165.3 164.4 163.7 162.3 161 159.3 157.4 154.6 151.3 148.4 147.5 145.4 142.4 141.4 141.4 142 147 150 153.3 159.1 163.3 166.9 169.4 172.5 174.8 176.3
336.3 327.6 328.6 338.8 348.1 354.6 357 356.2 354.9 351.8 346.7 342.1 339.9 336.9 331.1 328.9 328.7 326.8 328.2 332 331.4 329.5 330.5 337.9 343.4 346.7 345.6 330.8 310.2 293.8 286.8 276.5 268.7 257.8 282.2 307.6 326.7 324.4 317.1 308.8 299.2 288 275.5 270.2 271.7 264.5 255.8 243.1 222 201 190.9 189.9 191.1 201.8 238.4 268.7 301.8 313.2 311.1 314.9 317 320.4 322.2 322.8 321 316.5 315.5 320.3 334.4 346.7 357.2 364.8 372.7 378.5 382 379 376.9 366.6 363 354.1 348.1 339.3 331.5 320.7 309.6 303.3 302.2 298.4 295.1 291.8 287.1 282.4 277.4 273.5 267.4 262.7 258.1 256 253.4 252.3 250.4 248.2 247.1 246 243.7 240.8 241.5 241.8 237.2 238.1 233 230.9 227.8 222.7 220.5 217.9 217.9 215.3 212.3 211.4 211.4 210.7 207.8 203.4 201.9 198.4 197.4 197 195.3 194.2 192.5 191.5 191 189.5 188.3 188.5 188.5 186.8 185.5 183.8 181.5 177.9 175.5 174.9 174 172.6 171.6 170.7 170.5 169.3 170.1 167.7 165.9 165.3 164.2 164.2 163.9 164.8 165.5 165.6 163.9 161.8 164.4 164.7 163.3 162.7 161.7 160.5 161.3 161.8 163.2 163.3 163.6 162.9 162.4 163.1 162.5 161.5 160.2 158.6 156.4 154 151 148 147 145.9 143.1 140.8 140.5 140.9 146.1 148.9 152.6 156.9 161.1 164.6 165.9 166.1 167.4 171.5
321.1 316 325.6 334.3 343.6 349.9 354.3 355 354.9 352 348 345.3 341.8 337.1 334.4 333.3 332 331.5 333.4 336.9 336.7 336.2 347.2 355.5 361.2 364.2 365.2 351.6 335.1 321.4 312.3 288 272.3 251.9 277.1 302.8 323.7 322.6 316.8 309.8 299.5 286.8 271.3 259 257.2 252.4 243.3 231.4 207.1 190.1 190.1 189.6 190.8 219.6 253.2 286.5 313.7 312.9 313 317.7 317.9 319.5 319.9 319.8 316.1 311.1 310.5 320 335.3 345 352.3 359.3 364.7 367.5 368 363.3 357.5 351.4 343.7 342.9 335.8 323.6 309.1 294.9 285.8 280.2 275.4 271.9 269.7 269.8 269.9 269.1 267.1 263.9 259.8 256.9 254.2 251.6 249 246.9 244 242.6 243.6 242.8 241.1 238.6 238.1 237 234.2 232.3 230.5 227.6 224.7 221.5 219.2 217.7 217.4 215.7 213.5 212.1 210.6 209 205.6 200 198.6 196.9 195.7 195.7 194.9 193.5 191.5 190.2 189.6 188.6 186 186.3 185.3 183.7 182 179.6 178.3 176.9 176.6 174.9 174.2 173.7 173.2 173.2 172.9 172.7 170.8 169 167.9 166 164.4 163.4 162.9 162.1 161.6 161 160 159.7 158.7 159.8 161 161.1 160.2 159.8 160 161 161.9 162.8 162.6 162 160.6 161.9 161.2 160.5 158.8 156.5 154.9 153.4 151.3 148.3 146 144.9 144.2 140.7 139.7 139.7 145 147.4 151.2 155.1 158.2 161.7 163.2 163.8 164 166.6
310.3 308.3 319 326.7 336.6 345.2 349.8 351.8 351.4 349.9 348.1 344.7 339 338.2 337.2 336.6 334.9 336.9 339 341.1 341 352.2 363.1 370.8 376.8 381.2 379.2 366.9 354.8 331.2 301.6 280.1 263.1 252.8 284.1 309.2 321.7 319.7 316.2 309.9 299.4 286.3 267.3 250.4 234.3 233.8 232 214.7 191.3 188.9 189.7 198.8 221 247.1 273.9 297.7 307.5 306.2 305.6 309.3 306.6 307.8 306.9 306 301.8 293.8 304.7 319.3 332.6 339 344.6 347.3 350 352.9 350.8 343.5 334.2 327.8 322.6 320.3 309.5 296.5 282.6 275.6 270.8 268.2 265.3 263.7 263 263.9 264.2 262.6 259.6 257.2 253.9 250.9 247.8 247.9 248.2 247.9 246.3 240.7 241.4 238.2 236 236 233.8 230.5 229.1 226.3 223 220.5 219.7 216.9 216.5 214.9 213.9 212.2 210 207.2 205.4 203.5 200.2 200 200.4 200.7 195.1 193.4 194.4 192.4 191 189.9 188.6 187.2 185.9 184.3 183.3 182.3 181.2 179.8 179 177.8 176.7 175.8 175 174.3 173.8 172.6 172.7 173.2 171.2 170.7 170.4 168.5 166.5 167 165.7 162.1 161.7 160.5 159.3 158 157.8 156.7 156.1 157.5 158.8 158.8 159.9 160.9 161.8 161.3 160.6 160.3 160.2 160.8 160.1 158.9 156.5 154.1 153.5 152.4 151 149.5 147.1 143.7 141.3 139.9 139.5 138.8 142.5 144.6 149 152.9 156.1 159 160.8 162.1 161.8 162.2
298.3 306.7 314.5 324.5 334 340.7 345.4 346.9 348.8 348.7 345.2 340.8 341.2 341.6 340.3 340 338.8 339.9 343.6 345.8 356.1 367.7 376.2 384.9 388.8 392.2 388.1 371.7 349 318.8 291.6 272.2 252.8 264.2 292.9 318.4 330.1 325.7 320.4 314.3 305.6 290.5 272.5 255.9 239.7 224.4 207.2 191.4 187.9 188.6 195 224.5 252.8 273.9 297.4 297.8 295.3 293.3 290.5 286.7 285.1 285 283.3 280.4 279.1 284.6 298.1 315.5 325.2 330.2 328.4 329.7 329.6 330.4 328.9 321.4 311.1 305.2 298.6 290.6 280.3 273.1 270 265.8 263.1 260.9 258.5 257.7 260.4 260.6 259.4 257.5 254.5 251 248.8 249.2 249.4 248.6 248.7 247.1 242.7 239.9 238.4 236.1 236.5 233.6 232 231.3 229.3 225.8 223 222.4 218.3 214.1 212.5 209.1 209 206.7 209.5 205.8 203.7 203.9 203 203.8 203.4 199.8 196.5 194.7 192.6 191.3 189.5 188.7 187.4 187.2 186 184.8 182.9 181.8 180.9 180.2 180.5 179.4 178.9 178.9 178.1 176.1 175.8 174.7 174.5 173.8 172 173.1 173.1 170.6 168.2 167.1 166.9 168.5 168.3 164.7 162.9 162.5 161.7 157.7 155.9 155.3 155.9 159.2 159.3 159.4 159.3 159.1 159.2 159.8 158.7 158.8 158.6 156.4 153.9 152.8 152.2 151.8 151.3 150.2 147.1 142.8 139.8 139.4 139 138.6 138.7 142.4 146.7 150.8 153.6 156.2 158 157.9 157.6 157.8
296 306.4 314.8 323.6 330.1 335.7 339.1 340.6 342.3 343.3 340.7 343.3 344.4 342.9 343.4 343.3 344.9 348.2 356.5 361.9 369.2 374.7 380.5 386.2 389.9 388.4 382.4 367.1 340.7 309.6 285.1 266.3 242 266.7 292.1 318.2 333 327 321.7 314 304.8 291.9 275.9 258.9 239.9 219 197 186.7 187.3 192.4 217.6 245 265 274 283.5 281.8 276.4 271.8 266.1 265.4 262.4 263.4 264.9 266.3 270.3 279.9 292.9 305.8 309.9 308.5 305 301.2 301.4 304.3 302.9 295.8 287.8 281.3 276.2 274.8 272.2 270.4 267.3 263.4 259.4 257.2 255.3 254.4 256.4 257.3 256.2 253.2 249.8 250.2 248.9 248.2 247.1 245.8 244.9 242.9 237.4 237 234.2 234.7 234.8 233.1 230.6 228.6 226.3 224.3 220.7 218.4 214.2 211.7 213 214.7 213.5 212 210 207.8 208.5 207.5 206.1 205 202.4 198.3 195.6 195.4 193.1 191.6 190.7 188.4 186.6 186.4 184.7 183.4 182.4 183.5 183.7 183.8 183.9 183.5 183.8 183.3 182.5 179.5 178.5 176.8 174.7 174 175.2 176.6 175.9 174.7 171.8 170.5 170.6 170.5 169.3 166 162.9 162.9 162.8 160.9 157.2 154.9 153.5 157.1 157.6 156.7 157 157.4 156.5 157.9 157.5 157.1 155.6 153.4 152.6 152 151.8 151.7 151 149.5 146.3 141.6 139.2 139 138.8 138.3 137.9 139 143.7 146.7 150 152.4 154 154 153.8 154
299.4 307.3 313.6 319.4 324.9 330 333.1 335.6 337.3 339.8 340.6 343.7 344.3 344.4 346.2 347.7 352.4 360.8 368.2 370.7 371.6 374.1 379 381.2 384.7 383.2 374.4 364 341.5 309.4 283.9 264.3 239.1 257.8 282.3 306.8 327.8 327 319.4 312 301.8 288 272.7 253 232.3 210.1 186.4 186.2 200.3 221.3 245.4 262.9 259.9 260.5 260.6 257.3 251.8 249.4 249 249.8 251.5 255.4 258.2 260.4 266.2 275.2 283.1 288.1 287.2 283.2 280.9 280.4 279.8 280.7 278.2 274.3 271.2 270.2 270.6 271.2 271.3 269.3 266.4 261.6 256.9 253.9 252.3 251.2 254.9 255.6 253 249.6 250.2 248.1 245.8 244.6 243.8 241.9 239.1 239.1 238.5 235.4 234.6 228.7 230.2 229.4 227.1 224.8 222.4 219.6 215.8 217.9 218.4 216.8 215.7 214.8 214.2 212.3 211.8 211.9 210.5 208.9 207.2 205.4 202.4 200.6 198.9 197.4 196.5 194.9 193.2 192.9 192.2 191.8 191.5 191.4 190.1 188.1 188.6 189 187.7 187.8 188.1 186.7 185 183.3 182.1 180.4 178.4 179.2 179.5 179.1 178.1 176.3 174.4 171.7 171.6 170.8 170.2 168.7 165.6 163.2 162.1 160.8 159.1 155.9 154.1 152.9 151.3 151.1 152.4 153.4 153.9 155.7 155.3 153.7 152.9 151.9 152.6 151.7 151.6 151.4 150.1 148 145.3 140.9 138.6 138.6 138.6 137.6 137.3 137.2 141.9 144.5 147.1 148.4 149.9 150.6 150.6 151.2
299.7 305 309.2 313.3 318.4 323.1 326.9 331.7 334 335.9 340.3 342.8 344.9 346.2 350.8 358.8 369.6 374.9 377.3 372.6 371.3 370.5 370.5 371.5 374 372.7 366.4 360.4 346.3 319.8 291.2 266.9 248.4 242.2 267.7 295.8 319.8 323.6 317.3 307.3 296.6 283.9 267.5 246 223.4 194.8 185.2 189.8 222.5 248.3 263.8 262.6 255.6 247.6 243.4 243 241.4 238.5 236.3 237.8 240.1 246.9 250.9 255.1 258.6 261 264.9 270 275.4 273.8 270.4 271.9 271.5 271.1 267.6 265 264.5 264.9 266.3 268.1 269 267.6 262.5 257.7 253.9 250 247.4 249.8 251.1 251.3 249.8 250.1 248.4 245.3 243.7 242.9 241.1 239.2 237.9 237.8 236.2 233.8 229.6 225.5 223 223 221 220 220.7 221.2 220.8 220.7 219.4 218.9 218.2 217.5 217.6 216.2 215.5 215.9 214 212.4 210.4 208 206.9 205.1 203.2 201.6 199.9 198.5 198.2 198 197.7 197 196.3 195.5 192.5 190.9 192 191.8 190.1 190.4 189.6 188.2 186.8 185.3 184.6 183.8 182 182 181.9 180.4 179 176.5 174.8 174.5 173 171 170.5 170.2 168.7 167.3 165.9 164.1 161.1 157.3 153.9 152.6 152.5 150.6 149.7 149.6 151.1 153.2 153.9 152.2 151.5 150.9 151.7 151.9 151.2 150.2 148.5 146.7 144.4 140.3 138.1 137.5 137.4 137.3 137 136.5 139.5 142.8 144.7 145.8 146.3 147 147.4 148.3
296.6 300.9 304.6 308.7 311.8 316.2 322.5 328.1 330.5 336.1 341.4 344.6 349.1 357.6 369.4 376.8 380.1 382.1 381 376.5 370.7 367.3 364.1 363.7 363.3 361.5 356.7 354 341.5 321.9 298.8 275.2 257.3 234.4 259.5 289.9 314.9 320.3 312.9 302.1 291.6 279.8 263.4 238.5 215.6 191 184.6 198.1 230.5 250 256.1 255.5 247.3 240.5 237.2 233.1 231.6 228.5 227.1 226.9 230.6 236.1 240.9 247.4 251.8 254.1 257.6 262.1 265.1 263 260.3 263 263.1 261.7 261.4 261.1 260.2 258.2 260.7 262.8 263.1 260.3 255.1 249.9 248.3 245.5 246 246 249 249.5 249.6 247.8 246.2 244.1 242.8 240.4 239.3 237.6 236 233.4 232.6 231.1 229.1 228.3 226.2 226.4 226 226.3 225.2 224 223.1 223.1 221.9 221.7 221 220.2 219.9 219.6 221.1 220.4 218 216.3 214.6 212.7 211.1 208.9 207.1 205 203.9 203.5 203.1 202.8 202.4 201.3 200.2 196.8 195.1 194.5 194.6 194 192.2 191.7 190.4 189.1 187.8 186.6 185.9 185.2 184.5 183.7 182.2 180.1 178.7 178 178.7 177.9 175.4 173 172.4 171.2 169.7 168.1 166.4 164.4 162.8 159.3 156.2 154.7 153.3 152.7 150.1 149 148.3 150.8 151.8 151.4 150.6 148.8 149.5 150.4 149.5 147.8 146.5 145.1 143.5 141.7 139 137.4 136.6 136.5 136.3 135.9 138.1 141.1 142.7 143.3 143.8 144.3 145.4 147.2
292 295.9 300 302.7 304.5 307.4 318.3 326.7 333 339.4 345.3 354.7 368.2 378.1 385.6 385.7 382.7 383.4 380.7 374.5 368.5 365.6 360.2 354.9 352.9 350.8 346.1 337.8 326 304.9 285.9 270.6 254.1 229.1 260.8 290.8 310.8 316.4 310.9 299 288.7 277.8 266.4 239.9 218 193 183.8 197.9 225.6 236.4 243.8 244 239.5 234.5 229.7 225.1 221.1 220.3 219.9 221 223.9 227.6 232.5 239.1 245.2 248.9 251.7 254.7 255.4 253 250 251.9 255.3 256.4 256.8 256.1 254.4 251.5 251.4 252.7 254.4 254.4 250.6 248.3 245.3 245.6 245 244.3 245.3 248 248.5 246.6 245.5 242 237.9 234.4 234 234.6 233.8 233.7 233.4 231.9 231.9 231.9 231.4 230.9 230.1 229.1 229.1 227.7 226.2 225.5 224.8 223.8 223.8 223.7 223.7 224.5 225.2 224.3 222.4 220.1 218.1 216.2 214.2 212.6 210.9 210.4 208.9 208.4 207.9 207.4 206.8 205 202.8 200.7 198.3 197.6 196.3 195.4 194.4 192.7 191.5 190.2 188.8 187.7 187 186 184.5 183.2 182.2 181.9 181.2 182 183 181.6 177.6 175.5 173.5 171.4 170.5 168.5 166.2 164.2 162.5 161.4 159.3 156.7 153.8 152.2 151.2 153.3 148 149.4 149.1 148.3 148.5 148.1 146.9 147.9 146.9 145.6 144.7 145.1 143.8 141.7 139.5 138.3 136.7 135.6 135.4 134.9 137.7 139.8 140.9 141 141.7 142.8 144.1 145.5
285.6 289.2 292.8 293.3 299.1 311.9 321.6 329.2 338.4 350 364.7 377 385.3 388.5 391.1 388.2 377.7 374.8 372.7 369.1 366.4 364.8 356.8 349.6 346.7 344.8 342.9 328 305 288.6 270.7 254.8 238.6 239.9 270.9 299.7 321.4 313.3 306.1 296.2 285 274.4 259.6 240 219 192.9 183.8 190.1 215.8 222.7 230 234.5 233.1 229 224.3 220.2 216.7 214.4 215.1 215.7 217 218.5 223 231 237 242.3 244.6 245.4 243.9 242.1 240.3 247.4 252.5 251.7 251.6 250.3 248.5 247 246 245.5 247.5 246.6 245.1 245 243.1 243.1 243.3 243 245 248 246 243.9 241.9 238.6 237 239.9 237.5 237.8 237.1 235.6 235.3 235.6 235.3 234.8 234.3 234.1 233.5 233.3 232.5 230.1 228.4 228.8 228.5 227.8 227.3 227.8 229.1 228.9 228.7 228.4 226.7 225.2 222.9 220.6 218.9 217.4 216.7 216.1 214.6 213.5 212.6 211 209.4 206.2 204.6 202.9 201.1 200.6 199.1 197.5 196.3 194.8 193.2 192.3 190.7 189.2 188.5 187.6 186.6 185.1 184.4 185.1 185.5 185.7 184.5 183 178.7 176.4 175.6 174.3 172.7 169.6 167.3 165 163 161.7 159.8 156.7 155 153.3 152 151 148.9 147.5 146.7 146.1 145.6 145.6 145.3 145.9 145.5 144.3 144.7 145.4 144.2 141.5 139.5 139.1 137.7 136.1 135 134.5 137.2 137.6 138.3 139.6 140.4 141.3 142.5 143.9
279.6 282.2 282.2 293.4 305.2 317.5 325 333.5 350.4 368.7 381.1 389.5 392.2 395.7 395.4 390.9 377.8 373.6 371.7 369.8 366.6 361.8 354 344.9 338.2 337.5 335.1 319.7 292.8 273.8 258.1 242.1 223.9 251.8 282.3 310.1 321.6 314.3 304.4 293.6 282.6 273 260.5 238.3 221.2 195.7 182.4 182.4 199.1 209.8 216 222.7 225.4 224.7 220.6 217.9 213.5 210.5 210 209.5 210.4 212 216.2 223.4 228.4 233 236.2 236.5 234.7 234.2 236.5 241.5 246.6 248.4 249.6 247 245.8 244.1 241.9 240.9 242.6 243.5 242 240.4 241.2 241.7 243 242.4 243.7 243 241.9 240.2 240.2 241.7 238.5 242.3 241.2 240 238.8 238 238.4 238.2 237.9 237.5 237.1 236.8 236.2 234.8 233.2 230.9 230.7 231.6 231.4 230.3 230.4 230.5 231.9 232.3 232.3 231.9 231.3 229.8 228.1 226.2 224.5 223.4 222.4 221 218.8 217.4 215.6 213.4 210.3 207.4 206.9 205.6 204.2 203.4 202.2 200.6 199.3 197.7 195.9 194.2 192.9 191.1 190.1 188.8 188.1 187.3 186.7 187.3 187.2 186.3 182.8 182.1 178.4 177.1 175.9 174.7 173.3 170.7 168.9 167.5 165.5 164.2 162.1 159.2 157.4 155.2 153.5 151.9 150.2 150.2 147.3 146.8 144.5 144.8 144.3 144 143.7 143.9 144.4 145.4 144.5 141.6 140.4 139.7 139 137.3 135.4 134.1 133.9 137.4 138.3 139 139.6 140.2 140.9 142.5
270.3 277.1 288.6 299.6 312.3 323.1 334.3 349.8 366.2 381.7 388 392.5 392.4 393.3 390.9 387 378.8 373.5 372.9 370.1 365 359.3 351.6 341.1 331.9 328.7 324.4 307.4 282.9 265.3 248.1 235 230.9 260 288.8 311.4 319.5 312.7 300.7 290.4 283.1 277.2 269 246.9 226.9 203.8 182.7 180.9 181.8 190.1 200 207.3 213.2 216.9 217.3 215 212.1 209 207.3 206.4 206.4 207.3 211 216.7 223.2 227.7 230.3 229 227.5 228.6 231.6 235.5 239.2 241.1 243.7 242.5 242.6 238.6 235.7 237.5 238.7 237.5 240.6 241.7 242.5 243.4 243.3 242.8 242.3 241.4 240.7 241.5 241.9 240.8 240.8 244.8 244.1 242.1 241.5 240.8 240.6 240.6 240.4 240.1 239.4 238 236.5 234.7 234 233.5 232.9 233.8 233.9 232.7 233 232.4 233.9 235 235.4 235.5 235 234.1 232.9 231.6 229.9 227.8 225.7 223.8 221.7 218.8 216.8 213.4 211 210.1 209.4 208.9 207.3 206.2 205.4 204.4 203.4 201.1 199.8 198.7 196.3 194 192.1 190.8 189.7 188.4 187.7 186.6 185.2 184.3 183.2 181.6 179.8 178.1 176.8 175.4 174.1 173 171.8 169.6 168.2 166.8 164.8 163.1 161.2 159.6 159 157.9 156.3 157.1 156.6 152.9 146.7 144.1 143.3 143.5 142.7 142.9 143.7 144.6 145.1 142.9 142 140 139.3 138.6 136.1 133.8 132.7 136.7 137.7 138.3 138.9 139.3 139.9 140.8
273.9 283.3 295 308 322.1 334.4 349.7 366.1 381.1 390.7 390 390.1 389.8 388.4 383.9 380.3 376.3 370.3 370 369.1 364.1 358.2 347.8 336.7 325.9 319.4 315.4 300.8 272.9 255.7 239.2 224.7 235.9 267.5 297.9 312 309.5 304.5 296.5 288.6 283.3 280.4 276.3 262.1 235.5 214.5 186.9 180.6 180 180.6 181.7 191.2 202.8 207.5 208.9 209 208.3 207.8 206.7 206.3 205.2 205.4 208.9 211.7 217.6 223.7 226.9 225.4 224.9 224.9 224.4 227.1 227.6 230.1 234 232.9 230.1 234.8 237.2 236.9 240 243.5 247.1 247.4 247.2 246 247.7 246.2 245.4 244.9 243.3 243.1 243 243 244.7 247 247.2 244.2 244.6 243.8 243 243.1 242.9 241.6 240.1 238.6 237.5 237.5 237 236.6 235.9 235.7 235.3 234.3 234.9 234.5 235.8 237.3 237.6 237.8 237.9 237.6 236.7 234.4 232.3 230.1 227.9 225.9 222.7 219.8 217.2 215.8 214.8 214.3 213.7 213.4 212.3 211.3 210.3 209.2 207.9 206.5 204.5 200.4 198.6 197 194.3 193.1 191.2 189.3 188.6 187.4 186.7 185.6 184.7 183.7 180.7 179.3 178 177.2 176.3 175.2 173.8 172.6 171.2 170.6 168.8 167.1 165.6 164.7 165 163 160.7 158.8 157.4 153.9 148.9 145.4 142.7 141.9 142 140.8 141.3 141.4 142.3 142.7 142.2 141.4 140.6 139.3 136.9 134.6 133.2 135.2 137 137.4 137.7 138.2 139 139.9
284.5 294.4 305.5 319.1 337.1 355.2 364.2 376 388.3 390.7 389.1 389.9 387.3 386.2 380.4 376.9 375.4 369.8 367.1 366.7 361.6 354.1 341.7 331.8 318.7 311.6 307.1 293 266.8 246 232 216.2 244.9 275.4 300.8 308 303 295 287.9 281.7 279.3 276.9 273.8 266.3 245 226.9 206.3 181.6 178.5 179.2 180 180.5 186.9 194 196.7 198.2 200.2 200 199.2 200.7 201.6 202.9 207.2 214.1 219.8 224.5 229.4 226.9 226 222.7 220.3 219.5 221.2 223.5 227.6 225.5 234 238.6 240.4 242.6 248.3 251.8 254.9 258.3 254.4 252.2 251.8 249.3 251 251.2 249.7 246.9 247.5 247.6 249 248.7 248.6 246.2 247.4 247.5 244.8 245.2 243.9 242.8 242.1 241.6 241.1 240.6 239.9 239.7 238.2 237 236.5 234.7 236.3 237 236.9 237.8 238.1 238.5 238.7 239 237.9 235.9 233.8 231.7 229.5 227.6 224.1 221 220.8 220 219 218.3 218.2 217.9 216.4 216.2 215.1 214 212.5 210 206.3 204.1 201.8 199.5 197.3 195.4 193.3 191.4 190.4 190.4 188.4 187.5 186.9 185.7 184.3 182.5 181.2 180.3 179.5 177.7 176.1 176.3 175.7 174.3 173 171.4 170.3 168.8 167.9 165.5 163 160.4 156.5 153.5 149.5 147.4 144.2 144.2 142.4 141.6 141.2 140.4 138 139.7 141.8 142.2 140.7 139.1 137.6 135.7 132.5 131.9 136.4 136.1 136.4 137.1 137.7 138.5
293.4 304.8 317.9 337.4 354.4 368.9 379.7 387.5 390.4 388.7 389.2 390.2 386.8 382 378 374.9 374.1 370.2 365.7 360.3 353 344.8 334.6 323.8 307.5 300.2 291.3 281.4 260.3 240.6 223.2 221.4 252 280.9 300.4 297.5 290.7 285.6 280.4 275.2 272.5 269.6 265.7 260.3 253.5 242.2 225 205.4 185.7 179 178.7 177.8 181.1 181.8 183.7 187.3 190.4 191.3 191.7 192.8 194.2 199.2 204.6 211.4 217.5 223.7 227.4 227.1 226.6 221.5 216.1 214.9 217.6 219.6 220.5 231.4 235.5 240.6 247.3 254.2 257.6 257.1 256.8 256.1 254.5 254.3 253.4 256.2 256.2 253.1 254.8 251.7 253.7 252.8 252.8 251.4 251.9 250 250 249.3 247.4 246.9 246.8 246 245.4 245.1 243.9 242.5 241.5 240.2 238.9 238.6 237.4 237 237.7 237.6 237.9 238.7 239.3 239.6 239.6 239.4 239.3 237.5 235.4 233.2 230.7 227.3 225.4 224.7 224.9 224.4 223.2 222.3 222.2 221.8 221.2 220.3 218.9 217.8 216 213.3 210.5 208.5 205.4 203.2 201.3 199 196.8 195.1 194.2 193 191.4 189.9 188.9 188 187.1 185.9 184.8 183.1 182.2 181.2 179.9 180.2 180.4 179 179.1 176.8 175 172.6 170.8 168.2 165.7 161.7 157.5 153.5 150.8 149 147.2 146.6 145.9 145 143.9 142.3 138.7 136.9 139.2 141 139.7 138.2 138 136.8 133.5 131.6 136.3 136 135.1 135.5 136.2 137.4
299.5 316 336.3 355.4 369.5 380.5 387.5 388.3 387.4 386.7 389.3 387.1 385.7 378 372.8 370.2 370.4 368.4 363 354.8 347.6 335.9 327.3 317.7 303.9 285.8 269.8 259 252.3 236.6 217.9 223.3 248.9 278.7 286.7 280.5 279.3 275.6 270.1 266.8 268.3 267.4 263 256.9 251.3 244.4 235.8 226 210.8 184.9 178 177.5 177.2 178.6 178.8 179.1 180.8 181.6 183 184.3 185.7 191.3 196.8 203.6 210.6 215.5 219.9 219.5 217.1 211.9 208.8 208.2 212.6 221.3 229.9 235.9 241.1 251.1 255 253.4 253.5 257.1 258.5 256.4 253.7 253.2 255.3 255.8 255.6 255.2 254.1 253.8 256.7 258.2 256.1 253.3 251.8 252.2 251.4 251.7 250 249.6 249.6 248.8 247.5 245.5 244 242.8 241.8 241.1 240.3 240.2 239.5 237.8 238.5 238.3 238.5 240 241.1 241.2 241 240.8 240.1 238.2 236.3 234.1 229.3 230.8 230.2 229.1 228.9 228.2 227.3 226.2 225.8 225.3 224.8 224.2 222.8 221.5 218.9 216.3 213.7 211.3 209.1 206.8 204.8 203.6 201.5 200.3 198.6 197 195.5 193.6 192 191.1 189.9 188.4 187.3 185.8 184.7 184.6 186.1 186.2 185.4 184.4 182.2 180.6 178.2 175.4 173.4 171.2 167.3 162.6 158.3 155.5 153.2 151.3 149.4 148.8 147.4 146.6 144.9 142.9 142.2 137.3 135.7 138.1 138.5 137.6 137 136.8 136.5 130.2 135.4 135.5 135 134.2 135.1 136.6
320 335.8 354.9 364.2 377.6 387.2 387.5 385.1 380.8 381.1 386.2 381.7 376.1 371 364.6 363.6 364 360.4 355.8 349.4 341 332.6 321.2 310.4 297.9 280.3 254.3 241.8 230.3 230.8 215.8 218.8 240.2 257.2 263.9 264 263.1 263.1 258.9 260.3 263.4 264.6 259.8 252.8 247.7 242.4 235.6 228.3 221.8 208.3 189.7 175.4 176 177.2 177.6 178 176.9 176.8 177.1 177.1 178.7 181.8 186.4 192.4 199.1 203.5 206.8 207 203.8 200.4 204.2 211 219 225.7 233.3 239.7 245.9 248.8 248.8 247.7 248.4 250.9 251.2 250.3 253.6 255.9 257.2 257.2 257.3 257.8 257 255.1 258.1 257.7 257.1 255.8 254.3 254 253.2 252.8 252.1 250.9 250.3 248.3 246.8 245.2 244.2 243.5 243.3 242.5 241.6 240.2 238.6 239.5 241 241.3 241.6 242.2 242.8 242.6 242.5 241.3 240.1 238 235.8 232.8 234.1 234.5 233.9 233.3 232.3 231.1 230.3 229.5 229.1 228.7 228.3 227.2 226.1 224.8 222.2 219.6 217.4 215.3 213.1 211.2 209.8 208.5 207.3 205.2 203.2 201.5 199.7 197.6 195.5 194.1 192.7 191 189.9 190.2 190.8 191.5 191.9 192.2 190.6 187.2 186.3 183.6 181.5 178.5 175.9 173 168.4 165 161.8 158.8 155.5 153.4 151.5 149.9 147.7 146.2 144.2 142.7 142.2 140.7 136.9 135.7 135.7 136 136.1 135.6 134.4 130.6 133.6 134.3 133.5 134.3 134.3 134.6
338.5 353.6 366.4 370.3 380.7 386.3 383.6 378.6 373.5 377 380 377.8 372.9 364.6 357.8 356.8 353.4 350.5 345.5 339.7 335.6 329.4 320.5 312.1 302.1 281.3 280.3 264.5 244.7 227.3 215.7 206.2 223.8 237.1 243 247.9 250.1 251.5 251.5 253.4 258.1 253.7 248.5 241.9 237 232.4 227.4 222.3 218.1 213.3 207 195.4 176.7 176.3 175.5 175.2 176.6 175.7 175.4 175.4 175.8 175.7 179.6 181.8 186.9 190.3 194.5 196 197 195.9 202.8 216.3 225.1 230 233.8 238.8 244 243.5 242 241.3 241.3 241.6 242.5 245.3 249.2 252.6 256 256.6 256.5 257.4 257.3 258.7 260.3 260 260.9 260.9 258.5 254.7 252.2 250.5 250.3 249.8 249.2 248.6 247.8 246.2 245.1 244.4 244.1 244 242.6 242.1 242 242.5 243.3 244.1 244.6 244.3 244.6 244.2 242.8 240.7 238.8 236.9 235.6 235.7 236.4 237 236.4 235.7 235 234.3 233.9 232.5 231.8 231.2 230.8 230.5 229.1 227.6 225.5 223.4 221.3 219 217.5 216.5 214.9 213.5 211.3 209.8 207.9 206.7 204.4 201.9 199.5 197.4 196.2 195.5 196.1 196.6 197.3 197.2 196.6 195.7 193.7 190.5 189.1 187 184.8 181.1 176 175.6 171.5 167.8 164.8 161.5 157.6 155.6 152.1 149.9 147.8 145.7 143.8 142.6 141.5 140.7 138.6 136.2 134.8 134 135.2 135.2 135.4 131.6 130.5 132.6 133 133.1 133.2 133.6
348.2 362.4 368.6 369.1 377.3 380.2 377 366.6 362.5 371.9 372.4 368.8 364.6 356.4 352.2 348.6 347.4 344.6 340 335 330.1 325 318.4 311.9 301.8 298.5 293 277.6 256.2 239.7 223 204.9 208 219 225.9 233.5 237.9 242.7 247.1 248 250.6 252.5 244.9 237.8 230.8 224.5 218.4 212.9 209.2 205.1 201 197.1 183.7 174.7 174.5 174.2 174.7 175.4 175.3 174.4 173.9 173.9 173.8 174.8 177.7 180.5 184.6 185 186.3 197.4 213.1 223 228.2 230.5 232.1 234.6 236 235.8 235.7 236.9 237.5 240.2 243.6 245.8 249.5 253.2 255.6 256 256.4 258.4 259.3 260.5 261.8 262.7 263.6 261.4 257.5 253.5 251.1 249.1 247.9 247.5 247.4 247 246.4 246.1 245.7 245.3 244.9 244 243 241.1 241.9 243.5 243.3 244.3 244.9 245 244.5 243.4 242.4 240.4 238.7 237.9 237.6 238.2 238.7 237.7 237.8 237.3 237.3 236.4 236.1 235.8 235 234.4 233.7 232.9 232.1 230.2 228.5 226.2 223.9 222.5 221.4 220.5 219 216.9 215.2 213.8 212.1 210.5 209.7 207.9 205.3 202.9 202.5 202.2 202.7 202 201.5 201 199.5 197.9 195.7 193.1 190.9 187.2 185.7 180.2 179.9 177.3 174 170.1 166.8 163.4 159.8 155.4 152.2 149.8 148.1 145.9 144.9 143.7 141.7 140.5 139.4 137.7 135.5 133.2 133 131.3 130.3 129.4 128.7 130.6 130.7 131.8 132.2 132.5
352.5 363.2 363 364 370.6 371.3 365.1 356 351 359.9 364.1 360.2 354.9 347.7 345.4 344.6 342.6 340 336 331.7 327 322.1 317.2 311.8 308.9 305.9 299.4 286.8 266.9 249 233.2 217 200.7 200.2 208.8 217.8 221.2 239.6 245.3 247.9 249 247.1 241 235.2 227.3 221.2 214.2 209 204.4 200 195.8 191.9 188 173.4 173.8 174.2 173.6 174.2 174.8 174.4 174 173.4 172.8 173.1 174.2 175.3 178.6 187 198.7 209.9 222.2 225.4 228.8 230.8 230.5 231.9 230.9 232.6 232.7 234.3 237.8 240.6 244.3 248.2 251.1 254.8 256.5 257.3 256.3 256.2 259.2 261 262.8 262.7 262.2 260.2 255.7 251.3 249.5 247.6 246.2 246.4 246.2 245 244.6 244.3 244.2 243.3 243.6 242.6 241.5 242.1 242.7 242.5 242.4 243.4 244.1 244.3 243.7 242.6 241.6 240.6 239.2 238.7 238.8 239.2 239.7 240 240.2 240.1 240 239 238 238.4 237.8 237.6 236.7 235.6 233.4 232 230.1 228.9 227.2 226.5 225.3 224.1 222.9 221.3 219.4 217.6 215.9 214.3 213.6 212.9 211.5 210 209.9 209.4 207.6 207 205 204 201.3 198.6 196 194.6 192.4 188.2 184.3 185.1 182.9 179.5 176.2 172.4 167.7 163 159.4 155.5 153.5 150.4 148.8 147.9 147.1 145.3 143.2 142.1 140.6 138.9 137.3 135.1 132.3 130.8 129.8 129.2 129 129.1 128.8 128.5 130.3 131.1
350.1 353.4 353.3 353.6 360.4 360.7 352.6 343.9 345.8 352.1 355.9 351.5 347.1 342.4 342.2 342.1 340.3 337.5 333.8 329.8 325 321.5 319.5 317.6 315.9 315.2 309.6 294.8 277.3 258.8 237.6 224.9 213.1 202.6 194.5 201.6 222.5 251 256.7 264.2 265.3 257.7 246.4 238.1 229.4 222.2 215 208 202.2 197.5 193.1 189.7 186.1 176.6 172.1 173 172 172.6 173.5 173.4 173.5 172.8 172.8 172.7 172.7 176.4 184.2 197 211.8 218 222.9 229.6 233.7 230.1 228.1 226.3 227.6 230.7 229 235.1 237.7 241.5 247.2 250.2 253.6 257.4 258.2 258.6 256.2 253.5 256.3 259.3 261 261.2 259.5 257.4 253.7 249.6 247.8 246.1 244.6 244.9 244.6 243 242.9 242.5 242.7 242.4 241.6 240.2 241.4 241.5 241.1 241.3 241.4 241.5 242.1 241.7 241.1 241 240.7 239.9 239 239.5 240.4 241.2 242.5 243.8 243.4 242.4 241.4 241.1 240.5 240.4 240.5 239.5 237.9 236 234.7 233.5 232.4 232 231.4 230.5 229.3 228.1 227.1 225.2 222.8 221.1 219.7 218 217.4 216.5 215.2 215.3 213.9 211.8 209.1 208.4 206.2 203.5 201.6 198.8 197 196.2 195 188.6 189.6 187.1 184.6 181.5 178 172.9 167.2 162.2 158.9 156.6 153.8 152 151.2 150.2 148.1 146.3 145.2 143.3 141.6 139.6 137.6 135.8 134 133 132.7 132.3 129 128.4 128.5 127.8 130.3 131.1
346.2 348.2 344.9 343.2 349.6 348.8 340.5 335.5 338.4 344.5 345.1 343.4 340.4 339.3 339.8 339.1 337.4 335.3 332.8 330.2 327 323.6 323.1 322.1 324.1 322.1 314.6 301.9 286 268.3 251.7 235.9 224.6 215.4 200.4 191.8 220.2 247.8 259.3 268.3 269.2 264.7 255.4 246.5 236.9 226.2 217.8 209.2 204 198.5 194.4 192.2 189.1 186.1 179.2 172.1 170.7 171.2 172.3 172.4 172.5 172.9 172.1 172.3 173.5 176.3 185.3 200 213.8 219.9 227.2 232.2 229.4 225.9 222.7 220.8 226 227.6 225.3 233.3 237.2 243.9 250 254.4 258.8 261.6 261.4 259.7 257.2 255.7 250.5 252.7 253.7 254.4 253 251.3 249 246.8 245 243.3 242.3 241.7 241.7 240.3 240 239.6 239.4 239.1 237.4 238.5 238.5 238.1 237.6 238 238.5 239.1 238.6 238.6 238.7 238.9 238.5 239.4 239.7 241 243 244.2 245.3 245.2 244.5 243.4 242.3 241.4 241.4 240.9 239.8 239 238.1 236.9 236.4 236.9 236.3 236 234.4 234.6 232.8 232.1 230.3 228.3 225.8 223.2 222.7 221.4 220.3 217 215.4 215.6 210.5 209.4 208.4 206.6 204.4 202.2 200.6 199.3 198.6 196.1 193.6 192.1 190.2 187.4 185.4 182.8 178.8 173 167.6 163.9 160.3 157.8 156 154.6 153.3 151.2 149.2 147 145.3 143.7 141.1 138.8 136.7 135.5 135.1 133.8 133.2 132.6 131.9 127.5 127.4 126.9 126.4 127
339.1 336.9 333.7 331.8 335.1 333.3 329.3 325.8 331.9 338.3 339.5 339 337.9 337.1 336.6 335.4 333.8 332.3 330.1 328.6 326.7 324.4 322.9 323.8 324.2 319.4 311.4 300.2 284.4 272.6 259.1 244.2 230.4 219.6 202.9 189.2 217.3 236.9 243.3 249.8 253.9 249.7 244.2 234.7 228.9 222.9 215.3 209.2 203.4 199.1 195.4 193.4 191.2 188.6 185.4 182 169.9 170.5 171.5 171.3 171.5 171.4 171.4 171.9 173.8 178.2 186.9 201.2 216 222.5 227.5 229.1 226 222.4 219.4 219 222.5 222.8 225.6 231.7 237.4 245 251.3 255.8 258.5 259.1 260 257 255.9 254.4 253.7 245.8 246.9 246.9 247 245 243.7 242.4 240.7 239.9 239.2 238.6 238.8 237.6 236.8 235.8 235.2 234.4 234.3 234.3 234.3 234.6 234.5 234.8 235.1 235.8 235.8 236 236.2 236.4 237.1 238.6 239.9 241.8 243.6 244.7 244.1 244.3 243.9 242.9 242.5 241.2 240.3 239.4 238.4 238 237.6 237 236.3 236.6 237.1 235.8 233.8 232.9 231.4 229.4 226.4 224.9 222.9 222.1 221 219.1 217.4 216.3 214 212.7 210.4 208 206.2 204.3 203.1 202.1 201 200.6 198.2 195.7 195.2 193.6 191.4 190.8 186.3 182.1 178.2 173 168.1 164.4 162.2 161.3 160 157.8 154.6 152.4 150 147.5 145 143.4 140.2 138 136.5 135.5 135.3 134 133.4 133.1 132 131.4 126.6 126.6 125.9 126.4
329 326.2 324.5 326.2 327.4 325 322.1 319.5 325.6 331.3 335.4 336.2 336 334.6 332.4 330.3 328.4 326.2 323.7 321.5 320.2 318.1 316.2 316.9 318.1 311.5 303.1 290.1 276.2 265.6 254.5 242.9 230.4 218.2 197.1 191 224.1 235.6 232.8 235.9 236.1 231.9 224.9 222.4 218.6 214.6 209.1 204.1 200.9 197.5 194.1 191.9 190.7 189.6 187.1 184.1 172.8 169.5 170.2 170.3 170.7 170.6 170.7 170.5 172.4 179 190.8 206.7 215.5 222.9 226.6 225.4 221.8 218.2 215.2 217.3 218.9 218.3 223.5 228.6 236.1 245.3 251.2 253.5 255.6 256 255.6 254.4 253.3 250.9 248.3 245.9 241.6 239.1 239.4 239.8 238.9 238.2 237.7 236.9 236.2 236.1 236.5 235.8 235.3 234.3 233.1 230.9 230.1 230.8 231.2 231 231.3 231.7 232 232.4 232.6 232.8 233 233.2 233.9 235.8 237.6 239.6 241.1 242.4 242.7 242.5 242.2 241.2 239.6 238.1 237.7 237.1 236.4 235.9 235.6 235.1 235.3 234.2 233.3 231.7 229.8 227.9 225.3 223.2 221.5 220.3 218.8 217.8 216.6 215.2 214.1 213.3 212.7 210.4 208.7 207 205.9 204.4 202.4 201.5 200.6 199.6 198.7 198 197.3 195.5 193.1 190.8 188.2 182.2 180.5 175.4 171.1 167.5 166.4 164.6 162.3 159.5 156.5 153.3 150.2 147.9 145.6 143.1 140.3 138 137 136 135.6 135 134.1 132.9 132.1 131.2 130.4 129.1 126.2 125.1
321.1 318.3 317.3 319.7 319 316.2 313.5 312 317.7 324.1 330.1 333.5 333.4 331 327.5 323.3 320.1 318.2 315.1 312.2 309.8 306.9 306 307.5 308.4 301.7 292.3 281.3 266.5 252.7 243 234.1 222.5 208.9 189.2 197.6 229.1 242.5 231.8 224.8 220.8 219.2 215.9 210.8 206.3 203.1 200.7 197.3 195 192.9 190 188.5 187.9 187.2 185.7 182.8 174.8 169.2 169.4 169.2 170.2 170.2 170 169.8 171 179.5 194.2 208.2 215.4 221.7 223.3 221 217.6 212.9 210.3 210.2 211.5 214.6 219.1 224.6 233.7 243.1 249.3 251.8 253.2 252.5 251.8 250.1 247.7 245.3 243.8 241.5 239.3 235.7 233.6 233.8 235.8 235.4 235.4 235 234.5 232.2 232.8 231.6 231.5 231.1 229.7 228.7 226.7 226.4 226.3 226.5 227.4 228 228.6 229.2 229.4 229.6 229.8 230 230.8 232.5 234.3 235.5 236.5 237.5 238.6 238.1 237.4 237.3 237.5 235.7 235.2 234.9 234.4 233.8 233.4 232.9 233 231.7 230.1 228.4 225.9 223.5 221.2 219.5 217.7 216.4 215.2 214.6 213.9 212.9 212.8 211.6 211 209.3 207.4 206.1 204.5 202.9 201.5 200.5 199.9 199.5 199.9 199.7 198.2 196.4 194 191.8 189.2 183.2 180.4 177.2 173.9 171.5 169.2 166.6 163.7 160.2 156.1 152.8 150.2 147.8 145.5 143.1 140.4 138.2 137.4 136.6 135.7 135.2 133.8 132.7 131.8 130.8 129.9 128.6 127.8 125.3
313.2 311.2 311.9 312.7 311.6 308.5 306.7 306.4 311 318.1 326.9 334 331.1 328.4 320.3 312.2 307.7 307 304.6 299.7 295.9 292.4 292.4 293.6 293.1 287.7 279 268.1 254.1 241.4 230.8 221.9 211.5 200 183.8 198.2 217.1 216.9 214.5 209.8 209.8 210.4 209.4 205 202 197.5 197 194.4 191.4 189.3 186.8 185.8 185.9 186.3 184.4 181.7 176.6 168.9 168.8 168.5 169.8 169.6 169.5 169.4 170.6 177.1 189.9 202.9 210.6 216.7 218.5 216.3 213.8 210.5 208.3 208.4 209.8 212.3 215.4 222.9 234.8 243.5 248.3 249.9 251.9 250 248.8 247.5 246.1 242.8 241 239.9 238 236.4 234.8 231.9 232 232.4 230.2 230.7 232.1 229.8 229.3 228 226.8 225.7 224.4 223.6 223.4 223 222.5 222.2 222.5 223.4 224.3 224.8 225.1 225.5 225.8 226.6 227.3 227.8 229.3 230.7 232 233.1 234 233.3 232.5 232.4 232.5 232.7 232.4 232.1 231.5 231 230.6 230.3 230.3 228.7 227.1 225.9 223.5 221.1 218.9 216.7 215.3 213.9 213.1 212.4 212.1 211.6 211.9 212.1 211.5 210.1 209 207.2 205.1 203.4 200.9 200.2 199.7 199.6 199.8 199.3 197.5 196.1 194 191.4 188.1 184.2 181.6 179.1 176.6 173.2 169.7 166.4 163.2 159.1 154.8 152.2 149.8 147.4 145 142.9 140.1 138 137.4 136.5 135.1 135.9 134.8 132.8 131.8 130.6 129 127.8 126.4 124.8
304.8 304.8 304.6 306.1 306.9 304.5 302 301.5 306.9 314.2 325 329.6 327 321.9 313.4 299.8 290.2 287.7 288.6 286.4 278.3 276 273.8 273.9 272.6 267.5 259.3 250.1 237.2 228.4 219.9 211.4 203.8 194.7 182.7 181.6 188.4 188.5 186.7 192.1 194.5 196.5 198.6 198.7 196.3 194.9 193.4 192.1 190.1 186.5 184.6 183.3 182.5 182.5 181.1 179 177.3 167.1 168.3 168.1 169.5 169.3 169.1 168.9 169.8 176.1 184.8 195.4 204.3 210.4 212.7 211.6 210.5 208.7 206.6 208.1 209.1 210.9 214.2 223.2 233.9 242.3 246.1 248 248.9 249 249.6 246.8 245 243.6 240.1 238.6 237.2 234.7 233 231.2 228.6 228.7 228 226.6 225.2 225.8 226.8 225.9 225.3 224.4 223.2 221.2 219 219.3 218.8 218.6 218.6 219.2 219.8 220.5 221.3 222.1 222.9 223.9 224.6 224.9 225.2 227.1 228.2 229.4 229.2 228.4 227.7 227.6 227.6 227.9 227.3 227.6 226.4 227.7 227.2 226 226.5 225.6 224.1 223.4 221 219.2 216.8 215.3 213.8 212.2 210.9 210.3 210.5 212.1 213.5 213.9 212.9 211.3 209.5 207 204.5 203.4 201.3 200.4 199.5 199.7 199.3 197.9 195.9 195.2 193.4 191 188.5 186 181.9 179.3 175.3 172.3 168.9 165.1 161.2 156.7 154.1 151.8 149.4 146.8 145.1 143.2 141.4 138.4 137.4 136 134.7 135.5 135.8 133.9 131.9 130.9 129.2 127.2 125.2 124.6
293.5 295.8 299.7 299.4 299.6 297.5 294.8 294.5 302.1 311.7 319 320.7 317.9 312.5 301.6 286.6 273.7 266.4 269.2 264.8 256.8 254.9 256.1 255.7 249.6 243.3 236.1 226.6 221.1 215 208.5 203 197.5 191.6 184.1 178.7 177 175.4 176.1 181 181.7 184.8 188.6 190.9 193 191.7 191.8 193.1 192.2 190.2 187.6 185 184.4 182.9 179.9 176.5 174.3 166.6 167.9 168 169.1 168.9 168.7 168.5 168.7 173.6 176.7 185.3 193.8 203.1 207.2 207.2 208 206.6 205.9 206.5 207.6 209.9 214.4 222.7 233.2 240.7 245.6 248.8 250.1 250.4 251.3 248.8 245.6 243.2 240.7 236.3 232.2 230 228.5 227.5 226.8 225 224.8 224.5 223.6 222.9 220.2 221 220.3 220.6 219.8 218.6 217.8 215.3 215.7 215.5 215.4 216 217.2 217.7 218.5 219.3 220.2 221.2 221.9 222.2 222.4 223.3 224.5 224.8 224.4 224.2 222.8 222.7 222 221 219.9 219.9 220.1 220.4 219.4 220.6 221.3 221.5 221.1 220.5 218.9 217.1 215.3 213.7 211.3 210.5 208.8 209.4 211.3 213.9 215.3 214.7 213 211.1 208.6 206.2 203.8 203.4 201.6 200.1 200.1 198.8 198.1 196.5 194.8 192.8 191.1 189.2 186.8 184.1 180.4 176.5 173 169.5 166.1 162 159.1 156.1 153.5 150.8 148.2 146.6 145.2 144.3 142 140.6 139.4 136.7 134.7 132.9 134.1 133 130.9 129.5 127.7 126.2 124.6 124.2
287.5 286.6 290.8 292.1 292 289.9 284.7 286.8 293.6 304.1 307.7 309.4 304.3 297.1 285.6 271.2 259.1 247.5 241.3 237.4 235 233.5 235 232.2 226.9 220.2 215 210.4 206.1 202 198.2 194.9 190.1 186.5 180.2 177.4 175.8 173.5 173 171.4 176.5 181.3 185 187.5 190.6 189.7 192.5 194.1 194.9 193.7 190.9 187.1 185.1 181.6 178.3 176.2 169.1 166.7 167.5 167.6 168.4 168.2 168 167.8 168.9 170.1 173.1 178 184.5 191.7 196.1 197.7 201 198.7 204.7 204.4 207 210.5 216 225.4 234 240 243.2 245.5 247.2 247.4 247.1 245.3 244.1 242.5 240.2 237.6 233.7 228.7 226.3 224.6 222.8 222.6 222.1 221.6 221.4 221.4 221.1 219.8 220 216.5 216.1 213.3 213.8 213.6 212.9 213.1 211.6 213.7 215 215.8 216.5 217.3 217.8 218.5 219.2 219.2 219.3 219.6 220.4 220 219.6 219.2 218.3 216.7 215.6 214.6 213.9 213.1 213.6 213.4 213.4 214.4 215.5 216 216.5 216.5 216.1 214.5 212.9 211.4 209.5 208.1 209.5 211.2 214.4 216.2 216 214.4 212.4 210.2 207.7 205.1 203.9 202.9 201.7 200.8 199.3 198.2 196.1 194.2 192.6 190.8 189.1 186.8 183.4 180.1 176.5 173.5 170.1 166.7 163.5 160.1 158.1 155.5 152.4 150 148.1 146.6 145.4 144.2 142.4 140.4 138.1 135.9 133.7 132 131.2 131.4 130.6 128.7 127.3 125.9 123.5 122.8
278.9 279.4 282.5 284.5 284.5 281.6 272.8 279.8 287.3 293.5 294.3 291.8 287 279 266 250.2 240.2 228.3 225.7 221 220.2 219.8 214.1 211.3 206.8 203.5 200.9 197.8 194.7 192 188.8 186.8 184.2 180.6 177.7 174.7 174.1 172.6 172.2 169.8 172 177.7 181.6 184.2 187.6 188.7 191.2 193.2 193.7 191.6 189.2 186.4 183 179.6 176.7 174.3 165.3 166.3 166.6 167.4 167.6 167.5 167.3 167.1 169 170.8 172.2 175.1 178.8 184.5 186.9 189.4 192.4 199 200.8 203.9 208.4 215.3 223.2 230.5 234.8 238.4 240.7 241.9 243.5 245.6 247.7 247.4 246 243.6 240.8 237.1 233.8 230.4 226.4 222.9 221.2 221 220.3 219.1 219 218.7 218.8 219.1 218.7 218.7 217.9 216.9 213.7 211 208.3 210.3 210.3 211 212.2 213.1 214.2 215.1 215.5 215.8 215.9 215.8 216.3 216.2 216.4 216.5 215.9 214.7 213.9 211.9 210.6 209.3 208.6 207.6 206.3 205.9 206.2 206.8 208.8 209.8 210.4 210.5 209.7 209.1 209 208.4 206 208.1 211.1 213.1 215.3 216.1 215 213.4 211 208.5 206.1 204.7 203.5 202.3 200.5 199.6 198.3 196.3 194.2 192.2 190.4 188.2 186.1 183.2 179.6 176.1 172.8 169.7 166.7 164.4 162 159.3 157.2 154.4 151.9 150.1 148.2 146.4 144.7 143 140.8 139.2 136.8 134.7 133.2 132.2 131.6 131 131.3 129.6 127.8 126.3 123 122.8
270.8 268.6 272.4 275.8 276.7 274.9 265.4 270.2 276.4 274.9 271.6 265.2 259.6 253.1 242.6 228.7 221.5 214.9 210.4 206.8 201.3 198.4 196.7 193.8 192.7 190.7 189 186.9 185.3 183.6 182.6 180.7 178.5 176.9 174.9 172.7 172.4 172 170.7 168.8 168.3 174.1 177.7 181.5 184.4 186.7 189.3 191.3 190.9 188.5 186.1 183.8 180.6 177.5 174.8 170.9 164.3 165.1 165.8 166.7 166.9 166.7 166.6 166.7 169.4 171.3 172.1 175 177.2 179.2 180.9 186.1 193.4 197.2 202.9 208.4 214.6 221.6 227.4 232.7 235.7 237.8 239.6 240.7 242.6 245.2 247.5 246.7 244.8 242.3 239 235.3 231 227.3 224.8 221.8 220 219.4 219 218.3 217.4 216 216.1 216.1 217.1 216.9 216.4 215.1 213.6 212.2 208.9 206.4 203.5 207.1 208.5 210.1 211 210.7 211.6 211.3 211.5 211.7 212.1 212.2 212.9 212.6 211.7 210.8 209.1 207.4 205.7 203.8 202.6 201.3 200 199.3 198.9 199.3 201.4 202 202 201.5 202.7 202.9 203.4 203.8 200.6 206.5 208.8 210.8 213 213.5 212.7 211 210 207.4 205.5 204 202.9 201.3 199.6 197.3 196 194.5 192.6 190.4 188.6 185.3 182.5 179.6 176.2 172.8 170.2 167.5 165.6 163.8 161 158.9 156.2 153.9 151.5 148.7 146.3 144.4 142.7 142.1 139.3 137.9 136 135 134 132.5 131.8 131.2 131.2 130.4 128.9 123 123 122.7
263 252.7 260 263 265.7 263.8 258.6 252.4 252.7 248.5 243.2 237.8 231.8 225.1 218.1 213 206.5 202 198.1 193.8 191 186.9 186.7 184.7 183.2 181.9 180.6 179.2 178.1 176.7 176.5 174.9 174 173.4 172 171 170.1 170 169 167.3 165.7 170.1 172.7 176.6 180.1 183.2 186 187.1 186.2 183.5 180.8 178.8 176 173.3 168.2 163.8 164.6 164.8 165.1 166.4 166.2 166 165.8 166.8 169.5 170.6 172.4 175.9 180 184.3 187.9 190.4 194 201.7 209.4 214.7 219.3 224.1 228.3 232.1 234.6 237.2 238.1 240 243.3 245.4 245.1 243.7 241.9 240 237 233 229.7 226.2 222.9 221.3 219.7 217.7 217.6 217.6 217.7 216.7 213.9 213 212.3 213.8 213.6 212.4 211.1 209.8 207.1 207 205.8 198.2 204 205.1 205.6 206.3 207.2 206.5 206.8 205.8 207.3 207 206.9 206.7 206.2 205.6 203 201.8 199.7 197.4 195.3 193.9 192.9 193.4 193.7 192.4 193.7 193.9 193.7 195.4 196.8 197.4 197.9 197.9 202.1 203.8 205.2 207.6 209 209.5 209.2 208.9 208 206.7 204.8 202.9 200.4 198.7 197 195.5 193.9 192.4 190 187.5 184.7 181.6 178.5 175.9 173.9 171.5 169.5 168.7 167.2 165.2 162.4 160.3 157.5 155 152.2 149.5 146.9 145 142.1 140.3 139.4 139.1 137.9 135.6 133.3 133 131.9 130.5 131 130.4 128 122.6 122.6 122
251.6 242.5 240.2 241 244.7 247.6 242.1 233.7 229.3 225.2 220.3 217.1 213.2 208 204.5 200.3 196.2 193.1 190.3 187.3 183.8 181.4 179.8 178.6 177.3 175.7 173.9 173.4 172.5 171.2 170.3 169.9 169.3 168.6 168.7 168.6 167.6 167.9 167 165.7 165.3 164.8 168 170.4 174.2 177.1 180.7 181.7 180.4 178.7 176.6 174.5 172.2 169.5 162.5 163.8 163.9 164.1 164.8 165.5 165.8 165.6 166.2 168 172.8 178.3 185.1 187.3 190.8 197.8 200 200.1 201.9 202.8 206.2 211.9 217 222.5 226.4 231 233.7 235.7 237.7 239.7 243.4 245.4 244.6 242.5 240.3 238.1 234.2 231.6 228.5 224.7 222.4 220.1 218.7 217.4 216 216 216.7 216.2 214.8 212.2 211.9 209.5 209.1 208.2 205.3 205.5 205.4 204.3 203.2 202.2 197.4 199.9 201.3 201.9 202.1 201.8 201.5 201.5 201.9 201.8 201.3 200.8 199.6 198.3 197.2 196.1 194.1 192.3 190.5 188.7 187.9 187.5 187.4 186.4 187.2 187.1 187.5 188.5 190.3 191.4 190.1 195.8 197.5 199.7 202 204.4 206.1 207.5 208.6 208 207 205.6 202.8 201.2 198 196.2 194.5 193.6 189.8 188.5 186 183.4 180.9 178.5 176.4 174.6 173.8 172.8 172 170.4 168.3 166 163.6 160.8 157.3 154.8 151.9 149.3 147.5 145.7 145 142.8 142.5 141.1 138.8 136.3 134.2 133.6 132.6 130.6 130.1 128.6 126.4 122 121.9 123.1
234.6 232.7 229.6 227.4 225 224.5 221.6 218 214.4 212.8 210.7 207.1 204.1 202.7 199.9 195 191.2 188 185.3 182.4 179.6 177.4 175.6 174.3 173.1 172.4 170.6 168.5 167.3 165.9 164.6 164.5 163.5 163.2 164.1 165.7 165.1 165.1 165.3 164.2 164 163.2 162.8 165.2 168 168.9 171.8 174.5 173.4 172.5 170.8 167.8 165.9 161.5 162.7 163.3 163.3 163.3 163.9 164.6 165 165.2 171 177.6 183.1 188.5 195.1 197 199.2 205.5 208.8 208.7 207.4 206.5 209 212.9 217.3 221.5 225.8 229.6 232.4 234 234.9 237.2 239 240.8 241.4 240.4 238.6 236.8 233.7 230.2 226.6 224 221.7 219.5 217.4 216.2 215.2 214.7 215.5 214.8 214.5 213.4 211.3 209.8 208.9 207.8 205.8 205 201.3 200.8 199.3 199.1 197.6 193.7 196.4 198.2 197.6 197.9 197.6 197.1 198.2 197.2 196.5 195.9 194.8 193.6 192.6 191.3 190.4 189 187.4 185.9 184.8 184.1 183.6 183.3 182.9 183.6 184 184.5 184.9 184.8 187.3 189.6 192 195.7 198.6 201 202.7 204.7 207.1 207.2 206.1 203.7 202.2 200.4 199.4 197.4 194.2 190.2 187.4 185.2 183 180.7 179 177.9 176.4 175.9 175.6 175.2 173.2 171.2 168.9 165.9 163.3 159.2 157.2 155.1 151.6 149.9 148 146.9 146 145.1 143.6 142.1 140.4 137.5 136 135.4 134.1 131.3 126.7 125 125.1 121.9 121.7 124.5
226.6 226 224.3 223.1 220.4 217.3 213.8 209.6 202.3 204.8 205.6 201 198.7 197.6 195.4 191.7 188.1 184.7 181.9 179.1 177.5 175.4 173.9 171 170 169.1 168.3 163.1 156.9 156.3 156.5 155.8 157.5 160 162.1 163.5 163.9 163 162.9 162.7 162.5 162.2 161.6 160.6 161.5 161.8 164.2 168.2 167.5 167.8 167 160.9 160.6 160.7 162 162.9 162.9 162.9 163.7 163.9 164.6 172.5 179 184.2 193 199.8 203.8 205.1 207 210.4 211.5 210 209.8 209.2 211.7 213.8 217 221 224.4 227.6 229.9 231.6 232.9 234.1 235.2 235.7 236.9 236.7 235.6 233.9 231.2 228.6 225.4 223.2 220.8 218.2 216.5 215.4 214.3 213.7 212.7 213 212.7 212.1 210.9 210.5 208.1 204.6 202.2 201.4 198.7 196.1 195.4 195.1 194.8 193.4 190 193.4 192.7 192.5 193.3 193.5 193.8 192.9 192 191.5 190.3 189.1 188.1 187.3 186.7 185.8 184.5 183.5 183 182.5 181.4 181.3 181.4 181.8 182.3 182.6 182.5 184.3 185.6 186.9 188.4 191.6 194.4 197.6 199.9 202.9 205.2 205.7 205.5 204.2 203.2 200.2 198.7 195.3 191.9 188.3 185.2 183.6 181.1 180 179.1 178.4 177.4 176.6 176.3 175.4 173.7 171.5 169 165.9 162.3 158.3 155.6 154.8 152.4 150.4 148.6 148.2 147.5 146.3 144.2 142.7 141.4 139.2 137.1 136.2 133.4 129.7 125.6 123.9 124.7 121.9 121.5 123.6
229.1 231.6 232.6 224.8 218.3 216.5 210.5 201.8 188.3 180.9 182.3 180.9 181.5 188.6 186.5 189.3 188.7 185.5 179 175.1 171.1 166.7 163.2 162.9 162.3 159.4 157.2 156.7 156.9 156.1 156 155.9 155.6 155.1 154.4 161.3 162 161.4 161.1 161.1 161 160.6 159.7 159.5 163.5 163 164.4 165.7 165.3 165.4 162.9 159.9 160 160.2 161.1 162.2 162.5 162.8 163.1 164.3 172.4 183.3 191.9 196 202.1 207.4 209.3 210 211.5 211.6 212.5 211.3 211.3 213.1 215 215.8 217.3 223 225.7 229.1 231.3 232.5 232.5 231.9 233 232.9 232.5 232.9 231.9 230.9 228.8 226.4 223.9 221.3 218.9 217 215.6 214.5 213.5 213.1 211.4 210.8 210.4 209.4 209 207.9 206.1 203.7 201.1 198.2 195.2 193.9 192.8 191.7 190.8 190.4 188.2 188.7 190.3 189.6 189.4 188.1 188.9 188.5 188.5 188.3 187.2 186.5 186.1 184.9 183.8 183.8 182.8 181.9 181.2 180.6 179.7 180 179.1 180 180.1 180.4 180.6 181.6 183.3 185.1 185.6 187.1 190.2 194.4 197.2 199.8 202.6 204.8 205.4 205.2 203.4 200.2 197 193.1 190.2 187.6 186 183.5 182.5 181.9 181.7 180.8 178.7 177.4 177 175.5 174 170.9 167.5 164.5 161.4 157.3 155.6 154.6 153.9 151.2 149.5 149.1 147.7 146.1 144.5 143.5 141.9 140.3 137.8 134.6 131.1 127.5 124.7 123.2 121.7 121.1 121.2 121.4
233 237.3 235.5 227.8 220.2 203.2 198.3 186.9 174.8 165.3 161.6 161.9 168.4 173.6 172.3 171.5 170.2 168.6 164.6 161.8 161.2 159.9 159.6 159 158.2 157.1 157.7 157.4 156.6 156.3 155.5 155.7 155.3 154.8 154.3 155 160.2 159.7 160.5 159.9 159.6 159.9 159.1 159.1 164 165.1 165.7 167 166.1 162.6 159.7 158.2 159.4 159.7 160.3 161.4 162.2 162.5 162.9 170.1 179.9 188.5 198.4 204.8 208.9 212.9 214.2 214.7 215.4 215.8 215.3 215.6 216.3 217.6 220.9 222.8 223.7 224.5 226.9 230.8 232.6 232.8 232.3 230.4 230.8 231.9 231.5 230.5 229.1 227.5 226.3 223.9 221.6 219.7 217.8 215.9 214.8 213.8 212.7 212 211.2 208.8 206.9 206.4 205 202.5 199.2 196.8 197.4 196.4 193.9 191.7 191.1 190 188.2 187.8 186.5 186.4 185.5 185.3 185.7 184.9 183.1 185.4 185.7 185.7 185.4 184.8 184.1 183.5 183.3 182.3 181.5 181.2 181.4 181.6 181 180.4 179.6 177 176.8 177.4 177.7 178.4 180.3 182.4 183.3 184.4 186 189.8 192.7 196.5 199.2 203 204.4 204.2 201.7 199.1 195.2 192.3 189.7 187.9 186.9 185.6 185 184.9 184.5 183.1 181.1 179 177.2 175.8 172.5 169.2 166 163.4 160.4 157.3 155.6 154.5 153.2 151.9 150.2 149.6 148.4 146.9 145.3 143.7 141.9 138.9 135.8 132.7 128.9 126.7 124.6 124.3 122.6 120.7 120.8 120.7
211.1 214.8 219.2 217.5 210.8 193 177.9 167.4 163 166.2 168.8 166.9 161.9 161.3 164.3 164 163.4 161.7 161.3 161 160.5 159.5 159.2 158.9 158.1 157.7 157.3 155.1 155.3 154.5 153.9 154.3 154.8 154.6 154 153.7 153.7 153.9 157.8 157.9 157.2 157.2 158 159.2 162.7 164.5 164.7 163.4 160.4 157.8 159 158 159.1 159.2 159.5 160.5 161.5 162.8 169.1 176.7 185.4 195.1 202.3 208.2 211.4 214.6 216.8 217.9 218.2 218.8 219 218.6 219.1 220.6 223.6 225 225.2 226.4 228 230.4 232 232.5 231.6 230.4 227.4 229.1 228.7 228.4 226.8 224.2 222.2 219.9 219.5 218.1 216.6 215.1 214.2 212.9 212.3 211.2 208.8 207.4 206.2 203 203.4 203.2 204 202.6 200.5 198.9 195.9 193.4 191.6 191.1 191.2 189.7 186.1 184.4 184.5 183.6 183.1 183.2 182.7 181.7 183.6 184 183.8 184.3 183 182.1 181.4 179.7 180 180.2 179.7 180 179.9 179.8 179.4 177.9 174.3 175 175.4 176.2 176.4 178.5 181.7 183.4 183 184.4 188.6 190.6 195.1 199.7 201.4 201.3 199.4 197 195 191.8 190.3 189.7 188.7 189 188.6 187.8 185.4 183.8 182.1 179.9 177.6 174.4 171 167.6 164.9 162.2 159.3 157.1 155.7 154.7 153.2 152.2 151 150.2 148.9 147.6 145.9 143.1 140.3 135.2 132.8 131 129.4 127.3 126.3 125.1 124 120 119.9 120
181.5 187.1 188.3 188.4 183.2 174.2 164.7 169.1 177.3 182.3 181.7 181.3 176.8 168.5 160 159.9 160.4 159.3 159 157.6 159.3 157.9 158.2 157.7 157.3 156.2 155.6 154.9 155.5 154.8 155 154.2 154.2 153.5 153.9 153.4 153.6 153 153.1 153.1 155 155.8 156.7 156.2 160.9 163.1 160.5 157.9 157.3 157.1 157.9 158.4 158.8 159.3 159.4 161 162.8 170.6 177.7 187.3 194.1 201.4 206.2 211.2 214.6 216.2 215.3 216.4 216.3 216.8 219.5 220.3 222.2 223.5 225.2 227 227.8 228.1 230.7 233.3 234.5 232.8 231.6 230 226.8 225.7 224.4 223.1 223 221.4 218.9 217.8 217.8 216.7 216.3 215.4 214.2 213 213.4 213 212.5 211.8 210.4 210.3 209.4 208 206.1 204.3 202.6 200.9 199.2 197.8 196.8 195.6 194.5 193.2 192 189.6 188.8 187.5 187.6 187.3 185.7 181.7 178.1 179.4 182.6 182.2 181.7 181.3 180.7 179.6 177.6 177.7 177.2 178.3 178.5 178.4 177.9 177.2 175.1 173.6 170.9 171.3 173.4 175.6 177.2 178.4 179 179.2 182.7 186 190.3 194.2 196.1 196.5 197 194.9 193.4 192.7 191.6 191.7 191.1 190.6 189.1 186.6 185.2 183.2 180.8 178.3 175.1 171.8 168.8 166.2 163.8 161 158.7 157.3 155.8 155.3 153.9 153.2 150.9 150.2 148.5 146.9 144.5 141.2 137.2 134.3 135.1 135 131.4 129.8 128.4 128.3 127.9 125 118.7 119.4
169.7 167 171.5 173.4 168.4 164.1 173 192.3 199.4 199.9 196.2 198 201.5 200.1 191 181.9 174 171 169.5 167 163.4 160.2 158.3 158.6 158.2 157.6 156.7 156.7 155.1 154.8 154.4 154.1 153.6 152.9 153.8 153.6 153.4 153.3 153.3 152.9 153.2 155.4 154.6 154.3 155.2 156.7 155.3 155.6 156.3 156.9 156.3 164.3 163.8 163.8 167.3 169.4 172.8 178.5 186.4 194.7 201.5 207.7 210.8 214.1 217.7 218.7 217.6 217.2 216.8 217 219.3 221.8 224.2 223.3 223.6 224.7 225.7 226.7 229.9 232.4 233 232.2 231.4 229.4 227.1 223.9 222.1 220.2 217.9 218.3 217.5 215.8 215 216.5 216.2 215.9 215.1 214.5 214.2 214 213.6 213.6 212.4 210.5 208.6 206.6 204.7 202.5 200.5 199.4 198.1 197 195.9 194.9 194.1 193.5 192.4 191.6 190.5 189.8 189.2 187.8 186.1 185 183.1 181.3 179.8 178.6 178.2 179.4 179.1 178.6 177.6 178.1 177.6 175.9 175 174.3 173.5 173.8 172.4 171.1 173.2 172.1 168.5 171.3 172.9 173.5 173 173.6 176 179.3 183.6 187.6 191.3 193.2 193.2 193.2 192.8 192.4 191 190.5 189.7 188.1 186.8 184.7 182.5 180.9 178.5 175.4 172 169.1 166.5 164.2 162.8 160.2 158.6 156.6 155.7 155.5 154.4 153 150.5 149 147.1 144.6 141.8 138.4 136.4 137 138.4 136.1 137 133.3 132.2 132.5 129.5 127.2 123.9 118.1
180.7 174.6 173.4 168.9 169.7 182.4 201.9 221 230.2 226.3 224.7 225.6 223 221.7 214.9 211 202 195.3 188.3 183.1 180 173.8 167.8 162.2 157.8 157.5 156.4 155.9 155.8 155.2 154.4 154.2 154 153 152.7 153.4 152.9 152.4 152.6 152.9 153.5 153 152.7 153.3 154.2 154.5 154.5 155.3 156.2 155.8 171.2 173.1 173.9 174.5 174.9 175.2 179 187 194 200.9 207.7 212.6 215.4 217.7 220.8 221.2 220.9 219.6 220.1 221.7 223.6 225.2 227.2 225.9 224.4 224 221.5 226.5 228.2 231.3 232 232.6 231.6 230.1 228.2 226.2 224.2 221.9 219.5 217.6 215 214.4 214.4 215 216.2 215.9 215.1 214.6 213.6 212.5 211.4 209.8 208.4 206.9 205.1 203.2 202.1 200.2 198.8 197.8 196.9 196 195.1 194.3 193.6 192.9 192.8 191.6 191.3 190.4 189.6 188.2 187.1 186.1 185.4 184 182.9 181.2 179.6 177.1 177.1 179.8 180.2 179.5 179.6 178.3 177.6 177.3 177.9 174.2 174 172.3 168.6 168.2 169.1 166.2 169.4 169.6 169.2 169.5 170.1 172.9 176.8 180.7 184.3 188 189.3 191.1 190 189.4 188.2 188.4 186.8 185.2 183.6 181.5 179.8 178.2 174.9 171.6 169.1 166.7 164.3 163.1 161.7 160.3 158.3 156.7 155.6 155.1 153.5 152.9 150.4 147.6 142.9 140.1 139.8 141 140.5 142.5 141 140.7 138.8 137.8 137.1 134.2 131 128.1 127 117.2
219.7 210.3 208.4 210.3 201.6 221.6 231.1 240.9 245.1 243.8 240.1 236.7 233.3 228.8 225.8 221.1 213.9 206.3 198.1 191.6 182.9 175.3 168.4 162.8 157.8 157.8 156 155.2 155.4 156.5 154.2 152.8 153.5 152.8 153.3 153 152.3 151.8 152.4 152.6 152.3 152.1 151.9 152.7 153.4 153.6 153.7 154.5 155.2 169 173.1 176 177 178.7 179.4 182 186.9 193.9 200.5 205.8 210.4 215.4 219 220.9 222.9 224 224.3 223.4 223.9 228 230.6 231.4 232.2 231.1 228.7 227.6 224.5 222.9 225.8 229.7 229.9 229.7 229.9 229.4 227.6 225.7 223.9 221.5 218.9 217.2 216.2 215.4 209.3 211 212.7 213 212.1 211.1 209.6 208.1 206.9 205.7 204.4 202.9 201.3 200.1 199.5 198.4 197.1 195.9 195.3 194.4 193.4 193.1 192.7 192.3 190.9 189.9 189.9 189.9 189.8 189.2 188.1 187.1 186.3 184.8 183.7 182.8 181.7 178.6 173.5 178.3 180.2 179.6 178.7 178.4 177.7 175.3 177.2 175.5 174.8 174.3 172.9 171.5 168.4 164.6 165.5 167.4 167 166.5 166.6 168.1 170.9 175.1 179.1 182.3 185.4 187.3 186 186.1 185.4 184.9 184.2 183.4 181.6 179.1 177.1 175 171.6 168.4 166.6 164.5 163.2 161.9 160.5 159 158 156.5 155 154.7 152.9 150.4 148.9 145.4 142.3 140.6 141.4 143 143.7 143.8 141.8 142.9 142.5 140.8 139.3 135.2 132 130.6 128.9 125.8
240.7 245.3 245.8 246.3 240.1 253.8 254.8 255.1 253.4 252.3 251.7 249.3 245.1 238.1 231.4 225.4 219.8 210.4 199.1 188.7 180.3 172.7 167.3 161.1 158 158.1 157.9 162.8 171.9 169.2 165.2 161.8 155.9 152.8 152.6 152.3 151.8 151.1 151.7 152.1 152 151.5 151.9 152.7 153.1 153.1 159.1 159.5 166.8 170.8 176.9 180 181.7 184.3 188.3 191.3 194.8 199.5 203 206.4 209.9 212.8 214.3 219 223.5 224.5 226.3 227.1 227.2 227.7 229.1 229.5 230.7 229.4 227.5 225.7 224.7 218 221.2 223.9 226.2 226.5 226.7 226.5 225.1 223.3 221.6 219 217.3 215.9 214.5 213.7 212.9 212.2 206.5 209.1 208.8 208.4 206.8 205.6 204.5 203.4 202 199.8 198.1 197.2 196.1 195.9 194.7 194.4 193.1 192 191.1 190.7 190.4 189.7 189.4 188.3 188.3 188.4 188.3 187.9 187.4 186.4 185.5 184.8 183.7 182.9 181.7 179.2 173.8 175.2 177.5 177.9 178.6 177 177.2 175.3 174.7 174.8 174.1 173.3 172.5 171.4 169.1 164.7 163.5 164.8 164.5 164.1 164.1 165.3 167.5 170 173.3 176.3 180.4 181 181 181.6 182.4 181.8 181.4 180.9 178.5 175.7 173.8 171.7 168.8 165.6 164.3 162.3 161.6 160.7 159.3 157.9 157.2 156.4 154 152.4 151 148.3 145.2 141.9 141.1 143.1 145.1 145.6 146.2 144.9 143.6 144.4 144.3 143.1 141.1 137.4 133 131.5 130 128.3
246.6 253.7 257.7 260.3 257.7 260.3 261.9 263.9 263.3 261.6 260.2 256.8 252.6 246.5 239.8 233.7 224.9 210.6 195.4 185.6 178.6 171.8 165.2 159.4 159.1 160.6 167 173.9 177.7 183.6 180.6 173.8 170.3 161.6 157.2 154.6 152 151.5 151.4 150.5 151.7 151.1 151.3 151.6 152.1 154.9 161.3 162.4 169.9 171.8 179.5 185 186.1 189.2 196.3 201.4 203.8 204.9 205.5 207.3 208 210 211.3 215.6 218.2 220.5 222.7 223.1 224.2 224.3 225.4 226.7 227.3 226.5 225.3 223.7 222.8 218.7 218.5 220.3 221 222.8 223.3 222.7 222 221.2 219 217.1 215.6 214.1 212.8 211.9 211 210.3 209.4 203.2 205.2 206 204.4 203.1 201.2 200.2 198.7 196.7 195.1 194.7 192.8 192.2 191.5 190.9 190 189.4 188.8 188.4 187.9 187.1 186.9 186.5 186.4 186.2 186.4 186.3 185.8 185.2 184.7 183.9 182.7 181.6 180.2 179.4 177.2 168.7 172.9 174.4 174.9 172.7 172.1 174 173.3 173.4 173.1 171.9 171.1 169.3 167.5 165.9 161.4 162.5 162.2 161.9 161.7 163.5 165.6 165.8 167.8 170.5 174.7 176.4 177.6 178.7 178.7 178.4 177.8 176.9 175.1 172.5 170.6 168.7 165.8 162.7 161.5 160.5 159.8 158.9 157.4 155.6 154.5 153.8 152.8 151.2 148.8 145 141.7 144 145.4 146.9 148.2 148.1 146.7 145.7 145.3 146.4 145.8 145 142.8 137.5 133.6 132.5 131 129
237 259.9 263 264 263.2 264.9 269.7 270.9 270.2 268.6 266.4 262.5 256.5 250 244.9 236.1 224.2 207.1 194.5 183.8 176 170 166.4 162 165.8 171.8 175.9 181 185.8 189.9 182.3 180.6 187.6 176.3 170.6 167.1 158.9 152.5 151.1 150.7 151.2 150.6 151 151.2 151.4 154.3 158.6 164 171 172.7 175.1 185.4 189.7 190.6 193 201.1 203.3 205.7 206.2 207.5 207.9 209 208.5 210.9 213.7 215.9 217.9 220.4 221.7 222.8 223.9 224.5 224.9 224.6 223 221.5 220.3 219.3 214.1 212.6 215.7 217.8 219.6 218.9 218.5 217.9 217 215 213.6 212.2 210.5 209.4 208.5 207.6 206.2 206.5 200.7 199.7 200.6 198.7 197.3 196.5 195.4 193.4 191.6 191.7 189.5 188.1 187.8 187 186 184.3 186 185.9 184.9 183.7 184.3 183.4 183.7 184.4 184 184.2 183.7 183.1 182.5 181.8 181 179.9 178.9 177.9 176.9 174 164.6 173.8 174.9 174.8 174.1 170 169.5 168.3 170.4 170.1 169.4 167.7 166 164.6 163.3 158.6 159.7 159.4 159 161.5 163.4 164.1 165.5 167.3 169.8 172.3 173.7 175.1 176.3 175.5 175.2 173.4 171.4 169.3 167.4 165.5 163.2 159.4 158.3 157.1 156.6 156.6 155.5 153.3 151.5 150.9 148.4 145.8 144.8 144.1 147.9 149.7 149.9 149.7 149.7 148.2 146.6 145.8 147.5 148.2 147.3 146.7 143.9 138.8 134.5 133.6 131.7 129.4
229.2 250.7 269.6 268.1 268.4 269.8 273.3 274.7 273.3 271.2 269.1 264.3 259 254.1 248.1 237.7 222.5 207.3 194.5 181 171.6 167.6 161.2 160.4 171.1 177.8 180.9 185.9 190.3 188.7 179.6 189.6 191.4 188 184 174.9 166.2 156.3 151.9 150.3 150.5 149.9 150.5 150.5 151.2 151.3 153.9 160.7 169.2 173.4 171 182.2 188.4 190.2 190.2 198.9 201.2 203.3 204 204.6 203.9 205.4 206.4 208.1 209.9 212.9 216.5 219.7 220.9 221.6 222.2 222.1 222.3 222.5 221.3 220.2 219 217.6 214.7 206.6 211.7 213.4 214.5 215 214.9 214.6 213.6 212.6 210.8 209 207.4 206 204.9 204 202.6 201.8 201 199 195 194.7 193.3 192.5 191.4 190 188.6 188.1 186.8 185.9 184.5 183.5 183.3 182.2 182.6 182 181.8 182.2 183.1 183.3 183.5 182.3 182.3 182.7 181.5 180.2 179.6 178.6 177.5 176.6 177.1 176.9 176.2 174.5 166.5 169 172.7 172.4 172.1 171 170 168.8 163.8 166.6 166.8 165.9 164.6 163.5 162.6 161.1 158.3 156.4 155.7 159.5 161.1 162.6 163.9 165.2 167.6 169.6 171 172.6 173.9 173.9 172.8 170.9 167.9 166.7 163.6 161.7 160.4 157.4 155.6 154.8 153.6 153.3 151.9 151.1 150.3 150.1 149.8 149.6 151.8 151.9 152.4 152.4 152.6 151.7 149.4 148 146.6 147.2 148.7 150.2 149.3 147.8 144.6 140.1 136.7 134 131.8 129.7
231.3 244.4 273.9 276 277.6 279.2 279.4 279.1 277.6 274.9 272.1 267.8 262.2 257.9 250.1 239.9 226.4 211.3 195.9 179.6 165.8 163.1 159.8 162.9 177.4 180.7 186.7 182.6 183.2 182.3 186.1 198.2 200.1 192.6 187.6 177.8 173.6 166 156 149.9 150.3 150.4 150 151.2 151.1 150.8 150.9 156 164 170.2 168.4 178.1 185.2 185.3 192.3 198.1 199.5 201.7 204.3 205.7 203.5 202.9 204.3 205.9 207.9 210.5 213.4 216.4 217.8 218.4 218.8 219.8 219.6 219.2 218.3 217.6 216.6 215.3 213.6 210.7 203.9 208 209.9 210.3 210.3 209.8 209.2 208.5 208.2 206.7 205.4 204 202.7 202.6 202.6 200.8 199.8 198.9 198.3 196.3 194.1 192.3 190.4 188.6 185.7 183.9 184.1 183.8 182.6 181.7 181.9 181.9 181.6 181.1 181.4 182.4 183.2 183.6 184 183 181.4 180.5 179.2 178.1 177.4 176.8 175.8 174.8 174.4 174.7 174.8 174.3 172 162 167 171.1 170.4 170.2 169.3 168.4 167.3 164.2 162.1 164.6 164 163.3 162 161.2 160.8 160 157.8 153.2 155.6 160.2 162 163.6 165.5 167.3 168.2 169.7 170.9 170.6 168.8 168.1 164.4 163 161.3 159.1 157.3 155.4 154.2 153.6 152.4 151.6 151 152.2 151.9 153.1 153.8 154.7 156.6 156.5 156.2 155.3 153.3 151.4 148.9 147.5 146.8 147 148.8 151.3 152.1 148.9 146.1 142.3 136.8 134.2 132 129.9
238 244.1 264.3 280.7 281.7 282.9 282.5 281.8 280 277.4 272.3 267.8 263.1 257.3 249.1 239.7 227 211 193 174.5 161.9 160.5 159.4 170.6 182.3 186.4 183.7 192.2 196.3 195.5 200.4 205.2 199.2 197.4 192.7 186.9 176.7 168.6 159.4 148.5 150.1 150.2 150.1 150.3 150 149.8 149.9 151.1 157.8 163.4 164.2 172.3 180.4 179 190.2 195.6 197.4 199.1 203.1 205.8 205 201.8 204.3 204.5 205.8 208.2 210.2 213.2 214.5 216.3 217.5 218.9 219.4 219.3 217.9 216.2 214.4 212.9 211.7 211.2 206.9 201.2 204.6 206.5 205.6 206.2 206.1 205 204.5 204.1 203.5 202.5 201.5 202 201.9 200.3 199.4 198.9 198.2 196.5 194.6 193.6 192.1 190.6 189 187.1 183.8 178.5 181.2 180.2 181.2 181.4 181.5 181.3 180.6 180.5 180.8 179.8 181.8 181.1 179 178.2 177.6 177 176.3 175.5 174.6 173.5 172.1 172.5 172.6 172 171.4 168.6 160 168.3 168.7 168.5 168 167 166.2 165.3 164.2 158.6 163.2 162.9 161.5 161.3 161.2 160.4 159.7 158.7 150.1 154 158.6 160.6 162.3 164.7 166.7 167.3 167.4 167.8 167.5 166.6 165.7 162.4 160.5 159.8 158.1 155.6 154.3 153 152.4 152 152.1 151.8 153.3 157.2 160.2 161 160.4 159.3 156.8 154.6 152.3 150.6 148.5 147.8 147.3 148.3 150.4 152.9 154.8 152.3 148.4 144.6 138 134.5 132.3 129.9
242.4 248.5 259.7 284 284.9 284.1 283.3 282.2 279.8 275.4 270.7 266.9 260.5 253.8 246 236.9 223.3 206.6 185.8 163.9 161.6 160.8 168.6 180.9 188.5 193.7 201.1 204.2 208.4 210.6 208.3 208.6 214.1 211.2 198.9 195.8 182.9 174.1 165.5 155.8 148.9 149.5 149.3 149.8 149.3 149.3 149 149.1 151.9 165.1 166.7 164.2 171.6 178.6 187.3 192.2 196.4 196.2 201.1 203.3 202.9 200.7 203.1 204 202.8 205.4 207.3 209.6 212.3 214.3 215.4 216.3 217 216.2 215.3 213.2 211.2 210 209.1 207.8 206.7 202.6 198 199.3 202.8 200.9 201.8 201.8 201.6 201.8 201.9 200 200.3 199.5 200.6 199.9 199.4 198.9 197.9 196.6 194.7 193.1 191.4 189.1 187.2 186.4 184.8 183.1 180.4 177.3 180.2 179.7 180.3 180.3 179.9 179.5 179 178.1 178.8 178.7 177.8 177.1 176.5 175.8 175 174.2 173.4 172.2 170.8 169.9 169.2 169 168.8 168.1 161.7 161.9 166.7 166.7 166.7 165.9 164.9 164 163.7 162.1 158.4 159.3 161.1 161.3 160.4 159.7 158.6 158 156 149.5 156.6 157.8 157.6 160.9 163.9 166.7 165.6 166.2 167 167 165.9 164.5 163.6 162 159.3 156.4 154.7 154 153.2 152.5 153.1 156.7 159.6 163.1 163.9 163.9 161.1 159.2 157.1 154.4 151.8 150.1 149.4 148.9 149.1 150.3 151.5 154.2 157.1 155.6 151.4 145.6 138.9 135.6 131.9 127.8
247.7 254 258.8 283.1 286.1 285.4 285.2 283.5 279.8 275.5 269.7 265.4 257 246.5 240.3 231.1 217.8 198.6 173.1 160.7 161.7 166.9 179.8 190.5 193.8 201.1 209.9 211.7 215.5 216.7 218.1 221.9 218.5 217.3 209.4 200.8 188.5 183 170.3 163.7 152.7 148.9 148.3 149 148.2 151.9 148.5 148.3 148 158.8 167.2 162.3 168.3 178.3 183.6 188.1 191.4 193.3 198.8 201.1 203.3 200.8 200.3 202.5 202.6 201.8 203.4 206.5 208 208.6 209.3 209.9 210.4 210.3 210.2 209 207.8 206.6 205.4 202.7 202.1 199.5 196.8 195 194 195.3 195.5 196.3 196.8 197.1 196.9 196 195.8 195.5 196.7 197.7 199.1 198.2 196.5 196.6 194.8 192.4 190.4 188.9 187.1 184.3 182.7 182.2 180.4 177.1 176.9 178 178.4 179 178.4 178 177.4 177.1 176.5 176.8 176.7 176.1 175.4 174.6 173.8 173.1 172.4 171.7 170.4 169.1 167.8 166.5 166.6 166 165.5 155.3 164.7 164.8 164.9 164.5 163.6 162.9 162.3 161.9 160.7 157.1 154.5 156.2 157 158.6 158.2 156.3 154.3 146.3 154.5 153.1 154.7 157.5 160.6 162.3 164.1 164.3 166.1 168 167.3 167.5 166 163.4 160.4 157.4 155.6 155 154.3 157 160.3 164.6 166.7 166.6 165.9 164.2 162.1 159.3 156.9 154.2 152.6 151.8 151 150.6 151.1 152.7 155.1 156.4 157.5 156.8 152.8 146.4 141.2 136.4 130.6 125.1
249.2 257.2 260.7 284.8 289.8 290 288.3 284.5 279.5 273.2 268 263.3 252.3 242.3 234.9 224.6 210.6 190.7 167.2 162 161.8 171.9 186.4 200.6 201 210.5 215.4 218.8 220.1 222.6 222.9 221.9 222.5 215.6 214.3 202.5 195.2 188.9 178.5 166.1 159.4 152 149 149.8 149.1 146.9 149 147.6 147.9 147.5 158.3 157.4 168.2 176.5 181.4 184.4 187.2 190.4 196.9 199.8 202.4 201 201.4 200.6 203.3 203.4 199 203.3 203.7 204.3 204.9 204.8 205.4 205.4 205.3 204.5 203.7 202.5 201.8 200.1 198.8 197.4 196.3 195.2 192 189.4 189.1 189.6 190.4 192.4 192.7 192.6 192.7 192.8 192.9 192.9 194.7 194.9 194 192.5 193 191.1 189.3 187.6 185.2 183.3 181.7 180.5 178.8 176.7 172.8 177 176.2 177.2 177.1 176.4 176 175.9 175.4 174.9 175.3 174.9 174.5 173.8 173.2 172.6 172 169.9 169.8 168.7 167.3 166 165 164.3 163.5 156.4 162 163 163.1 162.8 162.3 161.6 160.8 160.3 159.3 157.1 156.6 154.2 152.4 149.7 153.3 151.7 150.3 145.6 147.2 150 151.2 152.2 154.5 157.9 160.8 161.9 165.2 168.4 169.2 169.3 167.5 164.7 160.3 158.7 158 157.5 159.6 163.1 167 169.3 168.7 167.9 166.7 165.3 163 159.4 157.4 156.2 154.7 153.5 152.7 152.6 153.8 156.2 158.9 160.1 158.3 157.5 152.6 147.2 141.2 135.8 131.2 125.1
246 254.9 264.5 283.2 288.8 289.7 287.3 282.6 275.2 268.7 262.8 258.7 249.8 239 230.8 217 203.3 183.5 164.8 162.3 164.3 173 196.1 202.8 210.8 218.8 223.8 226.9 228.3 231.2 229.6 227.6 224.3 220.2 219 209.5 199.6 193.6 185.9 173.1 164 158.9 154.5 155.3 155.3 154.2 152.7 150.1 147.6 145.7 146.9 153.2 165.3 173.5 178.3 181.4 183.4 189.5 194.9 196.8 200.5 201.8 201.4 195.5 200.1 201.2 199.1 199.7 202 201.6 201.3 201.2 201.2 201.1 200.3 199.9 199.4 198.3 198.2 198.1 197.8 196.5 195.6 194.6 193.1 189.8 187.9 186.3 185.4 190.2 189.7 190.7 192 191.8 191.6 191.1 190.7 192 191.5 190 188.7 188.6 188.1 185.8 183.4 182.4 180.3 178.5 177.3 176 173.3 173.6 175 175.1 174.8 175.4 175 174.8 174.8 174.6 173.8 173.5 173.5 172.1 171.7 171.5 170.2 169.2 167.6 167.1 166.7 166.1 164.2 162 161.6 157.6 155 160.4 160.6 160.6 159.9 159.5 158.7 157.9 157 156.6 155.5 154.6 153.7 151.9 148.7 148 148.1 144.4 141.8 144.3 146.4 147.5 148.9 152.4 157.4 159.2 161.6 165.5 168.5 167.9 166.8 165 164 163.1 163.3 163 164 168.8 170.8 169.9 168.1 168.1 167.8 165.7 164.6 161.8 160.4 159.2 157.2 155.2 154.8 155.6 158.3 159.9 161.8 161.3 160 156.8 152 145.2 139.2 135.2 129.5 125.5
245.3 254.2 264 279.6 288.4 288.4 284 275.8 268.5 263.9 261.6 258.3 251.3 237.8 227.7 211.5 196 178.4 162.3 163.9 167.5 176.5 196.2 201.7 215.2 223.1 233.5 237.9 242.5 240.6 238.7 234.1 233.7 226.3 219.9 217.1 210.1 193.7 187 182.8 171.6 167 162.2 162.6 162.7 158.5 159 155.8 152.3 147.9 146.2 144.9 158.3 169 174.7 179 181.3 186.9 193.1 196.1 197.6 200.9 200 195.2 192.5 194.5 196.2 199.5 202.3 203 201.5 200.8 200.8 200.6 199.5 200.1 199.4 198.6 195.5 193.8 192.3 195.3 194.7 194.1 192.7 191.6 189.1 187.5 184.3 185.6 188.6 188.6 189.5 190.2 190.3 189.8 189.6 189 188.3 187.5 186.1 185.1 185.5 184 181.9 180.7 178.8 177.2 177.1 176.3 175.2 170.3 173.7 172.6 173.4 174 174 173.7 173.7 173.4 172.4 172.1 172 170.8 170.8 170.2 169 168.3 167.3 166.3 165.1 164.5 163.2 161 159.8 158.4 153.9 151.3 156.3 158.1 158 157.2 156.4 155.3 154.4 154.1 152.8 152.1 151.4 150.5 149.2 147.8 147 146 142.4 139.4 142.1 144.2 145.4 148.2 153.4 156.8 158.9 162.5 166.5 166.4 166.3 167.5 169.4 168.9 168.1 167 168.5 169.5 169.9 169.8 169.7 168.1 168 167.6 167.6 166.1 163.6 160.5 158.1 157.9 157.2 160.1 161.4 162 162.4 160.7 158.6 154.2 149.7 143.6 139.1 134.6 130.8 128.1
248.5 253.9 263.5 273.8 284 281 274.2 270 265.9 264 263.6 261 254.2 239.4 226.3 211 193.9 178.7 166.8 164.6 167.9 180.1 191.7 204.3 216.1 227 242.3 246.8 250.3 252.6 251.2 241.1 237.9 231.9 225.5 217.3 214.6 203.8 194.4 187.8 176.5 171.3 169.1 166.6 164.8 160.7 161.2 159.1 154.9 151.1 147.4 146.9 150 163.3 171.7 173.6 177.3 184.5 189 192.1 193.6 197.9 198.2 191.6 190.7 191.6 198 198.5 198.8 199.6 200.4 199.7 199.6 199.5 199.9 200 199.6 199.2 198.4 197.4 193.4 187 192.4 192.7 191.6 190.2 189.2 188.1 185.6 183.1 180.8 183.3 184.6 187.1 188.9 188.6 189 188 186.8 186.1 184.7 183.2 182.6 183.2 180.7 178.5 176.8 176.8 175.8 174.6 174.1 172.6 169.4 171.2 172.2 172.7 172.7 172.7 172.5 172 171.1 170.6 170.4 169.5 168.8 168.6 167.8 166.8 165.8 164.6 163.3 162.3 161.8 160.5 159 157.7 156.2 148.8 152.2 154.7 154.8 153.9 152.6 152.5 151.7 150.7 149.9 149.3 148.5 147.6 146.6 145.8 144.9 143.6 141.7 140.1 138.6 141.8 142.5 145.6 149.4 153.6 155.6 158.7 162.5 165.6 167.7 171.8 173.3 172.3 170.7 169.8 169.3 169.9 169.9 170.1 169.9 170.7 170.8 170.5 169.8 167.5 164.5 162.1 160.3 160.7 161.8 163 162.9 161.9 161.4 159.2 155.7 151.5 147.4 143.2 138.3 136.8 133.3 129.5
253 255.6 260.2 267.1 273.8 273.3 270.7 269.9 270.2 268.5 264.2 255.9 246.6 235.3 223.2 210 195.7 181.6 172 165.4 166.2 178.4 189.4 202.2 214.9 228.2 242.5 247.4 253.2 255.6 255 244.5 236.3 226.4 221.2 215.6 211.4 205.5 198 189.9 177.4 173.3 169.7 166.7 166.4 160.8 160.2 157.7 153.1 150.5 149.4 147.3 144.5 157.7 169.2 174.2 178.5 182.1 184.4 187.8 190.2 193.5 194.6 193.7 187.2 187.9 194.1 194.3 193.9 195.2 196 195.8 195.4 195 195.4 196.2 195.9 195.6 194.9 194 191.2 188.8 188.3 188.8 188 186.3 185.6 184.9 183 182.1 181.2 179.3 178.4 183.6 185.2 186.2 186.6 186.4 185.4 185.4 184.3 182.6 180.1 180.3 178.3 176.1 175.4 174.5 174.2 173 173 173.1 169.4 168.6 171 171.4 171.4 171.1 171 170.6 170.2 168.8 168.6 167.9 167.3 167 166.2 165.1 163.9 163 162.1 161 159.2 158 158.1 156.8 154.9 151.5 147.8 150.2 150.7 151.1 149.6 148.9 148.2 148.1 147 146.4 145.7 144.7 143.9 142.7 141.8 141.5 139.8 138.3 137 138.4 140.3 141.7 144.7 149.4 154.3 156.8 160.3 164.1 168.4 171.5 173.1 173.3 172.3 171.8 171.2 171.3 170.6 171.1 172.6 173.7 173.4 172.6 170.8 167.6 165.1 163.7 164.1 165.1 164.8 163.4 162.1 161.7 159.7 157.1 153.5 150.7 148 144.8 140.7 138.2 134.3 130.2
255.9 259.4 263.8 269.7 274.3 278.2 280.2 280 275.8 271 265.7 252.5 245.6 236 221.4 205.7 196.9 185.5 176.6 169.7 165 171.3 184.6 198.2 209.6 223 236.7 245.3 250.1 257.3 260.5 253.6 243.9 235.3 229.7 223.3 217.9 210.7 203.3 194.8 185.6 177.2 171.3 167.3 164.5 161.6 160.8 157.8 152.2 149.4 148.1 147.7 144.8 151.8 161.5 169.1 174.1 177.4 179.9 184.2 187.2 188.5 190.9 190.7 188.9 182.2 184.8 189.2 189.2 190.1 190.4 190 189.5 188.8 188.6 189.7 190.2 189.7 189.2 188.2 186.8 184.5 183.6 183.1 182.7 180.4 179.9 180.2 180.2 179.8 180.6 180 177.3 179.1 181.2 182.9 183 182.8 182.4 182.3 182.1 180.6 178.7 177.6 175.6 174.6 173.9 173.2 172.5 172.2 172.3 172.3 171.6 168.4 166.2 168.8 169.5 169.2 169.5 169.1 168.5 167.8 166.8 166.4 165.8 165.4 164.5 163.3 162.1 161 160.1 159.4 158.2 156.8 155.8 155.3 153.3 150 148.6 147.1 146.9 147.8 146.7 145.7 145.5 145.2 144.1 143 142.6 142.1 141.1 140.2 139.3 138.7 137.9 136.9 136.5 135.7 137.5 137.7 138.4 142.4 147.4 152.5 155.9 158.6 162.6 165.9 169.1 169.4 170.3 170.7 171.7 171.4 171.6 171.9 173.6 174.6 175 173.7 171.5 168.4 167 167.7 167.5 167.8 166.7 163.5 162.1 159.8 157.7 154.9 152.9 150.6 148.2 145.5 141.9 138.1 133.9 130
260.2 267.3 271.3 275.4 278.1 285 288.8 283.8 277.7 271.1 265.6 251.7 244.3 233.3 220.4 204.7 196.5 190.4 182.7 175.9 170.5 166 176.8 190.8 202 213.6 225.8 238.2 248 251.4 251.9 253.8 250.5 247.2 247.7 236.1 226.6 217.5 207.8 198.3 188.5 180.5 173.7 169.3 166.7 163.1 160.7 157.9 153.3 149.6 148.3 147.6 146.6 144.2 154.9 162.7 167.9 171.3 173 179.3 183.1 185.2 185.7 187.2 186.9 185.6 182 180.4 182 181.8 180 182 182 182.2 182.4 182.8 183.1 182 182.6 181.7 180.6 178.2 175.7 176.9 176.6 175.3 174.9 174.8 175.2 175.8 176.5 177.1 175.9 174.4 176.6 180.4 179.4 179.8 180.6 180.1 179.4 178.6 177.7 174.8 173.7 173.6 173.3 172.1 170.8 170.8 171.8 171.1 170.2 169.9 168.4 164.5 165 167.4 167.6 167.6 166.7 166 165.4 164.8 164.3 163.8 162.8 161.6 160.3 159.1 158.4 157.8 156.3 155.4 154.4 153.4 152.2 150.2 148.7 145.8 142.6 143.3 143.7 142.7 142.5 142.3 141.5 140.6 139.6 138.5 137.8 137.6 137.7 137 136.6 135.4 135.1 133.4 134.8 135.6 135.8 136.1 140.5 145.1 147.8 151.2 154.6 158.3 161.1 163.7 165.2 167.2 168.6 171.1 172.8 174.8 175.7 176 173.9 172.2 171.4 170.2 169.8 168.2 166.8 166.6 166.1 163.3 160.9 158.2 156.4 154.7 153.1 151.3 148.8 145.1 140.9 137.3 134 130.3
265.2 268.9 272.2 275.5 277.5 281.3 281.5 280.8 277.7 271.9 266.9 254.6 242.7 232.4 219.2 204.6 195.1 189.6 183.5 179.8 177.2 172 168.7 182.9 197.9 210.2 221 230.6 240.2 247.3 253.4 266.6 261.4 258.7 252.1 241.6 232.9 225.3 212.8 203.1 192.8 184.7 178 172.3 168.4 166.1 162.1 159.9 156.1 150.2 148.3 147.1 146.1 146 147.7 155.3 160.4 163 161.4 171 176.5 180.6 180.8 181.6 183.7 183.5 183.1 179.3 178.1 176.5 174.7 174 175 175.4 175.9 174.9 175.5 176.2 175.8 175.3 174.6 173.3 169.1 170.2 171.3 171.5 171.6 171.5 171.3 171.7 172.7 174 173.3 172.4 168 177.2 179.1 174.6 176.2 176.6 174.5 173.6 172.7 171.7 171 170.6 170.2 169.8 169.5 169.4 169.8 169.5 168.6 168.1 167.6 165.7 162.3 165.8 165.7 166 164.9 164.2 163.6 163.2 162.5 162.3 161.3 160 158.7 157.4 156.7 155.9 154.5 154.1 153 151.8 150.1 148.5 147.5 146.5 142.7 141.2 140.2 140.2 139.6 139.1 139.7 138.5 137.4 136.5 135.7 134.7 135.3 135.4 134.6 133.7 133.8 132.1 133.6 133.6 134.1 133.4 135 137.7 139.5 141.3 145 149.7 152.1 155 158.7 161.1 164.1 167.3 170.6 173.7 175.7 174.2 172.6 172.6 172 171.8 170 166.8 166.4 164.9 163.3 162.3 161.3 159.4 157 154.7 153.2 150.4 146.5 141.7 137.5 134 130.7 128.3
264.2 266.3 268.3 271.5 276.3 277.7 278.3 279.4 274.9 270.3 266.5 255.4 243.8 231.3 217.4 208.3 198.8 191.9 185 181.1 179.2 172.3 167.9 183.5 195.7 207 218.2 229.4 240.1 249.7 260.3 267.5 270.4 276.4 270.8 259.4 249.2 239 224.9 214.4 201.6 188.9 182.2 177.3 171.1 167.2 165.2 161.3 159.6 154.7 150.7 146.6 146.2 146.3 143.3 146.8 150.2 154.2 157.3 165.9 171.3 173.8 175.7 175.7 177.4 180.9 182.8 183.3 179.1 176.4 175.4 173 168.1 168.7 167.3 168 171.4 173 172.8 173.3 173.2 171.6 169.8 166.1 165.6 169 169.3 169.4 169.4 170.2 171.2 171.7 171.8 170.5 165.5 168.1 171.3 170.4 171.7 172.1 171 168.8 167.6 167.9 167.1 167 166.4 166 166.1 166.9 167.5 167.5 166.7 166.4 166.1 164.2 161.3 162.7 163.7 163.8 164.3 163.2 162 162.4 161.3 161.2 160.7 159.5 158.2 157.2 156 154.5 152.2 152.5 150.1 148.9 145.9 144.1 142.7 142.8 140.9 141.2 140.2 138.6 138.1 138.1 137.1 137.1 136 135.1 134.4 133.8 133.5 133.1 132.4 132.1 131.6 131.2 130.7 130.6 131 131.4 131.7 133 134.4 137.3 138.4 141.4 144.6 147.6 150.8 154 156.7 160.2 165 169.2 171.1 171.9 173.1 174.2 173.7 172.2 170.2 167.1 165.8 164.4 163.4 162.7 162.4 160.6 157.6 155.1 152.4 148.6 143.1 138.1 134.1 131.7 129.3 126.9
264.5 267.3 267.1 271.5 274.7 276 276.8 279 273.8 269.7 264.9 256.3 243.5 231.9 218.8 209.3 199.3 191.6 184.9 180.7 179.7 168.6 170 184.3 198.4 209.9 221.1 232.7 244.9 252.8 261.3 269.6 277.1 284.4 281.8 270.3 264.7 249 234.5 220.8 209.9 196.4 186.7 181 174.1 170.7 167.8 164.4 161.8 158.6 153.9 148.4 145.6 146 145.2 146.4 145.8 145.3 152.9 163.6 167.8 169.3 170.9 170.1 172.3 171.8 174.7 178.9 179.9 177.8 176.1 173.5 167.2 167.6 170.1 167.6 161.2 167.7 169.9 170.2 169.7 170.2 169.8 169 165.4 165.3 167.6 168.1 168.4 169.3 169.3 169.5 169.6 168.8 167.3 163.2 168.5 168.5 169.8 168.8 168.3 167.5 165.6 164.6 163.9 163.3 163.1 163.6 163.9 164.1 164.1 164.2 164.7 164.7 164.8 164.2 161.9 160.4 161 161.3 162.2 162.2 161.5 161.8 160.8 159.4 159.8 159 158 157.2 155.6 152.4 149.3 146.7 148.2 148.1 148.5 149.2 148.1 146.5 145.1 142.8 141.5 138.7 137.8 137 136 136.9 136.1 135.2 133.8 133.4 132.7 131.8 131.4 131.3 130.8 130.8 130 129.6 129.2 128.8 128.3 127.7 128.4 131.7 133.9 135.3 137.6 139.7 141.9 144.9 148.3 154.4 159.4 163.9 167.9 169.8 173.4 175.4 172.4 170.6 170 167.5 165.3 163.7 163 162.2 161.6 160.4 157.9 154.4 150.9 145.8 140.1 135 132 129.2 127.2 125.6
262.8 264.9 268.3 271.5 274.6 275.3 275.9 278.8 274.2 270.6 264 256.1 240.3 230.3 219.3 211.1 199 188.3 185.1 179.9 177.3 167.6 174.1 189.5 202.6 215.2 229.4 242.7 248.8 253.2 259.6 268.6 279 283.3 281.6 277.1 271.6 259.9 246.9 230.8 218.6 206.8 195.9 187.4 179.5 173.5 170.1 166.7 163.4 160.6 157.5 152.4 145.4 145.7 145.2 143.7 145.8 145.3 145.4 159.5 162.5 160.6 162 160.8 164.1 166.7 164.9 171.3 174.7 173.8 173 171.2 169.1 167.4 167.7 167 162.1 159.8 162.2 166.2 166.7 167.4 167.7 167.3 167.2 165 166 167.1 167.5 167.8 167.7 167.6 167.4 167.4 167.3 162.3 163.9 166.5 165.3 166.1 166.8 165.8 164.9 163.7 163 162.7 163.2 163.6 163.9 164.7 165.2 163.7 164.1 164.1 164.2 163.8 161.7 159.7 160 158.9 159.2 160.8 159.9 156.6 154.1 153.2 153.7 152.4 152.2 153.7 150.5 148.3 149.6 152.4 152.5 151.6 150.7 149.2 147.8 146 143.9 142.8 142 141.2 141.4 140.8 140.1 139.4 140 139.7 137.8 136 133.3 133.8 131.9 131.4 131.7 130.9 132.1 133.8 130.5 129.1 127.2 126.8 127 126.5 127.4 128.4 132.8 133.4 134 136.6 140.4 147.2 153.5 158.2 160.7 164.3 170.4 170.9 169.6 168.6 168.1 167 164.7 162.8 162.1 161.4 160.6 159.3 156.4 152 147.6 142.8 137.8 133.7 130.4 127.1 125.1 122.9
261.4 265.1 270 272.8 273.8 275.1 276.3 278.2 272.4 265.9 258.7 252.4 239.3 226.5 217.5 206.4 194.1 185.9 181.9 179.5 178.6 167.1 178.4 195.1 211.8 224 236.3 243.5 248.3 255.1 261.6 271.3 282.3 285.9 284.8 282.1 272.5 268.1 260.4 244.5 232.3 217.4 206.6 199.2 188.3 182.3 173.7 169.1 165.1 162.5 159.6 155.6 147.4 145 144.8 143.3 145.2 144.4 143.4 151 152.7 148.6 147.1 145.9 147.3 151.3 155.2 161.4 166.9 168.2 167.1 166.1 165.2 164.1 163.7 163.8 163.1 160.2 156.4 158.9 161.9 163.5 164.3 165.3 165.4 164.4 161.9 163.8 164.2 165.6 165.4 165.3 165.6 166.1 166.1 165.4 156.6 164.6 166 162.3 162.5 163.9 164.2 163.1 161.6 163.7 164.5 164.4 165.1 165.6 165.2 163.9 163.6 163.6 163.5 163.3 161.5 159.7 159.6 159 159.2 159.7 160.4 160.1 159.1 158.4 158.2 157.4 154.6 153.3 154.4 155.3 154.5 153.5 152.4 151.3 150.2 149 148 147 145.8 145.1 143.3 144.1 143.6 143.2 143.3 141.9 140.6 139.9 138.7 138.1 137.1 136.8 137.6 137.6 138.1 139.7 141 139 136.7 134.6 131.5 128.8 125.9 126.2 125.8 126.2 126 126.4 127.9 129.7 132.3 138.1 145.1 150 152.7 157.2 162.9 166.3 165.8 165.3 164.6 163.3 162.5 161.3 160.3 159.9 158.4 156 152.3 148.5 144 139.9 136.1 132 128.5 125.7 123.6 121.6
259.9 263.6 266 269.6 273.4 274.2 272.3 273.6 269.2 261 252.5 245.7 239.7 228.3 214.4 203.3 188.4 182.3 179.2 176.8 176.4 169.6 184.6 203.2 213.3 226.4 236.8 244.4 250.1 257.8 267.4 279.3 287.5 288.8 288.2 285.2 282.3 271.8 263.2 253.6 239.3 229.6 216.4 208.3 199 190.8 183.3 176.1 169.6 164.9 161.1 158 155.4 145.8 145 144.7 144.9 144.1 143 139 138.3 139.4 140.1 140.2 139.8 137.5 139.6 148.8 154.7 157.1 157.2 157.8 156.5 156.2 156.5 156.8 157 157.6 157.9 153.4 155.1 156 155.8 158.6 161.2 160.9 159.7 156.8 157.4 160.3 162.6 162.6 162.9 163.6 163.5 162.6 155.8 157.9 161.5 159.9 158.2 161.1 161.3 162.6 162 162.8 163.6 162.6 162 161.7 161.6 161.8 162.8 162.7 162.7 162.4 160.8 159.7 159.3 160.8 162.5 162.7 162.2 162.3 161.3 160.7 160.4 159.8 157.4 158 157.9 156.5 155.7 154.6 153.5 152.3 151.6 150.5 149.4 148.6 147.6 146.5 145.4 145.1 145 144.4 144.3 143.3 142.9 141.9 141 140.7 141.5 141.7 141.5 142.2 142.2 143.7 143.4 141 138.5 137 134.5 131.1 131.8 132.2 132.9 132.6 131.8 128.7 124.3 124.8 126.8 128.3 136.1 142.3 146 149.9 155.4 159.7 160.8 161 161.1 159.6 159.1 158.4 157.5 157.2 155.2 152 148.1 144.4 140.5 137.5 134.6 131.6 128.4 126 124.1 121.1
256.7 260.4 259.7 264 266.9 267.3 266.4 267 265.2 252 249.3 243.4 234 226.4 213.5 195.7 182.4 178 174.5 171.3 168.4 175.9 191.9 205.1 215.6 228 237.8 246.4 252.6 261.5 272 285.6 285.4 286.4 286.9 286.2 284 274 265.4 258.5 245.6 232 225.3 217.1 207.5 199.4 191.1 183.4 175.8 169.5 165.4 162 159.4 150.3 144.9 144.5 142.8 144 142.8 140.2 142.9 142.7 141.7 141.3 141.5 140.5 139.1 137.2 145 148.5 145.8 145.4 146.7 146.9 147.7 147.1 147.4 146.5 146.6 146.4 146.8 150.6 150.2 150.5 154.3 155.5 156 155.8 152.6 150 156.2 156.4 155.9 157 157 156.2 153.1 150.4 154.8 154.8 155.7 158.3 160.3 162.8 162.9 162.9 162.4 161.4 160 159.9 160 160 161.3 161.6 161.4 160.9 162.9 163.2 163.1 163.9 164.6 164.5 164.5 163.6 162.7 161.6 161.2 160.2 159 158.9 158.4 157.7 156.8 155.6 154.4 153.4 152.6 151.9 150.9 149.9 148.6 147.8 148.6 148 147.8 146.3 146.8 147.5 146.9 146.8 146.6 148.7 147.9 147.4 146.7 146.4 145.8 144.8 143.1 141.6 139.3 137.9 135.6 136.7 137 135.3 136.1 136.6 135.2 135.2 134.1 126.2 123.9 124.7 132.1 137.7 140.8 143.9 147.4 151.6 154.3 154.8 154.4 153.8 153.9 153.8 153.1 152 150.4 147.8 144.6 142.3 140.1 137.4 134.5 131.6 128.6 126 123.5 120.6
259.7 260.9 259.3 259.7 261.5 263 264.7 262.2 258.1 244.3 242.8 235.4 226.4 219.6 208.4 189.2 176.1 173.3 173.4 169.2 172.6 183.2 199 211.8 222.8 230.5 240.6 248.1 255.1 263 274.2 284.2 284.3 284 284.5 283.3 279.1 274.3 265.9 261.5 258.7 247.7 235.3 224.3 215.1 205.3 198.2 188.2 180.1 173.8 169.3 164.5 160.4 156.8 148.5 144.1 142.6 143.8 143.4 140.5 146.5 146.3 149.1 154.5 157.1 151.9 144.2 140.1 140.2 141.6 141.6 141.4 141.2 141.2 141.2 140.6 140.3 140.1 138.9 138.2 139.4 144.3 144.5 143.6 145.5 146.2 147.1 147.7 147.5 142.5 146.8 147.8 147.7 148.9 149.3 149 147.7 145.4 150.1 150.9 152.4 157.1 160.5 162.3 163.8 163.5 162.7 161 159.5 160.2 159.7 159.6 160.2 161.1 161.4 165.3 167.3 167.6 167.4 168.1 168.4 167.3 166.3 165.1 164 163 162.4 162 160.6 160.2 159 158.1 157.5 157.2 155.5 154.3 153.5 153.1 153.1 151.1 150.1 151.3 151.5 151.7 151.2 150.5 151.8 153.8 154 154 152.9 153.5 152.2 150.9 149.5 148.7 146.4 144.6 142.6 141.3 138.6 137 136.5 138 139.2 138.8 139.1 139.4 138.5 136.9 134.8 133.3 123.5 123.2 124.2 132.7 136.4 138.9 140.7 144.1 146 147.3 147.6 148.2 148.5 148.3 148.2 147.1 146.2 145.4 142.8 141.2 138.9 136.2 133.6 131.3 127.8 125.1 122.9 120.3
263.2 262.8 261.3 260.5 261.2 263.4 261.3 263.3 261 247.5 237.9 231.4 220.7 213.6 198.2 183.4 173.2 170.6 169.4 169 183.9 198 209.9 218.9 228.2 237.4 245.7 251.5 258.1 265.8 275.7 282.5 283.1 282.5 281.7 280.2 277.7 273.6 270.9 269.8 264.2 259.6 245.4 238.3 228.7 217.4 207.8 199.3 187.8 178.8 172 166.6 162.6 160.9 155.8 148.4 145.9 142.8 143.2 140.4 155.7 160.1 163.4 165.9 166.7 166.3 154.8 150.5 140.5 135.8 140.4 140.8 141.1 140.9 140.2 139.7 139.5 138.9 138.2 137.6 137.2 137.1 136.7 137.1 138.8 140.1 139 140.4 140.3 139 138.7 139.4 139.9 141.5 142 142.1 143.3 142.1 146.2 146.7 151.5 156.7 158.9 160.8 163.1 163.8 162.7 160.9 159.3 160.2 160.2 160.2 160.3 163.5 165.7 168.5 171.4 172.8 171.6 171.7 170.8 169.7 168.8 167.7 166.6 165.7 164.2 161.8 160.8 160 159.4 158.7 158.3 157.5 156.3 155.2 155.4 155.7 154.9 154.8 154.1 155.5 156.1 157.2 157.9 158.2 158.9 159.3 158.9 159 158.3 157.5 155.7 153.5 152 149.3 146.3 144.9 143.4 142.3 140 139 137.6 138.8 142.5 142.4 140.2 139.4 137.3 136.3 135.5 135.1 131.8 130.5 121.7 124.1 130.2 134.3 135.4 136.6 138.1 139.9 141.8 142.9 143.1 143.9 143.2 142.5 142.1 141.5 140.2 138.4 136.4 134 131.9 129.6 127 124.3 121.7 119.6
255.3 254.7 257 258.8 261.9 260.8 262.7 265.1 260.5 252.3 235.7 230.8 225.4 211.2 193.3 179.6 173.1 170.2 170.4 183.6 198.8 209.1 218.1 227.7 238.8 248.7 253.4 256.2 262.6 271.1 276.8 279.6 281.2 283.5 287.9 288.8 286.6 284.4 274.2 271.3 266.9 256.8 248.2 240.6 237.9 235.6 225.5 214.4 203.1 191.4 183.9 176.8 170.8 165.4 161.6 158.8 152.9 148 143.7 147.6 154.1 158.8 163.2 166.4 170.6 170.8 167.9 156.3 152.8 144.9 134.5 138 138.1 139.7 139.1 138.6 138.6 138.5 138 137.4 136.8 136.8 136.3 136.3 136.3 136.4 136.5 136.4 136.8 135.9 135.9 135.8 135.8 135.8 137.2 137 138 139.4 141.2 145.5 150.6 155.2 158.1 160.6 162.1 162.5 160.7 159.8 160.2 161.1 161.8 161.9 165.2 170.1 172.3 173.2 174.6 175.3 173.6 172.7 172.7 172.1 171.2 170.3 168.6 166.8 164.5 161.7 162.7 162.4 162.1 160.8 160 159.2 158.8 158.1 158.3 157.8 158.1 157.2 158.5 160.7 161.7 163.4 164.6 164.8 164.5 163.7 163.1 160.9 161.1 157.8 156.2 155.3 154.4 152 148.5 146.4 145 144.1 141.9 141 140.3 142 144.8 143.6 142.9 141.2 139.2 138 136.3 132.9 133.5 131.3 126 122.7 122.5 127.9 129.4 131.1 132.8 133.5 135 137.6 137.4 137.1 136.4 137.7 137.5 136.3 135.5 133.6 131.7 129.3 127.1 125.9 123.6 122.2 119.4 117.3
247.9 251.3 255.7 259.9 263 261.8 257.5 253.4 254.8 248.6 234.1 231.7 219.5 206.6 190.5 177 172.3 170.8 176.5 190.5 206.1 220.3 231.6 239.8 245.6 251.1 258.8 259.9 265.8 271.9 276.4 278.4 282.5 290.8 299.8 302.5 297.1 287.1 278.8 274.2 270.4 262.7 252.4 243.4 239.4 237.4 232.4 226.4 213.2 200.2 192.9 184.8 178.8 171.3 165.8 164 160.8 157.4 154.6 153.5 153.7 156.6 161.7 166.8 175.9 169.6 167.2 168.4 166.2 161.8 156.9 138.1 134.7 136.1 138 138.5 137.7 138.1 137.7 137.2 136.7 136.3 135.9 135.7 135 135 135 135.5 135 135.1 134.8 134.5 134.4 134.4 134.5 134.5 134.9 135.6 138.9 143.3 148.9 152 157 158.6 161 161.2 159.3 160.5 162.2 163.3 163.7 163.8 165.6 170.3 171.3 173 173.4 173.9 174 173.8 173.6 173.2 171.7 170 168.5 166.9 164.1 163.7 164.6 165.1 164.8 163.5 162.7 162.5 161.4 160.7 161.3 158.8 160.4 161.5 164.3 165.6 167.1 168 168 168.2 168.2 167 164.4 163.5 164 162 160.6 157.7 156.8 154.2 151.1 149.4 147.3 146.6 145.1 144.1 144.2 145.6 144.9 145.6 146.5 144.2 142.5 141.1 138.4 136 133.4 131 128.9 122.5 121.1 121.4 123.5 125.3 127.5 127.7 127.9 130.1 130.4 129.3 128.9 128.7 128.4 129.4 128.3 126.7 125.4 124.9 122.4 121.1 119.6 118.6 117.8 115.8
242.1 250.4 256.6 260.6 265.8 266.8 262.7 257.5 244.5 244 228.2 229 217.9 201.6 187.5 176.4 171.4 170.2 182.4 200.1 222.4 230.7 236 241.6 249 254.1 257.8 261.9 266.1 271.7 276.7 283.2 290.8 296.5 296.9 295.7 293.4 284.3 276.9 271.4 265.1 263.6 255.4 243.3 237.6 233.6 227.8 217.5 210.3 199.6 192.2 185.6 178.6 172.4 167.2 163.3 161.3 157.8 155.6 149.4 149.4 150.1 154.8 157.1 158.9 159.5 158.4 158.2 156.6 156.1 155.5 152.5 148.1 136.5 133.7 136.3 137 136.9 137.3 136.9 136.5 136.1 135.7 136 134.9 134.8 134.4 134.7 134.5 134.4 134.2 134 134 134 134.3 133.8 133.8 134.2 135.4 139.5 142.9 148.3 154.7 154.9 156.5 157 157.4 160.8 162 163 163.3 164.5 167.6 169 169.2 169.6 170 170.5 170.7 170.8 169.9 170 169.5 168.9 167.8 165 166.5 166.3 166.7 167.2 167.2 166.4 165.6 164.6 163.6 163.2 162.1 161.7 164 166.6 167.8 169.4 170.4 170.8 170.1 169.4 169.8 169.7 168.6 168.1 167.1 165.4 163.6 161.9 159.8 156.5 153 151 149.9 149.5 148.9 147.4 147.9 147.6 148.1 147.3 144.7 142.4 141.5 140 137 132.3 129.1 126.6 126.1 124.2 121.9 119.8 120 119.9 120.8 122.1 121.8 123.7 124.3 122.2 122.5 122.1 121.5 122.2 121.3 119.6 119.4 118.3 116.7 115.3 114 113.2 113 112.7
244.4 252.4 259.3 263.4 265.4 264.3 259.6 252.5 246.4 246.7 234.7 225.7 216.5 200.9 187.8 176 172.4 171 187.9 211.2 223.3 230.3 237.7 245.1 251.9 256 258.4 262.7 267.8 271.4 278.9 288.5 296.3 295 294.7 292.7 289.5 283.5 278.3 272.4 265.5 261.8 260.8 251.5 238.2 229.4 219.6 211.1 205.5 197.6 189.9 182.5 176.2 171.6 166.4 163 160.2 156.5 153.8 150.4 147.7 147.1 148.8 149.8 150.8 150.5 149.9 149.1 148.5 146.9 145.9 144.3 143.2 142.8 137.3 133.8 135.7 136.5 136.8 136.7 136.2 136.3 135.8 135.9 134.9 134.9 135.1 134 133.8 134.2 134 133.7 133.6 133.8 134 133.3 133.3 133.5 133.9 135.5 136.7 139.3 147.4 149.8 149.2 154.3 158.7 161.6 163.3 163.2 164 167.1 170.1 170 170.8 170.7 170.6 170.2 170.6 170.4 169.4 169.2 168.9 167.7 167.5 168.7 170.6 172.1 172.7 172.1 170.2 168 166.6 165.8 164.6 163.7 161.9 164.6 167.1 168.4 169.8 171.1 171.9 172.2 172.6 172.3 173.6 173.2 172.4 171.3 170 168.4 166.8 164.1 160.7 156.9 156.9 155.1 154.4 153.4 152 151 150.4 149.7 149.7 147.6 145 142.4 141.3 136.1 134.9 133.6 131 129.1 126.2 123.9 123.2 120.8 121.2 120 118.4 118.1 118.1 118.7 121 123.2 121.1 120 117.6 115.7 115.5 115.2 114.6 113.5 112.1 111 110.5 109.7 108.6 107.4
249.9 256.5 259.9 262.4 262.5 260.2 259.4 251.4 247.9 245.4 234.1 225.5 213.4 200.2 187.5 177.8 176.7 171.7 193.2 215.2 222.4 230.8 238.4 243.8 248.4 253.6 256.3 258.9 269.2 277.3 285.3 295.1 297.6 293.9 291.6 288.9 285.9 281.8 277.6 273.2 268.7 261.3 257.2 253.5 244.8 231.5 218.7 210.5 204 196.6 191 184.1 177.2 172.8 168 164.7 161.9 158.5 156.2 151.7 148.9 147.2 147 146.7 145.5 145 144 143 142.3 141.3 140.6 140.3 139.8 140 139.9 136.7 135.7 133.7 135.7 136.4 136 135.7 135.9 135 134.8 134.6 134.8 134 133.3 133.9 134.1 133.9 133.7 133.7 133.4 133.1 133.3 133.2 133.3 133 133.5 134.3 137.6 142 147.1 152.6 157.4 161.9 163 164.4 167.4 168.4 169.1 170.7 172 172.8 172 171.8 172.6 171.8 171.6 171.9 171 168.6 170.3 170.8 170.5 170.7 171.2 173 171.9 170.3 168.2 165.1 163.9 164.3 165 166.3 167.6 168.8 170.9 172.7 173.5 174.9 175.6 175.7 176.2 176.1 175.5 173.7 171.7 169.6 166.2 166.1 164 160.6 159.2 159 157.8 155 153.5 153.2 153.5 151.9 149 148.2 145.5 142 139.1 137.9 134.8 131.8 128.6 127.7 126.8 124.2 122.9 123.4 125.1 123.5 118.2 117.1 117.5 115.7 115.5 115.9 116.8 116.5 116 114.5 114.1 112.9 111.2 111.1 109.4 108 107.3 106.7 106.8 106.1
257.6 262.7 262.2 263.1 259.3 253.7 252.6 250.4 244.6 236.9 230.7 223.6 216.9 201.6 192.4 184.2 178.8 171.8 191.1 207.7 222.1 229.2 234.7 240.8 247.1 249.3 252.4 261 273.3 282.2 292.4 296.8 294.3 293.3 291.8 288.9 284.1 278.4 273.4 269.7 267.4 267.9 256.5 248.3 240 234.2 218.3 209.3 201.3 195.9 185.8 174.4 170.3 173.2 170 165.3 155.8 155.6 155.2 151.2 150.4 147.7 148.1 146.9 144.7 142.5 141.6 140.9 139.8 139.5 139 139.4 139.7 139.7 139.8 137.8 136.6 135.8 134.4 133.3 136 135.7 135.6 135.1 135 134.5 133.7 133.3 132.8 133.7 133.6 133.6 133.6 133.7 133.1 132.5 132.6 132.7 132.9 132.5 132.2 131.9 133.5 140.7 145.4 152 154.8 159.4 161.8 163.5 166.9 168.1 169.3 171.2 172.1 173.8 174.8 175.2 174.8 174.9 175.3 173.7 173.4 168.9 170.6 170.2 169.5 169.3 169.2 168.3 169.4 168.7 166.3 165.2 165.7 166.6 167.5 168.2 169.4 171.3 173.2 174.7 176.3 177.6 178.7 178.8 178.9 178.6 177 176.2 175 172.5 170.7 168.4 165.7 164.6 163.4 161.7 159.3 159.7 158.8 157.7 156.2 154.6 152.4 149.3 146.2 143.2 139.4 135.6 131.7 129.2 127.5 127.7 128.4 127 126.7 125.6 125.1 123.8 122.4 119.4 116.8 117.4 115.1 114.6 113.7 115.8 115.7 113.9 113.4 110.6 108.8 108.3 107.7 107.1 107.2 106.6 106.2 105.5
266.6 268.3 266.2 261.8 256.6 251 248.4 244.9 238.4 235.6 230.6 224.4 218.7 205.7 196 189.1 178.9 172.6 185.4 200.1 215.4 227.1 233.6 238.4 241.7 245.7 253.7 263.9 276.4 286.6 288.5 291.9 293.5 293.1 291.4 289.7 285.7 276.6 270.3 266.1 263.4 263.4 256.5 244.1 230.9 228.7 220.7 209.8 194.4 185.1 178.4 168.5 164.8 163.2 158.6 155 152.8 151.6 148.9 147.3 146.1 144.9 144.4 143.4 143.7 142.2 140.4 139.5 138.9 138.7 138.4 139.2 139.1 138.9 139.3 138.3 136.5 135.9 136.2 136.1 134.4 132.9 135.4 135.2 134.9 134.1 133.7 133.5 133.1 133.3 133.2 133.2 133.3 133.4 132.9 132.3 131.8 131.8 132.1 131.7 130.7 130.5 131.7 136.1 144.5 148.1 151.1 159.5 164.3 165.6 166.8 167.7 169.5 171.2 172.5 174.1 174.8 174.8 174.8 174.1 173.5 172.3 170.9 167.9 168.8 169.1 168.7 169 167.3 167 167.8 167.5 167.2 169.1 169.9 170.6 171.2 171.9 173 174.2 175.8 177.6 179 179.6 180.1 179.4 178.6 179 178.1 177.5 176.2 174 171.8 170 168 166.6 165 162.8 161.8 161.4 159.4 157.9 155.6 152.8 150 146.5 142.6 139.4 137.4 134.1 130.6 128 126.9 129.2 129.7 128.3 126.9 125.9 125.1 122.9 120.5 119.4 117.5 116.9 115.8 115.3 114.7 115.5 115.1 112.8 111.9 110.1 108.8 108.1 107.8 107.7 107.8 107 106.5 106.5
273.4 274.9 274.3 266.9 258.6 253.9 252.1 242.3 232.3 228.4 224.3 222.6 217.4 205.4 195.6 188.4 177.1 174 180.9 195.5 209.3 222.1 229.4 233.4 240.2 248.7 259.4 270.4 278.3 283.6 286.2 289.7 290.9 291.1 290.3 290.9 291.9 282.8 276.1 273.5 273.5 267.1 262.3 249.5 238.9 223.8 215.6 207.3 189.8 183.3 173.2 174.7 169.7 160.8 162.4 160 157.6 155.7 153.3 151.6 147.9 144.7 143 141.5 141 140.6 140 139.2 138.7 138.4 138.5 138.7 138.5 138.3 138.5 137.7 136.4 136.4 136.5 136.1 135.7 134.7 133.2 134.4 134.2 134.2 134 133.7 133.5 132.9 132.7 132.9 133.1 133 132.5 131.9 131.6 131.7 131.6 130.2 130.3 129.9 129.7 131.4 140 143.7 149.5 160.3 163.9 165.5 167.2 167.9 168.7 169.7 172.3 173.5 173.2 172.2 171.9 170.9 169.7 169.2 168.6 167.9 165.8 166.5 167.5 168 170.1 171.7 171.3 170.3 172.4 173 173.7 175 175.6 176.2 177.3 178.7 178.7 179.2 180 180.5 180.2 180.1 179.4 178.7 177.8 176.8 176 174 171.5 169.3 167.4 166.3 165 163.3 161.7 159.4 157.5 154.9 152.4 149.6 146 142.5 139.9 137.9 135.3 132.1 128.7 126.5 127.5 130 130.3 129.1 127.2 126 124.5 122.5 119.9 118.2 116.9 116 115.3 114.6 113.4 113.9 112.3 110.6 109.9 109.5 109.1 109 109.4 109.9 110.2 108.9 108.5 108.9
270.5 273.4 269 264 260.2 248.9 241.6 237.1 229.7 227.1 218.9 216.9 209.8 200.4 194.3 186.8 177.8 173.3 180.5 193 204.7 213.4 224.3 235 244.5 256.6 270.1 275.7 280.4 283.7 285.2 286.6 288.7 290.2 291.4 290.2 288.1 278.8 274.4 279.7 286.8 281.6 268.8 256.8 249.7 231 214.6 207.2 197.8 182.6 175 170.8 164.8 162.9 163 161.9 160.3 157.9 155.3 152.4 149.1 146.2 144.5 142.7 141.7 141 139.9 139.5 139.1 138.3 138.7 138.7 138.5 138.4 137.7 137.6 136 136 136 135 135.2 134.5 134.6 133.5 132.4 132.7 132.9 133.1 133.2 132.6 132.5 132.7 132.8 132.6 132.1 131.6 131.3 131.5 130.9 130.1 130.3 130.1 129.4 129 133.3 138.9 146.1 156.7 161.8 164.4 166.3 167.8 168.7 169.7 170.8 171.6 170.9 169.6 168.8 167.9 167.6 167.1 165.8 165.1 165.9 169.1 171.4 172.7 174.8 175.6 174.7 174.4 176.6 177.4 178 178.8 180 180.9 181.6 181.6 181.2 180.4 180 179.2 178.3 177.4 177 176.2 175.5 174.6 173.7 171.9 170.3 168.9 167.1 165.6 163.9 161.6 159.4 156.8 153.8 150.8 148.5 145.8 142.9 139.8 137.8 135.3 132.8 129.6 127.7 126 127.6 128.4 129 128.1 126.7 125.3 123.9 121.7 119.5 117.2 116.1 115.4 115.3 115.3 114.5 114.6 113.9 112.6 111.7 111.4 111.4 111.7 112.3 114.1 113.5 112.8 113.2 112.9
265.7 265.5 259.2 255.4 254.3 246.2 236.3 229.2 225.4 221.6 216.2 207.9 203.6 196.4 190.9 192 183.8 174.4 175.9 189.4 204.1 217.7 228.8 240.3 251.1 265.9 272.4 277.1 284 285.9 287.8 288.1 289.2 286.6 282.6 280.2 278.9 271.4 271.1 272.7 279.7 274.1 263.6 245.8 241.5 224.1 208.3 190.4 184.3 184.1 173.7 175 168.9 166.7 165.3 161.7 161.2 158 154.1 151 149 147.5 146.3 145.3 146.1 145.8 144.3 142.1 140.9 140 139.3 139.1 138.6 138.4 137.1 135.5 135.6 135.4 135.4 136.1 136 135.2 134.4 133.9 133.5 132.4 132.5 132.7 132.9 132.4 132.4 132.4 132.6 132.2 131.7 131.2 131.1 131.2 130.9 130.1 130.4 130.1 129.4 128.9 128.9 133 143.9 152 159 161.9 164.6 166.6 166.9 167 168 169.2 168.6 168.1 167.5 167 166.1 164.5 162.7 165.3 168.9 173.4 174.9 175.8 177.1 177.4 175.6 178.1 179.5 180.4 181.1 181.3 182.7 183.8 182.5 181.9 181.1 179.8 178.6 177 176.1 175.2 174.3 172.6 172.3 171.1 169.9 169.2 168.1 166.4 164.8 162.7 160.5 158 155.8 153.3 149.9 145.9 144.5 140.7 137.1 133.5 132.8 131.9 129.8 127.6 126.2 124.8 126.4 126.2 125.9 126.3 124.9 123 122.1 120.1 118.1 116.7 116.5 116.5 116.8 116.9 116 115.6 115.4 114.8 114.4 114.1 113.9 115.6 118.5 121 120.8 120 119.2 116.6
252.8 253 249.9 245.2 247.8 242.4 234.4 228.8 225.8 220.8 214.4 205.6 198.3 193.1 191 189.8 179.5 175.9 175.2 191 207.9 219.8 230.1 245.6 259.6 266.3 275.1 280.6 281.1 282.4 281.7 280.5 278 276.7 272.9 271.2 269.7 271.1 271.1 271.9 272.3 270.1 266.7 259.2 245 226.4 214 208.3 196.5 184.8 176 173.8 171 168.5 165.5 163.5 161.9 156.7 154.8 155.1 154.2 153.6 152.9 152.2 151 149.4 147.7 146.6 145.7 144.1 143 141.6 140.6 139 138.3 139.4 138.4 138.5 141 143.1 144.5 143.1 142.7 140 138.4 138.9 137.3 132.4 132.4 132.4 132.6 132.6 132.4 132 131.5 131.1 130.6 130.5 130.3 130 130.4 130.1 129.5 129.3 129 128.6 137.5 146.2 155.2 158.5 162.5 163.6 164.5 165.7 167.3 169.6 169.5 169.1 167.4 165.2 163 161 160.3 162.2 166.3 170 172.1 174.8 176.7 176.9 179.9 181.5 182.5 182.7 182.9 183.2 183.6 184.5 182.6 181.5 180.1 178.8 176.9 174.3 173 172.1 171.1 169.9 168.3 167.1 165.8 164.8 163.1 160.8 160.2 158.6 156.7 154.5 152.1 149.3 146 143.5 141 137.8 135.9 134.4 130.9 127.7 127.6 126.6 125.7 124.4 125 124.7 123.4 122.6 121.1 120.1 120.6 119.7 118.6 117.8 117.6 118 118.4 118.6 118.4 118.1 118.4 119.1 118.2 120.1 122.1 124.6 126.9 128.2 126.8 124.9 121.7 118.4
242.7 242.7 242.5 238.9 240.4 238.9 231.7 220.8 221.9 218.6 213.9 203.5 196.7 192.1 189.4 185.6 178.8 176.6 177.7 195.4 208.4 222.8 238 255.3 264.4 266.4 271.7 274.4 274.2 275.5 273.1 270.8 270.7 269.4 269.4 269.4 269.4 274 274.7 274 273.1 273.7 276.6 271.3 257.9 246.1 228.8 213.3 200.5 193.6 183.2 178.4 174.1 171.6 167.7 164.8 162.1 161.4 161.1 160.4 159.4 157.6 156.2 155.2 154.1 152.7 151.3 150.6 150.3 149.1 148 146.4 144.9 145.4 145.7 146.1 146.3 148.4 150.8 151.5 152.6 152.7 151.7 150.9 151.2 150.5 146.8 142.3 139.1 133.9 132.4 132.4 132.4 132.1 131.7 131.6 131.2 130.9 130.3 129.9 130.3 129.7 129.6 129.4 129.1 128.6 130.6 140.4 149.5 153.6 158.4 162.7 164.7 166.8 169.4 172 170.1 167.9 164.8 162.1 160 159.3 159 158.7 161.1 164.6 168.1 172 175.3 178.4 182 183.1 185.8 186.7 186.8 186.5 186 184.6 182.8 181.1 179.1 177.1 174.9 172.3 169.8 169 167.9 166.7 165.1 163.6 161.4 160.1 157.8 155.9 154.5 153.6 152 148.9 148.6 145.3 142.3 140.6 137.7 135.7 133.3 131.1 129.9 127.9 125.8 124.2 123.9 123.2 122.6 122.4 121.6 121.1 120.5 119.5 118.9 119.5 119.5 120.9 120.8 121.6 121.3 120.8 121.5 121.7 122.8 123.1 125.4 127.3 128.8 130.2 130.6 130.5 128.7 125.7 122.2 118.3
230.2 230.8 234.5 232.6 232.5 230.5 224.8 211.9 211.7 213.4 208.9 197.5 194.3 192.7 188.8 185.3 178.7 176.5 185.4 200 212 228.6 246.7 257.3 260.4 262.6 265.8 266.9 266.5 268.9 269.3 270.1 269.9 269.4 269.4 269.4 269.5 274 275.8 276.3 277.7 279.8 283.6 279.2 266.7 251.2 237.6 220.8 206.8 198.3 192.1 181.8 177.6 172.8 169.6 166.7 164.6 164.4 163.3 163 161.8 161.7 159.2 158.2 157.2 156.1 155.1 154.5 154.3 153.2 152.2 152.1 151.7 151.5 154.1 156.1 158.1 157.8 159.7 158.9 159.3 159 157.5 156.5 154.9 153.4 151.4 148.8 146.3 142.5 138.8 135 133.2 131.7 131.4 131.2 130.8 130.6 130.2 129.6 130 129.6 129.3 129.3 129.1 128.8 128.5 135.4 146.2 153.7 161 164.9 167.1 169.1 170.7 170.5 167.8 164.6 164 161 157.2 156.7 156.8 156.9 158.1 160.6 165.2 168.7 174.6 179.6 182.7 185.3 189.3 190 191 189.7 186.7 183.8 182.4 179.2 177 175.1 172.7 170.1 167.6 165.7 164.5 163.3 162 160.1 159.3 157.2 154 152.9 152.5 150.8 148 146.2 144 141.5 138 135.4 133.3 130.4 128.6 126.8 126 125.1 124.2 123.1 122.7 122.3 121.8 121.3 120.2 119.2 119.4 119.7 121 123.6 124.1 125.3 125.6 125.9 125.2 124.7 123.6 126.6 127.1 129.9 130.6 131.7 132.6 133.3 132.8 131.5 129.1 126 122.5 118.1
218.4 224 227.2 226 222.5 221.8 214.8 201.8 204.3 206.4 202.4 195.9 195.1 196 189.7 180.1 178.8 179.2 190.6 200.5 218.7 239.2 249.5 255.1 257 257.6 259.6 263.9 264.9 269.7 272.6 277.4 279.6 282.7 277.7 273 275.9 278.3 282.6 284.5 288.7 295.4 302.5 291.9 280.5 265.4 247.2 232.2 217.4 201.7 196.8 188.6 183.8 178.4 173.3 169.7 167.7 167.6 167.2 166.5 167.1 166.9 164 162.5 161 159.9 159.6 160.5 159.9 159 157.9 158.3 158.5 159.3 160.4 162.2 163 163.7 163.7 163.5 162 161.1 160 158.7 156.8 155.2 153.5 151.1 148.2 144.4 143 140.6 137.3 133.5 130.3 129.9 130.1 130.2 130 129.6 129.2 129.7 128.9 129 128.6 128 127.6 131.7 142.3 154.6 164.2 167.4 168.7 168.8 168.2 167.3 166.3 163.8 161.5 158.2 154.5 154.5 154.6 154.6 155.6 157.6 163.2 168.6 173.6 177.7 182 185.6 190.2 192.5 191.2 188.7 185.9 183 180.6 177.9 175.1 172.9 170.3 167.7 165 163.2 161.2 160 158.8 156.9 153.7 152 150 147.2 146.1 144.7 141.8 140.2 138.9 136.9 134.9 132.6 130.3 127.9 126.4 125.3 124.6 124 123.1 123.4 122 121.4 121 120.5 121.4 121.9 124.1 127 127.8 128.5 129 129.1 128.6 129 127.7 127.6 129.1 130.7 131.1 132 133.9 134.3 135.4 135.6 133.5 130.6 128.3 125 121.1 116.5
205.1 212.3 217.1 217 212.2 209.8 205.7 196.3 195.1 196.6 196.7 196.8 195.7 191.7 183.6 178 178.8 182 190 213.1 231.2 239.2 244.4 248.7 250.4 256 257.5 268.3 265.5 272.8 274.8 279.7 279.5 281.3 283.9 284.5 287.2 291.7 296.7 301.8 305.3 305.5 301.5 297.1 289.7 279.9 262.2 244.5 233.3 217.8 207.1 198.2 191.4 186.4 175.9 174.3 176 175 173.1 172.3 174.7 172.6 170.3 169.7 168.6 167.6 166.9 166.1 165.5 164.9 163.9 163.3 163.5 162.1 163.7 163.9 166.7 165.9 165.2 164.1 162.5 161.4 159.5 157.7 155.9 154.8 153.2 149 146.2 143.5 141.1 138.1 138.3 136.2 133.7 131.4 130.4 130.2 128.7 128.3 129.1 129.3 128.6 129 128.7 128.5 128.2 131.1 139.5 150.4 161.2 164.8 165.9 166.5 165.8 164.6 163.6 160.4 157 153.3 152.1 151.9 152 152.3 153.3 156.4 161.8 166.2 170.8 175.8 180.4 184.1 188 190.1 188.9 187.5 185.3 182.1 179.3 176.6 173.8 170.7 168.1 165.5 162.6 160.7 158.6 156.6 155.7 153.2 152.2 149.9 148.8 146.1 144.1 142.9 139.1 137.1 137 135.7 133.6 131.3 130 127.7 125.8 124.7 124.1 123.3 122.8 122.9 122.9 123.7 124.3 126.9 129.1 130.7 131.9 132.2 132.3 133.6 133.4 132.3 131.5 132.3 129.5 129.6 131.7 134.2 133.8 135.8 137.3 137.2 136.7 135.1 131.1 128.4 125.8 123.5 119.5 114.6
195.3 199 204.8 203.9 198.8 196.1 195 192.6 191.7 194.3 186.3 188 189.5 186.4 180 175.7 178.1 191.9 209.8 222.7 230.7 236.5 240.6 243.4 245.1 251.6 257.3 263.2 265.5 268.6 275.3 279.7 283 287.4 286.5 291.8 299.1 299.8 300 300.6 298.7 298.2 297.3 299.6 297.3 291 277.2 257.6 243.3 230.5 217.8 207.8 199.4 184.1 183.9 184.7 182.1 179.9 178.7 178.6 179.9 177.2 177.1 176.6 176.1 175.5 174.4 173.5 172.5 171.4 170.6 169.8 168.7 167.3 167.3 167 168.5 167.6 166.8 164.7 163.2 161.7 159.8 157.6 155.2 155.3 152.2 149.7 146.2 142.3 139.9 137.3 135.3 133.2 131 130.5 129.9 130.3 129.5 130.1 129.4 129.6 129.4 128.4 128.5 127.2 126.8 127.8 136.2 148.4 154.7 158.6 160.7 161.1 160.4 161.1 158.9 154.7 152.1 150 149.7 149.4 150.1 150.6 151.7 154.9 159.9 163.7 168.1 172.7 177.9 182.3 185.2 186.8 186.8 185.4 182.8 180.7 177.8 174.4 172.1 169 165.9 163.2 160.3 158.1 156.3 154.2 152.2 150.6 148.5 147.2 147.1 144.7 142.9 137.7 134.3 135.3 134.2 132.6 130.5 129.2 127.2 126.4 126.9 124.8 124.4 125.5 125.8 126.2 128.4 130.8 132.9 135.4 136.8 137.2 137.2 137.3 137.3 137.5 136.2 134.9 134.8 135.5 132 132.6 135.1 136 136.8 139.9 140.3 139.4 136.9 135.1 132.2 128.5 125.2 122 118.2 114.1
186.2 185.2 187.3 186.5 184.3 186.6 185.5 184.7 183.7 180 184.3 178.1 178.3 176.3 176.4 180.9 191.8 206.5 216.8 222.2 228.7 233.9 237.3 239.1 243.6 247.9 255.6 261.2 263.9 267 272.4 276.5 283.6 293.3 293.1 292.1 290.6 290.6 291.4 294.5 295.4 293.3 293.1 293.6 295.6 290.1 277.2 262.6 247.3 231.4 219.3 209.5 197 188.8 193.5 190.2 187.3 186 184.7 184.3 183.8 183.4 183.8 183.5 183.1 182.8 181.9 180.9 180 179 178 176.7 175.8 174.2 173.6 173 172.2 170.6 168.8 165.8 163.9 161.6 161 158.5 155.1 154.9 152.5 147.3 145.3 142.4 139.8 136.6 134.8 133.3 131.7 131.2 130.7 130 129.9 129.7 129 129.5 129.1 128.8 127.7 128.2 127.7 126.3 134.2 144.4 149.2 151.3 154.3 155.7 156.8 156.3 152.8 151.1 148.6 147.4 147.8 147.3 147.2 148.7 150.5 154 157.6 162 166 170.9 175.7 179.8 182.3 183.1 183.1 182 180.1 177.7 174.9 172.7 170.2 167.2 164.5 162.3 160.4 158.5 155.9 154.2 152.8 151.2 149.3 146.9 140.2 137.8 135.6 138.1 138.1 133.6 129.9 128.9 128.3 128.3 129.4 129.8 129.9 129.4 130.6 131.4 131.9 135 137 139.4 141.1 141.9 141.9 142.1 141.9 141.1 140.9 140.7 138.9 137.9 138 137 132.6 136.8 138.2 138.7 139.8 142.5 142.6 140.1 136.7 134 131.1 128.2 124.9 121.9 118.3 115
182.7 180.5 179.1 179.9 179.4 178.6 178.9 179.5 178.1 177.7 177.3 177.2 176.8 178.6 183.9 195.4 198.3 210.6 216.4 221.5 225.9 229.8 235.1 239.3 242.2 248.9 253.5 259.2 263.3 268.9 274.7 287.3 290.2 291.7 290.4 289.2 289.1 289 289.4 289.2 290.7 293.8 294.9 291.9 291 286.6 275.4 263.2 245.8 235.5 227.3 206.6 205.9 207.9 205.7 201.2 196.2 194 193.2 192.7 191.3 190.5 190.5 190.1 189.7 189.5 188.7 187.6 186.5 185.4 183.7 182.8 181.4 179.3 178.3 176.4 175.2 172.8 170.2 168.4 165.9 163.6 160.5 157.2 154.7 152.9 150.5 149 145.8 141.6 138.5 137.1 135.4 132.9 131.6 130.5 130.1 129.4 129.4 129.5 129.5 129.1 128.7 128.4 128 128.2 127.3 127.4 127.9 139.6 142.4 144.2 147.3 148.2 148.5 149.4 147.4 145.3 144.4 144.8 146.1 146.2 146.1 147.8 151.1 154.2 157.1 160.4 164.5 168.5 172.1 175.3 177.8 178.9 179 177.1 175.8 173.7 171.4 170.9 168.4 166.1 164.2 162.1 159.8 157.3 155.5 153.8 151.5 150 148.3 145.7 138.6 140.3 139.8 136.2 134.4 134.2 138.6 137.9 135.7 136.3 137.1 137.4 136.5 136.5 137.9 138 140.1 142.8 144.2 145.3 145.7 145.2 145.3 144.5 143.9 143.5 142.3 141.2 140.1 139.7 138.8 134.7 138 140.1 141.7 142.1 142.2 142.9 141.9 138.5 134.4 132 129.6 127.9 125.1 122.5 119.9 116.8
180.1 178.8 178.5 178.3 177.4 178.5 177.8 177.3 177.1 177 179.7 181.7 189 192.6 197.3 200.4 202.4 205.8 216.1 223.6 226.8 230.2 234.7 238.1 243 250.2 257.9 264.4 271.1 281.1 290.1 295.2 295.8 296.5 295.6 292.9 289.3 289.2 289.8 291.6 291.4 293.7 294.7 292.2 287.9 285.3 279.7 271.4 257.7 246.6 226.4 214.2 224.5 221.5 219 214.4 210.4 205.2 201.3 200.3 198.6 197 196.7 196.2 195.6 195.2 194.5 193.7 192.7 191.1 189.3 187.8 185.9 184.2 182 180 178.1 175.4 172.9 169.6 165.3 162.1 158.9 155.7 153.1 153.4 151.4 148.5 143.2 140.5 139 137.6 136.4 134.2 132.9 131 129.6 129.2 129.4 129.5 129.2 128.7 128.3 128 127.6 127.4 127.5 127.2 125.7 130.9 135 136.6 138 138.2 138 139.3 140.9 140.3 142.3 144.3 146.1 146.1 146.2 148.4 151.7 154.8 157.3 159.9 162.9 166.6 170.9 172.9 174.8 174.9 173.7 172.1 170.3 168.4 167.7 167.6 166.2 165.1 163.2 160.8 158.6 156.6 154.8 153.1 150.6 148.7 146 141.5 141.8 142.6 143.5 143.8 143.2 143.2 143.2 139.1 142.4 142.9 142.8 142.9 142.6 143 143.9 145.3 147.6 148.4 149 149 148 148.1 148.1 147 145.6 144 142.4 141.6 141 139.8 137 139.1 142.3 144.1 144.9 144.9 144.3 142.7 140.6 137.5 134 131.6 129.1 126.7 124.7 122.1 119.5 116.9
177.6 177.8 178.2 178.7 178.3 178.1 178.1 178 180.3 189.4 196.6 195.4 199.7 203 204.3 206.4 208.2 209.1 215.6 221.1 230.1 232.5 237.4 244.7 251.3 257.6 263.7 271.7 281.5 292.3 307.4 307.8 308.5 306.3 303.5 297.8 289.6 289.2 289.9 292.6 295.5 297.5 296.4 295.1 288.5 283.2 281.3 270.4 262.7 250.1 225.5 236.2 235.7 234 230.9 227.9 224.3 219 215.4 210.8 207.1 204.9 203.7 202.7 203.3 203.6 202.1 201.1 199.3 195.7 193.3 190.4 188.4 185.3 182.8 179.9 177.2 173.6 170.3 167.6 163.9 161.2 158.1 155.2 152.7 152 148.8 146.5 144 142.6 142.3 141.5 140.6 139.6 138.6 137.6 134.9 130.9 129.3 129 128.6 128.4 128.2 127.8 127.5 127.6 127.7 127.3 126.6 126.2 126.4 130.3 131.2 132.1 133.8 135.5 135.7 138.7 143.3 145.6 144.7 143.7 146.5 149 151.9 154.7 157.6 161 165.3 169.1 172 174 174.2 173 172.2 171.2 169.4 167.6 166.4 165.7 164.6 163.6 162.2 160.7 158.4 156.2 153.9 152.2 145.5 145 147 142.4 144.8 147.3 148 148 148.3 148.2 146.2 147.7 147.2 148.6 148.5 148.5 148.5 149.6 150.4 151.8 151.3 151.8 151.9 151.2 149.2 149.2 148.9 147.8 145.7 144 142.7 141.5 140.2 138.8 141.6 142.5 144.6 146.7 147.1 146.2 144.5 142.4 140 137.3 133.9 131.2 128.5 125.6 124.2 121.7 119.2 116.8
179.9 180.7 180 179.2 179 179.3 184.3 188.2 192.6 198.2 203.3 203.7 204.2 209.4 210.5 213 215.9 219.7 223.6 224.4 231.8 238.2 242.8 249.3 255.5 261.6 268.3 280.4 290.4 300 302 302.1 305.5 305.1 297.3 293.1 288.9 297.3 296.9 298 299.7 298.4 296.9 294.4 289.2 281.9 278.4 274.4 262 241.6 238.9 247.8 251.1 255.2 254 247 241.6 237.7 234.4 229.9 226.1 219.3 215 212.5 213.1 213 207.3 205.6 201.5 197.1 193.6 190.4 186.7 183.6 180.7 177.7 174.7 172.1 168.4 166.1 162.8 160 157.3 154.5 152.1 149.4 148.7 148.2 147.7 147.1 147.5 147 146.2 145.2 144.5 144.2 142.6 139.8 135.3 131.3 128.9 128.2 128 127.8 127.5 127.6 127.4 127 126.6 126.2 127.8 127.2 126.9 127.9 129.8 132.2 134.8 136.7 140.4 143.1 140.9 144.9 147.9 151.2 153.9 157 160.1 163.6 168.7 171.7 173.6 174.9 175.1 174.2 172.2 170.3 168.5 166.8 165.3 164.1 162.9 162 160.9 159.5 158.2 154.3 147.9 147.4 151.2 150.1 144.6 149.4 150.7 152 151.9 151.8 151.9 149.6 152.5 152.7 152.9 153.4 153.6 153.7 153.7 153.6 154.4 154.6 154.7 154.3 153.9 153.2 150.8 150.3 149.4 148.3 146 144.6 143.6 142.7 141.9 141.2 143.1 144.6 146.2 147.3 147.4 146.3 144.6 142 139.6 136.7 133.7 130.6 127.6 124.6 122 120 118.3 116.6
181.5 181.7 181.5 181.3 186.1 190.9 193.1 196.2 199.4 203.8 208 211.7 211.1 217.8 219.1 222.6 225.3 226 226.8 229.6 233.5 239.5 246.4 253.7 259.9 269.3 275.8 283 293.7 298 297.7 299.7 299.4 297.6 291.6 286.4 285.9 289.2 293.3 294.7 296.1 295.9 297.9 298.2 292.7 285.6 277.3 271.7 263.4 258.9 258.5 261.8 264.5 269.8 273.4 275 269.2 266.1 261.9 254.9 247.5 239.3 229.1 221.7 217.9 214 208.6 204.4 199.2 194.8 191 186.9 183.3 179.8 176.8 174.1 171.6 169.1 166.3 163.3 160.1 157.9 154 152.2 154.3 153.2 152.6 152.1 152 152.4 152.7 152.4 151.7 151.1 150.5 149.5 148 146.1 143.8 140.7 137 133.1 128 127.5 127.2 127.2 127 126.6 126.2 126.5 125.7 125.7 125.9 126.3 126.1 129.2 131 133.3 136.1 136.5 142.8 150.2 154.4 156.7 159.2 161.7 163.1 164.5 166.4 168.8 170.7 172.5 172.8 172.6 171.6 169.4 167.2 165.1 163.1 162 161.2 160.5 160 158.9 155 149.2 155.6 155.5 151.3 148.7 153.6 154.7 155.2 155.5 155.5 155.5 154 156.3 156.1 156.5 157.1 157.1 157.3 157.2 157.1 157.2 157.4 157.2 157 156.1 155.6 153.7 152.3 150.7 149.7 148.6 147.3 145.6 144.8 144.3 143.6 142.5 144.2 144.8 146.2 147.2 147.4 146.2 144.2 141.7 139.2 136 132.5 129.2 126.4 123.5 120.8 118.4 116.5 114.9
184.9 185.6 188.9 193.5 199 201.2 207 212.7 218.2 218.1 219.3 218.9 218.4 222.6 225.7 226.1 223.4 222.5 224.3 227.5 235.3 248 256.2 265.2 273.9 277.1 278.3 284.2 289.7 290.3 293.6 294.1 291.1 289.4 286.1 280.9 283 284.1 286.8 290 292.3 292.2 296.9 297.6 292.2 280.9 276.5 274.7 271.5 268.8 268.1 268.9 272 275.8 278.9 280.6 282 282.3 280.5 274.3 265.1 254.6 243.3 232.3 223.6 215.6 209 203.4 197 191.9 186.7 183.1 179 175.5 172.3 170.9 169 166.8 164.4 161.8 159 158.9 158.9 157.8 156.4 156.6 156.4 156.1 156.5 157.8 157.8 157.3 156.5 155.5 154.7 153.6 151.1 149.5 147.6 145.3 142.5 140.3 137.5 132.7 130.5 127.7 126.3 126.4 126.9 126.5 126.3 125.5 125.5 125.5 125.3 125.2 128.8 129.9 131.3 136.1 144.2 151.5 156.7 161.2 163.6 166.1 165 164.5 164.4 165.1 166.8 167.8 168.3 167.5 167.8 166.2 164.8 163 161.1 159.4 156.8 157.1 156.2 152.3 154.8 156.5 156 155 150 157.3 157.9 158.1 158.4 158.5 158.6 156.8 157.9 159.4 158.1 160 160.2 160.6 160.7 160.6 160.5 160.2 159.8 159.4 159.2 158.3 156.2 154 152.6 151 150.2 149.5 148.1 146.5 145.9 145.3 145 144.6 145 146 146.3 146.8 146.6 145.9 144.2 141.6 138.9 134.9 131.3 127.9 124.8 122.1 119.4 117.1 115.3 113.9
190.7 197.1 206.2 212.5 218 217.4 219.5 221.7 222.5 222.2 224.2 222.5 220 220.9 221.2 222.2 221.9 222.6 228.4 239.6 255.3 262.1 266.9 269.5 270.7 270.5 274.3 280.3 285.5 287.9 289.5 288.5 284.8 280 280.1 280.5 281.2 283.3 284.8 287.7 288.9 289.8 291.9 292 289.5 287.6 284.2 279.8 276.5 274.6 273.1 273.4 275 276.8 280.2 283.9 286.3 287.6 286.3 282.9 275.9 262.7 250.4 237 225.7 215.8 206.8 199.4 193.1 188.8 184.8 181.5 177.7 174.9 172.4 170.4 168.5 166.7 165.1 163.9 161.4 164 163.2 161.9 161.7 160.5 163.4 164.8 163.9 163.3 163.5 161.8 161.9 159.9 159.1 157.2 154.7 152.4 150.1 147.4 145 142.5 139.8 137.7 135.6 133.3 127.2 126 125.8 125.6 125.4 125.1 125 124.9 124.9 125.3 125 128.4 132.8 138.3 144.5 151.6 157.1 161.2 164.6 166.3 165.5 165.8 166.2 165 166 163.6 164.1 162.2 163 163.5 161.9 160.4 157.7 155.4 154.7 155.9 154.8 155.2 156.4 156.3 156.8 155.9 152.4 159.1 159.8 160.6 160.6 160.4 159.7 158.1 160.8 160.9 160 162.3 162.9 163 163 163 162.9 162.6 162.2 161.7 160.5 158.9 156.5 155.1 153.6 152.6 151.5 150.2 148.8 147.6 146.9 146.1 145.7 145.2 145.8 146.7 147.1 147.1 145.8 145.3 144 141.4 138.5 134.1 130.4 126.7 123.4 120.9 118.9 116.9 114.8 113.8
202.6 195.5 200.9 205.3 207.8 214.5 215.9 218.2 219.1 220.4 220.4 220.7 221.4 221 222.2 222.3 224.6 235.2 253.2 257.5 260.8 263.5 265.5 266 266.7 266.9 270.4 276.4 287.4 287.6 285.4 282 278.3 278.4 279.5 280.5 283.7 288.1 291.5 292.9 291.8 290.9 291.3 294.7 295.8 294.1 292.3 289.4 285.1 281 278.8 276.6 276.3 277.6 279.7 282.4 284.1 285.4 286 286.7 279.5 267.1 253.9 239.3 227.5 216.3 206.3 199 193.1 188.3 183.8 181.2 178.1 175.9 173.6 172.1 170.6 169.6 166.9 164.9 166.1 165.5 165.9 166 166.5 168.1 171.6 173.6 173.8 172.7 171.7 170 168.1 165 162.8 159.8 156.7 154.2 152.3 149 145.9 142.9 140.7 137.7 135.5 133.4 128.3 126.5 125.8 125.1 125.7 124.5 124.4 124.3 124.3 125.1 124.6 128.9 135.2 143.2 150.7 156 160.5 164 165.9 167.3 167.9 168.6 167.9 167.2 167.3 168.1 166.3 164.6 161.8 161.9 157.8 157.1 156.3 158.3 158.4 157.9 156.9 156.2 156.1 156.4 156.7 154.4 155.3 159.9 160.8 161.6 161.6 161.5 160.3 160.7 162 161.8 162.6 164.2 164.6 165 165.3 165.2 165.1 164.6 163.8 162.6 160.5 160.4 158.5 157.1 154.7 153.5 152.5 151.1 149.5 148.4 147.2 146.5 146.1 145.7 146.5 146.9 147.4 147.4 145.4 144.6 143.5 140.9 137.8 135.3 131.7 128.7 126 123.3 121.2 118.6 116.5 114.1
207.5 205.9 201.7 207.3 206.7 208.9 213.8 215.6 217.5 218.7 219.1 219.6 222.3 223.6 226 226.7 240.4 253.6 257.3 258 258 257.9 260 262.3 262.4 263.8 269.1 284.2 287.1 285.9 280 276.8 277.7 278.5 283 288.9 295.9 300.2 300.9 298.7 294.7 292.4 291.4 292.5 298.6 299.3 298.5 300.2 296.1 292.3 286.4 284.9 284.8 286.4 284.9 284 282.5 283 283.9 283.4 282.1 270.3 258.5 242.4 231.2 219 207.5 200.1 193.6 188.4 184.1 180.8 178.2 176.6 175.1 174.1 172.9 171.3 170.1 171.9 171.5 171.7 173.2 173.8 174 176.4 176.2 179.6 178.9 178.5 176.6 173.4 169.3 166.5 163.8 160.9 158 155 151.9 149 146 143.1 140.7 138.3 135.7 132.8 128.9 126.4 125.7 125.1 125.1 124.3 124.7 125 124.5 124.6 124.3 133.5 141.1 150.4 157 161.1 164.5 166.6 168.1 169.6 170.3 171 171 170.3 170.5 170.9 169.5 167 165 161.7 159.2 159.4 159.8 159.2 158.7 158.2 157.5 157.1 156.6 155.6 156.1 154.2 156.5 159.1 160.4 161.4 162.1 162.4 162 162.6 163.5 163.6 164.2 165.3 166 166.4 166.5 166.7 166.8 166 165.1 163.3 162.9 161.8 160.5 159.1 156 154.8 153.7 152.2 150.3 148.8 147.7 147.1 146.6 146.5 147.1 147.6 148.3 148.9 147.3 146.9 145.2 142.7 140.3 137.7 134.3 130.8 127.4 124.5 122.5 120.3 117.7 115.4
214.7 209.5 205.7 214 215.3 217.4 219.4 220.7 220.8 223.4 225.2 227.1 228.4 231.5 233.8 239.3 249.7 253.9 253.5 251.7 251 251.5 252.7 255.5 259.3 263.4 280 282.4 282.1 278.5 276.2 276.9 277.3 283.7 290 298.6 305.5 307.9 304.9 300.1 295.5 292.9 292.1 292.5 299.8 302.3 303.3 304.6 303.8 302 301.9 306.4 308.2 307.8 307 301.1 294.6 288.4 283.7 281.9 278.8 273.6 259.5 245.8 232.9 221.5 211.6 203 195.8 190.7 186.6 183.5 180.7 178.4 177.5 176.6 174.7 176 176.5 177.6 178.5 179.7 180.7 181.3 181.7 181.9 181.1 181.6 181.1 178.6 176 173.4 170.2 167.4 164.4 161 158.2 154.8 151.8 148.9 146 143.3 140.4 137.7 134.9 131.7 128.9 126.2 125.5 124.8 125.2 124.3 124.5 124.7 124.7 124.6 124.8 138.7 146.7 154.4 160.9 164.7 166.3 168.8 170.3 172.1 174 175.5 176.9 176.4 175.4 174 172.2 169.5 166.6 161.9 161.4 159.1 157.1 156 157.2 158.3 157.5 156.5 155.2 154.7 155.2 156.4 155.9 158.7 159.7 161.3 162.1 163 163.6 163.7 164.1 164.5 165.2 165.7 166.5 166.8 166.9 167.1 167.1 166.7 166 164.9 164.4 163 160.9 159.2 157.3 156.1 154.7 152.7 151 149.2 148.3 147.6 147 147.4 147.9 148.6 149.2 149.9 149.1 148.4 146.7 144.3 141.6 138.5 135 132.2 129 126.2 123.6 121.3 119.6 117.9
222.3 210.2 206.4 223.1 223.9 224.5 227.2 228 229.4 231.7 232.6 235.1 236 237.5 240.2 246.6 250.4 249 247.7 246.5 246.3 247.3 248.8 251.8 256.6 267.7 275.6 279.8 279.3 274.6 274.9 276.6 279.5 286.2 293.1 302 307.9 308 304.5 298.7 293.8 293 294.4 295.1 300.5 305.5 310.1 310.7 309.9 309.6 310.4 310.3 310.9 312 312.3 312.1 308.5 297 290.7 282.2 275.1 270.3 257.9 245.8 233.9 224.1 216.4 205.8 198.1 192.7 188.1 184.4 181.8 180.1 178.5 178.2 179.3 180.9 182.4 183.6 184.2 184.8 184.9 184.7 185.6 184.8 183.6 181.9 181.3 178.7 176 173 170.1 167.5 164.5 161.1 157.5 154.2 151.7 148.6 145.3 142.2 139.3 136.8 134.3 131.3 128.5 126.1 125.4 124.5 125 123.8 124.5 124.5 123.9 123.8 125.2 145.2 151.4 156.9 162.8 166.9 170.4 171.9 173.6 175.5 178 179.6 180.3 179.5 177.5 176 174.7 171 167.3 166.8 163.9 161.4 158.4 156.5 157 157.6 157.3 157.4 157.6 157.5 157.7 157.9 158.4 160.1 160.4 161.3 161.9 162.9 163.3 163.5 164 164.2 164.4 165.1 166.2 167 167.3 167.4 167.4 167 166.6 165.6 164.2 162.6 162 161 158.4 156.8 155.3 153.3 151.4 149.9 149.1 148.5 148.5 148.7 149 149.4 150.1 150.8 150.6 149.1 146.9 144.2 141.9 139.2 135.6 132.5 129.6 126.3 124.3 122.8 122.1 119.9
227.2 223.7 210.2 225.9 229 228.9 230.1 232.6 233.9 236.2 237.8 241.2 242.4 242.7 244.1 245.6 245 245.4 245.6 245.6 245.9 246.2 246.6 248.8 257.6 267.6 271.7 274.5 273.1 271.5 273.3 276.6 284.3 289.9 297.8 304.6 306.6 306.7 304.8 301.7 304 305 308.8 313.5 319.8 317.9 316.4 318 317.7 315.4 311.8 311.6 311.2 311.7 312.1 311.9 310.2 304.7 294.6 284.3 275.6 267.6 257.1 245.2 232.6 226 217.3 206.3 197.9 192.3 187.5 184.7 182.9 180.5 180.7 182.2 183.6 184.1 184.7 185.2 186.1 186.5 186.7 186.5 185.7 184.9 183.8 182.4 181.2 179.2 177.1 174.2 171 167.9 164.8 161.2 157.4 154.6 151.4 147.7 144.4 141.8 138.5 135.3 133.1 131 128.8 126 124.8 124.1 124.4 124.1 123.4 123.9 124.2 123.8 130.6 143.7 152.6 160.3 166.7 172.3 175.4 176.8 177.1 179.8 181.1 183 181.9 179.9 178.7 177.7 174 169.7 170.2 168.7 166.9 164.7 160.9 159.8 158.1 158.3 159.1 159.4 159.1 159.4 159.7 159.9 160.3 160.5 161 161.4 161.8 162.5 162.7 163.3 163.5 163.6 163.9 165 166.2 167 167.3 167.5 167.7 166.8 165.7 165.6 164.1 163 162.2 160.8 159.1 157.3 155.8 153.9 151.9 150.8 150.3 150.2 149.9 149.7 150.1 150.6 151 151.5 150 148.2 146.6 143.7 140.4 137.6 135.4 132.5 130.5 129.2 126.8 124.9 124.3 123.8
230.4 210.1 222.7 229.1 230.3 230.2 232.5 236.1 237.4 239.5 240.9 242.7 244.6 244.4 244.1 243.4 244.2 244.6 245.2 245.2 245.8 246.3 246.7 251.1 259.6 265.2 267.5 267.3 269.4 273.3 276.3 282.6 289.7 297.6 305.2 308.1 311.9 314 315.8 312.1 310.2 317 327.8 338.5 334.3 329.7 325.2 322 319.6 316.1 315.5 314.6 313.1 311.6 309.3 308.3 308.2 305.7 298.6 285.7 274.9 264.3 254.8 244.6 235 223.8 211.6 201.9 195.1 190.4 188 186.7 184.4 183.2 183.6 184.9 186.8 185.6 185.2 185.6 185.5 186.1 186.3 185.6 185.1 184.8 184.1 183.4 183.4 180.6 178.4 175.2 172 168.8 164.8 161 157.4 154.4 151.2 147.6 144.8 141.3 138.3 136.4 133.8 131.9 129.5 126.2 123.8 123.7 124 123.1 123.6 124.3 123.7 122.1 137.4 144.6 152.5 163.9 172.3 176.9 179.5 181 181.4 181.9 181.3 182.6 182.3 180.7 179.3 176.7 172.3 172.3 171.3 170.2 168.4 165.5 163.8 163.7 162.9 161 160.1 160.6 160.7 161.3 161.6 161.7 161.6 161.9 161.6 161.8 162.1 162.4 162.6 163.1 163.9 164.7 165.3 165.2 166.1 166.7 166.8 167 167.1 166.3 165.8 165.7 164.9 163.3 161.3 160.3 159 157.6 155.4 154.2 152.7 151.4 150.7 150.5 150.3 150 150.5 151 150.8 149.6 148.4 146.6 143.6 141.1 138.3 136 135 133 131.8 130.8 127.7 128.5 128.3 127.3
223.1 213.2 223.7 230.1 231.6 233.4 236 238.9 239.9 239.9 239.6 240.7 242.3 242.8 242.3 241.9 242.8 243.8 244.8 245 245.7 246.3 246.8 250.4 257.9 262.7 263.9 265.3 269.8 277.7 288.1 303.1 309 315.2 316.9 319.1 320.8 321.6 317.8 314.4 319.2 328.5 345.2 341.8 335.1 327.4 322.3 317.7 317.3 316.9 316.8 316.8 318.4 317.3 313.6 308.2 304.6 302.6 296.4 282.9 269.1 258.1 250.5 241.6 230.1 216.7 207.5 199.5 195.4 192.3 190.6 189 188 186.5 187.7 189.3 190.3 190.6 189.6 187.4 186.5 185.8 185.9 186 186.1 186.2 186.7 186.4 185.1 183.1 180 176.9 172.9 169 165.6 161.9 158.3 154.6 151.5 148.2 145.4 142.8 140.5 138.3 136.1 134 131.8 128.6 123.9 123.7 123.6 123.5 124.1 123.8 123 123 135.2 142.8 152.8 163.7 172.4 177.8 180.6 181.9 182.7 182.6 181.2 181.7 181.9 181.5 179.7 175.6 174.1 172.4 171.1 170 170.2 172.3 170.8 170 168.4 167.7 163.8 161.9 161.5 163.1 163 163.3 163.3 163.1 163.2 163 163.5 163.7 163 163 163.5 164.1 164.8 164.9 165.7 166.2 166.3 166.4 166.1 166.2 165.7 165.5 163.5 162.4 161.3 160.2 158.3 157.1 155.6 154.6 153.3 152.1 150.9 150.7 150.4 149.5 149.5 149.5 148.5 146.5 145 143.4 141.1 139.5 136.9 135.2 134 133.3 132.6 131.7 131.7 131.9 131.2 130.4
228.4 226.9 222 231.5 234.9 237.5 238.7 238 236.8 236.7 238.1 238.8 239.8 240.5 240.7 241.8 242.2 243 244.3 245 245.7 246.3 246.9 248.9 255.8 259.6 262.9 269.3 279.9 291.7 299.4 305.7 310.1 315.1 317.2 318.3 318.5 315.8 313.2 319.3 325.7 335 345 345.5 338.6 329.8 323.1 318.6 317.8 317.5 317.4 319.6 321.4 319.1 313.7 308.3 306.6 299 290 274.2 265.7 258.5 251.1 236.9 226.2 220.2 212.3 206 202 199.2 196.1 195.2 193.4 192.7 193.6 193.9 194.7 193.5 192.8 190.5 191.2 190.7 190.3 190.7 190.5 190.8 192.1 191.3 189.3 187 183.9 179.7 176.1 172.7 168.3 164.1 159.9 156.2 153.2 150.4 147.9 145.2 142.7 140.4 138.3 136.1 134.1 130.8 126.3 123.3 123.7 123.8 123.5 123.2 123.4 122.3 131.7 141.2 149.5 160 168.9 175.1 179 180.7 181.8 181.7 181.5 182 182.1 181.2 179 175.5 176.7 175.8 175.9 177.3 179.5 177.6 175.9 176.1 174.2 173.6 171.7 167.9 164.6 163.7 164.4 165.5 165.2 165.1 165.2 164.9 164.5 163.9 163 162.7 162.8 163.2 163.9 164.6 165.1 165.3 165.2 164.9 164.9 164.8 164.8 163.9 162.8 162 160.7 159.2 157.5 156.3 155.2 153.9 152.4 151.4 150.1 150 149.6 147.6 146.6 146.1 145.2 142.8 142.8 142.1 140.8 138.9 137.1 135.6 135.3 134.8 134.3 133.5 132.9 133.1 133 133.4
230.4 232.1 233 227.7 225.6 227.3 231.2 237.6 238.6 239.9 240.8 241.1 241.6 242 242.6 242.9 243.4 243.6 243.9 245.1 245.7 248.2 250.1 253.4 261.6 276 280.9 285 295.2 297.9 300.3 305 308.6 312.3 313.5 312.4 311 311.3 315.7 324.7 330.6 345.5 353.9 352.6 349.9 339 332.4 327.1 325.6 323.5 323.9 324.4 323 319.9 314.9 311.9 307.2 300.2 292.1 280.6 271.2 260.5 255.5 245.1 237.8 228.9 221.9 216.1 211.2 208.4 206.4 204.4 202.8 201.4 201.2 201.1 200.6 199.6 198.1 197.2 196.1 197.4 197.3 197.4 197.2 198.1 197.8 197.6 197.4 195 193.2 187.3 182 178 172.1 167.5 164.3 159.4 156 153 150.3 147.6 144.9 142.6 140.5 138.3 136.2 134.5 130.5 125.3 123.2 123.2 122.8 122.9 122.8 122.9 134.1 140.1 145.9 153.7 163.3 170.7 174.7 177.7 179.8 180.3 180.3 180.1 179 178.3 177.5 177.7 179.5 180.4 181.3 183.4 182.7 180.6 181.6 181.2 180.6 179.7 178.9 176.3 173.1 170 167.9 167.9 167.2 166.2 165.5 165.1 164.1 163.4 163.4 163.4 163.3 163.3 162.9 163.3 163.5 163.6 163.7 163.7 163.7 163.4 162.7 161.6 161.2 160.3 159.2 158.1 156.8 155.3 153.7 152.2 151.1 149.8 148.3 147.2 145.3 143.7 143 142.5 142 142 141.5 141.1 140 137.4 136.6 137.1 137.3 136 134.7 134.6 134.1 134.1 133.8 133.3
235.1 236.6 237.4 230 238.3 238.5 236.9 239.7 240.1 241.4 242 242.5 243.6 244.9 246.3 247.4 248.1 249 249.9 250.4 248.3 252.1 255.3 263.8 272.4 278.6 291.6 296.6 299.2 299.7 300.3 303 306.2 309.4 308.4 308.1 309.9 312.8 318.4 327.9 342 353.2 355 356.1 357.1 355.5 347.9 340.5 334.5 332.6 331.5 330.9 328.4 324.7 320.1 315.5 310.4 303.7 299.7 294.7 284.1 273.8 265 256.7 247.9 240.2 233.9 228.1 222.6 218.2 215.9 214.6 213 211.8 211.3 209.8 212.2 212.4 212 210.1 210.2 208.7 207.3 207.1 207.4 207.6 208.1 210.3 209.7 207.7 204.2 198.1 190.2 184.3 178.7 173.4 168.9 163.5 158.9 155.9 152 149.9 147.2 144.8 142.7 140.5 138.2 136.3 133.6 129.8 124.6 123.1 122.4 122.8 121.6 122.2 128.8 136.9 143.4 149.7 157.7 165.7 170.1 174.1 176.3 177.3 177.9 177.6 176.6 176.3 177.1 178.7 180.1 180.7 181.9 183.9 184.4 185.3 187.5 187.2 187.9 187.2 187 185.5 181.8 178 173.3 170.3 169 168.3 167.1 166.4 166 165.2 164.8 164.2 164.1 163.3 162.2 162.3 161.7 161.6 160.8 160.7 160.9 159.7 158.8 158.2 158.4 158.2 157.1 155.9 154.6 152.9 151.2 149.6 147.7 146.8 143.8 140.7 139.9 137.7 136.9 137.2 137.2 136.9 138.6 139.9 138.8 136.6 135.6 135.4 135.4 134.6 133.5 132.7 131.5 131 130.8 130.9
237.1 238.7 238.8 234.2 235.3 236.3 236.1 239 241.3 242.9 244.6 247.5 249.4 251.5 252.9 254.2 255.2 255.6 257.3 258.4 253.2 258.3 266.8 268.8 273.3 285.8 292 295 296.4 296.3 297.7 301.1 303.1 304 304.8 308.5 311.2 317.5 323.3 333.8 345.2 351.7 353.9 355.4 357.8 359.4 359.7 350.9 343.4 338.1 337.3 337.5 335.2 331.1 327.2 323.8 319 313.8 307.2 304.8 300.3 288.6 277.2 267.4 259.5 248.3 240.8 235.3 229.4 225.9 224.7 224.3 223 221 223 222.9 223.8 223.6 222.9 222.6 221.7 221.5 220.5 219.4 219.4 220.1 221.5 222.6 222.3 219.2 214.3 207.2 198.5 191 185.1 178.9 173 167.4 161.9 159.2 153.8 151.2 149.3 147 144.9 142.6 140.3 138.1 135.3 132 128.7 124.2 123.1 122.4 122.4 122.4 122.5 130.5 140.2 146.1 151.3 159.6 165.4 170.3 172.8 174.3 175.2 175.5 175.5 175.1 175.6 177.6 178.8 179.8 181.2 183.2 185.2 187 189.5 191.8 192.8 194.8 194.7 191.9 187.2 182.1 179.7 176 172.4 170.4 169.8 169.7 168.7 168.1 167 166.1 164.3 163.3 162.2 161.5 160.8 159.3 158 157.6 157 156.1 155.3 154.8 154.8 155.2 154.9 153.4 151.8 151.5 148.5 147.2 143.6 143.5 143.7 145.9 145.3 143.4 141 137.3 135.3 132.3 133.6 137.1 137.8 135 134.7 133.1 132.8 131.4 130 129.3 129.4 129.2 128.5 128.7
238.6 238.4 238.7 237.7 235.7 237 238.6 240.7 244 249.1 252.3 255.3 259.4 260.6 262.5 263.5 263.9 264.6 264.4 264.3 261.9 264 266.1 269.4 278.8 285.1 288.3 290.6 291.9 293.3 295.5 297.8 298.7 301.3 305.7 312 319.7 327.6 333.4 337.2 342.4 349.5 352 354 357 359.1 360.4 353.7 343.1 335 333.9 337 335.9 334.1 332 330.7 329 323.9 314.8 303.8 300.5 291.9 282.7 272.8 263.1 254.5 246.9 239.9 235.3 231.7 229.7 229.6 230.8 232.3 232.7 234.1 235.5 236.6 236.5 234.1 231.7 231.9 229.5 228.4 229.1 230.2 232.1 233.3 233 228.9 222.8 215 206.2 197.4 189.4 182.4 176.3 170.9 165.6 160.9 155.6 152.3 150.4 147.9 145.6 144 141.8 138.5 135.6 132.4 131.3 127.9 122.2 121.7 121.4 122.2 122.3 122.2 134.1 142.2 147.4 153.9 160.1 164.9 168.5 170.4 171 171.9 172.8 172.9 172.9 174.1 175.5 177.2 179 180.9 185.2 187.9 190.2 192.4 194.1 195.1 195.4 194.4 190.2 186.7 184.9 182.1 178.6 174.5 172.1 170.9 170.7 170.1 169.5 168.8 167.2 165.9 164.4 162.5 160.3 158.7 158.4 157.6 154.9 154.1 153.1 151.5 151.2 151.9 150.7 151.5 150.5 150.5 150.3 149.6 149.6 151.5 151.3 151.9 151.5 149.1 146.3 142.5 138.9 136.1 134 130.9 130.9 131.9 132.1 131.7 129.1 127.7 127.1 127.1 127.6 127.9 127.5 127.7
242.8 243.2 242.8 241.3 240.6 241.1 242.2 242.9 245.9 253 260.2 264.7 267.2 268.3 268.9 269.2 268.9 268.5 267.6 266.8 264.9 266.7 269.1 272.6 277.4 282.1 285.1 287.8 289.9 291.6 294.2 296.5 299.2 303.3 310.1 320.2 327.1 331.4 334.7 338.1 341.7 346.7 349.4 351.6 354 356.1 356.1 348 336.4 330.6 325.5 331.2 331.9 331.7 331.7 332.1 328.9 325 312 298.1 295.6 293 285.3 276.5 265.6 256.8 247.5 239.3 234.4 232.3 231.7 232.6 234.1 235.8 237.3 239.3 241.3 243.1 243.1 243.4 242.4 242 241.8 241.8 240.6 240.2 241.3 242.9 240.4 233.7 227.9 220.1 210.7 201.2 191.5 183.6 177.8 173.8 168.1 161.9 156.9 153.6 150.7 149 144.4 143 140.9 138.4 135.6 133 132.2 129.4 123.1 122 121.7 121.7 121.8 121.6 123.6 131.8 142.3 146.7 153.2 158.9 163.6 167.3 168.8 169.7 170.6 170.6 170 170.4 171.8 173.4 175.5 178.7 183.4 187.2 189.7 192 193.3 194.2 194.3 193.8 192.3 189 187.1 185.7 184 181.1 178.1 175.4 173.3 171.3 172.2 172 170.4 167.3 166.1 163.6 161.1 162.4 162.2 160.8 159.8 158.8 157.4 155 152.1 150.6 149.3 149.1 147.9 150.8 153.1 152.8 152.9 153.4 153.9 153.7 153.3 151.3 148.7 147.1 144 140.1 137.1 133.9 130 129.8 130.4 126.4 124.9 124.5 125.1 123.8 123.4 124.9 126.6 126.7
250.1 248.8 247.3 246 245.7 245.4 246.8 248.2 248.6 255.9 264.7 269.8 269.9 269.2 269.7 269.7 268.8 269.1 268 267.3 266.3 267.6 269.6 272.7 277.3 282.2 286.8 290.8 294.4 297 298.9 300.9 303.6 307.2 315.6 324.1 329.7 333 338.3 340.7 342.8 345.9 346.1 348.8 349.8 350.4 350 338.6 329.8 323.4 323.8 324.5 328.3 329.1 329.6 329 326.2 314.9 298.6 288.6 289.7 288.4 282.8 274.9 262.4 250.2 241.3 235.7 232.9 232.6 232.7 234.1 236.5 238.5 240.2 242.6 243.7 245.5 245.2 244.4 246.8 247 247.2 247.3 248.1 248.4 248.3 245.3 240.6 234.9 228.6 220.9 211.8 201.9 193.2 184.4 176.5 170.9 166.3 160.5 155.3 151 146.6 143.3 141.4 140.8 138.9 137.2 134.7 133.5 132 129.7 124.1 122 121.3 121 121.3 121.2 121.5 123.1 129 140.4 147 152.4 159.6 163.8 166.6 167.5 168.4 168.3 167.1 166.9 168.1 169.7 172.8 176.9 181.4 185.5 187.9 190.1 191.9 192.9 193.1 192.6 192.4 192.3 189.9 188.1 185.6 184.7 181.8 176.6 174.3 171.2 171.5 170.7 170.7 169 165.8 165.5 164.6 164.5 163.8 162.5 161.4 160.6 157.9 157.2 156.2 155.2 154.3 153.5 153.4 153.4 153.9 153.4 154 154.7 155.5 154.8 153.8 151.1 150.6 149 146.4 142.6 140.6 138 136.8 134.7 133.8 130.9 128.1 124.6 124.8 123.7 122 121.5 124.2 125
255.4 253.7 252.3 251.3 251.1 250.6 251.6 252.9 250.1 257.1 262.2 266.5 266.3 266.5 267.2 268.4 269.5 269.2 268.4 268.1 270.1 271.9 274.7 277.9 281.5 286.9 292.4 297.6 300.5 301.9 303.5 305.5 309.8 314.2 321.8 326.8 331.6 336.4 340 340.7 341.2 342.1 343.7 343.6 345 346.2 342.3 332.3 323.9 317 314.2 317.8 322 326.3 326.8 325.9 319.7 300.2 288.7 283.4 283.8 282.1 277.3 264.6 252.7 244 238.4 234.7 232.5 232.6 232.9 234.5 237.1 239.8 241.6 242.8 243.7 244 245.1 245 247 246.6 246.9 247.5 248.6 248.9 247.4 243.7 238.9 233 226.8 218.8 209.9 200.6 190.9 182.4 175.5 168.7 163.1 157.9 153 148.5 144.7 141.1 139.5 138.8 137.8 135.8 133.3 132 129.7 127.3 126.6 122.1 121.4 120.9 121 120.9 120.4 121 121.5 134.3 139.3 144.8 153.4 159.9 163.4 165.3 166.1 166.6 166 164 165.8 169 173.2 176.9 180.9 183.4 185.2 187.1 188.6 189.6 190.6 191.5 192 191.9 191.6 190 186.4 182.4 180.4 181 178.6 173.7 174.9 173.2 169.8 171.6 170.4 168.3 167.4 166.2 165.3 164.2 163.1 161.3 160.8 160 159.1 158 156.9 157.1 155.7 154.7 154.3 155.1 155.5 155.4 154.7 153.7 153.3 152 150.3 148.7 146.6 144.3 142.2 139.9 136.6 134.2 133 132 131.1 129.8 128.3 126.8 124.8 121.7 120.5 123.1
260.8 259.2 258.3 256.9 255.4 256.5 257.6 259.8 253.6 262.5 264.9 265.7 266.2 267.5 269 270.1 270.7 271.8 272.2 273.8 275.8 278.4 279.6 283.2 288.9 296.1 301.5 305 307.3 307.4 309 311.1 314.3 319.4 323.3 329.1 331.9 335 336 337.1 340 341 338.3 336.7 336.3 336.2 332.4 325.2 318.1 312.2 308.8 313.2 316.8 319.8 320.6 317.9 308.3 292 282.1 278.2 278.5 275.3 266 254.1 246.6 240.6 236 233 232.7 233.3 234.3 235 236.6 237.9 238.9 239.2 240.5 241.1 241.7 242.8 243.6 243.6 244.5 245.4 246.1 246 244.3 240.3 235.3 229.1 222.2 213.7 205.1 195.5 186.6 179.1 172.4 165.5 160.6 155.7 151.2 146.8 142.5 141.7 138.2 135.5 135.1 131.8 130 129 126.4 125.5 126.5 121.4 121.7 120.6 121.2 121 120.1 120.4 120.4 119.8 130.4 137.3 148 155.7 160.1 162.5 164.1 165 164.3 162.8 164.2 166.7 173.4 177.1 179.8 181.6 181.5 182.7 184.4 186.2 187.3 188.2 189.2 189.7 189.7 187.8 184.9 183.8 183.4 182.2 180.7 177 178.5 176.8 175.4 175 173.3 172 170.1 168.7 166.9 165.1 163.7 163.3 163 162.4 161.4 160.4 159.2 158.6 157.9 156.1 154.9 155.8 156.3 156.3 155.9 155.1 153.8 151.3 149.2 147.6 145.6 143.3 141 138.6 135.5 133.7 133.2 133.2 132.5 131.1 129.8 128.3 126.7 124.5 120.8 118.8
267.6 266.1 264.5 263.6 262.5 263.5 264.2 265.3 261.9 266 269.4 270.1 270.7 271.4 272.4 273.3 275.2 276.6 278.1 279.4 281.5 284.8 289 293.6 301.5 308.6 311.9 312.8 313.1 311.2 312.8 313.2 313.7 316.7 321.7 327 330.4 334.4 335.9 337.1 337.5 337.6 334.1 333 331.7 329 324.2 318 312.4 308.4 303.6 305.2 309.8 312.3 313.3 310 296.3 284 274.9 272.3 271.5 265.5 256.7 246.7 239.2 237.8 232.4 230.6 231.6 231.3 232 231.8 232.5 233.6 234.1 234.5 235.5 236.1 236.9 238.4 239.6 240.1 240.6 241.3 241.8 242.2 239.6 236 229.8 223.1 215.5 207.7 198.8 189.4 181.9 175.1 168.2 163.1 158.2 153.6 149.6 145.2 140.7 138.6 141.5 135.8 131 129.6 127.9 126.2 124.2 122.5 121.4 120.8 121 120.6 120.1 120.1 119.7 119.8 119.9 119.8 119.4 131.1 139.5 149.4 154 157.4 160.1 161.6 161.4 161.2 162.6 165.4 172 173.8 175.7 177.4 178 177.8 179.7 181.7 183.7 184.9 187 188.5 189.2 188 186.9 185.9 184.7 183.5 180.9 179.5 181.3 180.8 179.7 178.5 176.8 174.5 172.5 170.4 168.8 167.1 165.7 165.3 164.9 164.5 163.4 162.6 161.4 161 160.4 159.1 157.2 154.7 155.4 154.9 154.7 153.9 152.4 149.8 149 146.9 145 142.9 140.6 137.6 134.7 132.8 131.9 131.5 131.1 130.9 130.1 129.9 129 127.7 124.3 120.6
272 271.9 270.2 269.5 268.4 269.9 269.3 269.4 266.1 269.7 272.4 273.7 274.6 275.2 276.4 277.2 279.1 282.6 284.7 286.3 291.8 295.9 300.7 307.3 311.3 312.8 313 313 312.1 312.6 312.7 313.2 313.5 315.8 322.5 327.5 331.1 333.7 334.7 334.6 335 333.1 330.5 329.1 327.2 324.7 318.4 313.5 309.4 305.9 300.6 301.3 304.2 307 307.4 303.3 288.6 275.2 268.3 265.6 262.3 256 247.2 241.2 235.6 235.6 228.8 227.6 226.8 226.4 226.6 227.2 227.7 227.9 229 229.8 231.1 232.4 233.6 234.5 235.4 235.6 235.2 234.8 236.1 236.1 233.3 230.1 224.1 216.5 205.9 199.2 191.6 183.6 176.8 170.6 164.6 159.5 154.5 150 147.2 143 138.8 136 136.3 133.8 131.2 128.6 128.2 126.1 123.5 121.3 120.9 120.7 120.5 120.4 120.2 120 119.8 119.6 119.6 119.2 119.5 119.6 130.9 139.4 145.6 151 154.6 157.6 158.6 158.6 161 162.8 165.9 168.5 170.1 171.9 172.6 173.4 174.8 176.8 179 182.1 184.4 186.3 187.6 187.8 187.5 186.3 185.1 183.2 182.5 182.6 183.5 182.5 182.3 181.7 180.1 177.7 175.4 173.1 171.8 168.3 168.2 167.7 167.1 166.2 165 164.3 164.9 165 164 162.2 160.2 156.8 154.3 153.8 153.6 152.5 150 148.4 147.7 146.1 145.1 143.1 140.2 137.5 134.9 131.7 131.2 130 128.8 130 129.5 129.6 129.6 128.1 124.9 122.7
274.8 275.1 274.8 273.5 273.4 273 272.8 272.4 271.3 272 274.9 276.8 278.5 280.5 282.2 283.7 285.7 289.8 294.3 297.3 302.3 304.2 304.8 306.4 306.9 308.2 310 311.8 311.8 313 313.4 313.1 314.9 318.4 323.5 327.8 329.8 330.7 330.4 330.7 330.3 327.7 324.6 323 321.2 318.3 314.6 311.4 307.5 303 300.4 296.1 299.7 300.9 302.2 298.1 282.9 273.6 262.1 258.3 253.9 247.1 241.8 236.4 232.3 230 225.9 223.4 221.6 221 220.9 221.2 221.6 222.4 225.6 227.5 228.6 228.9 229.5 229.8 229.6 230.6 230.1 230.2 230.4 230 227.3 223.4 216.5 210 200.9 192.9 185.5 178.7 171.9 166.2 160.4 155.7 151.3 147.4 143.9 140.1 136.5 134.6 132.6 130.7 130.1 128.5 126.9 126.1 124.9 121.2 120.9 120.5 120.2 120.2 120.3 120.3 120.2 119.6 119.4 119.3 119 118.8 121.9 130.9 137.9 143 147.9 152.2 154 156.7 158.5 160.3 160.8 162.1 164 166 166.9 168.7 170.7 173.1 175.7 179.2 181.7 183.5 186.6 187 188.2 187.8 186.6 185.5 185.1 184.6 184.3 184.1 184.1 183 181.7 180.8 178.7 177.2 173.1 172.2 171.5 170.6 169.2 168.5 169 169 169.1 168.9 167.9 166.1 162.2 160.1 157.1 154.6 153.6 152.6 152.2 150.5 147 143.8 142 139 138.6 137.9 134.5 132.6 131.3 129.8 128.7 129.2 127.7 127 127.5 126.4 124.7 121.8
278.5 278.1 277 275.4 274.6 275.6 275.5 274.7 274 273.3 278.5 281.2 283.4 286.1 288 292.2 295.1 298 300.9 302.4 303 304.3 304.8 305.7 306.8 308.8 310.6 312.4 312.5 313.3 314.5 314.8 317 319.9 322.9 324.3 325.1 325.6 325.1 326.7 325.2 322.2 318 316.5 314.7 312 309.7 308.1 306.1 303.6 301.1 296.3 294.4 294.6 295.6 289.3 272.5 264 255.9 249.4 245.7 242.3 238.6 235.2 231.7 227.8 222.1 218.8 216.4 215.3 215.2 216.5 217.7 220.3 222.6 223 223.2 223.4 224.4 224.8 225 225.5 225.3 225.5 225.1 223.9 221.1 216.3 210.6 202.5 193.7 186.8 181.4 175.3 168.9 162.5 157.8 153.3 149.8 146.1 141.3 138.3 134.9 132.1 130.2 129 128.2 127.8 128.3 127.9 125.4 121.4 120.5 120.1 120 120.1 120 120.2 119.9 119.6 119.3 118.3 119.2 118.6 119.2 120.3 130.6 136.6 142 145.2 150.4 154.1 156.4 158.6 157.8 157.6 158.8 162 163.5 165.1 168.9 172 174.6 176.6 180.1 182.6 185.4 187 189.3 188.4 187.4 186.6 185.9 185.7 186.4 186.6 185.9 185.2 184.2 182.9 181.2 178.6 174.6 175.2 174.6 173.9 173.5 172.9 174 173.5 173.1 172.6 171.8 169.5 165.3 162.8 157.7 157.7 154.7 151.3 148.3 145.8 142.5 142.8 145.4 143.9 142.3 140.2 137.9 134 131.3 129.4 128.6 128.6 127.1 125.2 124.1 123.6 122.2 120.8
282.5 281 279.4 277.9 277 277.7 278.4 278.3 277.8 275.3 283.3 286.4 290.1 293.7 297 299.7 300.5 301.9 303.3 304 304.7 305.6 306.7 307.5 308.9 310.8 313.1 314.9 315.3 316.1 316.5 317.5 318.6 320.1 322 321.7 321.5 321.8 322.6 322.1 319.1 315.6 312.2 310.6 309.1 306.9 306.7 307.5 305.9 303.5 300.9 296.2 290 287.7 288.1 282.7 266.8 257 252.7 247.8 243.7 240.5 236.7 232.4 227.8 224.6 218.6 215.2 213.4 211.1 209.7 212 215 216.8 217.3 217.4 217.6 217.9 219.1 220 220 219.8 219.5 219.5 219 217.7 213.4 208.3 202.8 196.7 190.3 184.7 180 174.9 168.6 161.3 156.4 151.5 147.8 143.9 139.5 136.6 134.1 132 128.6 125.3 125.1 125.1 125.5 124.8 125.3 121.3 120.1 119.8 119.8 120 119.8 119.8 120.1 119 118.3 118.8 119.2 118.5 118.2 118.6 121.5 128.8 134.5 139.3 144.7 150.5 153.6 156.1 156.8 155.9 157.1 162.6 164.7 165.9 168.2 171.4 173.9 174.6 177.2 180 183.1 185.2 186.1 187.3 187.4 186.8 186.7 186.7 187.5 188.5 188.1 187.5 186.6 185.1 183.2 178.5 177.8 178.8 177.8 177.4 177.1 176.4 177.9 178.2 178.2 177.2 174.9 172.7 169.3 162.8 164.4 160.2 154.5 152.6 152.3 151 151.1 148.5 144.7 143.5 142 140.9 139.4 135.3 133.4 130 128 127.6 126.2 124 123.1 122.9 122.7 121
283.9 282.4 282.2 281.5 280.8 282.5 282.9 284.8 285.9 282.9 289.5 294.7 298.5 302.7 304.3 305.1 305.9 306.3 306.4 306.7 307 307.9 308.8 309.3 311 312.9 315.3 317.5 318.4 319.5 320 321.2 322.4 323.1 322.9 322 321.5 321 320.8 317.8 315 311.9 308.2 304.9 303.7 302.8 303.8 307.2 309.7 309.6 306.1 299.9 292.9 286.1 279.3 276.4 260.9 251 250.2 245.7 242.5 238.7 233.7 228.8 222.9 218.9 218.1 216.9 215.5 213.2 210.2 206.6 209.9 211.2 212 211.9 211.9 211.7 213 214 214 212.1 212 212.5 212.6 211.3 208.5 203.4 198.4 193.4 188.2 183.8 179.6 174.4 169.5 160.8 155.7 150.8 147 143.2 138.6 136 133.6 130.6 126.4 126.7 125.4 123.5 122.9 123.5 123.5 124.8 121.5 119.9 119.6 119.8 119.3 119.9 119.6 118.2 118.1 119 118.7 118.2 118.3 117.9 119.3 119.8 126.3 132.1 138 144.8 149 151.7 154.2 154.3 157.5 161 163.5 165.9 168.2 169.4 170 170.6 173.6 176.3 178.7 181 182.6 184.5 185.6 186.4 186.6 187.3 189 189.2 189.4 189.2 188.5 186.7 183.6 180.3 180.1 180.8 181.1 180.3 180.9 181 182 182.4 181.7 180.5 178.3 173.2 171.6 171.3 168.9 166.4 163.5 159.4 158.2 156 154.9 152.5 150.7 147.3 143.8 141.7 139.8 138 139.2 135.2 130 127.8 126.4 125.6 125.4 125.4 124.8 122.7
288.4 287.7 287.6 288.6 287.8 291 292.3 293.5 294.6 292.4 295.2 302.5 307.3 310.9 312.2 311.1 309.6 309.2 308.7 308.9 309.1 309.5 310.1 310.4 312.1 315 317.2 319.9 323.2 324.3 324.9 325.1 325.5 325 324 322.9 321.5 320.8 316.2 311.5 309.2 306.6 303 300.3 299.3 299.5 302.7 307.4 313.5 315.1 312.7 305.7 294.7 286.4 278.3 266.5 251.8 247.7 245.4 241.3 238.6 238.7 237.8 233.8 228.6 225.7 223.7 221.1 216.6 212.9 209.2 204.5 205.1 206 206.8 206.7 206.7 206.5 207.4 207.1 206.9 205.7 205.6 205.5 206.1 206.6 204.4 201.5 196.7 191.7 187.6 183.9 178.9 173.6 168.2 161.5 156.1 151.5 147.3 142 137.5 135.3 132.6 128 126.4 131.7 134.6 134.9 132.7 136.7 135.2 134.3 131.4 124.9 120.3 119.5 118.9 119.3 119.1 118.4 118.1 118.5 118.3 118 118 117.6 117.4 117.9 118.3 124.3 131.9 137.8 142.7 146.4 148.2 151.2 154.6 158.4 160.4 162.4 162.4 167.1 166.1 166.2 168.8 170.3 173.2 176.2 179.8 181.7 183.4 185.8 187.3 187.9 189.2 189.9 190.1 189.1 188 186.8 185.1 184.7 184.7 184.3 183.7 183.5 184.7 184.2 184.8 183.7 182.7 182.5 175.8 178.8 176.9 174.2 171.6 169.6 167.3 164.6 162.4 158.4 156.8 153.8 153.2 149.6 145.9 141.8 139.5 138.5 140 138.8 131.3 128.8 127.2 127.3 127 126.6 125.5 124.7
295.7 295.5 296.5 299.3 300.1 300.9 300.6 300.5 300.8 299.9 295.7 304.4 310.2 312.2 310.4 309.8 309.8 310 310.1 310.2 310.5 310.6 311.2 311.9 311.7 316.1 320.9 323.3 324.1 324.6 325.1 325.4 325.5 325.1 324.8 324.6 324.6 323.5 320 314.7 307.9 302 298.9 297.3 296.5 297 300.7 305.9 310.9 314.7 315.8 310.6 300 285.9 276.4 266.3 254 251.7 250.5 249 248.4 246.9 244.6 243.1 232.8 231.7 229.7 223.9 216.5 211.9 207.7 203.2 202.3 201.3 201.6 201.7 201.9 202.1 202.2 202.2 201.4 200.3 199.9 199.2 199.7 200.2 200.5 198.2 194.8 191.1 186.7 182.2 176.9 170.6 166 158.1 153.5 150.9 146.3 139.9 136.3 134 131 127.7 132.2 137.4 139.6 142.2 139.2 141.9 139.3 137.5 135.6 132 126.2 124.5 122.1 119.3 118.7 118.2 117.5 117.9 117.5 117.5 117.6 117.3 116.9 117 117.2 117.4 124.1 130.5 135.8 139.6 144 148.2 152.1 155.9 157.8 159.9 161.3 164.7 163.6 162.8 163.6 165.7 169 172.8 176.1 179.2 182.5 184.9 186 188.1 189.4 190.6 190.1 190.1 190.2 189.1 188 187.5 187.9 187.6 188.2 188.4 188.6 186.8 185.3 185.1 182.7 180.5 181.3 180.3 178 175.9 173.6 172.1 170.2 167.7 164.8 161.8 159.4 156.7 154.6 152.2 147.1 143.4 140.2 139.8 140.6 138.4 132.5 129 128.1 128.4 127.2 127 126.8 124.6
305.1 307.8 307.2 303.4 305.4 305.4 304.9 304.4 304 303.3 302.9 301.3 308.7 307.5 308.3 308.6 309.7 310.1 310.3 310.5 310.8 311.5 312.2 312.9 313.5 318.9 320.9 322.9 323.6 324.3 325 325.6 325.5 326.8 328.2 329.1 328.4 325.3 320.9 313.8 306.9 301.5 297.1 295.5 294.4 294.8 298 304 308.9 311.7 313.6 310.3 301.2 288.2 276.5 270.4 265.2 268.4 268.6 269.1 266.1 256.8 252 247.6 239.2 232.5 231.4 225.6 214.8 211.9 206.8 201.7 199.6 198.9 197.7 197.9 197.9 197.7 197.5 195.6 194.2 193 191.6 189.8 190.1 191.6 194.7 189.5 185.4 184.8 180.6 177 173.8 168.9 165.2 157.4 149.7 142.5 140.8 136.9 134.5 131.7 129.1 127.7 138.4 143.7 147.4 148.6 141.3 145.6 141.6 139.7 135.9 133.1 130.4 127.7 125.3 124 118.3 118.2 117.2 117.1 118.2 117.7 116.8 116.6 116.6 116.5 116.5 116.7 117 121.8 126.9 131.8 138.3 144.3 149.3 154.1 156.6 158.6 159.8 160.8 161.8 161.5 162.3 163.1 165.7 169.5 173.9 178.3 180.9 182.9 184.8 186.9 188.6 190.5 191.9 192.5 192 190.3 189.6 189.6 190.2 191.1 191.5 191.2 189.8 187.8 185.9 184.7 184.2 182.7 181.6 179.6 177.7 175.9 174.5 173.3 171.3 167.9 166.4 164.3 161.7 160 155.8 154 150.1 148.6 144.5 143.1 142.8 139.5 135.4 131.6 130.2 127.9 127.5 127.1 125.7 124.5
307.2 308.7 309.3 309.5 308.9 309 308.6 308.4 307.9 307 306.8 306.5 304.7 304.2 307.1 308.4 309.9 310.1 310.3 310.6 310.8 310.9 311.2 312.1 313.4 317.5 319.8 322.1 323.4 324.2 325.7 327.1 328.3 329.7 331 331.6 329.8 326.3 320.2 313.3 305.8 300.4 296.4 294.5 293.6 293.1 295.5 301.7 306.2 308.9 309.9 308.1 301 289.5 280.7 273.2 271.1 274.9 278.4 283.2 283.6 282.5 268.1 255.5 244.5 233.4 230.7 227.4 217.5 211.7 207.5 204.6 202 199 197.3 195.1 194.6 192.8 190.9 190.9 190.9 189.6 187.8 185.9 186 183.2 180.7 181.3 178.1 174.1 170.8 174.5 174.9 172.5 167.2 160.6 151.9 143.1 138 135.9 133.7 131.9 128.6 140 146.1 149.8 151.3 149.1 146 147.4 144.3 141.5 138.5 136 132.7 130.6 126.6 124.5 120.5 118.8 118 116.8 117 116.9 116.9 116.5 116.4 116.3 116.2 116.1 116.8 116.7 119.1 125 130.3 139 145.3 149.7 153.7 156 157.6 159.2 159.4 159.1 159.6 160.4 163.4 167.6 171.2 175 177.6 180.8 181.6 183.7 186.4 188.3 190.2 192.1 192.2 192.4 191.8 191.4 191.4 192.8 191.8 190.1 188.5 187.6 186.6 185.9 184.1 182.8 179.6 177.5 176.7 175.3 174.3 173.4 172.7 170 167.1 164.9 161.5 159.3 157.4 157 154.3 152.4 150.5 147.8 145.6 142 138.4 135 132.3 129.8 127.1 125.5 123.9 121.3
313 313.9 315.6 315.1 313.7 314.3 313.9 313.5 312.5 311.4 310.6 309.6 308.4 307.3 308.4 309 309.9 310.2 310.4 310.7 310.9 311 311.1 311.3 313.9 317.1 319.8 322.5 324.8 326.5 327.4 329 330.8 330.6 329.6 328 326.5 322.8 318.1 310.6 304.5 299.1 294.9 293.9 293 292.4 294.3 297.6 302.6 304.2 306 305.2 302.6 295.8 287 279.7 275.9 275.6 278.8 280.2 282.1 282 274.7 263.4 247.9 236.3 229.2 227.8 221.2 214.2 211.9 208.1 203.9 201.4 199.9 197.9 197.5 196.3 196.1 195.7 195.8 195.4 194.8 193.9 192.8 191 188.5 186.8 183.6 180.6 178.9 178.3 177.3 174.4 168.5 160.2 149.4 141.1 137.7 137.6 136.5 130.6 135.3 146.7 150.7 151.5 150.2 150.9 150.3 149.7 147.9 145.9 142.2 138.1 135.3 131.7 128.6 125.8 123.4 120.3 117.1 117.5 116.6 116.9 116.5 116.6 116.5 116.4 116.2 116.1 116.1 116.2 116.5 116.6 124.9 131 137.6 143.9 148.5 152.1 154.6 156.9 157.6 156.8 156.6 158.5 160.4 164.9 168.4 171.3 173.9 175.9 178.3 181.9 185.9 187.5 189.9 192 193.6 194.9 195.9 195.6 194.9 194.5 195.3 194.1 193.3 194.1 192 189.2 187.7 185.7 182.6 179.5 177.5 175.2 172.8 172.2 171.9 171.6 169.6 166.3 163.2 162.6 160.4 160 158.3 155.4 152.6 150.1 146.6 143.5 140.4 137.4 134.2 131.1 128 124.9 121.8 119.1
319.6 321.3 321.7 321.4 320.3 319.2 318.1 317.2 316.7 316.3 315.2 313.9 311.9 309.6 309.7 310.2 310.5 310.4 310.6 310.8 311.1 311.2 311.9 313.7 315.9 318.6 321 323.4 325.5 327.1 328.2 328.1 328.7 328.4 326.9 324.5 321.4 319.3 316 310.4 303.2 296.5 293.4 292.8 292.3 290.7 292.9 296.3 299.4 302.5 304.1 303.8 302.3 297.4 291.3 285.6 280.9 278.8 281.2 283.4 282.8 281 278 267.1 253.1 240.7 232.7 228.4 224.1 217.9 217.8 215 211.3 206.2 203.8 202.2 200.9 199.8 200 199.8 199.4 199 197.4 196.2 194.8 193.5 191.1 187.9 184.3 182.3 180.9 179.1 176.8 172.9 166.4 159 149 141.1 136.3 136.7 134.6 134.8 145.7 151.3 154.9 155.4 157.8 158.5 158.3 156.5 152.3 149.1 145 140.9 137.5 134.2 130.9 128.7 127.2 125.4 123.7 118.3 115.6 116.6 116.5 116.1 116 115.9 115.9 115.9 116.4 116.3 116.5 115.5 117.2 125.3 131.6 136.8 141.3 147.2 150.3 152.9 154.9 154.9 154.4 155.2 157.3 160.8 164.2 167.5 171 175.4 180.1 184.4 187.9 190.8 194.1 196.7 200.1 201.6 202.3 201.5 203.2 205.2 204.5 203.5 200.9 198.3 196.1 193.2 190.9 188 185.2 181.8 177.7 173.9 172.2 170.7 170.2 170 170.4 168.8 165.7 164.5 163.5 161.5 158.2 154.7 151.7 149.7 147.6 144.6 141.5 138.3 134.7 130.9 127.5 124 120.7 118.5
323.6 324.9 326.1 326.6 325.2 324 322.4 321.5 321.4 320.4 319.5 317.8 316.1 313.8 313.5 313.2 312.4 311.8 312.1 312.3 312.9 313.7 314.8 316.9 319.3 320.6 323.2 325.6 327.6 329.2 329.4 328.1 326.8 326.1 325.8 323.7 322.3 317 314 307.5 301.2 294.2 292.3 292.3 291.7 288.6 291.3 294.6 296.9 300.7 301.6 301.3 299.7 295 289.9 286.4 283.6 282 283.6 284.3 283.5 281.6 279.1 273.2 262 247.8 237.4 230.6 226.2 220.6 220.5 217.7 213 209.1 207.3 207.8 208 206.9 207.2 205.6 203.5 200.6 198.3 196.1 194 192 189.2 186.3 183.1 181.2 178.9 176.4 173 168.9 163.7 156.9 149 141 135.4 132.2 136.9 145 154.4 157.4 161.9 165.2 166.1 166.9 164.3 160.4 156.1 151.5 147 143.8 140.6 137.5 134.7 133.4 131.6 129.9 128.9 127.1 122.3 117.8 114.8 114.9 115.1 115.3 115.5 115.4 116.1 116.6 116 115.4 114.9 119.6 126.7 133.5 138.3 141.2 145 149.6 152.1 153.2 155.7 157 157.6 160.3 165.4 169.9 173.5 178 183.8 188.9 193.5 196.7 201.6 204.3 206.6 209.5 213.3 217 216.6 215.1 213.2 211.3 209 206.8 202.3 196.7 192.6 188.4 184.4 181.5 177.2 172.3 169.4 168.7 168.4 168.7 169.2 168.2 167.3 165.9 163.5 160.3 157.3 153.8 150.9 148.7 146.5 143.5 140.6 138 134.5 130.7 127.9 124.2 120.9 117.5
327 328.9 330.1 331.5 330.6 329.9 329.1 327.7 326.5 326.6 326.1 324.8 322.9 318.6 320 318.8 318.9 317.8 317.1 317.3 318.6 319.3 320.5 320.8 322.1 323 324.7 326.6 327.9 328.7 328.4 327.3 326 324.8 323.8 321.5 319.5 314.2 309.2 304 297.6 292.1 291.8 291.9 291.1 289.2 287.1 290.8 294.4 296.3 297.8 299.2 297.9 295.4 291.5 288.5 285.8 285.6 284.5 284 283.1 281 277.6 274.1 267.7 252 242.2 234.6 230.1 224.1 221.4 216.6 216 215 213.6 215 214.6 213.8 212 209.5 206 201.4 196.1 193.7 191.4 189 186.4 183.1 180.1 176.8 173.5 171.3 167.9 164.5 159.9 153.3 146 138 133.9 133 141.6 152.4 159.3 167 170.9 174.7 173.9 170.7 166.5 162.5 158 153.4 149.6 146.6 143.5 140.8 138.5 136.1 135.2 133.9 132.6 131 129.4 127.4 123.4 117 114.6 115.5 115.3 115.1 116.1 116.1 116 115.4 115 115.3 122.1 129.2 133.1 137.5 140.1 142.4 149.6 154.3 156 158.4 159.8 160.9 164.7 169.8 176.1 183.3 189 195 200.5 206.8 208.8 209.6 212.9 217.3 218.2 218.8 218.5 218.8 218.1 216.9 214.4 211.3 209.3 203 196.5 189.5 182.9 179 175.1 170.6 169 167.2 167.5 168 168.1 167 166.1 165.2 162.4 159.1 156.3 152.8 150.1 147.6 145.3 142.4 139.5 136.7 134.2 130.9 128.2 125.4 121.2 118.3
332.4 336.1 339.5 340.2 339.8 335.9 333.1 331.3 330 328.7 327.4 326.7 323.7 323.4 323.8 323.9 324.8 323.9 324.9 325.4 324.9 325 324.2 323.4 322.1 322.3 324.1 324.4 324.5 325 324.6 323.9 322.8 321.6 320.3 318 315.4 312 306.8 299.7 294.3 292 291.1 290.5 289.4 288.7 287.3 285.6 290.8 291.9 292.7 294.2 295.7 293.3 291.7 289.4 287.9 286.7 285.2 283.8 282.1 279.4 276.2 272.6 268.9 257.1 244.5 237.4 231.9 226.3 223.9 222.7 222.3 221.6 221.5 221.4 220.1 217.6 214.2 211.1 207.3 201.5 193.3 188.6 185.7 182.5 180.1 176.9 174.5 171.1 168.3 166.1 162.2 158.7 153.3 148 140.8 136 133.4 138.3 150.3 161.5 169.8 174.7 177 177.3 175.4 172.5 169.1 164.6 160.1 155.7 152 148.9 146.1 143.9 141.6 139.4 138.5 137.6 136.3 134.5 132.8 130.6 128.3 124.9 119 114.9 115.6 115 115.4 115.5 115.4 115.5 115.2 114.8 114.9 125.5 128.1 131.4 133.6 139.3 146.5 150.9 155.1 158.1 160.2 163.1 167.6 173.6 181.4 191 197.5 201.7 205.4 207.4 209.3 211 213.3 214.7 215 214.4 214 214.2 214.7 216 215.4 211.8 210.4 204.8 198.8 191.9 185.6 179.7 174.1 169.4 168.2 167.3 167.3 167.7 167.7 166.8 164.4 163.5 160.9 157.9 155.1 151.9 149.3 146.8 144.1 141.3 138.5 135.7 133.8 131 128.5 125.9 122.1 118.4
343.4 340 338.6 337.3 335.7 332.5 330.8 329.9 329.5 328.7 328.2 327.2 328.1 327.4 327.7 329.6 329.7 330 329.5 328.3 326.7 325.3 324 322.4 320.3 318.8 320.1 320.4 320.6 320.2 319.7 318.9 318.2 317.1 315.8 314 311.4 308.8 304.4 298.4 293.2 290.9 289.3 288.2 287.1 287 286.5 285.5 282.9 286.8 288.2 289.4 291.3 289.3 287.6 287.7 287.2 286.2 284.6 282.4 280.4 277.7 274.7 271.1 267.4 257.3 247.3 239.6 232.7 228.6 227.4 227.6 227.6 226.8 226 224.4 221.3 218.4 214.3 209.5 205.2 198.9 190.7 183.8 178.6 176.2 173.9 171.9 169.9 166.5 163.6 160.2 157.2 153.1 146.6 143.4 136.6 135.2 136.9 148.2 158.6 169 174.3 175.6 177.7 177.8 176.7 174 170.6 167.2 162.9 158.3 154.3 151.5 149.3 147 144.9 143 142.2 141.2 139.9 137.9 135.9 133.7 131.5 128.8 125.8 119.4 114.4 115.3 115.1 114.9 115 114.8 115.2 114.6 114.3 115.2 123.8 125.5 130.7 136.4 142.2 147.4 153.1 156.7 161.8 167.4 173.6 181.9 190.9 198.7 200.2 199.9 200.5 202.2 203.8 205.9 208.2 210 209.7 209.8 209.9 210.1 210.1 210.3 210.7 209 208.2 204.3 198.9 192.9 186 180.1 175.9 172.7 170.1 169 168.8 169 167.9 166.8 164.6 162.1 159 156.5 154.4 151.1 148 145 142.4 140 137.3 134.6 132.3 130.3 127.6 125 122.6 118.7
337.4 336.5 335.2 333 332.5 331.9 330.9 330.4 329.5 328.6 329.3 330.3 331.1 330.3 330.9 331.5 330.8 329.6 328.3 326.5 324.8 323.4 321 318.3 316 314.9 315.7 316 315.7 315.2 314.7 313.9 313.2 312 310.8 309.9 308.4 306.1 303.1 298.9 292.7 288.5 286.9 285.7 285 285.3 285.1 285.2 283.7 278.6 281.8 284 285.5 283.8 284 284.6 285 284.4 283.4 281.8 279.6 276.7 273.1 269.3 265.6 258.8 249.2 242.3 236.3 231.9 230.8 230.1 230.5 229.8 227.8 224.6 221.1 215.4 210 205 195.6 188.1 186.1 179.7 173.9 170.7 169.3 167.7 165.1 161.6 157.6 153.4 151.5 148.7 141.2 137.5 136 136.3 141.7 153.5 163.5 170.3 174.3 176.4 178.4 178.1 177.3 175.7 173 169.1 165.2 161.3 157.5 154.9 152.7 150.5 148.5 146.6 145.6 144.8 142.6 141 138.8 136.2 133.3 130.5 127.7 124 116.9 115.1 115.1 115.4 114.4 114.4 115.1 114.8 114.4 114.1 117 122 127.2 133.7 138.6 145.3 151.9 157.6 162.6 169.9 178.8 186.8 190.6 193.4 193.4 191.1 192 195.5 199.4 201.6 204 205.2 205.9 206.3 207.2 206.2 206.3 205.7 205.3 204.7 203.2 200.7 196.9 191.7 186.3 181.8 178.3 175.2 173.5 171.9 171.2 170 168.2 166.7 164.6 162.5 159.7 156.8 154.5 151.5 147.8 143.5 140.5 137.1 135.4 132.1 130 127.7 124.6 122.5 120.6 118.6
340.2 339.6 338.4 337.1 335.5 333.9 332.4 331.1 330.7 330.3 330.2 331.2 331.5 331.3 330.9 330.4 329.1 327.6 326.3 324.4 322.4 319 316.4 313.6 311.9 311.2 310.9 311.1 311.1 311.1 311 310.5 309.6 308.5 307.6 306.6 305.1 303.1 301.9 298.7 292.2 286.4 284.9 284.5 283.6 282.9 282.3 281.1 280.9 278.2 275.8 278.3 279.8 280.5 281.4 281.3 281.4 282 281.7 279.7 277.4 274.4 270.5 266.9 263.9 258.9 248.7 243.7 238.6 234.4 234.3 234 234.2 232 228.8 222.6 217.4 210.1 199.2 193.9 187.5 181.4 176.5 176 172.3 167.2 163.3 160.5 156.6 153.5 152.5 148.2 145 141.4 138.3 136.8 137.2 140.2 148.9 158.9 165.6 170.4 175 177.8 180 179.6 178.9 176.8 174.3 170.6 167.3 164.5 161.9 159.3 156.7 154.3 152.2 150.2 148.7 146.9 144.9 142.8 140.7 137.8 134.7 131.5 128.1 123.9 119.7 114.7 114.4 114.9 114 115 114.9 114.8 114.8 114.5 114.9 119.1 122.4 128.9 133.9 142.2 149.4 156 162.7 169.3 178.5 186.4 187.3 187.4 187.2 186.9 188.4 194.2 196.6 197.3 199.5 201.3 202.1 203.8 205 203.3 201.9 200.6 199.5 199.3 197.4 195 192 188.9 186.9 183 182.3 180.3 178.1 175 172.6 170.6 168.5 166.5 164.1 161.9 159.5 157 153.5 149.6 146 142.5 138.3 134.5 130.5 129.1 126.1 123.4 121.1 119.9 118.1 116.3
348.9 347.6 345.5 343.3 340.5 338.4 336.3 333.8 332.9 332.2 331.9 332.1 331.8 331.4 330.2 329.2 327.4 325.6 323.7 320.9 317.7 314.9 311.7 309 307.9 306.9 306.4 306.9 307.5 307.8 307.9 307.7 306.7 305.2 304.3 303 301.3 299 296.8 294.8 290.6 285.4 282.6 282.3 281.3 280.4 279.1 276.2 276.9 276.5 273.9 275.3 277.1 277.4 278.7 278.8 278.2 278.3 278 276.5 274.7 272.1 268.5 265.5 262.6 258.8 253.6 246.5 241.1 238.7 237.8 237.5 236.8 232.8 227.8 220.2 209.1 200.3 195.3 188.3 180.2 174.6 171 169.1 163.6 160.7 157 154.5 151.6 148.3 145.5 143.6 140.4 139.8 138 138.2 141 147.6 154.6 162.8 168.6 174.6 179.7 181.3 182.3 181.5 180.4 178 176.2 173.7 170.9 167.9 165.5 162.9 160 157.2 155.8 153.2 150.8 148.7 146.5 144.3 142 138.8 135.3 131.7 128.4 125.3 121.7 116.2 113.9 113.9 114.1 114.8 114.6 114.6 114.6 114.6 114 115.6 118 122 128.8 138.3 145 151.8 158.3 167.3 177.1 183 183.8 183.5 182.9 184.2 188 190.8 192.2 193.4 195.5 197.5 198.8 200.2 200.5 199 197.3 197.5 194 193.7 192.1 189.8 187.3 185.4 184.2 184.3 183.7 182.5 179.7 176.3 173.2 170.5 168.3 166.1 163.4 160.9 158.5 155.6 151.8 147.3 143.8 140.1 136.3 132.3 128.4 125.8 122.2 119.8 117.5 115.7 113.7 111.5
351.5 350.1 348.3 345.6 342.7 340.4 338.5 336.6 335.6 334.8 334 332.8 331.9 331.1 329.3 326.8 325 323.2 320.2 316.5 313.4 310.5 307.5 304.7 303.5 303.2 304.2 304.6 304.7 304.5 304.3 303.8 303 302.1 301 299.2 297.4 295 292.7 290.1 286.8 282.8 278.7 279.9 279.5 277.9 274.9 272 273.2 273.3 272.9 269.7 274.2 273.8 275 275.2 274.9 274.5 273.7 272.6 271 268.8 266.8 264 261.1 258.5 253.8 248.1 243.2 240.2 238.4 238.2 236 229.4 221.4 211.9 202.9 193.7 188 179.9 172.1 168.7 163.8 160.6 160.3 157.2 156.2 150.2 146.5 145.2 142.7 141.7 141.5 140.7 140.6 143.4 147.8 153.5 161.8 168.1 174 177.7 181.2 182.8 183.6 183.5 182.2 180.4 178.8 176.7 174.4 171.4 169.1 166.4 163.2 160.4 158 155.6 153.1 150.8 148.4 145.8 142.9 139 136.2 133.6 130.2 126.8 123.7 118.6 114.3 114 113.2 113.3 114.4 114.4 114.4 114.3 114.4 113.4 115.6 118.6 124.1 132.6 139.7 146.5 152.3 160 168.2 178.1 179 178.6 178.1 181 184.2 186 188.9 189.9 192.3 194.9 195.8 196.2 194.9 193.2 191.7 192.7 189.2 188.1 186.8 185.2 183.9 182.1 180.8 180.4 180 179.5 179.4 176.8 174.4 170.8 168.4 166.2 163.4 160.2 156.7 152.7 149.2 145.1 141.2 137.3 133.3 129.2 126.2 123.1 118.7 116.4 114.4 112.7 110.9 109
350.9 349.8 348.1 345.9 343.4 341.3 339.5 338.1 336.8 335.5 334.2 332.8 331.4 329.4 327.5 324.8 322.4 320.5 318 314 309.9 307.5 305.3 302.2 300.1 300.9 302.2 302.5 302.7 302.6 303.5 302.8 300.7 298.6 296.7 295 292.4 290.8 287.8 285.4 282.2 278.9 273.8 276.1 275.1 272.6 269.9 268.9 269.3 270 269.3 264.3 269.9 271 269.5 268.8 269 269.5 269 267.6 267.5 265.6 264 261.6 258.7 255.4 251 245.5 241.6 241.1 236.7 233.6 227.5 221.8 214.7 204.3 196.2 191 182.8 172.8 166.7 164.1 160.8 158.8 156.8 151.9 147.7 146.2 144.6 144 143.9 144.4 143.9 145.2 146.3 150.6 156.4 162.7 167.5 174.1 178 181.2 183.3 184.6 184.6 185.2 184.6 183 181.4 179.4 177.2 174.8 172.5 169.5 166.1 163 160.1 158.1 155.7 153.3 151.2 147.8 145.1 141.9 138.7 135.7 132.2 129.2 125.7 122.2 118.3 116 114 113.2 112.6 114.1 114 113.7 113.9 113.5 113.5 116.6 120.3 127.4 133.3 138.2 145.2 152.6 159.5 170.5 173.5 174.1 173.2 175.1 178.5 180.9 183.3 186.2 190.1 192 191.6 190.9 190.8 189.9 188.9 188.5 184.6 183.3 181.8 181.3 180.3 178.9 177.1 176.2 175.9 175.6 175.8 174.8 172.8 170.7 167.7 164.2 160.5 156.8 152.6 148.5 144.2 140.9 137.1 133 129 125.2 122.1 118.9 116.3 114.7 113 110.9 109.2 107.3
348.7 346.5 345.5 342.9 340.9 339.3 337.7 337.1 336.3 334.2 332.9 331.4 329.4 327.6 325.2 322.3 319.8 317.7 315.6 312 309.6 307.1 304.8 302.8 301 297.9 299.9 300.7 300.6 299.9 299.3 300.2 297.8 295.7 293.1 289.7 286.9 285.7 283.1 279.6 278.5 274.9 271.3 269.5 269.4 267.2 265.7 265.1 264.5 265.4 264.9 258.3 261.1 264.5 264.1 262.5 262.8 264.3 264.1 263.4 263.5 262.1 260.5 258.1 254.7 251 245.7 240.3 238.9 234.9 231.8 228 222.8 216.7 206.6 197.3 192.5 186 177.2 167.8 165.2 163 160.5 156.2 152.4 148.1 147.4 148.9 149.8 147.9 148.2 150.1 150.8 151.4 152.8 156.9 162.2 168 172.5 176.5 180.6 182.4 184.6 185.9 186.6 186.3 186.6 185.3 183.5 181.5 180 178.1 175.6 171.8 168.4 165.9 163.9 161.1 159 156.9 154.9 151.8 148.5 145.3 141.6 138.5 135.6 132.5 129 125.5 122.2 120.1 118.1 114.8 113.3 113.4 113.1 113.3 113.4 113.3 113.3 115.2 118 123.1 126.9 130.9 139 144.5 149.6 154.8 161.2 161.5 165.6 170.3 173.1 175.3 178.5 181.9 184.3 187.1 186.8 186.5 187.1 187.5 186.8 184.9 181.7 178.6 175.7 175.6 174.5 172.8 172.2 171.4 169.9 169.1 168 167.6 166.1 165.9 163.7 159.3 154.4 150.8 147.4 143.1 139.2 136.3 132.4 128.5 124.8 122.6 119.2 116.4 114.2 113 111.6 109.9 108 106.5
344.7 343.5 341.5 338.9 338.5 336.6 336.2 336.1 335.3 334.2 331.7 329.9 327.9 325.8 323.6 321 318.9 316.2 314.7 312.8 310.7 308.9 306.9 304.7 302.8 300.6 292.1 295.7 296.2 295.8 293.6 293.5 292.3 291.1 288.5 286.4 283.3 280.7 279.4 276.6 274.6 271.3 269.2 265 263.8 262 260.6 259.6 258.8 259.7 260 255.1 252.8 256.9 258.8 258 257.2 258.8 259.2 259.1 259 257.1 255.8 252.2 248.9 243.6 238.5 235.9 232.2 229.1 225 221.3 216.8 209.8 200.7 192.3 184 178.8 172.6 166.5 163 160 157.2 154.2 150.9 148.5 152.1 154.6 155 157.7 160.2 160.7 159.8 160.1 161.8 163.8 168.2 172.6 175.9 179.6 182.6 184.8 185.9 186.8 188.5 189.5 187.8 188 186.9 185.7 183.5 181.3 179.2 176.2 173.1 170 167.4 166.1 164 161.5 159 155.6 152.2 148.8 145.9 142.2 139 135.9 132.3 128.8 125.8 124.5 121.6 115.7 113.3 112.8 113 113.2 113.2 113.2 113.4 113.1 113 119.8 122.2 127 133.5 139.2 142.2 151.1 151.8 153 156.1 161.5 167.5 171.2 177.3 178.1 178.3 181.3 181.5 181 181 181.5 181.2 179.8 177 174.8 172.1 171 169.2 168 165.1 162.7 159.9 159 157.6 157.7 157.4 156.2 154 151 146.9 143.4 139.9 137.8 134.1 131.2 127.7 124.5 121.7 119.2 116.6 114.4 113.4 111 109.6 107.7 106.8 105.9
342.1 340 338.7 336.2 336.7 336.8 336.5 336.1 335.3 334.5 332.1 330.6 329.1 327.7 325.5 323.4 320.7 319.8 318.2 316.3 313.8 311.6 308.8 305.9 302.2 298.3 294.5 287.4 290.6 289.7 288.5 286.9 286.4 285.6 283.8 282 280.7 277.5 274 270.9 268.7 266.5 264.9 261.5 258.1 256.7 255 253.8 252.9 255.3 255.1 252.9 251.3 247.5 251.2 252.8 251.8 254.4 255.8 254.8 254.6 254.7 250.9 245.5 242.8 239.5 235.4 231.9 228.6 222.4 219.3 215.8 210.7 202 194.2 187.1 175 171.2 165.6 160.6 158.2 156.9 152.4 154.2 152.1 157.5 163.8 167.9 169.4 170.4 172.1 171.4 170.2 167.2 168.8 169.6 172.3 175.6 178.6 181.3 183.8 186 187.8 188.1 189.5 191 191.8 191.9 192.1 189.5 187.1 184.5 181.9 180.1 177 173.8 171.1 169.3 167.3 165.2 163.2 159.9 156.5 153.2 149.9 146.7 142.7 138.7 135.9 133.1 130.5 126.9 123.8 119.7 113.7 112.8 112.6 113 113.2 113.1 112.9 112.8 112.7 115.1 121.5 126.6 130.8 137.4 145.8 152.5 154.7 160.4 166.5 162.4 164.2 166 171.5 173.5 173.6 175.1 175.1 175.1 174.5 173.7 175.5 173.8 172.6 171.3 169.4 166.7 165.4 164.1 159.7 157.1 154.2 151.3 149 147.9 149.3 149.3 147.6 144.9 141.1 138.7 136.6 133.6 130.6 127.5 125.1 121.8 119.5 116.8 114.7 113.5 112.5 110.2 108.9 106.8 104.8 104.6
339.5 337.1 335.9 335.8 335.9 336.2 336.1 336 335.2 334.6 333.6 332 330.8 329.6 328 325.7 322.7 321.8 320.1 316.3 314.3 310.8 306.8 303.1 299.5 295.4 290.6 285.7 283.4 284.4 283.5 283.1 282.5 280.9 280.5 278.8 277.3 274.3 270.2 266.9 265.3 263.1 259.4 256.6 254.2 252.9 250.8 250.5 248.3 249.8 249.7 248 247.8 245.3 245.5 247.7 248.2 250 252.1 252.2 250.9 248.7 244.6 239.2 236 233.3 229.3 224.4 220.1 219.3 215.9 212.1 207.9 206.2 203.2 199 183.2 169.5 161.8 158.7 157 156.4 153.5 160.5 166.8 172.8 177.4 181.1 182.7 183.2 182.5 182.1 179.8 177.6 174.6 174 175.2 177.7 180.4 182 184 185.5 187.7 190 192 193.4 194.4 193.9 193.8 192.6 190.8 188.4 186 183 180.1 177.5 175 172.6 170.4 169.3 167.5 164.5 161.2 157.9 153.9 150.2 145.6 141.6 137.7 135.4 132.3 128.6 125.7 122 116.7 112.9 113.5 113 113.3 112.8 112.7 112.6 112.8 114.9 120.1 124.8 129.8 138 148.1 153.5 158.3 161.8 163.9 165.5 166.9 168.2 169.5 170.8 171.8 172 172.2 172.1 172 171.8 171.3 170.1 168.8 167.1 164.9 162.7 160.2 157.6 155.6 154.6 152.8 149.2 147.3 144.2 142.2 142.5 141.3 140 136.7 135.4 133.6 130.6 127.6 124.8 122.3 120.9 118.1 116.1 114.5 113 110.4 108.3 106.4 104.6 102.7 101.9
337.4 336 334.8 335.3 335.4 335 334.5 334.7 333.7 333.3 333.9 332.8 331.6 329.9 328 325.7 323.5 321.8 319.9 315 311.7 308.4 303.4 299.8 296.1 291.5 287.4 283.8 278.1 280.5 280.3 280 278 278.1 276.8 274.9 271.9 269 265.3 263.4 262.2 260.3 256 254.2 252.4 250.2 247.9 246 244.6 245 245.6 244.3 243.2 242.9 238.9 242.5 243.5 246.1 248.5 248.5 248.2 243.1 238 232.8 228.3 224.4 220.5 218.4 217.3 216.5 214.2 213.2 211 211.3 209.5 195.2 170.9 162.8 159.6 157.7 154.3 157.6 159.2 171.9 181 187.7 192 194.8 195.2 195.9 194.7 188.1 185.2 186.4 182.2 179.1 178.9 180.2 180.9 181.5 183.5 185.4 188.7 191.1 190.9 192 193.3 193.7 193.9 192.9 193.1 190.4 185.9 182.8 180.3 178.6 177.2 174.8 174.4 173.7 171.4 169 165.9 161.6 157.4 153.1 148.9 144.6 140 135.9 132 129.3 125 122.9 118.9 112.8 112.9 112.3 112.9 112.8 112.7 112.5 112.1 112.6 119.4 123.9 129.4 137.4 143.2 151.6 158.6 163.3 164.2 164 166.7 169.7 171.9 174.3 175.6 174.9 174.1 174.8 174.2 174.2 173.7 172.7 170 166.7 163.5 160.4 157 154.2 151.8 149.8 147 144.4 142.2 139.7 138.2 136.6 135.7 134.3 133.3 132.4 129.8 126.9 124.7 123.2 121.8 118.7 116.3 115 113.7 111.2 108.1 106.1 103.9 102 99.4 98.2
336.3 334.9 334.4 333 332 331.8 332.3 333.2 332.7 332.1 332.5 331.9 330.6 329 326.8 324.3 322.1 320.5 317.1 315.2 311.1 306.2 301 297 293.4 288.5 284.9 281.2 276.5 277.2 277.1 276.7 275.3 273.4 272.8 270.7 267.8 266.2 263.4 260 257.8 255.9 254.5 252.8 250.7 247.9 245.1 242.4 240 240.5 241.4 240.6 238.1 239.8 238.9 237.6 239.6 240.3 240 239.4 238.7 235.2 230.8 225.1 220.4 215.9 214.7 213.1 212.5 213.8 217.6 216.8 216.4 209.1 197 186.3 168.4 161.9 158.4 157.1 160 165.7 173.6 186 194.8 201.2 205.4 207.4 206.5 209 204.8 199.8 196.5 196.4 189.9 185.1 182.5 182.4 181.2 181.5 182 182.8 185.5 187 187.9 188.2 188.6 189.4 189.5 188.2 187.3 185.9 183.6 181.4 180.3 178.9 178.4 177 177.3 176.5 174.6 172.4 168.9 164.6 160.2 155.6 150.1 145.2 140.6 136.6 131.7 128.8 124.9 122.4 119.6 113.4 112.4 112.5 112.8 111.7 112.5 112.2 111.6 112.3 120.4 126 130.9 136.1 144.9 152.5 158.8 163.5 167.4 166.2 167.4 171.4 175.1 177.5 181.1 183.3 182.7 183.7 187.6 187.4 181.5 178 172.4 167 163.8 159.5 154.6 151.8 150.4 148.9 147.2 143.2 140.5 138.1 136.1 133.8 132.5 131.4 129.7 128 126.1 124.6 122.8 122.3 120.3 117.7 115.2 113.3 110.9 108.6 105.9 103.3 102.1 99.9 97.5 94.8
335 333.7 331.9 330.5 329.3 329.3 329.9 329.9 330.3 330.9 330.6 330 329.3 327.9 325.6 323.2 321.3 318.3 315.2 310.4 305.8 302.7 298.6 295.1 291 287.3 284 280.6 278 273.3 273.3 271.9 270.9 269.9 267.8 265.6 263.6 261.4 259.7 256.9 254.6 252.4 251.6 250.8 249.2 247 243.5 239.8 236.5 234.8 237.1 237.7 233.9 234.6 233.9 232.7 234.5 232.2 232.7 231.9 229.2 224.7 221.6 218.6 214.5 210.4 206.9 204.4 204.1 206.3 212.4 205.6 198.8 189.9 183.4 176.4 167.1 158 161.2 167.9 174 180.5 189.7 198.9 206.9 213.1 216.6 218.6 218.6 219.2 218 217.9 214.2 207.8 200.6 191.9 187.1 183.2 182.5 181.6 180.8 181 181.4 183 183.5 183 183.4 184.3 184.8 184.9 183.7 182.7 181 180 179.2 178.5 178.3 177.9 177.5 176.1 175.6 173.2 169.8 165.5 160.4 155.7 151.4 146.1 141.2 137 131.9 129.1 125.9 123 119.7 113.7 111.9 112.4 111.1 111.8 110.8 110.6 110.9 111.9 121.4 126.5 132.1 139.3 146.7 152.3 158.2 162.7 166 168.9 170.1 173.9 178.3 181.3 183.7 185 185.8 185.5 188.6 189.8 188.1 183.5 177 170.2 165.1 159.3 156.4 153.8 152.6 151.1 149 144.8 142 139 136.2 134.1 131.8 129.4 127.8 125.5 123.7 122.3 121.3 119.4 117.6 115.5 113.7 111.9 109.8 107 104.4 102.5 100.5 98.1 95.7 92.8
331.5 330.5 328.6 327.9 326.8 326.4 326.7 326.6 327 327.5 327.8 327.2 326.9 325.7 323.9 321.9 319.1 316.9 314.1 310.8 306 303.7 299.3 294.6 291 287.5 284.7 281.2 278.7 274.6 269.5 266.1 265.1 264.8 263.1 262 259.7 257.1 255.3 254.9 252.2 249.6 247.1 247.3 246.5 245 243.1 237.9 232.2 228.7 232.3 233.7 230.6 229.4 230.5 230.3 227.7 226.6 226.3 224.2 220.9 218.5 215.2 210.8 205.6 200.1 193.3 190.4 192.1 191.1 190.7 190.7 187 181.5 175.4 170.7 163.1 161 171.7 181.4 189.2 196.3 203.9 210.3 216.5 222.1 225.5 228.3 230.1 232 233 231 226.7 217.4 207.6 199.9 192.3 187.4 182.8 181.4 180.2 180 179.2 179.2 179.2 179.2 180.2 181.5 181.9 181.6 180.8 179.7 178.3 177.8 177.2 176.9 176.5 176.2 175.4 174.1 173.5 171.5 168.3 163.7 159.3 154.5 150.1 145.9 141.7 137.2 132.6 129.5 125.9 124.4 120.4 115.9 111.6 112 111.4 112 111.7 111.6 110.7 111.2 120.9 125.6 132.5 140.4 148.7 155 160 163.3 167.1 170.3 172.7 175.7 179.8 183.1 184.5 183.9 184.5 185.4 185.1 187.6 186.7 183.3 178.3 170.9 166.2 163.4 160.9 157.9 154.9 152.9 150.6 147.3 143.3 139.6 137.1 134.5 132.1 130 127.6 125 122.7 120.9 118.6 116.6 115 113.3 111.2 110.1 109.1 106.5 104.6 101.5 99 96.2 94 90.5
327.5 325.7 324.6 323.6 322.5 322.4 322.5 323.3 323.6 324.5 324.8 324.4 324 323 321.2 319.5 316.9 314.8 312.5 309.6 306.6 301.7 297.8 294.6 290 287.3 284.5 281.2 277.8 274.6 271.6 265.9 261.2 253.7 259.7 258.5 256.1 253.7 251.7 250.3 248.5 245 243.5 244 242.5 241.4 239.6 237.2 230.1 223.6 224.7 229 227.3 224.3 225.1 224.4 222.5 221.6 219.6 216.7 213.2 210 205 198.7 193.6 187.9 177.5 173 177 180.4 181.8 181.8 177.8 171.9 165.2 162.5 160.7 169.7 181.7 191.3 199.8 207.1 212.8 218.7 223.8 229 234.1 238.8 240.2 242.3 242.5 241.7 234.9 226.5 217.6 205.3 195.8 190.8 185.8 181.7 180.2 179.6 179.2 178.5 178.1 178.2 178.9 179.5 179.5 178.5 177.2 176.9 175.7 175.3 174.8 174 173.7 172.7 171 169.9 169.5 169.2 166.2 162.3 158.1 153.4 148.9 145.1 141.3 137.4 133.5 130.9 128.5 126 122.4 117.9 111.6 112 111.8 111.9 111.6 111.8 111.3 115.1 119.3 124.3 131.2 140.3 149.3 156.8 161.1 164.2 168.6 171.4 173.9 178.3 180.4 182 182.6 182.3 182.8 183.3 182 182.6 183.9 182.1 174.2 168.1 163.9 162.2 161.7 160.6 158.7 156.2 152.9 149 143.4 139.6 136.8 133.4 130.3 128.1 126.1 124.2 122.2 121 119.2 116.9 114.8 113.5 110.9 108.9 107.5 104.7 103.3 101.1 98.6 94.9 91.8 91.5
326.1 322.1 319.7 319.7 317.8 318.2 318.4 318.9 319.7 319.9 319.7 320.1 319.8 318.7 317.2 316 313.9 311.7 309.5 307.1 304.2 300.7 297.2 292.9 289 285.4 281.7 278.1 273.8 271.6 269 266.4 262.8 256.8 252.2 254.4 253 250.5 248.1 246.1 243.7 241 240 239.4 236.2 236.6 234.4 231.9 228.2 222.9 216 219.8 219.9 218.4 218.3 216.9 215 212.7 209.4 205.7 201.9 197.4 193 187.8 183 176.7 177.4 175.5 171.1 171.3 170.8 171.4 167.9 164.3 165.7 168.1 173.2 179.9 189.8 199.4 206.9 213.4 218.3 223.7 227.8 233 237.6 241.4 244.6 247.4 248.6 249.9 243.5 234.4 225 214.9 205 195.6 188.8 184.2 181.5 180.6 179.8 179.1 178.3 177.6 177.9 177.6 177.2 176.2 174.7 173.7 172.9 172.1 171.8 170.6 170.4 170.1 169.1 168 166.1 166.7 164.5 161.2 157 152.4 148.5 144.7 141.4 138.4 136.1 133.3 131.5 128.8 124.6 121.2 113.8 111 111.9 111.2 110.8 111.3 111.1 113.7 117.8 123 130.5 141.2 150.5 157.6 162.3 165.9 169.3 172.5 175.5 178.3 179.8 181 180.8 180.5 180.9 180.1 179.3 180 179.2 176.9 171.8 166.5 162.3 160.8 160.4 159.7 158.8 158.9 155.1 149.4 145 140.7 136 132.5 129.3 127.1 124.7 123 121.2 120 118.3 116.6 114.1 110.9 109 107.4 105.8 102.2 99.7 98.2 95.7 91.2 91.2 92.2
323.6 320.5 316.7 314.6 313.2 312.8 314.1 313.6 314.5 315.1 315.6 315.8 315.7 314.6 313.3 312.1 310.5 308.5 306.3 304.2 301.2 297.4 293.6 290.4 286.3 282.2 278.3 273.8 270.8 267.4 264.2 261.7 258.5 255.5 248.1 246.5 248.5 246.5 244.6 242.3 241.4 239.4 234.5 234.5 232.3 230.5 228.8 226.5 224.3 219.3 214 213.5 214.6 210.7 210.7 208.9 206.5 202.4 198.6 194.8 189.9 182.8 179.6 178 183.6 186.7 187.5 185.9 180.5 174 172.3 168 165.5 170 176.4 181 183.6 190 197.2 206.6 212.9 218.7 224.7 227.9 231.6 235.8 238.7 242.2 246 249.1 252.7 254 252.2 245.7 236.6 225.3 216.5 206.6 197.8 189.4 184.5 182.3 180.6 179.8 179.1 178.3 177.3 175.9 174.8 174 173.3 171.8 171.8 170.9 171.3 171.6 172.1 171.1 169.8 168.4 165.1 163.1 162.9 159.9 155.9 151.9 148.7 145.6 142.4 141.1 139.1 136 134 131.2 126.8 122.2 116 110.9 111.6 111.2 109.9 111 110.6 112.5 117.7 122.8 129.4 141.1 150.3 156.5 161 164.7 167.4 170.8 174 177.9 179.5 179.8 178.9 178.6 179.4 178.7 177.9 177.1 176.4 174.2 169.3 164.1 160.5 158.7 157.7 157.6 156.2 155.9 152.6 147.4 142.5 138.8 135 130.7 128.5 126.7 123.9 122.3 121.1 118.4 117.2 116.2 113.2 111.5 109.1 106 104.8 101.9 97 94.1 92.2 90.8 93.8 90.5
323.6 320.1 315.7 312.3 310.8 308.1 309 309.2 310 310.8 311.1 311.3 310.5 309 308.1 307.3 305.9 304 301.9 299 296.7 292.5 288 285.9 281.7 277.6 273.4 269.3 265.7 262.4 259.4 256.8 254.2 251.5 248.2 237.4 242.1 242.2 240.8 239.3 237.5 236.2 232.1 230.2 229 227.2 224.4 221.8 219.6 213.6 208.9 207.6 209.6 205.6 201.7 199.3 195.7 188.9 183.7 183 181.9 181.6 189.3 193.5 196.2 199.7 200.5 199 192.2 181.2 175.3 175.3 175.2 180.2 186.7 190.4 197.2 203 211.6 217.6 222.2 227.5 231.5 234.7 237.9 240.1 241.9 245.1 248.7 252.3 256 258.4 260 255.7 247.5 235.8 224.4 213.4 202.5 194 188.9 186.2 184.6 183 182.1 181.3 180.4 179.9 178.1 176 174.1 173.1 172.6 173.8 173.8 173.8 173 171.6 169.1 165.9 164 160.5 160.1 158.3 155.2 151.8 149.8 146.6 144 142.8 141.8 138.5 136.1 133.2 128.4 122.6 117 111.2 111.2 109.9 111 110.8 110.8 112.3 118.1 123.1 131.2 141.2 148.7 154.5 158.7 162.6 165.3 168.7 173.5 178.1 179 178 177.3 176.9 178 177.2 176.4 175.5 174.2 171 167.2 161.2 158.3 156.1 154.3 152.9 151.9 150.5 147.4 143.2 138.7 136.1 132.9 128.9 127.5 125.8 123.2 121.7 119 117.5 117.7 116.3 114.5 113.1 110.6 107.9 103.3 97.4 94.5 94.3 91.6 92.2 90.9 92.7
325.9 322.2 317.4 312.4 309.9 307.8 305.9 304.8 305.8 306.2 306.4 306.1 305.1 303.7 302.1 301.1 299.7 298.2 296 293.7 291.9 288.7 284.2 281.5 277.7 273.1 269 265.3 261.1 257.7 255 252.8 248.6 245.6 244.9 238.2 234.7 237.8 235.6 236 234.5 232.8 229.9 223.8 224.6 220 220 218.2 214.4 210 204.9 202.9 204 196 191 188.3 189.3 194.5 197.3 198.3 199.9 202.9 204.5 207.7 211.3 214.7 215.8 213.1 206 194.5 187.4 185 187.9 191.6 196.5 204.1 214.5 222.8 229.6 235.4 240.4 244.1 245.7 246.8 246.1 247.6 249.7 253.1 254.2 257 259.2 261.7 262.9 262.1 252.8 240.8 228.6 219 209.4 201 196.8 192.8 190 188.4 187.8 186.4 184.9 183.9 181.5 178.8 177.4 176.5 176.1 175.1 174.8 173.2 171.2 168.3 165.6 163 161.1 159.4 156.6 155.5 154 150.9 148.9 147.2 145.5 144 142.5 139.5 136.4 133.3 128.5 122.6 117.1 112.3 111.1 110.7 110.2 110.3 109 114.3 119.8 125.4 134.5 142.7 150.1 154.5 158.9 161.2 163.3 167.5 172.4 176.8 177.7 177.4 177 175.8 176.6 175.5 174.4 173.1 171.3 168.9 165.2 161.1 157.4 154.4 151.7 150.5 147.5 144.3 141 137.7 134.9 132.3 129.3 125.9 122.8 120.6 120 119.9 117.1 115.9 116.1 116.4 115.4 112.2 109.6 107.7 104.7 95.5 92.9 91.5 92 92.9 90.5 90.5
327.2 323.4 319.2 314.2 311.9 309.6 307.6 304.8 300.4 301.2 301.4 300.7 299.6 298.4 296.7 296 293.8 292.8 291.5 289.5 286.9 284.2 281.1 277.8 274.1 269.5 264.9 260.7 255.7 253.5 250.8 248.6 245.1 242.2 238.7 237.1 228.9 228.8 225.7 225.4 226.9 228.5 226.5 221.3 220.8 214.9 209.4 210.8 204.3 204.2 200.2 198.4 199.9 204.9 204.7 206.3 205.8 209 213 215.7 217.2 218.5 220.6 224.1 226.8 228.4 228.4 227.7 221.4 212.9 206.5 201.9 204.9 209.5 215 221.4 229.9 236.9 243.8 248.8 252.3 253.7 254.9 256.7 258.1 260.1 260.6 261.9 261.6 262.6 265.5 266.8 264.8 260.9 253.6 244.3 236.1 226.4 214.4 212.5 207.6 202.5 199.7 197.7 195.7 193.4 191.9 189 185.6 182.9 180.7 178.7 177.1 175.7 173.5 169.9 167.1 164.1 161.3 159.3 157.4 157.2 154.3 152.5 151.6 149.9 148.1 145.9 144.8 143.5 141.7 139.2 136.3 132.6 127.6 121.5 115.7 111.9 110.8 110.6 110.4 110.4 109.5 117.2 124.1 132.9 142.1 148.5 152.8 156.7 159.8 161.2 163 165.9 170.3 174.4 175.7 175.8 175.1 173.1 173.6 172.7 171.9 170.4 168.5 166.1 161.6 156.9 153.1 150.2 147.8 146.1 143.4 140.3 137.8 134.6 131.6 129.2 126.8 124.1 122.8 119.7 118 117.5 116.7 113.9 112.2 113.2 113.3 111.5 106.6 103.3 100.4 93.2 91.8 91.6 90.9 91.4 90.5 90.5
328.1 324.9 319.4 316.2 313.5 310.7 309 304.6 301.2 297.3 294.6 294.7 293.3 292 291.6 290.3 289.5 290.1 288.4 285.8 284.6 281.1 277.1 274.2 270.2 264.8 261.6 256.5 251.7 247.7 244.7 242.3 239 236.3 235.4 234.7 234.2 231.1 229.2 225.8 219.6 223.5 224.2 222.1 217.9 211.2 212.5 210.3 206.2 205.9 210.2 212 209.6 213.1 213.7 216 218 222.3 225.1 229.7 231.3 231.6 231.6 233.2 235.6 236.3 235.2 233.7 231.2 226.6 223.5 221.7 222.2 223.8 229.8 234.4 240.4 246.2 252.3 255.1 257.5 259.1 261.2 262.4 266.7 269.8 270.1 272.7 269.8 269.5 269.6 269.4 267.4 262.5 258 250.6 245 232 228.2 225.7 224.3 221.1 215.5 210.5 207.2 203.9 201.9 197.5 194 190 185.9 182.2 177.6 172.7 169.5 166.1 162.6 159.6 157.4 155.6 154.3 154.1 152.4 149.8 149.2 148.6 147.2 145.3 142.9 141.8 140.5 138.5 135.3 130.4 124.2 117.6 112.7 110.2 110.7 109 110.2 110.2 113.4 121.1 128.5 137.6 145.3 150.7 155.1 157.9 160.7 161.6 163.6 166.1 168.7 171.8 172.6 173 172.8 170.2 168.8 167.9 166.7 164 161.8 159.5 156.2 152.6 149.2 146.3 144 141.8 139.4 136.6 135 132.2 130.5 128.5 126.8 124.3 122.9 120.3 118.8 116.5 113.7 112.5 108.5 109 108.2 107.3 103.3 96.3 93.3 92.2 92.2 90.8 90.5 90.5 90.5 90.4
328.5 324.6 321.7 317.4 315.5 312.6 308.9 304.9 301.8 299.1 296.3 294.5 294.9 292.9 290.8 290 280.8 280.2 277.7 276.7 280.4 277.4 271.4 269 263.2 259.5 254.4 251 247.3 243.6 243.8 241.7 241.8 241 239 234.6 232.3 226.3 224.4 220 218.6 216.6 216.5 215.7 217.7 219.4 220.2 218.3 219.1 215.1 215.3 215.6 214.1 217 220.2 225 230.7 234.5 237.9 238.9 238.9 238.7 238.5 240.5 243 244.5 242.9 241.3 240.7 238.9 234.9 233.2 233.1 236 239.8 242.3 247.1 251.7 255.4 258.1 260.8 262.2 263.6 266.1 268.8 271.7 274.3 275.7 278.2 279.9 278.3 275.5 272.9 268.7 262.7 257 251 245.7 243.4 245.4 245.3 241.1 236.1 234.6 230.4 226 222 213.8 207.7 199.3 191.4 183.3 176 169.8 165.1 161.2 157.8 155.3 154.1 152.5 151.8 150.6 148.9 147.5 145.3 145.4 144.2 143 141.5 139.6 137.7 134.7 131.2 126.6 120.2 113.3 110.2 110.4 110 109.3 109.8 111.1 119 125.7 133.5 141.8 147.3 151.9 155.9 158.5 161.3 162.5 164.5 165.6 167.5 169 169.7 168.6 167 165 162.4 160.6 159.2 157.4 155.5 152.9 150.9 148.4 146.3 143.7 142.4 141.4 139.4 137 135.1 133.2 131.7 128.8 127.6 125 122.2 119.7 118.2 115 112.8 110.2 108.6 103.7 103.2 101.8 94.3 91.2 92.6 94.8 92 90.4 90.5 90.5 90.4 95.7
328.8 326.1 322.8 321.1 318.7 314.8 311.3 307.2 303.1 299.8 296.5 298.8 299 294 290.2 288.9 287.6 283.8 280.2 274.8 268.1 267.7 266.1 263.4 257.1 252.2 250.8 248.8 250.1 250.1 246.9 244.2 239.9 233.8 232.2 229.9 229.8 230.1 229.6 229.6 229.6 228.1 227 226.3 223.2 221.9 222.1 222.3 221.3 219.8 219.1 219.6 219.4 221.6 226.3 236.2 243.2 245.3 249.5 252.1 252.1 251.4 249.4 248.8 250.9 255.9 259.1 256.8 251.5 246.2 243.8 242.1 239.6 241.4 245.2 249.2 251.8 254.9 258.1 261.1 263.7 264.6 266 267.9 270 271.1 274.1 277.7 281.6 285.1 286.6 286.2 282.4 273.7 267.8 261.7 257.4 253.5 253.2 254.5 257.9 258.6 258 257.5 258 255.8 247.8 236.5 220.7 206.7 194.6 183.9 174.2 166.7 161.7 157.8 156.4 155.3 153.7 153 151.3 150.3 147.9 145.5 144.3 142.4 141.2 140.2 138.5 136.3 133.3 130.2 126.5 122.3 114.9 110.3 109.9 109.4 110.2 109 109 117.2 125.7 133.1 138.7 144.3 149.5 153.1 156 158.4 162.1 163.9 165.7 166.2 166.4 166.3 166 165.3 163.2 160.8 158.5 156.9 154.9 152.8 151.2 149.8 148.2 146.9 145.6 144.3 142.9 141.6 140.1 138.1 136.1 134 132.2 129.9 127.6 125.4 122.6 118.9 115 111.3 110 106.9 105 101 96.9 93 92.4 92 93.2 94.2 92.1 90.4 91.1 90.4 90.5 91.3
331.3 328.7 326.6 324.3 321.9 319 315.7 310.9 306.7 302.8 299.8 297.8 295.3 292.4 289.5 287 284.5 282.4 279.5 275 271.8 267.6 262.5 257.9 258.9 257.7 251.3 250.5 247.6 244.6 239.6 239.9 243.2 244 244.6 242.4 242.5 241.9 240.6 238.6 236.9 234 231.6 228.1 224.4 223.4 223.9 224.1 224.2 222.8 222.8 223.3 223.5 226.3 232.4 237.6 244.6 249.4 255.2 257.3 260.2 260.5 259.1 260.9 266 268.1 267.6 265.5 261 256.2 254 250.9 249.5 250.8 254.5 256.2 259.1 261 262 263.9 266.8 267.5 268.6 269.6 270.7 272.5 274.6 277.1 281.8 285.9 288.9 290.3 287.9 281 273 267.9 264 262.5 262.9 266.8 269.8 271.6 271.7 274.4 272.9 263 253.1 238.5 222.8 208.1 195.6 183.7 172.5 164.8 160.1 159.4 157.3 156.3 153.8 153.5 151.7 149.9 147.7 145 142.2 138.2 137.8 136.8 134.6 131.3 129 126.1 123 118.7 112.6 109.6 109.4 109.7 109.6 108.4 108.5 119.8 128.9 136.4 140.3 144.8 149.1 153.7 156.6 159.5 162.3 164.4 165.1 166.8 165.3 163.5 162.8 162 159.9 157.9 155.9 154.5 153 151.1 150.3 148.7 147.7 146.6 144.4 143.5 142.3 140.9 139.7 137.5 136.1 133.4 130.2 127.7 125.5 122.8 119.9 115.8 111.7 108.6 106.4 103.5 101.3 97.8 92.7 92 91.9 92.4 94.1 92.2 91.6 90.4 92.2 90.4 90.4 90.4
332.7 331.2 328.8 326.7 324.7 322.6 319.9 315.9 310.3 305.6 301.8 298.1 294.7 291.3 288.3 284.9 281.9 279.3 277 274 269 266.8 262 256.7 254.8 257.7 259.1 253.9 253.9 256 256.5 254 254.4 254.3 253.6 251.5 249 248.1 246 244.5 241.6 237 232.9 228.6 226.2 225.1 225.5 225.8 226.3 225.5 226 227.1 229 231.2 235.1 238.1 243.6 251.1 256 260.3 264 261.9 261.4 262.4 265.2 266.3 267.1 269 266.8 264.2 262.8 263.2 263.1 261.7 262.2 264.1 266.2 267.4 268.7 269.8 270.6 271.3 272.3 273.1 273.9 274.9 276.3 276.7 280.3 284.1 288.3 289.6 290.7 288.2 283.9 278.5 275.5 271.7 270.6 272 274.5 275.9 275.8 276.3 271.4 260.8 249.9 236.4 221.6 208 195.8 182.7 172.3 166.5 162.9 159.9 158.2 156.4 155 153.1 150.9 148.2 146.2 143.2 139.9 134.6 133.2 131.8 130.4 125.7 122.7 120.8 119.2 115.1 110.1 109.7 109.5 109.5 109.8 109.7 111.5 121.5 128 133.9 139.7 144.2 148.5 153.8 157.5 160.6 161.9 162.6 162.5 164 163.7 161.4 160.2 158.7 157.3 156 154.7 153.3 151.2 149.7 149 148 145.6 143.3 142.1 140.1 138.2 135.9 133.8 132.1 130.4 127.7 124.9 122.4 121.5 119.3 116.5 113.5 109.8 107.1 104.6 101.9 98.9 93.3 93 92.7 92.1 92.4 92.7 90.7 90.6 91.9 90.5 92.8 90.5 90.4
331.8 331 330.4 329.4 326.5 323 319.9 316.4 311.4 306.8 300.6 296.1 292.5 289 285.4 282.2 279.3 277.1 274.5 272.8 270.6 262.3 261 266.8 265.9 266.2 265.5 265.5 266.1 264.7 263.7 262 260.9 260.3 258.3 257.3 257.2 256 249.5 244.7 241.3 238 233.8 229.9 228.9 228 228.9 230.6 230.5 231.2 233.2 234.9 236.8 238.3 242.1 245.3 246.3 252.5 256.6 258.8 262 261.4 262 262.4 262.8 263.9 265.4 267.7 267.6 268.1 267.8 267.1 265.7 266 266.6 269.4 271.8 275.1 276.5 276 275.8 276.2 277.2 277.6 277.1 275.8 275.5 276.4 279.7 284.7 288.4 288.6 288.9 290.8 291.6 289.2 288 287.7 285.9 284.2 280.5 278.9 277.5 275.7 269.4 260.2 248.9 238.2 223.3 209.6 196.5 186.4 177.5 171.6 168.2 165.1 161.6 158.6 156.1 153.3 150.1 147 144.6 141.5 137.6 133.2 128.4 128.1 127.6 125.2 122.4 118.4 114 111.9 109.5 109 109.1 109.2 109.7 109.2 114.6 121.9 126.2 132 137.9 143.4 148.4 153.4 158.9 161.9 162.8 162.5 162 161.3 160.5 159.4 158.4 157.2 156.7 154.8 153.4 151.3 148.4 147.3 145.9 144 140.9 138 135.6 134.3 131.4 128.3 125.9 124.2 122.5 120.5 118.1 113.6 112.6 113.8 112 111.6 108.2 104.8 102.8 101.4 94.3 93.5 92.2 91.5 90.7 90.4 90.6 90.4 90.4 90.4 90.4 90.5 90.5 90.8
329.4 330.1 330.7 329.6 324.6 320.6 317.9 314.5 309.2 305.2 299.6 294.2 290.4 287.1 284.5 281.8 279.7 277.4 276.1 270.8 264.6 269 271.8 270.3 270.7 270.3 270.2 272.5 272.3 269.9 269.4 268.4 267 268.5 267 265.6 265.9 264 255.1 249.7 244.4 240.8 236.2 233.7 232.1 232.2 236.9 241.1 240.7 241.9 244.2 244.9 246.4 248.1 249.5 251.6 252.6 256.9 259 261 262 263 262.7 263.5 264.8 266.2 267.8 268.5 268.4 268.6 267.5 266.7 266.4 266.4 267.3 270.2 273.3 275.3 277.2 279.3 281 281.3 281.8 279.4 275.9 274.2 273.2 275.8 281 285.3 286.8 287.4 288 288.1 289.6 291.3 293 292.8 293.5 291.5 287.3 284.3 281.6 276 270.3 262.7 252.4 241.5 227.3 212.5 203.6 196.5 189.8 182.5 175.6 171.3 166.9 163.3 158.7 154.8 150.7 147.2 142.7 138.8 135.7 132.5 128.9 124.9 128.5 126.5 123.9 120.7 115.5 111.8 109.6 109.2 109.3 109.4 109.6 107.5 116.5 121.5 126.1 131.1 138.4 144.6 148.7 155 161.7 164.8 166.7 166 164.6 162.2 159 157.1 157.3 155.9 156 153.7 150.8 148.8 146.8 144.8 142 139.7 136.5 132.3 128.2 128.1 124.8 121 118.8 117.6 116.2 111.8 109.9 109.1 106.6 106.1 106 104.5 101.2 97.8 96 94.4 92.5 92.5 92 91.6 90.5 90.5 90.5 90.4 90.4 90.5 90.5 90.5 91.1 94.1
327.6 327.6 325.7 323.9 322.1 318.1 315.5 311.9 306.2 303 298.3 293.7 290.7 287.8 285.5 283.2 281.2 279.6 271.2 275.3 276.3 276.2 276.1 275.3 276.2 275.6 276.7 276.3 276.3 277.3 277.8 276.6 274.6 274.5 271.5 269.5 265.9 262.5 258.2 253.8 250.4 244.9 239.7 238.5 238.6 240.6 246.1 248.7 253.1 253 253.1 253.2 253.4 255.3 255.5 257.4 258.9 261.5 263.1 265.1 266.2 267.9 269.5 272.4 273.7 273.4 272.9 272.3 271.7 270.6 269.4 268.6 267.9 267.1 267.6 268.3 269.9 272.3 274.6 276.4 278.4 279.2 279.1 275.6 271.7 270.3 270.2 273.8 278.5 281.8 284.1 285.6 286.9 286.9 287.4 287.6 289.4 292.8 294.7 294.1 291.6 286.9 282.4 278.7 274.8 267.9 257.6 248.3 231.1 225.3 216.9 210.4 204.5 196.8 189.9 181 173 166.6 161.9 156.7 152.1 146.7 141.7 138.4 135 133.3 132.6 131.8 130 127.6 125.2 121.5 117.5 112.5 109.2 109.5 109.5 109.4 108.8 108.2 115.2 121.5 126.4 132.1 141.4 147.5 152 159.2 164.5 168.1 170.1 168.4 164.9 160.2 156.5 154.8 155.1 154.2 151 148 147.1 147.4 145.1 142 137 134.1 130.2 127 124.7 122.6 119.8 117.3 114 112.5 109.6 108 105.2 104.3 103.8 100.4 96.3 95.4 94.9 93 92.6 94.7 94.3 95.1 95.2 90.5 90.4 90.5 90.5 90.4 90.4 90.5 90.5 95.5 94.5 94.3
327.8 328.4 327.9 324.2 320.5 313.1 310.8 307.7 303.4 301.3 297.4 294.2 292.1 290.1 287.6 285.2 282.9 273.7 281.4 280.8 280.3 280.8 280.4 281 283.3 284.6 286.1 286.7 287.5 287.3 286.5 284.4 282.1 278.4 275.1 271 267.3 261.1 259.9 256.2 252.5 244.6 246.4 248.1 247.6 253.3 258.7 260.4 261 261.7 260.5 262.1 262.6 263.5 264.3 266.2 267.8 270.8 272.3 275 276.2 278.5 280.9 280.9 280.6 280 278.1 277.5 276.8 274.3 271.6 269.9 269.2 268.2 267.7 268.4 268.9 269.5 271.7 273.6 274.5 273.4 271.7 267.7 266.2 265.5 266.4 270 273.7 276.8 279.6 282.1 283.5 284.5 284.5 284 285.5 288.3 291.8 292.2 293.1 289 283.5 278.9 276.3 274.5 265.6 257.6 248.5 244.5 237.6 228.5 219.9 211.5 201.2 190.7 180.5 172 165 158.5 150.6 147 143.3 139.6 137.8 137.4 137 136.1 133.5 130.4 126.9 122.1 118 113.1 109.5 109.2 109.3 109.2 107.5 108.1 114.5 120.1 125.3 133.4 143.2 150.5 156.5 161.2 165 167.9 168.4 165.2 160.2 155.2 152.5 150.5 150.1 147.9 145.2 142.3 141.4 141.3 138.9 134.9 131.9 130.2 127.8 125.6 122.5 118.5 114.9 110.4 107.2 105.8 105.2 104.3 101.5 100.1 97.9 96.9 95.4 95.6 95.3 93.7 95.3 94.7 95.8 95.5 96.3 94.1 90.5 90.5 90.4 90.4 90.5 92 94.5 94.7 94.5 94.2
324 324.7 324.2 322.8 319.1 315.2 311.2 307.1 304 301.1 298.2 295.7 294.7 291.5 289.3 287.4 278.7 282.7 284.7 284.8 285.9 286.6 288.4 290.8 293.4 294.7 296.7 298.2 298.1 296.3 293.7 291.3 287 284.1 278 272.7 268.1 262.9 259.5 258 254.8 255 254.9 258.9 263 265.2 267.3 269.4 269.3 269.6 269.7 270.8 270.7 272.6 272.1 276.5 282.1 285 289.3 290.7 289.9 291.2 290.5 289.9 288.6 286.4 283.5 282 280.1 277.3 273.9 271 269.7 269.1 268.5 268.5 268.6 268.5 269.6 269.2 269.2 266.9 264.4 262.2 260.6 260.2 262.1 264.4 267.9 271.7 275.1 277.3 279.3 280.7 281 282.2 283 284.3 287.3 290 292 290.6 286.3 280.2 276.1 274.4 270.9 268.4 265.9 260.2 252.7 242.7 232.1 219.6 207.8 197.2 186.2 176 165.2 158.6 153.2 148.4 144.9 144.8 144.8 143.7 142.2 140 136.9 133.5 129.5 124.1 120.2 115.1 111 108.5 108.7 108.8 108.1 108 112.6 118.9 125.3 134.8 146.9 154.9 160.1 161.5 163.6 163.7 161.6 158.6 154.1 148.9 145.4 142.3 140.7 139.1 135 135.5 136.1 134.6 133.5 131.3 129.9 127.6 125.9 122.5 118 116.1 115.5 111.1 105.5 103.8 102.5 101.9 98.7 98.3 96.9 96.6 95 95.5 95.6 93.9 95.8 96.5 96.4 95.6 96.1 96.4 96 95.3 96 95.5 94.6 95.2 94.6 94.3 94.3 94.6
320.9 319.8 319.5 319.1 316.1 313.7 311.4 308.6 305.3 302.2 298.6 296.1 293.8 291.7 289.7 281 285.1 286.7 288.4 290.8 293.4 295.4 298.9 300.4 302.5 303.9 305.9 306.2 305 304.6 302.3 298.2 294 287.4 280.8 274.7 268 264.5 264.5 263.2 263.2 262.8 267.2 270.9 277.8 284.9 289.7 283.7 280.6 277.1 276 279.5 284.2 289.4 294.4 298.6 301.2 300.4 300.1 300.2 299.2 298.1 297.7 297.9 297.9 295.4 290.8 285.9 281.8 278.3 275.3 272 270.6 269.9 269.3 269.3 268.2 268.5 266.8 265.3 263.8 261.6 259.5 257.2 255.8 255.9 258.4 260 262.3 266 269.7 272.5 273.5 276.6 278.7 280.4 280.8 282.7 284.5 286.6 287.9 289.2 287.8 284.1 278.4 275.7 273.5 273.5 272.7 271.7 267.6 255.8 242 226.7 211.6 198.6 187.1 174.9 168.3 161.9 155.6 150.8 152.1 154.7 153.9 150.9 148.5 143.5 139.3 135.8 132.1 126.6 122.3 118.5 113.6 108.3 108.2 108.5 108.5 108.8 111.4 120.3 129.2 142.4 153.7 159.1 161.1 159.5 158.3 157.1 154 149.8 141.1 134.9 133.8 129.9 128.4 125.9 123.6 124.3 126.9 125.4 124.7 124.5 125.7 124.8 122.7 119.4 117.5 114.1 109.9 105.5 102.4 101.5 99.9 99.7 97.6 97.5 97.3 95.1 95.4 95.7 96.1 93.4 95.3 96 96.7 96.1 95.7 96.3 96 95.8 95.1 95 95.1 95.5 95 94.6 94.2 95.5
317.2 316.3 315.4 314.5 313.3 312.2 310.2 307.5 304.8 301.7 298.5 295.3 292.5 289.5 283.3 287.4 290.7 292.5 296 299 302 304.8 306.8 307.8 309.3 310.7 312.1 313.3 314.6 314.3 309.2 302.8 296.8 290.5 283.1 274.8 270 271.1 270 271.9 273.9 273.9 278.9 289.2 303.2 304.4 300.9 297.5 294.5 286.1 292.6 295.9 299.3 301.9 304 304.8 305.4 304.3 303.6 302.6 301.4 301.3 300.6 301.4 302.6 299.9 294.9 289.6 284.7 281.5 276.6 276.2 274.4 272.9 270.4 270.1 267.2 267 264.4 262.2 259.9 257.1 255 252.9 252.8 252.9 254.1 255.7 257.5 260.2 263.8 266.3 268 271.6 274.5 277.1 278 280.4 281.8 282.4 283.5 285.1 287.1 286.5 284.2 281.4 277.9 276.1 275.7 278.6 274.8 262.7 247 230.7 213.5 198 184.4 177.8 171 165 162.7 162.7 165 164.5 162 159 152.7 148 143.2 138.6 135.3 130.4 123.9 118.4 115.9 110 108.1 107.9 108 108.6 113.4 125.8 138.5 151.7 156.4 157.6 156.8 155.2 152.1 148.8 143.8 135.1 128.5 122.2 120.7 117 115.2 115.4 114.1 115.1 116.8 117.1 118.5 119.7 120.1 119.6 116.7 113.2 109.3 106.7 104.4 102.1 98.9 99.3 99.5 98.8 98 97.9 97.9 95.2 95.9 95.8 96.1 94.2 95.3 96.8 96.2 96.2 96.3 96.9 96.1 95.9 96 95.9 95.7 95.5 95.2 94.8 94.8 96.6
315.7 313.3 312.5 311.9 310.2 308.9 307.4 303.8 301.2 298.5 295.7 292.4 288.9 286.6 288.7 293.4 294.8 298.6 301.2 304.9 306.7 309.3 311.4 313.3 314.5 315.7 316.7 317.6 318.7 316.5 311.2 305.8 297.4 291 283.3 273.7 277 278.1 280.5 283.4 285.5 288.1 299.1 310.6 309.3 306 303 300.3 297 297.4 298.8 301 303.8 305 306.5 306.7 306.3 305.3 304.6 303.8 302.5 301.9 301 301.6 301 300.6 294.5 291.3 286.9 280.8 281.1 280 278 276 272.3 270.6 266.9 265.3 262.8 259.7 256.5 253.5 251.4 250.3 250.1 250.3 251 252.6 253.6 255.7 258.9 260.7 263.8 267.7 270.1 273.3 275.3 277.1 279.6 279.9 279.2 279.3 282.2 285.8 287.6 286.9 284.9 278.5 278.1 277.5 276.6 263.1 249.2 231.3 212.7 201 191.5 182.6 174.4 175.3 175 175.4 175.1 173.3 169.8 164.6 159.7 153.8 149 144.1 138.1 131.1 124.7 117.5 115.2 113.8 108.4 107.8 108.2 107.3 119.9 133.4 145.7 150.7 154 154.1 155.1 151.3 143.5 139.3 136.1 127 117.3 113.1 109.7 106 107.7 107 107.5 108.1 109.6 110.2 110.3 111.4 115 112.5 110.2 110.8 106 103.4 101.9 99.7 99 99.1 99 98.7 98.5 98.4 98.2 97.4 96.3 96.7 95.9 94.3 97.2 97 96.8 97 96.7 96.7 96.1 95.5 96.2 96 95.8 95.8 95.5 95.1 95.4 97.6
315.6 312.3 309 306.9 306.3 303.9 302.6 300.1 297.5 293.8 292 289.7 290.8 292.6 293.6 295.9 299.8 302.9 305.9 309.7 311.6 314.3 315.4 316.8 317.4 317.6 318.1 317.7 317.3 316.2 309.4 304.5 296.9 291.2 281.1 282.3 286.8 289.5 292.4 293.3 298.8 307.4 312.1 311.6 308.9 305.8 302.5 301.3 298.8 300 301.5 303.6 305.9 307.3 307.8 307.3 306.8 306.2 304.6 303.2 302.1 301.1 300.5 300.8 299.5 298.6 295.6 290.6 286.6 286.8 285.7 283.6 280.5 277.2 274.1 270.9 267 263.6 260.5 257.5 254.4 251.2 249.3 248.1 247.4 247.8 248.3 249.4 250.9 252.2 254.3 256.4 260.1 263.1 265.3 266.9 270.5 274 277.1 277.6 277.1 277.1 278.9 282.6 285.6 287.3 286.2 284.7 277.3 275.2 273.4 263.5 248.8 232 220.3 207.3 195.6 185.3 186.8 188.2 185.4 183 182.9 178.3 173.8 169.4 163.8 159.7 154.7 146.9 139.2 132.1 124.2 119.8 116 113.6 112.6 107.6 107.4 106.9 127 138.8 142.9 143.5 146.5 145.4 143.5 140.9 134.3 130.5 127.3 116.7 111.7 108.2 103.3 103.1 102.6 102.2 103.4 105.7 109.9 113.9 112.8 109.7 107.7 107.1 105.9 105.4 104.9 103.4 102.3 99.5 98.9 98.7 95.9 98.2 98.1 98.2 98.4 98.3 96.6 96.9 95.1 95.6 96.9 97.1 96.9 97 96.8 96.2 95.8 96.4 96.4 96.2 96.1 96 95.7 95.8 96.5 100.8
316.5 313.6 310.9 307.5 303.6 302.4 299.5 298.2 295.9 294.4 295.2 295.3 295.3 295.6 298.1 302 304.8 308 312.4 314.5 316.2 317.8 318.1 318.2 318.3 318.4 317.8 317.2 315.7 311.7 308.7 303.6 296.7 288.7 289.5 295.9 301.1 304.2 312.4 315.7 315.5 315.1 313.3 310 307.6 305.6 303.7 301.2 301.4 302.4 304.5 306.2 307.3 308 308 307.9 306.6 305.2 303.6 302.5 301.4 300.5 300 299.4 298.1 296.6 293.9 291 289.8 288.8 287.8 284.4 280.3 276.7 273.6 270.1 266.3 263.2 260 256.8 253.6 250.5 247.6 246 245.4 245.3 245.8 246.4 247.9 248.6 250.7 252.7 254.4 256.4 259.6 263.2 266.2 270.5 272.5 274.1 276.9 277.3 280.5 285.9 288.9 287.7 288.5 288.2 285.1 276.5 272 266.2 254.7 243.3 224.7 208.4 198.5 198 197.6 193.7 191.3 189.2 183.8 180.6 176.1 172.7 168.6 162.7 155.7 148.1 139.8 132.9 124.5 121.4 115.5 113.1 110.3 107.2 107.9 112.3 130.4 138 138.6 137.8 135.8 135.6 136.4 132.5 123.8 121.6 115.2 111.3 106.4 102.9 103.1 103.2 102.6 102 102.3 102.5 111.3 113.8 113.8 111.6 109.1 106.1 104.6 105 104.9 102.6 99.8 99.2 96.6 96.3 95.6 95.7 96 98 97.6 98.1 97 96 94.6 99.9 101.9 100.5 97.1 96.8 96.4 96.9 96.7 97 96.5 96.3 96.6 96.2 96.3 96.5 99.9 102.9
316 312.8 307.7 304.8 303.6 303.2 302.4 301 297.9 298.3 298.4 299.1 300 301.8 304 307.6 310.6 313.3 316.1 317.2 318.4 318.5 318.1 317.7 317.8 317.4 317 316.4 314.1 309.9 307.2 304.2 298.3 294.5 301.2 308.7 311.8 316.9 317.9 317 316.1 313.6 311.8 309.8 308.3 306.1 304.2 303.6 305.1 306.6 307.1 307.6 308.1 308.2 307.4 306.7 305.2 304 303 301.9 301.4 300.6 299.8 298.1 296.3 294.5 291.4 288.4 287 286.9 286.4 283.4 279.1 275.1 271.9 268.2 264.6 261.4 258.2 255.1 251.9 249.3 246.4 244.5 243.4 242.6 242.8 243.3 243.7 245.4 247.3 250.1 252.3 256.2 259.1 262.7 265.8 269.8 273.9 278.7 279.4 279.2 284.5 290.3 291.9 291.5 289.1 291.5 292.8 293.5 283.9 275.9 261.9 243.9 226.1 213.7 205.6 203 197.2 196.4 192.7 185.4 182.4 180 176.8 172.4 167.9 162.3 156.1 148.5 139.8 131 123.7 117.5 112.8 111.6 108.9 107.5 107.2 115.6 129.8 132.7 132.8 132.8 132.2 124.1 123.2 119.1 115.5 113.1 108.8 103.5 103.5 103.1 103 103 102.8 102.2 102.1 101.9 111.4 112.7 112.1 112.6 112.5 111.3 108.6 106 105.3 102.9 99.6 98.9 96.8 97.6 97.7 97.5 96.7 95.6 95.8 96.8 94.6 99.2 108.9 113.2 110.2 105.5 97.9 96.6 96.1 97.5 98.7 99.6 97.7 98.2 98.9 97.6 97.5 101.4 106.2 108.8
313.3 312.4 311.2 308.7 306.2 304.4 302.6 302.3 302.7 303.1 303.1 304.3 306.5 308.2 310.6 313.5 315.4 316.2 317.9 317.4 317.7 317.8 317.6 317.1 316.9 316.5 315.1 313.7 311.9 308.8 306.2 303.1 297.9 302.5 308.7 312.5 315.9 316.6 316.7 316 314.3 312.9 311.3 309.9 308.3 307.4 306.5 307.2 307.7 307.6 307.7 307.1 307.5 307.2 305.8 305.2 304.7 303.9 302.7 302.6 302.3 302.1 300.4 297.4 294.7 291.3 287.9 285.9 283.7 282.8 282.4 279.7 276.9 273.1 269.3 265.4 262.4 259.3 255.9 252.7 250.1 247.5 244.7 242.7 239.7 239 239.2 240.2 241.6 243.2 245.5 248.7 252.8 259.3 264.1 266.8 271.4 277.2 280.9 283.1 283.7 287.2 293.7 294.6 287.6 287.8 289.6 293.8 297.6 298.4 297 281.8 257.5 240 226.5 214 201.7 196.9 195.6 191.2 185.2 181.8 179 176.1 173.8 169.3 164.1 160 154.7 147.6 139.9 130 122.7 114.8 110.1 107.4 106.8 107.1 106.4 116 124.8 124.9 125.3 123.5 122.3 116.3 113.9 112.4 109.3 104.6 103.2 102.9 102.8 103.2 103 102.9 103 102.6 102.2 102.2 101.3 103.1 107.9 115.5 119.5 121.5 119.7 117.8 112.3 105.9 102.8 99 96.8 97.4 97.9 97.4 97.1 97.6 96.3 95.8 106.3 113.8 117.2 116.1 111 105.7 100.7 98.9 97.9 99.5 101.2 101.4 99.4 99.3 100.8 102.4 104.1 108.9 113 116
319.1 317.5 312.7 309.1 306.7 306.5 305.6 305.2 307 308 309.6 312.1 313.1 313.4 314.2 316.2 317.1 317.2 318.2 317.6 317 316 315 314 314.8 313.2 311.2 309.9 308.1 305.9 302.6 304.3 304.8 307.3 309.9 312.5 315.1 316.1 316.2 315.8 314.7 313.2 311.9 311.1 310 309 309.1 308.5 307.8 307.8 307 306.6 306.7 306.1 305.1 304.7 304.1 303.7 302.8 303.3 307.5 304 297.8 295 292.1 288.6 284.1 281.7 279.5 278.6 277.6 275.4 273.1 270.1 266.4 262.9 260 257.2 254.1 250.7 248.3 245.6 242.3 240.3 238.4 236.5 237.2 239.1 240.5 242.4 246.6 252.3 256.6 261.6 265.9 272.4 278.5 282.8 284.8 286.4 286.3 288.8 290.3 286.7 281.1 281.3 285 287.3 291 287.6 282.8 265.4 247.7 234.8 220.3 207.4 198.5 193.1 188.2 183.6 179.1 176.5 174.4 171.6 168.1 164.2 161.1 157.2 154.1 148.1 138.1 127.2 120.9 114.9 109.1 106.8 106.5 107 107.4 109 114.9 116.5 120.8 120.5 114.5 111.7 108.9 104.5 103.4 103.8 103.4 102.9 102.7 102.5 102.8 103.2 103.1 102.9 102 99.6 99.5 99.6 99.6 107.5 117.2 120.8 121.3 124.2 120.4 108.8 101.5 98.7 97.8 97.1 97.7 98.2 97.6 96.6 102.9 113.9 119.3 120.6 121.5 120.3 113.1 104.8 101 99.8 99.9 101.4 102.3 102 99.3 100 103 106.8 111.2 114.9 118.4 121.8
320.3 317.4 314.1 311.6 310.3 311.7 310.8 309.4 313.2 313.9 315.5 315.8 315.1 314.8 315.9 317 318 318.1 318.5 317.9 317.2 316.5 315.3 314.4 312.9 311.8 310.2 308.4 307.6 306.8 306.6 307.2 308.2 309.4 311.5 313.1 314.3 316 315.8 315.4 314.8 313.3 312 311.1 311.1 310.3 308.7 307.9 307.5 306.8 306.1 305.8 305.8 305 304.3 303.9 303.6 303.1 303.2 306.5 304.9 300.9 295.6 291.8 287.4 283.6 280.1 277.9 275.6 274.1 272.7 270.3 268.6 266.3 263.7 260.1 257.1 254.8 252.1 249 246 241.9 239.8 237.6 236.7 235.4 235.8 238.5 240.6 244.8 250 252.9 255.7 258.5 262.3 267.5 275 279.5 282.3 283.1 282.4 284.5 285.3 280.4 278 277.5 278.6 277.9 274.5 268.2 258.4 244.4 235 224.1 209.5 199.9 195.5 189.3 183.9 178.3 175.6 172.5 168.6 165.2 162 159.9 156.8 154.5 151.9 146.6 134.6 123 117.5 113.7 108.6 106.7 106.5 105.1 106.7 107.3 106.4 106.1 106.8 109.7 109.3 104.5 103.5 103.5 103.9 104.2 104 103.8 102.2 102.8 103.1 102.4 102.1 101.2 100 100.6 101.8 101.4 100.5 99.6 102.6 112 112.2 111.4 110.1 104.7 98.8 98.7 98.8 96.9 97.2 98.2 97.6 104.4 117.2 124.3 127.6 129.5 125.6 121.5 113.6 107.9 102 100.7 101.6 102.3 102.8 103.2 101.2 101 104.9 110.6 115.7 119.9 123.3 126.7
320.2 319.7 316.4 313.5 313.3 314.2 314.7 313.2 315.7 316.9 317.4 317.5 316.5 316.1 316.6 317.3 318.1 318.9 318.7 318 317.4 316.8 316.2 315.1 314 312.1 310.5 309 308.4 308.1 307.8 309.8 310.9 312.1 313.5 315.3 315.9 316.7 315.6 315 314.2 313.7 313.2 312 310.1 308.9 307.7 306.8 306.1 305.8 305.8 305.7 305 304 303.5 303.2 302.8 302.4 303.2 303 300.3 295.6 291.3 287.1 282.6 279.5 276.4 273.2 271.6 269.5 268.6 266.6 264.2 261.7 259.7 257.1 254.2 250.7 247.1 244.4 241.2 240.1 238.1 236 234.2 234.2 237.1 238.4 240.2 243.8 247.3 251.1 254 257.2 259.7 261.2 266.6 272.7 277 279.9 280.2 280.4 280.8 275.9 274.2 270.9 269.4 266 258.5 249.9 238.9 229.2 219.7 209.3 199.8 192.9 189.1 185.1 179 174 170.2 166.3 161.8 157.8 156.3 154.9 152.4 150.9 148.2 139.4 127.7 119.6 114.1 108.8 105.9 106.3 106.3 106.2 106 106.3 106.3 106.4 105.8 105.2 105 103.7 104.4 104.4 104.4 104.5 104.3 103.3 103.9 102.2 102.4 102.3 101.2 101.2 102 102.3 101.5 102.9 101.5 101.1 99.9 99.6 100.9 101.4 100.2 99.5 99.8 98.9 99.1 97.8 97.6 98.6 100 117 128.4 135.6 133.1 133.1 133.3 124.1 113.3 109 105.3 102.5 103.1 105.5 106.3 105.5 103.6 101.6 106.2 113.1 119.2 124.3 128.2 131.6
320.6 319.5 319.2 317.7 316.5 316.8 317 316.9 316.6 317.1 317.9 318.3 317.7 317.8 318.5 319.6 320 319.6 320.1 320.7 321.1 322.6 323 320.6 317.8 313.3 311.1 309.6 309.3 308.6 308.7 311 313.4 315.7 316.9 318 317.9 317.2 316.1 315.1 314.5 314 312.8 311.3 310 308.6 307.5 306.4 305.6 305.5 305 304.3 303 301.6 301.4 301.3 300.9 300 299.9 298.7 295.5 291.8 287.5 282.8 278.3 274.6 271.7 268.5 266.7 265.7 263.9 262 259.8 256.8 254.7 252.2 249.4 245.8 243.6 241.3 239 237.6 235.8 233.5 231.5 233.5 235.9 234.8 236.4 239.3 241.3 246.9 253 254 256.1 256.6 258.8 264.1 269.6 273.6 276.1 278.4 278 270 266.7 261.9 255.5 249.3 241.3 231.5 220.6 213.6 203.5 196.2 192 189.5 183.3 179 174.7 169.7 163.7 158.9 155.1 151.7 149.3 149 147.3 144.3 137.3 129.9 128 124 114.1 108.5 105.7 105.9 106.1 106.1 105.5 106.3 106.5 106.5 106.3 105.7 104.5 104.1 104.6 104.6 104.6 103.8 104.3 103.2 103.3 102.9 102.8 101.2 102.5 102 102.1 102.3 102.4 101.6 101.2 100.8 100 100.1 99.6 99.9 100 99.9 100 99.8 98.2 98.8 97.2 98 111.5 126.1 135.9 135.9 143.8 136.1 128 120.7 117.4 111.6 108.4 104.8 105.5 107.4 109.5 108.5 105.7 102.4 107.6 113.8 122.6 127.7 132.4 136.8
321.1 322 322.1 320.2 318.7 317.2 317.6 317.9 318 318.1 318.7 319.8 321 322 322.1 322.4 323.1 323.9 325.5 328 330.1 330.9 328.4 324 319.8 314.3 311.3 310.1 308.9 309.5 310.8 313.9 316.9 317.9 318.7 318.9 318.3 317.8 316.6 316.1 314.9 313.5 312.3 310.6 309.8 308.5 307.3 306.2 304.1 303.7 302.6 301.7 300.3 299.2 298.4 298.8 298.1 297.4 296.4 294.7 291.8 288.3 283.8 278.2 274.4 270.5 267.1 263.8 261.4 259.6 257.8 256.8 253.9 250.9 249 247.1 245.5 245.2 243.9 241.4 237.8 233.6 232.2 229.4 225.9 225.3 227.6 228.8 230.6 232.6 236 241.4 246.5 249.4 250.6 249.5 250.2 254.8 261.3 266.3 269.8 272.5 269.9 263.8 257.5 249.1 239 231.6 225.7 217.4 209.6 202.6 197.7 193.5 190.4 186.4 181.5 169.8 166.5 162.3 157.5 153.6 149.5 145.9 143.3 141.3 139.3 133 130.1 126.7 119.1 112.4 109.8 110.1 106.8 106.4 105.7 106 104.7 106.4 106.2 105 106.1 106 104.5 104.5 104.1 104.4 104.3 103 103.7 103.4 103 102.9 101.8 102.4 102.6 101.7 101.5 102.3 102.4 101.5 101 100.5 99.9 100.6 99.9 99.6 99.8 100 100.2 98.9 98.4 98.5 97.8 98.8 114.2 129.5 137.2 144.6 142.2 141.9 137.9 126.7 119.5 113.6 110.6 107.4 108 109.9 111.7 110.7 107.1 104.1 109.7 115.1 126.1 133.1 137.6 142
