ncols 200
nrows 200
xllcorner 330000
yllcorner 530000
cellsize 50
278.9 275.2 271.8 268.4 262.3 255.6 249.5 250.2 252.3 251.6 253 256.3 257.5 256.5 255 252.1 249.8 246.3 244.9 239.3 232.1 225.7 219.9 217.2 216.2 212.2 205.5 200 196.5 194.6 193.6 193.7 194.7 193.6 189.1 185.9 183.9 182.3 179.4 177.4 175.1 171.4 169.1 165.7 164.6 164.1 161.3 161.6 161.5 160.9 159.5 158.7 158.1 157.4 156.7 156.6 155.9 156.2 152.6 158.9 164.9 165.9 172.3 174 179.1 181.8 183.5 183.5 184 184.1 182 183.8 186 187.3 188.2 189 191.2 187.7 186.3 184.8 178.9 171.7 165.9 161.5 157.1 154.7 148.1 143.1 140.1 125 134.8 133.3 133.5 141.3 149.2 151.2 152.6 153.8 153.6 153.5 153.1 152.7 152.3 152.9 153.5 153.4 153.9 154.7 155.5 154.9 154.4 153.7 151.6 149.8 148.6 147.7 146.8 147.3 146.6 145.8 145.2 146.2 147.5 148.5 149.9 152.4 155 157.4 159.9 163.5 167.4 172.1 177.9 183.3 187 190.6 194.4 196.3 196.7 199.3 201.9 204.2 201.6 198.9 196.6 193.6 192.8 191.2 190.3 190.9 189.7 189.5 190.7 192.3 194 195.4 195.8 195.8 195 193.8 192.1 191.1 189.3 187.9 186.2 184.6 183.1 181.6 175.7 181.6 180.6 178.5 179.3 179.5 179.1 179.4 179.2 178.1 177.1 176 174.5 173.3 170.9 163.2 168.5 168.3 167.7 166.6 164.8 161.4 156.9 159.4 157.5 155.6 153.1 152 146.5 143.7 147.1 146.3
279.3 277.1 273.5 269.5 264 257.1 247.7 241.7 241.8 244.3 245.3 246.2 248.4 248.5 245.3 239.7 239 237.2 233.8 230.1 222.3 215.5 210.6 207.1 205.1 200.5 197.5 195.5 193.4 192.1 191 191.1 192.4 192.8 190.3 188.1 186.5 184.8 181 179.1 178.1 172.7 170.4 167 164.3 165.6 160 159.6 158.9 158.5 156.4 154.8 156.9 155.8 151.3 151.1 151.5 150.8 150 150.9 150.2 153.1 151.8 152.1 153.7 151.2 147.3 152.8 159 166 169.4 169.6 169.8 170.3 169.9 168.9 167.4 167.4 167.8 168.1 164.2 159.2 154.7 146.9 139.3 140.4 136.6 131.6 125.3 134.1 147.8 149.5 150.5 152.4 153.2 153.3 153.8 155.2 155.4 155.7 155.3 155 154.8 155.8 155.6 155.3 155.4 155.2 155.8 155.5 155.5 155.2 153.3 151.7 150.4 149.3 148.4 147.8 147.2 146.5 145.9 146.7 147.9 148.8 150.6 153.3 156.1 159.1 161.5 165.5 170 174.4 180 185.8 189.9 193.7 198.1 200.1 200.9 204.2 207 208.9 206.4 204 200.9 199.5 197.8 196 194.8 193.4 192.5 193.5 195.9 196.9 197.7 198.2 198.7 198.6 198.2 197.3 195.2 193.6 191.8 189.9 187.9 186 183.9 183.6 173.7 183.2 182.8 180.9 180.8 180.9 181 181.2 180.7 179.5 178.4 177.4 175.9 173.8 169.4 169.7 170.5 169.6 168.8 167.7 165 158.5 162.4 161 159.3 156.8 155.1 151.5 141.8 149.9 149.3 147.5
278.7 277.5 275.2 271.2 266.2 254.9 248.9 240.5 231.3 235.3 236.6 237.6 239.7 238.1 236.1 229.1 224.4 226.3 224.4 218.1 210.8 202.6 199.9 197.7 195.2 193.8 193 191.9 190.4 190.3 188.9 187.1 186.6 186.4 188.1 189.9 189.8 188.2 184.2 182.6 180.8 175.7 170.9 168.4 163.9 160.6 157.7 157.7 158.2 158 159.1 158.2 156.9 157.1 156.6 156.4 157.1 157.4 158.1 154.5 150.6 147.2 148.5 144.5 149 145.3 146.1 145.2 145.1 140.8 153.6 157.3 158.4 154.7 149.8 146.3 140.3 142.2 141.5 144.6 148.2 150 142.4 133.8 128.3 126.7 126 134.3 142.9 150.9 153.6 154.6 155.9 156.9 157 156.9 156.9 156.9 157.4 158 158 158.1 157.3 158.9 158.7 157.9 156.9 156.7 156.6 156.8 156.9 156.3 154.9 153.5 152.4 151.3 150.4 149.1 147.9 147.3 146.7 147.3 148 148.9 151.2 154.1 157 160.5 163.2 167.6 172 177 182.3 188 192.5 196.3 201.3 204.7 205.9 208.8 211.8 213.5 211.7 209.4 206.5 205 203.3 201.6 199 196.4 195.5 197.8 200 201.2 201.8 201.7 201.6 201.7 201.6 200 197.9 196 194.1 192.2 190.1 187.9 186 183 180.2 184.6 185.2 183 183.1 182.7 182.7 182.3 182 181.2 179.8 178.8 177.9 174.9 166.9 172.5 172 171 170.1 168.8 163.2 163.9 164.3 162.9 161.1 159 156.2 143.4 152.8 152.8 150.9 144.9
277.4 277.2 276.1 271.4 267.2 260.9 248.2 240.1 232.7 224.9 226.2 228.5 227.7 227.4 224.6 219.2 213.8 213.2 212.3 204.6 196.3 191.9 190 189.7 189.5 188.6 188 187.1 188 188.2 186.7 183.7 182.9 182.5 182.7 182.1 182.4 187.7 186.5 186.4 183.2 178.8 171.3 164.9 160.4 162.8 161.8 159.2 159 159.4 160.2 160.1 159.7 158.7 160.8 161.8 162.4 161.4 161.6 162.7 160.6 154.4 151.9 154 148.6 153.8 151.2 148.5 147.3 146.1 140.4 143.5 144.9 143.8 140.8 139.2 135.8 134.2 134.6 136.4 132.2 137.2 132.9 134.2 133.2 130 126.3 145.6 149.6 153.2 155.1 156 158.4 160 160.7 161.2 161.3 161.5 161.9 162 161.8 161.9 161.2 162.4 163.5 162.1 159.8 157.7 157.4 157.8 157.5 156.8 156.2 156 155.1 153.8 152.8 150.9 148.9 148.2 147.5 147.7 148 149.2 151.8 154.7 158 161.6 165.3 169.7 174.3 179.6 184.9 190.3 194.9 199.4 205.7 209.1 211.2 214.1 217.3 218.9 218.2 215.7 213 210.9 209 207.2 204.3 201.9 199.4 202.6 204.3 205.6 206.2 206.1 205.7 205.4 205.1 202.7 200.3 198.4 196.5 194.4 191.7 189.6 187.8 186.6 180.8 185.8 186.8 185.1 183.9 184.8 183.9 183.5 183.1 182.5 181.6 180.2 179.5 169.4 174.9 174 173.3 172.4 171.4 169.6 165.1 167 166.2 164.8 163 159.5 148 155.5 155.9 154.1 151.2 145.6
272.8 275.8 275.6 271.9 267.3 259.1 247.3 240.2 233 225.1 217.5 217.7 217.8 215.6 213.1 210.5 206.7 203.1 198.6 195.8 192.3 189.2 189.5 188.8 187.3 187.1 186.8 186.1 186.1 185.1 184.7 186.1 187.7 188.4 188.9 188.4 181.1 174 186.6 186.5 184.4 176.3 166.2 161.5 163.2 165.2 162.9 160.6 161.7 161.7 162.4 163.2 163.1 162.1 163.5 164.3 164.3 163.6 163.5 164.5 163.2 161 158.8 159.7 161.4 160.5 156.5 153.6 151.2 149.8 148.5 139.2 139.5 137.6 136.3 137 141.2 141.3 140.6 138.9 135.5 131.1 137.5 137.9 133.4 130.8 127.2 132.9 150.6 153.3 155.5 157.5 159.6 161.4 162.9 164.3 165.8 166 166.2 166.2 166 165.3 164.1 166 166.7 165.6 163.1 160.2 159.5 158.7 158.1 157.6 157.4 157.4 157.4 156.3 154.9 152.7 150.5 149.2 148.5 148.5 148.6 149.6 152 154.6 158 162.1 167.1 171.7 176.7 182.2 187.9 193.3 198.1 203 209.6 214.3 216.4 219.8 222.7 224.4 223.8 221.8 219.9 217.8 215.7 212.9 209.4 207.7 204.9 207 208.6 210.2 210.6 210.5 209.7 209.1 207.7 205.3 202.9 200.8 198.8 196.6 193.9 191.1 189.6 188.6 180.8 188 188 186.6 185 186.2 185.8 184.9 184.3 183.8 183.1 182 174.7 178.5 176.9 175.7 174.7 173.8 172.7 170.1 168.6 169 167.7 166.3 164.7 158.4 154.1 159.6 157.8 155.3 146 151.6
266.3 270.9 273.4 272.2 266.7 256.3 247.2 241.1 233.3 225 215 211.8 210 208.2 206.8 205.1 202.2 197.2 193.8 191.7 189.8 191.9 191 190 188.4 187 186.7 186.4 186.4 185.7 185.9 187.7 189.1 189.5 188.7 188 187.5 186.1 170.2 167.9 164.7 162.9 162.4 162.8 163.8 169.3 165.6 162.1 162.7 163.2 164.3 164.3 164.2 163.8 164.7 165 165.1 165.5 165.6 165.6 165 165.2 162.9 160.8 162 161 159.6 156.2 152.6 151.4 151.2 149.9 147.6 141.9 144.2 144.8 145.2 144.8 143.4 142.1 141.7 131.2 129.4 133.9 133.7 132.7 131.9 136.4 149.9 152.9 155.7 158.9 161.6 163.9 165 166.9 168.3 170 170.6 170.1 169.5 166.7 166.1 168 169.5 168.4 166.8 165 162.8 160.8 159.2 158.7 158.8 159.1 159.4 158.3 156.9 154.6 152.2 150.4 149.9 149.9 149.8 150.1 151.6 154.5 157.7 162.2 167.7 173.6 179.2 184.4 189.9 195.6 201.2 206.8 213.7 219.3 222.1 225.1 228 230.1 230.4 228.8 227.1 224.5 221.6 218.6 215.1 211.5 209.8 211.7 213.6 215 215.3 215.2 214.3 213 210.5 208 205.6 203.2 201 198.3 195.5 192.6 190.5 189.5 183.2 189.1 189.2 188.2 186.8 187.4 187.2 186.6 185.8 185.1 183.9 176 179.1 180 178.8 177.5 176.5 175 173.3 169.6 171.4 170.4 169.1 167.8 166.1 159.7 161.5 161.8 159.3 152.5 153.5 154.8
261.5 265.1 269.3 270 265.8 254.8 245.3 239.3 232.1 224.1 214.6 208.2 205.3 203.2 201.1 199.2 195.4 192.7 192.1 191.9 199.3 198.8 193.4 191.1 190 188.5 188.9 187.4 186.6 187.4 189 189.4 189.9 189.9 189.2 188.2 187.7 186.3 185.6 185.9 183.4 178.8 174.8 171.8 168.1 166.6 162.9 165.3 164.8 164.7 165.2 165.1 165 164.8 164.9 165.1 165.4 166.4 166.8 166.6 166.2 166.3 165.9 163.1 162.5 162 160.7 157.8 156.3 154 152.4 150.9 148.3 147.8 147.9 149 148.8 147.9 147.3 148.5 136.8 133 133.9 133.8 134.5 134.2 136.9 145.9 150.7 154.1 157.5 160.9 164 166.3 168.6 171.4 173.3 174.6 175.4 174.2 171.4 169.3 167.1 167.7 171.1 171.8 171.3 171 168.4 163.2 160.6 160 160.1 160.3 160.4 159.8 158.6 156.9 154.5 152.8 151.8 151 151 151.2 152.1 154.4 157.6 162.4 167.9 174.2 180.8 186.4 192 198.6 204.4 209.7 217 222.5 227.1 230.3 233.2 235.5 236 235.8 234.5 232.5 230.2 225.8 220.8 214.6 216.1 217 218.9 219.7 220.1 219.9 218.3 216.3 213.9 211.2 208.5 205.8 203 200 197.1 194.3 192.1 189.9 185.2 190.4 190.4 189.5 188.3 188.4 188.2 187.7 187.1 185.8 178.9 179.7 183.1 181.5 180.4 179.3 177.5 175.7 174.9 171.4 173.3 171.5 170.3 169.2 167.2 158.7 164.1 163.9 160.1 153.9 158.1 156.8
258.5 261.5 266.7 268.6 264.1 253.4 243.5 237.6 230.1 221.3 212.3 206.5 202.8 200.3 196.3 194.5 194.3 194.2 197.3 199.9 204 204.1 199.7 197.5 200.5 198.1 194.4 192.8 191.7 190.3 189.9 190.1 190.1 190.1 189.6 189 187.9 186.4 185.9 184.7 181.9 178.9 175.6 171.5 171.9 166.8 163.4 166 166.3 166.1 166 165.8 165.7 165.5 165.4 165.6 166.3 167 167.3 167.2 167.2 167.8 167.4 164.9 163.3 162.6 161.8 160.5 159.6 159.2 155.7 152.5 151.5 150.9 150.6 150.6 150.6 150.4 150.5 152.2 139.5 132.9 134.1 134.3 134.8 138.1 147.7 152.6 154 156 159.4 163.3 167.5 169.5 171.4 174.2 178 180 180.2 181.7 176.1 171.9 168.2 170 172.8 174.2 175.8 176.5 172.7 167.1 163.6 161.8 160.6 160.8 160 160.6 160.4 158.9 157.3 156.2 155 153.6 152.5 152.7 153.3 155 158.4 162.7 168 174.8 181.6 188.1 193.9 201.5 207.6 212.7 219.6 226.2 230.9 235.4 237.6 239.4 240.5 241.4 240.2 238.2 236.1 232.8 225.4 219.5 221.8 222.9 223.8 224.4 224.5 223.6 221.5 219.1 216.5 213.7 211 208.3 205.4 202.5 199.5 196.4 193.9 191.7 187.1 191.2 191.7 190.8 189.6 189.4 189.2 188.9 187.9 182.9 179.9 186.1 184.1 182.8 181.5 180.3 178.1 177.4 174.1 174.9 174.9 173.1 171.3 169.9 163.1 165 166.8 164.8 155.4 162.1 160.2 158.5
253.5 257.1 262.9 265 259.6 248.8 239.8 233.8 226.2 219 209.9 203 199 195 194.9 195.6 197.8 199.3 199.3 200.8 204.5 208.2 202.3 201.6 206.3 205.9 202.5 198.8 198.1 196.1 191.3 190.6 190.8 190.3 189.6 190.4 189.6 188.5 185.3 182.2 179.8 178.3 178.1 175.8 173 167.6 166 170.2 168 167 167 166.8 166.6 166 166 166.2 166.7 167.1 167.5 167.9 168 168.7 169.5 167.2 165.4 163.6 162.8 161.9 162 162.3 160.2 155.7 154 154.1 152.5 151.7 152 152.1 153 154.8 153.9 134.9 133.4 134.7 136 144.3 152.8 155.2 157.1 158.6 162.5 167.1 171.9 174.8 174.2 178 181 183.6 185.7 185.4 181.1 177.9 173.1 175.8 177.3 176.5 179.1 180 175.6 171 167.2 164.6 162.4 160.6 160 160.5 161.1 160.8 160.3 160.2 158.9 157.1 154.6 154.5 155 155.9 159.1 163.2 168.7 175.2 181.4 187.8 195.6 203.3 209.9 215.6 222.1 229.2 234.8 238.7 240.8 242.5 243.7 244.6 244.6 243.2 241 236.9 230.5 224.2 226.5 227.4 228.6 229.2 228.6 226.5 224.1 221.7 219.2 216.3 213.4 210.7 207.9 204.9 201.8 198.6 195.5 193.7 188.6 192.6 193 191.9 191.1 190.4 190.2 190 189.2 180.7 186.7 186.5 185.1 183.6 182.4 181.4 179.5 177.7 175.5 176.1 176.6 174.7 172.8 169.8 166.4 169.2 168.3 161 164.8 163.8 162.3 160.4
250.4 253.2 259 259.7 254.8 240.4 234.3 230 222.1 215.9 206.5 198.6 197.5 197 199.7 200.1 200.7 201.2 201.4 201.6 204 208 204.9 203.6 206.8 209.3 206 203 203.8 203.2 197.7 192.7 192.2 191.4 191.5 191.3 190.3 190 189.2 186.5 181.1 180.8 182 180 169.9 172.9 173.6 173.1 169.5 168.3 167.9 167.6 167.2 166.9 167 167.1 166.9 167.2 167.7 169 168.5 169.1 169.8 170.1 168.4 166.6 164.7 163.6 163.4 164.4 164.1 160.1 157.5 158 155.9 153.7 153.4 153.7 154.5 156.1 156.3 154.4 138.6 132.2 132.5 133.8 137.7 156 159.3 161.4 164.8 170.4 175.9 184.1 182.9 182.6 184.8 185.8 186.5 187.7 187 184.5 181.9 179.5 180.4 179.7 179.5 180.3 178.9 176.2 173.2 169 165.1 161.7 160.4 160.9 161.4 162.2 163 162.9 163 161.1 158.5 156.8 156.6 157.5 159.4 164.1 169.6 175.3 181.1 187.1 196.4 204.4 211.4 218 224.5 232 237.8 241.7 243.4 245.3 247 247.5 247.5 246.2 244.2 240.8 235.1 228.9 230.7 231.8 233.1 233.6 232.1 229.5 226.8 224.4 222 219 216.1 213.2 210.2 207 203.8 200.6 197.4 194.5 192.3 193 194.2 193.2 192.5 191.8 191.3 191 184.7 184.8 188.5 187.3 185.9 184.6 183.3 182.4 180.6 177.6 178.5 178.7 177.7 175.9 173.3 164.2 172.4 170.8 169.5 161.9 167.5 165.8 163.7 154.5
245.5 249.5 256.1 260.4 254.2 235.6 230.4 227.6 218.7 211.4 201.4 198.4 200.1 201.5 201 201.3 202.2 203.7 204.5 204.1 204.9 207.9 206.3 209.4 208.3 210.6 210.8 208.1 208.2 207.3 203.3 200.6 195.8 193.3 192.8 192.2 192.4 191.9 189.8 187.6 182.7 182.2 183.5 176.7 178.9 180.1 178.6 176.9 173.4 170.7 170.4 170.5 169.4 168.7 168.3 168.1 167.9 168.3 168 168.5 169.2 169.3 170 171 171 169.6 168.3 167.3 167.8 167 165.1 162.2 159.7 162.5 162.3 159 155.3 155.4 155.9 156.9 157.1 155.2 147.1 140.7 137.8 136.6 134.2 147.7 160.1 164.3 168.3 173.7 179.5 184.4 187 186.7 187.8 188.7 189.5 190.5 192.6 189.8 183.7 182.6 184.7 182.8 181.8 181.4 181.1 180.9 179.6 174.7 168.9 163.4 161.2 161.3 161.8 162.9 164.4 166 166.3 164.7 163.2 160.3 158.5 159.3 160.8 164 169.7 175.2 181.6 187.3 196.5 204.9 212.7 220 225.7 233.4 239.4 242.6 245.9 248 249.3 249.7 249.6 248.4 246.8 244.4 238.6 233.6 234.4 235.8 236.6 236.7 235.4 232.9 229.8 227 224.6 221.7 218.8 215.8 212.6 209.2 205.9 202.6 199.7 197.8 195.9 193.9 195.4 194.7 194 193.3 192.6 189.8 187.8 190.4 189.5 188.1 186.7 185.4 184.4 183.5 180.9 179 180.6 179.9 178.9 175.5 165.7 174.5 173.5 172.5 168 169.9 169.6 167.4 161.5 160.2
242.2 246.6 252.7 253.1 240.8 229.3 225.9 221 214.5 204 199.5 198.7 201.8 201.9 202.2 202.4 203.7 206.2 210.1 207.7 207.4 209.4 208.3 212.1 211.3 213.7 213.7 212.1 212.3 212.1 210.9 207 203.4 197.4 195.1 194 194 193.6 190.8 188.1 184.5 182.6 181.9 177.4 183.3 182.2 181 180.2 176.6 175.4 174.8 176.5 174 172.8 172.1 171.8 171.6 170.7 169.3 168.8 169 170.3 170.3 171.7 171.7 171.2 171 171.1 171.3 170.3 167.6 163.4 160.7 161.8 165.5 166.1 162.8 158.5 157.8 157.7 157.6 156.3 152 142.5 139.1 137.6 134.4 148.1 163.6 169.3 172.9 179.1 184.2 186.9 190.3 193.7 192.8 192.8 194.1 196.2 197.1 195.2 188.1 189.2 190.7 188.5 186.6 183.7 183.4 183.7 183.4 179.6 174.2 167.5 163.2 161.8 162.2 163.3 165.5 167.9 170 170.2 168 164.7 163.3 163.3 164 164.9 170 175.6 182.3 188.7 196.1 203.9 212.8 220.7 228.3 234.7 239.1 243.7 247.3 250.5 251.7 251.7 251.4 250.6 248.9 247.1 242.7 237.8 239.1 239.1 239.7 239.5 238.7 236.2 233.2 230.1 227.2 224.4 221.3 218.2 215.1 211.7 208.2 204.6 201.5 199.6 198 196.2 196.8 196 195.3 194.5 193.7 184.7 192.3 191.5 190.3 188.9 187.6 186.4 185.2 184.5 181.9 181.4 182.1 181.2 180 173.4 177.9 176.1 174.9 173.8 167.7 172.1 171.1 161.8 163.4 164.7
241.3 245.5 244.5 234 228 222.3 216.9 212.1 203.1 200.8 200 205 202.8 203.1 203.4 204 204.8 207.4 209.1 211.1 209.4 212.2 210.9 212.4 214.9 216.6 217.6 215.8 215.9 215.9 215.2 212.7 210.9 205.8 199.5 196.2 194.6 194.6 191.8 188.9 185.8 181.3 174.5 183.1 185 184.1 183.8 182.1 179.7 179.7 180.3 180.4 178.7 177.2 176 175.4 175 173.2 171.6 170.1 169.9 170.6 171.2 171.1 171.3 172.1 172.6 174 174.4 174.1 171.8 166.7 162.9 162.7 165.5 166.4 165.2 165.5 161.3 159.9 160.1 158.9 157 146.8 140.3 138.1 138.3 156.1 168.1 173.2 178.1 184.3 188.8 192.2 194.3 197.9 200.7 200.9 199.2 200.3 201 196.8 195.4 199.2 198.9 195.4 192.8 188.9 186.1 185.6 185.8 183.3 178.8 172.7 167 163.5 162.8 163.5 165.3 168.6 171.7 173.6 172.7 170.6 168.6 167.3 167.9 168.3 169.8 175.3 181.7 188.3 195 203.1 211 219 227 235.1 239.3 243.2 248.2 251.9 253.8 253.7 253.1 252.5 250.8 249.1 245.4 242.7 242.3 242.1 242.2 242 241.2 239.1 236.1 233.1 230.1 226.9 223.8 220.7 217.4 213.7 210.1 206.6 203.7 201.5 199.5 198 198.3 197.4 196.2 195.4 194.3 189.2 193.2 192.6 191.4 190.2 188.6 187.4 186.2 185.6 182.9 183.8 183.5 182.4 178.6 177.1 178.6 177.5 176.5 170 174.1 173.8 169.8 166 168.9 167.3
237.6 237.4 229.7 223.2 219.2 214 209.5 204.3 201.7 202.2 208.3 207.4 205.5 205 205.7 206.2 206.8 207.4 209.4 212.3 212 214.5 213.9 213.6 217.1 220.1 222.7 221.6 219.8 219.1 218.7 217.8 215.7 211.4 205.1 200.6 197.5 196.7 193.2 189.5 185.6 180.6 175.6 184.6 185.7 186.3 186.3 185.5 183.7 184.9 184.5 184.6 184.5 180.8 179.9 179.2 178.5 176.7 174.9 173.5 171.9 171.8 172.1 171.8 171.7 171.7 172.5 175.3 177.1 176.5 174.6 173.2 168.4 164 164.3 165.9 166.7 168.3 166.8 162.5 162.7 161.8 160.6 151.2 142.7 135.6 151.1 165.8 172.2 176.3 182.3 188.5 193.6 196 199.1 201.7 204.9 206.8 206 202.6 203.1 199.4 201.5 206.5 205.7 202.3 197.4 194 190.6 187.4 187.2 186.1 182.6 177.4 171 166.3 164.6 163.9 164.9 167.6 171.7 176.3 177.1 175.8 174.1 172 172 171.8 171 175.8 180.6 186.7 194.3 202.6 209.4 218.1 226.7 234.8 238.7 242.7 247.9 252.8 254.7 254.8 248.8 254.2 252.7 250.3 247 244.5 245.2 244.8 244.7 244.6 243.5 241.7 238.9 235.9 232 229 226.2 223.1 219.8 216 212.1 208.6 205.8 203.3 201.4 199.5 199.8 199.4 198 196.6 193.7 191.9 194.4 193.9 192.8 191.7 190.1 188.5 187.3 186.3 184.3 184.8 184.5 182.8 180.1 180.3 180.1 178.9 174 174.3 176 175.1 166.9 171.9 170.5 169
223 221 216.8 216.1 212.1 207.3 204.2 203 202.4 210.7 210.4 209.2 209.5 209.1 208.6 209.4 211 211.3 212.9 214.2 216.5 218.7 219 218 219 223 225.7 227.2 224.3 221.2 221.2 220.7 220.9 216.6 209.9 205.3 201.2 199.1 196.1 190.2 184.9 180.7 176.4 182.6 185.9 187.4 188.2 187.3 187.1 188.9 189.7 189.3 188.7 187 185.1 183 181.4 178.7 177.8 176.5 175.3 176.7 175.8 173.7 172.5 171.9 172.3 175.1 178.4 179 177.5 176.1 173.1 169 169.8 167 167.4 169 168.1 165.5 165.8 164.7 162.8 156.3 140.2 142.7 166.1 170.3 174 178 182.8 188.7 195.3 200.7 204.1 206.6 208.9 210.7 211.3 209.7 208.2 204.4 207.3 211.1 210.4 206.8 202.3 199.6 195.7 190 188.5 188.3 185.7 181.5 175.3 169.9 166.5 165.3 165.3 166.4 170.7 176.2 179.7 179.3 177.7 177.2 175.7 175.1 173.2 176.2 181.8 188.9 196.3 203.4 209.5 216.9 226.5 236.7 240 242.9 248 252.8 254.6 253.1 243.8 254.5 254.3 252 248.9 246.7 247.5 247.4 247.3 246.7 245.6 244.3 241.6 238.4 233.8 230.8 228.5 225.5 222.3 218.4 214.5 210.8 208 205.5 203.2 201.3 201.1 200.7 199.1 197.5 194.5 193.3 195.4 195.2 194.2 193.1 191.7 190.1 188.5 187.3 185.4 186.2 185.3 183.1 175.5 182.4 181.5 178.9 174.6 178.2 177.6 175.6 169.5 173.6 172 170.6
212.2 212.1 211.7 206.5 203.6 203.8 203.5 202.6 210.8 211.6 211.1 210.9 211.8 212.8 213.5 214.3 215.8 215.9 217.4 218.2 220.9 222.3 223 222.9 225.1 227.8 229.8 230.9 229.2 225.2 223.1 223.7 224.2 221.5 214.7 208.6 203.9 201.5 199.7 190.9 184.7 182.5 178.8 180.1 183.5 185.5 187.3 188.5 189.4 191.5 193.6 193.3 192.7 192.8 191.6 189 186.3 184.9 183.7 181.9 180.2 181.4 182.1 180.1 174.2 172.8 173.2 174.8 177.9 178.9 179.5 179.4 174.3 173.1 174.3 171.2 167.9 167.8 167.7 168.4 170.7 169.7 166.1 159.8 140.4 150.3 164.2 168.7 172.9 175.3 180.2 189.4 195.4 201.2 209 212.2 214.1 215.2 215.5 215.7 217.3 213.5 214.2 215.3 214.5 210.3 207.7 205.6 199.4 192.2 189.8 190.2 188.7 184.6 180.2 174.6 170.1 167.2 165.9 166.6 169.6 175.1 179.7 183.3 183.5 182 180.4 178 176.2 177.4 183.9 190.2 197 203.8 209.9 217.1 227.7 238.3 240.9 242.9 247.6 251.8 254.3 254.3 247.5 241.4 255.9 253.7 250.7 248.8 249.4 250 249.8 248.8 247.5 245.8 243.7 240.3 235.8 232.5 230.5 227.9 224.7 220.8 216.9 213 210.4 207.9 205.3 203.1 202.8 202 200.4 198.6 195.9 194.8 195.3 196.1 195.4 194.3 192.9 191.4 189.8 188.1 186.9 187.1 186.1 181.4 182.7 183.7 182.8 177.3 180.3 179.6 178.9 170.7 175.7 175.5 174 172.6
208.8 208.2 205.1 205.3 206.3 207.8 209 210.1 212.2 213.5 212.3 212.4 213.5 215 216 217.7 219.7 220 221.7 222.5 224.3 226.6 226.7 228.6 231.7 233.1 234 235.4 234.6 232.6 228.2 225.6 224.2 222 216.8 210.8 205.7 201.2 195.4 191.7 187.1 183.6 178.8 181.5 183.1 184.5 186.1 187.9 189.9 192 193.6 194.9 195.8 197 196.5 194.1 192.8 191.4 189.5 187.7 186 184.8 185 182.4 175.5 174.1 174.8 178.1 177.9 178.9 180.8 182.7 179.5 177.8 179.2 175.9 172.9 169.7 167.5 166.7 168.4 169.2 166.7 157.1 139.2 146.9 161.4 165.8 170.7 172.7 178.4 186.7 194.4 200.6 207.1 215.9 219.5 219.8 220 217.4 217.5 221.8 222.6 221.5 219.2 213.7 212.1 209.9 205.5 195.3 192.2 192.4 190.3 187.4 183.5 179.2 174.3 169.9 168.4 168.2 169.9 173.6 178.9 183.2 186.7 186.4 184.3 181.9 179.3 179.9 185.5 191.8 197.7 203.3 209.7 216.9 226.8 239.3 241.6 243.1 246.6 250.7 253.6 253.8 250.7 251.9 256.2 255.7 253.4 251.6 251.8 252.2 251.9 250.5 249 247.2 245.2 242 237.8 234.2 232.9 230.5 226.9 223.1 219.2 215.4 212.8 210.2 207.7 205.2 204.5 203.1 201.4 199.6 197.2 195.5 197.4 197.1 196.5 195.3 193.9 192.3 190.7 189.2 188.7 188.2 187.1 181.9 185.2 185.2 179.1 180.3 182.7 181.4 177.1 175.2 178.5 177.2 175.8 174.4
209 207.5 206.2 206 207.7 209.6 211.2 212.6 213.7 215 214.5 214.1 215 216.5 218.1 221 223.4 224.6 225.4 226.5 227.8 230.3 231.7 233.6 235.6 237 237.6 238.3 238 235.8 235.3 231.8 226.2 221.9 216.9 210.4 204.2 198.2 194.1 194 190.2 183.6 180.6 182.8 183.8 185.3 186.7 188.3 190.2 192.2 193.5 195.3 197 199.1 200.2 199.2 197.9 196.3 195.3 193.4 191.5 190.1 187.5 184.6 177.2 177.1 180.4 181 181.5 181.4 181.3 180.5 180.2 180 184.3 180.6 178.2 173.7 170.1 168.6 167.6 168.4 164.9 153.7 138.9 149 158.2 161.9 166.6 169.6 172.1 183.4 192.1 200.3 207.6 215 221.2 223.5 224.4 222.2 223.3 226.9 228.9 226.8 222.5 218.5 218.9 217.2 213.4 201.6 196.6 195.7 193.4 188.6 185.7 182.4 178.3 173.7 171.6 170.4 170.9 173.7 177.8 182.7 187.8 189.2 188.3 185.8 183.6 182.3 187.6 192.3 198.3 203.8 210.3 218.1 227.3 240.2 243.5 243.4 246.8 249.4 252.6 253.8 252.4 251.3 256.5 257.7 256.2 255.2 254.7 254.4 254.1 251.7 250.1 248.2 246.2 242.9 238.8 235.9 233.9 232.3 228.8 225.1 221.5 217.9 215.3 212.6 210 207.5 206.1 204.8 202.3 200.3 199.1 197.1 198.1 198 197.2 196.1 194.8 192.9 191.1 190.2 189.6 189.4 187.5 180.6 187.4 183.5 183.3 184 183.9 182.4 175.6 180.4 180.3 178.8 177.3 175.7
208 207.6 206.6 208.1 209.8 210.5 211.8 213.2 214.5 216.5 216.8 216.5 217.1 217.9 220.7 223.4 225.3 227.3 227.5 228.8 230.5 232.7 235.3 237.1 238.2 239.1 239.5 240.9 240 238.9 239.6 237.6 231.3 223 215.8 209.6 202.8 196.6 191.6 188.7 186.5 182.7 180.8 184.2 185.8 186.5 188 189.5 190.9 191.9 193.4 195.1 196.9 199.1 201.5 202.8 202 200.9 199.7 198.7 197 194.7 191.9 187.1 184.4 185.1 186.2 183.7 182.8 182.5 182 180.6 180 180.8 186.4 186.5 183.4 177.8 174 170.2 168.5 168.4 164.3 153.6 139.3 150.9 156 158.7 162.2 164.8 170.3 180.1 192.3 196.5 204.6 214.8 222.3 225.2 228.1 228.2 228.9 231.7 232.5 230.7 227.7 224.3 223.8 221.9 219.1 209.8 201.2 199.6 195.1 190.3 186.4 183.9 180.6 177.3 175.4 173.5 173.4 174.8 178.2 181.9 187.4 191.1 191.5 189.6 187.3 184.5 187.8 193.7 199.3 204.7 210.8 219.2 227.7 238.7 244.4 245.5 248.3 251.7 253.5 254.4 253.7 253.7 256.4 258.8 258.7 257.9 257.4 256.9 256.1 253.1 250.9 249.3 247 243.3 239.9 237 234.9 233.1 230 226.5 223.7 220.4 217.8 214.6 210.9 208.5 207.5 205.8 203.5 201.5 200.3 198.1 199 199.2 198.1 197.1 195.9 193.7 192.1 191.3 190.3 189.4 185.3 187.2 188 183.2 186.6 185.6 185.2 178.9 182.2 182.3 181.3 180.3 178.7 177.1
209.7 208.6 206.5 209.8 211 212.3 212.9 214.1 215.8 217.4 219 218.9 219.9 221 223.4 224.4 225.9 228.8 229.6 231.3 233.2 235.5 238.6 240.4 241.4 242.4 242.8 243.7 243.8 244.2 243.8 241.8 237.1 225.6 215.8 208.6 202.8 197.3 191.9 188.7 185.6 183 184.1 186.1 187.4 188.8 189.7 191.2 192.8 193.8 194.2 195.3 197 198.8 201.3 203.5 204.6 204.1 203.6 203.1 202.4 200.8 195.1 191.1 190 192.1 190 187.7 186.6 184 182.8 182.2 183.3 183.4 187.8 189.2 184.4 181.5 177.9 171.3 170.3 167.5 162.6 151.1 139.7 138.2 154.3 157.1 159.5 160.6 167.1 177.7 186 195.3 201.1 210.8 220.9 225.8 229.9 232.3 234.7 236.1 236 234.6 231.2 228.2 226.2 225 221.9 214.8 205.3 202.9 198.4 191.9 188.3 185.2 183.1 181.1 178.9 176.8 176.4 177.1 178.7 181.1 186 190.9 193.3 193.2 191.3 189 188.5 193.8 200.1 205.5 211.3 219.2 228.1 239 244.8 247.8 250.9 253.6 254.7 254.6 254.3 254.1 255.7 258.9 260 260.1 260 259.3 257.5 254.2 251.1 249.5 247.6 244.1 241.1 238.2 236.1 234 231 227.5 224.8 221.9 218.5 215.3 212.4 211.6 209.4 207.3 205 202.9 201.2 199.3 199.9 200.5 199.2 198 196.3 195.5 193.9 192.2 191.2 189.4 185.8 189.2 186.4 186.7 187.8 187.2 185.5 179.8 183.9 183.6 183.2 182.1 180.4 178.5
209.4 208.6 208.2 211.1 212.2 215 216 216.3 218.3 219.2 221 221.5 222.9 224.5 226.3 228.1 226.9 230.8 233.1 235.7 238.2 239.6 242.1 243.4 244.7 245.5 245.6 245.9 247.2 246.7 245.9 244.3 239.9 227.7 217.4 208.8 203.2 197.8 192.7 189.7 186.8 183.3 186.3 187.5 189 190.4 191.7 193.2 194.6 195.2 195.9 196.5 197.6 199 200.8 203.2 206.1 208.1 208.7 209.3 208.6 206.5 202.2 197.2 195.7 196 194.9 192.8 190.5 187.8 187.4 183.5 183.2 187.6 190.2 189.7 184.6 181.6 178.3 174.1 171.9 168 157.3 148.9 141.9 141.4 139.9 146.6 157 158.4 163 171.4 183.1 189.5 197.9 204.8 212.5 221.7 230 236.5 239.7 239.6 238.6 237.4 234.7 232.1 229.2 226.8 224.8 219.5 211.5 206.4 201.2 195.5 190.6 187.4 185.2 184.2 182 180.5 179.5 178.8 179.8 181 184.8 189.9 193.9 196.2 195.1 193 191.9 194.6 201.5 206.6 212.9 220.7 228.5 239.1 245 248.7 252.4 254.7 255.4 255.1 254.9 254.6 255.5 258.2 260.2 261.1 261.5 261.1 258.7 255.1 251.2 249.5 248.1 245.2 242.1 239.5 237.4 234.4 231.2 228 225.4 223 219.7 216.9 215.6 212.9 210.9 209.1 207 204.5 202.6 200.9 200.7 201.4 200.3 198.5 196.3 196.3 195.3 193.7 190.4 189 191.1 190.5 187.4 188.6 188.7 188.4 185.1 184.7 185.2 185 184.6 183.8 181.9 180
209.5 207.7 210 212.7 213.8 216.4 219.3 220.2 220.6 221 222.8 224.1 225.2 226.6 229.2 231 229.8 234.1 237.1 239.4 241.9 244.2 246.7 247.7 247.8 246.6 247.4 248.5 248.9 247.7 247.3 245 241.8 230.5 221.4 210.7 203.6 198.4 193.9 190.7 187.2 184.3 187.7 189 190.5 192 193.6 195.5 197.1 197.9 198.7 199.3 200.6 201.3 201.4 202.3 205.1 207.5 210.2 212.7 213.2 211.5 208.3 204.6 201.1 198.5 196.9 195.1 192.8 191.3 191.8 187.6 184.1 188 192 186.6 182.6 180.3 178.2 178.1 175.1 169.9 158.8 151.7 143.5 142.2 139.8 143.1 147 156.1 159.2 164.2 173.6 186.3 192.7 199.8 204.8 211.8 225 235.6 243 243.3 242 240.2 238.2 235.6 232.6 229 226.3 223.8 217.9 210.7 205.2 201.7 196.5 190.3 188.1 186.2 184.2 183.5 182.5 181.5 181.8 182.7 185.3 189.1 193.4 197.2 198.2 196.4 196.2 196.7 202.5 208.5 214.7 221.7 230.2 239.2 245.3 249.6 253.2 254.9 255.4 255.6 255.3 255.1 255.3 257.2 259 260.5 261.8 261.9 259.4 255.6 251.5 249.3 248 245.3 242.5 240.4 238 234.8 231.5 229 226.8 224.6 221.5 219.9 217.3 214.7 213.1 211.3 208.5 206 203.8 202.4 201.7 202.4 201.3 199.1 198.2 197.6 196.7 191.5 192.8 192.6 191.9 190.8 190.7 190.5 190.2 189.6 185.6 185.9 186.9 186.4 186.2 185.6 183.5 181.8
209.4 210.7 212.9 216.1 216.1 217.9 220.7 222.8 223.4 223.9 224.8 227.5 228.5 229.5 230.6 233.1 234.6 237.2 239.8 242.4 245.4 248.3 251.3 252.3 251.5 249.6 248.9 250.3 249.7 249 247.9 244.2 239.6 231.7 222.4 212.1 204.9 199.4 195.4 192 188.3 185.7 188.7 190.1 191.7 193.5 196 197.9 199.8 201.4 202.8 204.4 205.7 205.4 203.7 203.6 205.2 207 210.3 213.3 214.5 214.7 212.8 210.4 207.2 203.8 202.5 198.1 196.8 197 194.9 191.4 187.5 192.2 190.6 183 178 176.4 176.7 175.8 172.3 167.4 162.4 156.2 146.9 143.1 141.3 143.4 144.1 149.1 154.6 158.8 165.2 177.8 188.2 197.3 200 203.8 215.3 229.4 239.3 245.6 244.4 242.3 240.1 238.6 235.9 231.9 227.7 224.7 219.2 212.9 208.2 206.3 202.6 196.2 191 187.5 184.8 184.1 184.7 184.7 184.1 184.9 186.7 189.3 193 197.5 200.4 200.6 200.3 200.7 202.3 209.5 216.3 223.2 231.7 239.7 245.8 249.6 253.2 254.4 254.4 255.5 255.7 255.2 254.9 255.9 257.1 258.8 260.4 260.8 258.6 255.1 251.3 249.2 247.9 245.8 243.3 241.1 238.5 235.5 232.4 230.2 228 225.8 224.7 222.1 220.2 217.5 215.7 213.2 209.8 207.5 205 203.7 202.7 203.4 201.9 200.9 199.9 196 194.1 197 195.1 194.4 192.9 192.2 192.3 191.9 191.6 190.8 184.3 187.5 188.5 187.8 187.3 187.3 185.4 183.5
210.1 214.2 216.9 219.6 219.4 219.9 222.1 224.6 226.3 227.4 227.7 229.8 231.5 232.5 233 235.4 237.9 240.6 243.2 245.7 249.1 252.3 254.7 254.8 254.8 253.7 250.9 251.1 251 250.6 247.6 244 237 230.3 221.2 212 205.6 202 197.6 193 190.2 189.5 190.3 191.3 193.2 195.1 197.5 200.5 203.4 205.5 207.3 209 209.7 209.3 208.8 212.6 215.4 213.1 210.2 212.9 215.3 216.1 215.8 214.9 212.7 210.2 208.6 204.3 200.7 199.8 196.4 192.8 190.6 192.7 195.4 190 178.7 175.1 175.8 174.7 170.9 169.6 165.5 157.1 157.8 156.5 140.6 143 143.6 145.5 150 154.4 157.3 165.2 178.7 190.4 195.7 199 207.3 221.3 232.4 242.2 243.8 242.2 240.8 240.8 239.2 235.4 231.1 227 220.2 215.1 210.8 207.8 207 202.9 197 190.5 185.2 184.2 186.7 187.9 186.2 187.3 188.7 191.1 193.9 197.4 201.5 204.2 204.6 205.3 207 212.8 218.8 225.6 232.3 241.2 246.8 249.9 252.1 253.5 253 253.5 254.8 254.6 254.5 254.6 254.9 256.7 258.1 258.5 257.7 254.4 251.6 249.5 248.2 246.3 243.9 241.7 239 236.2 233.5 231.3 229.1 228.2 226.5 224 222.5 220.4 217.9 214.9 211.5 208.8 206.5 204.7 204.5 204.5 203.6 202.7 201.7 196.6 200 198.7 197.1 195.8 193.6 193.9 193.9 193.4 193.1 192 185.2 189 190.2 189.7 188.8 188.5 186.9 185.1
212.6 217.5 220.1 222.4 222.8 223 224 226.4 228.5 230.6 231.4 232.3 233.9 234.9 235.6 238.3 240.9 243.5 246.3 249.3 252.8 255.9 258 257.6 256.6 255.5 252 251.7 251.9 250.5 249.3 245 235.2 229.4 221.4 212.4 207.2 204 200.7 196.4 191.4 188.5 191.6 192.8 194.6 196.7 200.5 203.5 206.2 208.9 211.6 213.1 213.7 217 218.1 215.3 218.2 217.9 214 213.5 214.7 216.1 217.4 217.8 216.2 214.6 212.7 210.5 208.1 203.6 198.1 197.8 196.3 194.9 195.7 192.1 182.3 175.7 174.5 175.4 173.3 172.3 164.5 157.8 160.6 159 155.5 143.1 140.8 142.6 141.8 145.2 153.7 158.6 165.7 181.1 190.9 195.9 202.5 213 224.6 234.7 239.1 241 240.7 240.7 240.1 236.5 233.4 230.6 222.5 216.3 214.3 209.6 209.1 207.7 203.1 196.3 187.6 183.8 186.7 190.3 189.3 189.4 191.1 192.9 195.8 198.7 201.9 206.8 208.7 209.6 211.9 216.1 221.2 227.9 233.2 239.7 247.6 250.3 251.4 251.8 251.4 252.8 254.4 254.3 254.2 254 253.5 254.3 255.9 256.3 256 254 251.5 249.8 248.8 246.9 244.6 242.4 239.7 237 234.8 232.6 231.1 229.8 228.3 227.5 225.5 222.8 220.1 216.7 213.3 210.1 207.8 205.8 205.6 205.4 205.1 203.5 201.2 202.1 201.7 200.3 198.6 196.6 195.1 195.7 195.1 194.6 194.4 192.7 189 191 191.8 191.4 190.7 189.9 188.4 186.7
218.4 219 222.2 224.3 225.7 225.8 226.6 227.7 230.4 233.1 234.7 234.9 236.9 238 238.4 241.2 243.6 245.8 248.9 252.2 255.5 258.3 260.2 259.5 257.8 256.6 252.7 252.2 252.5 251.8 250.2 246.2 238.4 229.3 222.5 214.9 208.6 205.3 202.5 198.8 194.4 190.6 193.7 194.3 196 199 202.1 205.2 208.5 211.9 215.2 221.1 223.8 225.3 221.3 217.1 220.6 221.7 219.3 217.2 217 218 219.6 219.7 219.5 217.8 216.2 215.3 213.1 207 203.8 200.9 199.5 197.5 196.2 193.1 186.4 177.8 174.7 173.5 170.8 165.3 161.5 162.1 163.9 162.2 158.9 156.7 154.9 151 150 146.6 144.5 149.7 159.7 166.6 180.2 192.2 196.7 205.1 215.1 228.5 235.2 236.2 238.8 240.9 240.1 237.3 234.1 231.6 224 217.3 215.5 211.8 210.8 210.8 209.5 204.4 193.3 184.8 185.1 189.1 191.5 191.3 194 195.4 197.5 200.5 202.8 207.9 212 213.8 216.1 216.9 223 228.9 233.6 238 245.5 249.8 250.9 250.4 250.4 251.9 253.3 253.6 253.5 252.8 252 252.6 253.8 254.7 255.3 253.5 251.7 250.1 249.3 247.6 245.4 243.2 241 238.2 236.2 234 233.2 231.7 230.5 230.2 228 225.2 222.1 218.4 215 211.6 209.6 207.7 206.4 206.2 206 204.6 202.8 203.8 203.2 201.9 199.2 197.1 197.9 197.1 196.2 195.8 195.9 194.7 191.3 192.1 193.9 193.3 192.4 191.4 190.3 188.8
220.7 221.4 223.7 226 228.4 229.2 230.1 230.8 231.8 234.7 236.6 238.6 239.6 240.8 241.6 243.7 245.9 248.2 252.4 256.4 258.2 260.1 260.5 260.5 258.6 256.9 252.6 252.8 253.3 252.8 250.7 246.6 238.7 230.7 224.2 216.9 211.1 206.8 204 200.7 194.4 192.3 196.1 199.3 199.9 201.1 204.2 208 211.7 214.8 219.9 230.3 237 228.1 227.4 224.1 223.1 224.6 224.6 223.7 221.7 221.8 221.9 221.9 221.2 219.8 217.9 216.4 214.5 211.1 209.3 205 200.7 196.3 195 192.4 185.7 181 176.7 174.1 171 167 165 166.8 166.1 163 160.9 160.2 158.2 154.9 153.3 152.4 148.5 146 149.6 160.4 165.9 179.5 190.7 198.2 205.6 216.1 227.8 232.5 234.8 238.3 240.3 238.3 235.4 231.8 226.2 218.4 215.2 213 212.4 212.5 212.7 211.4 202.3 189.7 186.1 188.1 192.6 193.4 196.5 198.6 199 202.2 204.2 209.1 214.2 216.6 219.1 221.3 224.4 229.4 233.9 238 242.6 248.3 250.5 250.2 250 250.4 251.8 252.1 251.9 251.1 250.4 251.1 252.2 253.5 254.4 253 251.6 250.5 249.6 248.3 246.1 244.1 242.1 239.5 237.5 235.5 235.2 233.4 233.1 232.8 230.4 227.6 224.3 220.3 216.5 212.5 210.7 208.9 207.5 207.9 207.6 206.4 204.6 205.3 204.2 203.1 199.8 199.2 199.8 198.5 197.2 197.3 197.3 196.5 194.6 191.4 195.8 195.3 194 192.8 192.5 191.1
223.8 224.8 225.5 228.3 230.5 232.8 234 234.2 234.3 236.8 239.7 240.9 242.3 243.4 245.1 246.6 248.3 251.6 255.6 257.8 259.3 260.7 260.4 261 259.4 257.6 253.3 253.8 254.1 253.6 250.7 246.9 239 231.4 224.5 218.6 212.7 208.7 205.7 200.4 196.8 194.8 200.4 204.9 207.5 208 208.5 210.8 214.6 218.6 222.9 231.9 233.9 232.9 234.1 231.2 227.4 229.6 230.3 229.3 227.5 225.7 225.5 224 222.6 221.2 219.7 218.1 217.1 214.3 212 209.7 206 198.4 190.9 187.9 185.4 183.6 181 176.3 172.9 170 169.9 170.2 168 165.4 164.4 162.9 160.6 158.4 155.5 149.6 147.5 146.7 146.6 158.7 162 169.8 181.1 190.3 196.3 208.5 218.4 228.9 230.9 233.8 237.6 238.5 236.7 234.1 228.8 221.3 216.1 216.1 214.7 213.7 215 215.6 208.7 198.6 191.1 190 193.3 195.6 197.6 199.9 201.1 204.6 206.8 210.6 215.2 218.5 221.6 224.3 225.8 229.3 232.6 236.7 241.1 246.6 249.8 249.3 248.6 249.3 250.2 250.4 250.3 249.3 248.9 250 251 252.2 253.5 252.3 251.4 250.8 249.7 248.6 246.4 245 243 240.7 238.8 237 236.6 235.4 235.2 234.7 232.9 229.6 225.3 221.3 217.6 214.2 211.8 209.7 208.7 209.3 209.1 207.4 206.3 206.4 205.1 203 202.7 201.5 200.8 199.5 198.8 198.4 198.4 198.3 197.1 193.3 196.9 197.1 195.6 194.4 194.2 192.7
227.3 229.1 229.3 229.4 232.8 235.4 237.1 237.6 238.4 239.8 242.7 243.4 244.7 246.4 248.4 250 251.9 254.1 257 258.6 260.2 262 261.4 261.6 261.3 260.2 256.8 254.8 254.7 254.3 252.5 247.4 237.5 230.4 223.5 218.8 214.5 210.1 204.7 198.4 195.2 201.1 204.7 208 211.4 212.8 213.7 215.1 217.4 222.3 226.6 230.6 234.9 238.5 239.5 236.6 233.4 234.4 235.7 235 232.8 230.9 229.5 228.3 226.3 222.3 222.8 221.4 220.1 217.4 214.1 211.9 209.2 203.7 195.2 189.5 186.8 184 180.7 179.2 176.6 175 174.1 172.4 171.2 171.2 168.7 166 163 159 156.8 151.8 147.5 145.4 147 150.8 160.6 163.2 170.3 181.4 190.5 199.3 211.1 222.4 227.5 229.6 231.8 236.4 237.2 236.3 233.3 225.4 220 220.9 216 214.4 215.7 217.3 214.5 208.5 198.6 194.5 192.6 195.1 197.8 201.1 202.9 206.8 209.1 211.9 215.6 219.3 222.9 225.9 227.1 229.4 231.5 235 239 243.9 248 247.6 246.8 247.3 248.3 248.6 248.7 247.6 247.3 249.3 251 251.8 252.3 250.9 250.4 249.9 249.5 248.4 246.7 245.7 244.1 242 240.5 238.7 237.7 237.4 237 236.3 234.9 230.8 227.8 224.5 219.7 215.5 212.6 210.2 210 210.3 210.3 208.6 208.6 207.7 206.5 203.5 204.7 203.2 201.9 201.1 200.4 199.7 199.6 199.7 198.8 195.5 198.2 198.4 197.3 196 195.6 194.3
230.3 232.3 232.8 232.4 235.1 237.6 239.6 241.5 242.2 243.7 245.5 246.4 247.5 250.1 251.8 252.9 255.1 257.6 259.3 260.8 262.3 263.2 263.3 264.4 265.1 263 259.7 256.6 256 254.8 253.4 246.6 235.8 229.1 222.9 219 214.8 210.8 202.1 202.7 208.6 205.8 208.8 211.3 214.5 217.4 218.2 220.3 222.6 224.6 228.7 233.9 238.4 241.5 243.7 242.9 240.1 239.7 240.9 239.8 238.1 236.2 234.9 233.2 230.9 227.9 226.3 224 222.3 219.7 216.2 214.2 212.9 206.2 199.7 192.9 188.8 184.9 184.7 183.3 181.1 179.6 177.6 174.9 175.5 174.2 172 169.6 166.7 156.5 155.7 160.6 150.4 149 146.5 148 151.5 156.9 163.7 170.1 180.3 187.9 199.6 213.6 222.9 228.4 229.2 227.9 232.9 236.1 236.5 228.8 223.7 220 216.7 213.5 214.8 216.4 219.6 215 205.2 200.6 194.3 192.1 195.5 200.4 203.8 207.4 211.3 212.8 216.3 219.5 222.7 225.9 227.1 228.8 229.6 231.1 234.7 240.2 244.3 244.3 243.7 244.4 246.6 245.6 245.6 244.9 246.1 248.1 250.2 250.8 250.2 249.1 249.4 248.9 248.9 248.1 247 246 245 243 241.9 240.1 239.5 239.2 238.8 238.2 235.7 233.6 230.3 226.4 221.5 216.5 213.7 211.9 210.7 211.1 211.2 208 209.6 209.1 207.7 206.4 205.9 204.7 203.6 202.8 201.8 201.1 200.8 200.8 200.3 197 199.5 199.9 199.2 198.2 197.1 195.8
233.2 233.1 234.5 235.4 236.9 239.7 241.9 244 245.2 246.3 247.9 248.3 249.8 252.2 254.8 257.2 258.9 261 262.5 263.8 264.8 265.9 266.8 268.1 267.6 265.7 263.2 260.1 256.9 254.6 253.2 243.4 234.3 227.2 221.9 218.5 215.3 208.7 202 210 210.4 209.3 213.2 216 218.8 221.6 223.4 225.4 232 231.5 232 237.3 241.5 244 246.9 247.6 246.9 246.2 246 245 243.8 242.6 240.6 237.9 235.7 233.7 231 227.2 223.9 220.8 217.8 215.3 210 205.3 199.9 194.8 192.4 189.5 187.3 185.4 184.6 184.1 181.2 178.2 178.3 176.7 174.7 172.1 168.7 158.1 161.2 162.9 159.6 150.1 148.9 149.4 149.4 149.2 159.9 163.4 169.1 178.2 187.3 201.8 215.4 225.2 229.2 227.3 227.3 231.7 235 232.9 226.7 219.8 215.6 212.8 213.4 216.9 219.2 216.1 209.6 204.4 196.1 191.7 192.1 195.6 202.7 207.9 210.4 210.3 215.6 217.7 221.4 224.9 226.6 227.3 227.7 228.3 231.2 234.8 240.3 240.2 239.8 240.4 242.3 242.1 241 241.2 244.4 246.9 248.8 249 247.6 247.1 247.3 247.6 248.2 247.5 246.9 246.1 245.3 244.1 243.1 241 240.8 240.6 240.4 239.6 238 235.2 231.9 227.7 222.5 217.9 214.8 212.8 211.9 212 211.6 211 211.2 210.4 208.2 208.6 207.6 206.3 205.4 204.6 203.8 202.8 202.2 202.1 201.4 198 200.7 201.4 201 200 198.7 197.8
235.8 236.4 237 237.4 239 241.7 244 246.3 247.7 248.7 250 251 251.3 252.9 255 257.7 260.1 262.4 264.6 266.1 267.2 269 270.6 270.8 270.1 268.4 265.4 262.6 258.7 254.6 249.5 238.5 232.3 226.7 222 219.3 216.6 205.3 210.9 212.7 212.1 212.8 216.6 219.9 222.9 225.3 228.5 232.6 237.6 236.5 239.7 242.8 245.8 249.7 253.7 254.6 252.9 252.6 252.2 250.7 249.3 248.3 245 242.7 239.3 237.8 235.2 231.9 227.6 222.7 218.9 215.5 208.6 203.7 198.8 196.6 195 193.5 190.6 187.9 186.8 184.5 182.5 181.6 180 179 176.4 172.9 161.1 163.8 165.7 165 162.7 151.7 151.6 151.3 151.4 150.5 150.1 156 161.1 168.4 177.2 188.7 203.5 215.7 225 227.6 226.1 226.9 231.3 232.4 226 219.6 216.5 212.3 211.8 213.8 216.5 215.3 217.2 204.4 197.9 192 191.1 190.9 197.7 205.7 208.2 206.7 211.1 214.5 218.1 222.7 224.6 225.2 225.4 226.3 228.3 231.3 234.1 235.7 235.7 236.3 237.5 237.4 238 238.9 241.6 244.9 246.3 246 245.4 245.1 245.2 245.9 247 247 246.5 245.7 244.9 244.9 244 242.5 242.1 241.9 241.5 240.6 239.5 236.1 233.3 229.5 224.3 219.3 216 213.6 213 213.1 211.8 212.3 212.7 211.4 209.9 209.9 209.3 208.1 207.3 206.5 205.7 204.8 204.4 203.5 201.8 201.5 202.1 202.6 202.8 201.2 200.2 199.5
240.8 240.4 241.1 240.8 242 244.9 247.8 250.2 251.2 252 252.7 252.6 252.6 253.4 255 257 259.3 261.8 264.8 267.3 269.2 271.6 273.1 273.7 272.6 270 267 264.8 260.7 254.9 244.9 237.1 231.5 226.3 222.7 220.6 208.7 207.2 215.2 215.6 214.8 216.5 220 224.1 226.7 229.2 232.1 235.9 237.8 240.2 243.6 246.6 248.9 252.5 256.6 257.9 257.7 257.7 256.7 256.7 256 254.3 252.2 250.3 247.1 241.5 237.6 235.8 235.7 229.1 221.8 216.5 209.2 201.9 200.4 198.3 196.7 195.8 193.9 192.4 191 188.2 185 184 182.2 181 178.2 174.6 166.4 167.2 169 167.8 163.2 161.2 153.1 152.9 153.6 153.1 151.7 149.2 152.3 154 168.5 177.7 189.4 201.4 214.8 223 224 222.2 223.4 226.6 221.5 215.4 222.1 212.5 209.7 209.2 208.6 211 219.7 204.7 196.1 192.3 190.4 186.3 189.6 197.4 201.9 201.1 203.6 209.6 213.5 218.1 222.9 223.3 223.1 224.2 226.2 228.3 230.7 231.6 231.8 232.1 232.8 233.4 234 235.1 237.9 241.6 242.5 241.8 242.2 242.4 243.6 244.4 245.6 246.3 246 245.4 245.1 245.3 244.9 243.1 243 242.9 242 241.6 240.8 237.7 234.9 231.1 225.8 220.8 217.2 214.6 214 213.5 212.6 213.4 214 211.8 212.6 211.9 211.3 210.2 209.3 208.4 207.5 206.7 205.7 204.5 203.1 203.2 202.5 204.5 204.6 202.8 201.9 201.2
244.1 244.7 244.7 244.4 245.3 248.5 252 254.1 255.1 255.6 256.4 256.6 256 256.4 258.1 259.8 263 264 265.8 268.2 271 273.6 275.1 275.8 274.7 271.2 268.7 265.4 259.9 252.1 242.7 236.8 231.3 226.2 223.3 220.5 212.9 213.9 218.9 219 218.3 220.3 224.6 227.8 230.4 233.1 236.3 238.1 241.5 244.1 246.4 250.2 253.2 254.9 259 262 262.7 261.7 260.7 258.9 259.4 259 256.7 254.6 251.4 247.2 244.3 242.2 239.9 234.5 227.4 220.6 212 207 203 199.7 198.6 198.5 198.3 197.7 194.5 189.7 188.4 186.5 184.8 182.8 180 177.1 167.4 171.5 173.6 171.8 168.1 166.4 165.7 163.1 159.9 153.8 151.6 152.2 152.6 153.2 162.2 169.7 178.4 188.9 200.4 209.2 215.8 217.2 214.2 215.6 216.3 209.7 208.4 209.6 209.6 205 200.7 199.2 199.5 203 191.7 186 184.1 182.2 185 188.5 191.7 194.8 198.3 202.1 206.2 212.6 219.4 220.6 220.5 221.8 223.7 225.8 228.2 228.5 228.7 229.1 229.5 230.6 231.1 231.9 234.6 237 237.7 238.1 238.6 238.6 240.2 242.7 244.2 245.6 245.4 245.2 245.6 245.9 245.3 243.8 244 243.9 243.2 242.8 242 239.3 236.3 232.9 227.7 222.1 218.6 215.7 214.8 214.3 213.8 214.3 214.9 214.2 214.3 213.6 213 212.2 211.3 210.4 209.5 208.3 207.2 205.6 205.3 204.7 204.4 206 206.5 205 203.9 202.9
247.5 248.1 248.3 248.3 248.9 251.7 254.8 256.9 258.5 259.6 260.1 261 262.5 263.2 264.2 264.8 267.4 269.2 270.2 271.8 274.3 276.3 276.8 276.7 275.6 272.9 268.8 264 257.6 248.3 241.4 236.7 232.2 227.5 224 220.9 210.9 217.5 221.1 221.6 221.4 224.5 228.7 231.5 234.1 236.8 240.8 240 243.7 247.9 250.6 254.8 256.7 258 261.6 267.3 268.8 268.1 266.3 264 263.6 264 260.5 258.1 256 253 249.9 245.7 242.3 236.5 231.3 226.1 217.7 211.9 207.6 202.9 201.5 201 200.5 199.7 195.3 192.8 191.5 189.3 187.3 184.8 182.6 180.4 168.7 177.5 178.6 176.4 173.5 171.9 169.6 166.9 161.3 161.9 151.5 152.5 153.1 153.8 158.1 164 171.3 180.7 191.9 197.9 202.6 206.7 205.1 205.3 207.4 207 201.7 202.9 211.3 204.4 195.9 189.1 185.3 180.8 177.5 177.2 178.8 180.5 184.4 186.6 189 191.9 196 199.8 203.4 207.4 212.4 216 216.5 218.7 220.9 222.9 225 225.2 225.7 226.3 227.2 228.2 229.2 228.8 230.6 233.1 233 234 234.8 237.7 240.6 243.2 245.2 245.6 245.5 245.4 245.6 246.3 245.7 244.5 244.9 245 244.7 244.2 243.4 240.9 237.8 234.4 229.3 223.3 220.3 217.3 215.8 215.5 215 215.4 215.7 215.3 215.9 215.4 214.7 214 213.1 212.2 211 209.7 208.4 207.4 207.2 206.7 205.5 207 207.9 207.3 206.1 204.7
249.7 250.5 251.5 252 252.6 255 256.7 259.1 261.3 262.8 263.2 263.9 265 266.2 267.2 268.5 270.1 271.4 273.3 275.5 277.4 278.5 278.1 276.6 275.4 271.5 266.9 260.9 254.1 246.7 241.1 236.4 232.3 228.2 224.7 221.9 212.8 217.5 222.2 223.3 224.1 228.3 232.5 235.8 238.8 241.7 246.5 244.4 246.2 250.4 254 257.2 259.2 260.3 261.6 266.6 271.4 273.9 273 269.8 268.2 270.6 266.2 262.2 259.7 257.4 255.1 249.9 245.2 240.8 235.9 229.4 221.4 216.3 210.5 206.6 204.1 202.7 201.6 199.7 197.9 197.5 195.4 192.5 189.5 187.2 184.8 179.2 171.9 181.4 183.8 180.8 179.5 178.4 174.7 168 166.8 165.4 155.3 152.8 152.4 152.4 156.5 159 162.6 170.6 180.1 189.7 196.8 197.9 198.9 199.3 198.8 197.8 194.2 190.9 190.9 185.8 182.3 178.1 176.6 175.6 175.6 176.5 178.1 181.3 183.3 185.5 187.6 189.8 193.9 197.8 201.3 205 208.7 211.6 213.8 215.1 218.4 219.8 221.5 221.7 222.3 224.9 226 226.8 227.7 227.3 228 230.1 230.9 231.7 234.2 237.6 240.6 243.3 245.4 246 245.9 245.9 245.9 246.4 245.8 244.6 245 244.7 245.3 245.4 244.6 242.4 239.3 235.9 230.3 225 221.3 218.3 216.8 216.7 216.2 216.3 216.7 217 217 216.7 216.5 215.8 214.9 213.6 212.4 211.1 209.9 208.8 209.4 208.5 207 208.3 209.1 209.1 208 206.9
250.6 253 255.4 256.1 256.5 258.3 259.5 261.4 262.7 263.8 264.9 265.7 266.8 268.4 269.8 270.7 271.6 272.4 274.9 277.9 279.2 279.6 278.4 277.4 274 269.1 263.5 256.5 249.9 244.2 239.8 236 232.5 228.6 225.4 222.9 220 216.9 221.6 224.5 227.1 231 235.6 239.3 241.9 245.1 247.3 247.7 248.9 253.1 256.8 259.9 264.3 265.9 268.5 272.6 272.2 273.4 274.5 274.8 274.1 274.8 272 267.7 265 263.8 258.9 254.5 249.1 243.6 239.2 233.7 225.1 221.9 215.8 211.5 207.9 205 202.4 200.4 200.5 199.7 197.6 194.6 191.5 189.4 187.3 181.8 173.7 185 187.1 184.9 182.5 183.5 178.6 169.2 172.6 168.7 166.8 163.7 161.5 154.4 154 155 152.8 160.2 167.9 174 185.8 191.3 186.3 188.4 188.8 187 183.1 182 177 173.7 173.6 174.6 174.3 174.6 175 176.7 178.9 181.4 183.7 185.1 186.3 188.8 191.7 195.4 199.2 202.9 207.2 210.7 212 213.4 215.1 216.7 217.9 217.7 219.6 222.4 224.7 225.6 225.9 225.2 227.4 229 229.5 230.8 234.1 237.3 240.6 243.4 245.6 246.4 246.4 246.3 246.4 246.7 245.4 244.7 244.9 245.4 245.9 246.4 245.7 243.9 240.8 237.1 231.9 226.8 223 219.3 217.9 217.7 217.1 217.4 217.9 218.2 218.5 218.2 217.8 217.5 216.4 215.2 214 212.8 210.9 211 210.9 210.1 208.7 209.9 210.4 210.6 209.6 208.5
250.1 253.3 257.3 259.6 260.4 261.7 262.4 262.7 263.1 264.1 265.2 266.2 267.7 269.5 272.6 274.7 275.6 276.8 278.2 279 278.9 279.9 278.7 276.4 271.4 266.4 260.1 253.3 247.2 243.1 238.9 235.1 231.6 228.5 226.2 224 219.5 215.1 222.7 226.3 229.6 233.7 238.4 242 244.8 248.6 251.7 251.9 252.7 255.1 256.9 264.6 270 272.4 273 277.4 280.5 281.1 282.2 280.5 278.4 277.5 274.6 274.3 271.1 264.9 259.2 256.1 252.6 245.9 241.7 238 233.1 227.5 222.4 217.6 212.4 209 203.7 202.7 203.4 201.8 199.8 196.9 194.4 193.3 189.8 186 178.6 188.6 189.5 187.8 186.5 184.3 181.2 174.2 176.7 172.8 170.2 166.7 163.2 156.4 156.1 157.1 158 157.6 153.4 158.5 165.1 165.3 162.9 164.5 166 164.9 163.5 163.8 164.5 168.7 171.5 173.1 173.9 175.1 176.1 178 179.9 181.8 182.9 184 185.1 187.8 190.6 193.7 198 202.9 207.2 210.7 212 212.7 213.3 213.9 214.8 215 216.8 219.8 222.9 224.9 225.5 224.2 227.9 229.5 230.3 232.2 235.4 237.9 240.5 243.3 245.5 246.2 246.8 246.8 246.9 247 244.9 245 245.4 245.7 246.4 246.9 247 245.5 242.6 238.7 233.6 229 224.6 221.5 219.4 218.4 217.9 218.3 218.8 219.3 219.8 219.7 219.4 219.2 218.3 217 215.8 214.6 212.5 213 211.9 211 210.2 211.5 211.5 212 211.1 209.8
252 255.6 256.9 259.9 262.8 263.8 264.9 264.5 264.6 265.5 266.4 267.9 269.2 270.8 273.7 276.1 278.3 280 280.8 280 279.6 280.1 278.2 274.3 269.2 264.1 257.6 251.7 246.4 242.1 238.2 235 231.9 229.7 227.5 225 223.9 225.7 221.6 227.2 231.2 235.4 240.6 244.4 247.2 250.3 253.2 254.3 256.1 258 257.4 264.4 272.2 276.3 279.5 281.5 285.6 287.6 287.1 285.6 280.6 281.4 278.6 276.9 272.8 266.7 262.9 258.4 253.7 247.9 243.6 240.3 236.1 230.8 226.6 223.9 218.2 211.8 207.5 205.7 204.7 203.6 202.2 197.6 198.4 196.5 193.4 183.7 186.1 190.3 191.2 191.3 190.1 188.7 182 182.6 181.8 177.6 173.4 170.5 167.7 164.9 164.3 160.5 162.4 163 161.8 155.4 156 157.3 156.9 159.8 160.2 159.2 161.2 162.1 163 160.6 160.5 169 173.4 174.9 175.9 177.2 179.2 180.8 181.4 182.3 183.5 185.6 188.4 191.9 196 201.6 206.8 210.5 211.4 212 212.1 211.9 212 212.7 214.7 217.5 220.5 223.2 224.1 224.5 228.4 229.6 230.5 233 235.7 237.8 240.2 242.9 244.7 245.9 246.5 247.1 247.2 247.1 245.1 245.6 245.7 245.9 246.7 247.4 247.8 247 244.6 240.4 236 231.4 226.8 223.4 220.9 219.7 218.9 219.3 219.7 220.2 220.6 220.7 220.8 220.9 220.1 218.9 217.6 215.4 214.7 214.7 213.6 212.6 212.1 212.8 212.8 213.2 212.6 211.3
252.3 256.4 257.7 260 261.9 263.4 265.4 266.1 266.2 267.1 268.5 270 271 272.1 273.9 276.2 279 281.2 282.1 281.2 280.8 280.6 278 273.7 268 262.3 256.5 251.1 246 241.6 238.3 234.9 233.1 231.2 229 221.7 226.7 227.5 226.2 228.1 232.8 237.2 241.9 245.8 249.5 252.4 254.7 256.7 259.3 261.3 262.3 265.3 269.9 276.5 281.5 286.2 290.1 293.3 294.7 294.3 288.9 284.9 281.4 278.3 274.5 269.8 265.5 261.1 254.5 247.6 243.9 240.8 236.3 232.2 227.1 223.6 221 216.3 212 208.5 206.1 205 202.7 201.9 201.1 199.7 192.4 186.9 192.6 192.8 192.6 193 193.3 191.8 180.3 188.6 186.9 182.2 177.9 175.7 173.3 170.6 166.2 164.8 163.2 162.9 164.4 165.6 168.8 172.1 171.1 160.3 159.5 160.9 161.6 162.6 163.9 163.5 163.4 165.1 166.4 170.2 172.8 176 178 179.3 179.9 180.7 182.1 183.7 186.8 190.3 194.8 200.6 206 209.8 211.3 211.4 210.9 210.4 210.8 211.3 212.7 215.5 218.1 220.9 218.8 225.2 228.5 229.7 230.6 233.3 235.8 237.8 239.9 241.7 243.3 244.9 246.2 246.8 247.3 247.1 245.3 246 245.9 246.2 246.9 247.6 248.3 247.9 246.2 242.3 238.4 233.8 229.3 225.1 222.5 221 220 220.4 220.7 221.1 221.5 222 222.4 222.7 222.1 221 219.2 218.5 217.5 216.4 215.4 214.4 214.5 214 214.6 214.7 214.3 209.9
251.8 256.8 259 261.3 263.1 264.5 266.4 267.6 269.1 270.3 271.8 273.3 273.9 274.6 275.4 277.4 280.4 280.9 281.3 281.3 281.2 280.3 277.9 274 268.5 263 257.3 251.5 245.9 241.6 238 234.4 232.6 231.5 229.8 223.8 229.2 230 231.3 229.3 234.4 239.4 243 246.6 250.3 253.6 255.7 258 261.5 264.8 267.6 270.2 272.8 277.1 282 287.6 292.8 297.2 299.2 298.6 295.1 288.9 285.3 280.5 276.2 270.7 267.2 263 257.8 248.4 245 242.7 238.4 234.5 230.1 226.1 222.5 218.5 214.4 210.5 208.8 206.7 203.5 204.5 204.3 200.9 185.8 194.3 195.3 194.5 194.7 194.9 195.1 194.9 187.2 193.6 191.4 187 183.5 180.5 177.4 174.8 173 170.6 167.5 167.2 167.3 168.4 171.5 176.2 178.7 178.8 176.5 175.8 172.7 171.8 167.8 164.9 163.4 165.6 165.8 168.2 169.2 170.6 174.6 177.1 178 179.1 180.8 182.3 185.2 188.7 193.6 198.9 204.4 208.6 210.6 210.5 210.1 210 210.3 210.7 211.7 213.4 214.5 214.5 221.4 225.1 228.7 229.8 230.7 232.3 234.1 236.2 238.2 240.1 241.6 243.2 245.1 246.5 247.1 247 245.3 246.3 246.3 246.4 247 247.6 248.3 248.5 247 244.2 240.4 236.3 231.2 227.3 224.5 223.2 221.3 221.7 222.4 223 222.9 223.6 224.1 224.4 223.8 222.8 221.3 220.6 219.6 218.7 217.4 216.2 216.1 214.9 215.6 215.8 215.1 210.1
252.9 257 260 263 264.9 266.5 269.2 270.2 271.2 272.6 275.4 278.1 278.2 278.7 278.7 279.4 280.5 280.9 280.9 280.8 280.6 280.1 277.2 273.4 269.4 263.6 257.1 250.8 245.3 241.2 237.4 233.9 231.2 229.1 229.4 228.4 231.3 232.3 234.2 232.6 237.6 252.5 246 247.9 251.4 254.5 256.9 259.2 262.9 266.5 269.5 273.1 276.1 279.8 284.5 289.7 295 299.5 302 300.9 298.3 293.4 287.8 282.7 277.3 273.3 268.2 264.2 257.5 250.8 247.1 243.8 240.6 236.8 232 226.7 221.7 218.5 216.5 214.3 212.3 209.6 206.5 205.9 205.4 197.3 194.2 201.2 199.8 197.3 197.1 197 196.6 193.9 195.6 197.3 196 192.5 188.1 184.9 181.7 178.8 177.3 175.8 173.2 171.9 171.9 171.3 171.9 175.2 176.7 178 179 177 176.4 176.8 175.9 173.9 163.8 165.1 165.9 167.8 169.2 170.2 171.5 174.7 176.1 177.4 179.4 181.5 184 187.4 191.2 196.5 202.2 206.8 208.8 208.9 208.4 209.3 209.8 210.3 210.9 212 213.9 217.2 221 224.7 228.3 230 230.3 230.7 232.5 234.5 236.5 238.5 240 241.5 243.5 245.6 246.6 246.4 245.9 246.9 246.6 246.4 246.9 247.6 248.3 249 247.9 245.1 241.4 238.4 233.3 229.3 226.3 224.6 222.9 223.1 224 224.3 224.3 224.8 225.4 225.6 225.7 224 224 222.8 221.7 221 219.6 218 217.4 216.4 216.5 216.7 213.9 213.4
252.4 256 260 263.7 266.7 268.4 270.4 270.5 270 271.2 274.8 275.1 274.9 276.7 278.6 279.6 280.6 281.7 281.3 280.5 280.3 279.4 275.8 271.9 268 262.2 256.1 250.3 244.7 240.7 236.6 233.4 230.5 232.3 231.8 232.6 233.9 235 243 238.3 239.6 249.2 249.4 251.1 253.7 255 257.8 259.9 263.5 266.8 269.9 273.2 276.7 280.7 285.9 291.7 298 302.5 304.2 303.4 301.5 295.9 289.2 284.3 280.5 276 270.3 265.4 259.3 256.1 250.3 245.7 242 238 233.2 229.4 225.6 222.1 219.7 216.8 213.3 211.1 209.2 207.3 205.5 196.8 198.9 204.9 204.4 201.8 199.3 198.3 197.8 192.4 198.5 200.3 200.2 197.6 193.8 188.8 186 183.2 179.6 178.6 176.3 176.1 175 174.6 174.5 175.6 177.1 178.8 179.6 179.6 180.4 178.9 176.8 175.4 164.6 165.4 165.4 167.1 169.1 170.2 171.6 172.9 174.8 177 179.1 181.2 183.5 185.6 188.8 193 197.7 202.4 203.6 203.8 207.6 208.9 209.9 209.7 209.5 210.1 212.7 216.1 219.5 223.6 227.5 229.7 229.7 229.7 230.9 232.7 234.5 237 238.7 240.5 242.4 244.3 246.1 246 246.7 247.5 247.2 247 246.9 247.7 248.5 249.2 248.7 246.3 243.1 240.3 235.9 231.7 228.4 226.5 224.7 225.1 225.7 225.7 225.7 225.9 226.5 227 227.1 226.5 226.6 225.1 224.1 223 221.5 220 218.9 218.2 218 218 212.2 217.5
251.4 255.2 260.1 265.5 270.3 273 276.5 277.5 275.4 272.5 273.9 276.3 276.7 276.6 278.5 280.6 282.4 283.1 282 281.2 280 276.4 273 270 266.1 260.2 254.2 248.7 243.7 238.8 236.4 234 233.7 233.7 233.3 234.6 236.5 238.7 248.7 249.5 242.2 245.4 251.8 254.6 256.4 256.7 258.2 260.7 263.7 266.7 270.5 274.5 277.9 281.5 286.5 291.9 298.8 303.9 305.8 305.4 302.8 297 291 287 282.5 277.7 273.3 268.4 264.6 260.2 255 249.4 244.9 240.8 235.5 231 227.3 223.8 221.6 217.9 214.5 212.9 211.5 210.4 207.4 201.3 193.8 207.3 207.1 206.1 203.1 201.1 199.2 195.2 200.3 202.5 202.9 202.2 199.1 195.1 189.1 186.4 183.6 180.5 179.6 179.4 178.2 177.7 177.9 178.5 178.3 179.1 180.1 180.7 180.8 178.9 176.8 175.6 175.5 169.6 165.3 165.3 166 168.3 170.9 172.4 174.5 176.8 178.9 181.7 183.2 184.8 187.5 190.1 193.4 194.6 201.6 206.4 209.1 209.8 210 209.5 208.5 209.7 212.3 215 218.4 221.8 226.5 229.2 229.2 229.3 230 231.1 233 235.6 237.6 239.4 241.3 243.2 245 246.3 247.5 248.2 248.1 247.3 246.6 247.5 249.1 249.6 249.4 247.3 244.9 242.4 238.4 234.7 231 229.1 227.2 227.2 227.1 227 226.6 227 228.7 229.3 228.3 228.4 228.3 227.4 226.1 224.8 223.5 222.1 220.8 220 219.6 218.3 213.8 219.8
250.8 255.1 260.2 265.7 270.7 275.1 278.8 280.5 280.7 279.5 281 281.5 280.2 279.3 277.6 279.1 281.9 281.9 280.1 278.7 274 270.5 268.6 266.4 263.1 255.7 249.4 245.1 241.6 239.3 236.9 235.2 234.6 234.9 235.4 237.1 247.9 249.9 254.4 255.5 250.9 244.9 249.1 252.9 255.2 256.5 258.8 261.7 263.9 267 270.7 274.4 278.2 282.1 286.7 292.8 298.6 303.2 306.2 306.5 303.8 297.1 290.3 287.6 283.7 279.5 276.5 272.2 268.7 264.3 260 255.9 251.6 245.5 238.6 234.6 229.9 226.4 222.8 219.3 217.2 215.8 214.3 212.8 210.1 201.8 199.7 209.4 210.2 209.4 207.9 206.4 202.5 199.7 201.2 203.1 205.1 204.9 202.9 200 196.4 190.3 185.9 183.6 183 183 181.6 180.7 180.1 180.6 180.7 181.1 180.7 180.7 179.8 179.1 179.1 178.4 178 175.7 173.9 167.3 167.1 166 169.1 171.8 174.4 177 179.7 181.5 183 184.5 186.8 188.6 191.1 195.2 201.1 205.8 208.9 209.7 209.5 209.1 208.4 209.4 212 214.3 216.7 219.9 225.1 228.2 228.8 229.1 229.5 231 233.1 235.5 237.9 239 240.3 241.9 243.5 244.9 246.6 248.7 248.2 247.5 246.8 248.1 248.8 249.4 249 248 246.4 244.4 240.1 236.7 233.5 231.1 229.4 228.6 228.4 228.8 228.2 227.9 229 230.3 231.1 230.2 230 229.5 228.2 226.9 225.6 224.3 223.1 222.2 221 220 215.3 220.7
250.8 254.8 260.4 266 270.5 275.3 278.2 279.4 280 279.5 279.6 278.5 278.9 279.2 277.1 278.2 281.6 278.9 276.2 273 266.1 263.9 262.5 261.2 257.9 250.9 245.9 243 241.3 239.7 237.9 236.9 236.5 237.2 237.7 239.4 252.4 253.9 254.9 251.5 253.6 250.9 249.7 254.6 256.9 258.4 260.5 261.9 267.2 266.8 270.5 274.4 278.3 282.1 286.4 291.3 296.9 301.8 304.6 306.5 302.9 295.8 290.1 287.4 284.6 281.1 278.5 276.3 272.6 268.8 264.5 260.9 256.9 251.1 244.4 238.7 232.5 228.3 224.5 221.7 220.2 218.7 217.1 215.4 212.5 204.2 205.7 211.3 211.9 211.8 211.2 210.9 208 203.9 201.3 203.9 206.5 207.8 206.3 204.3 201.8 197.7 190.5 187.6 186.9 186.3 185.3 184.3 183.3 182.9 183 183.1 182.5 181.7 181 180.8 180.8 180.9 181.7 179.4 180.1 173 167.2 165.3 169.1 171.5 173.9 177.8 179.7 181.2 182.6 183.9 185.8 188.2 190.6 194.1 199.7 204.6 208.4 209.9 209.2 208.7 207.7 208.6 210.4 212.5 214.5 218 222.8 226.6 227.3 228.1 229.5 231.5 233.5 235.9 237.9 239.1 239.8 240.8 242.1 243.7 246.6 249 248.7 248 247.5 247.5 248.3 248.9 249.7 248.8 247.9 245.6 242.7 239.3 234.9 234 231.3 230.7 230.5 230.7 229.8 229 230.2 231.7 232.6 231.8 231.8 231.4 230.4 229 227.7 226.4 225.2 223.9 222.5 222 217.1 221.6
250.1 254.9 260.8 266 269.9 273.6 276.9 278 278.5 279.1 280.3 279.4 278.4 277.3 275.5 276.5 279.9 277.1 271.5 265.6 260.1 257.6 255.3 253.4 250.6 248.2 245.3 243.8 242.5 241.6 240.4 238.8 238.9 240.5 240.5 241.4 245.4 253.1 255.2 255.9 256 256.8 252.1 255.1 257.8 258.9 260.6 263.9 268.8 268 270.2 274.5 278.4 282 286.4 290.6 295.3 299.1 301 301.7 300.6 296.4 290.9 287.7 286.1 283.2 281.6 279.9 276.3 271.5 268.9 265.9 260.9 257.6 249.5 242.1 235.8 229.8 227.1 224.6 222.2 220.8 219.4 217.8 216.1 207.8 208.2 212.8 213.8 213.4 214.3 214.3 212.7 209.6 204.9 205.5 208 210.1 210.3 208.6 206.9 202.9 197.8 192.5 190.5 189.5 188.6 187.7 186.8 185.9 185.6 185 184.4 183.7 183.4 183.9 184.1 184.5 184.3 183 178.6 174.6 170.3 165.3 168.9 170.6 173.4 176.8 178.5 179.9 181.3 182.9 185.8 188.3 190.7 193.6 198.8 203.6 207 209.7 209.6 207.7 206.3 207.2 208.5 210 212 215.2 217.7 220.2 226.2 228.7 230.1 232 233.9 236.2 238 239.2 239.8 241.1 242.3 243.9 247.6 249.3 249.1 248.7 248.4 248.4 248.4 248.5 249.4 249.4 248.5 246.9 244 241.2 238 236.6 233.9 232.8 232.6 232.3 231.3 230.3 231.6 233.2 233.8 233.7 233.9 233.2 232.6 231.2 229.9 228.7 227 225.7 224.2 221.9 218.9 221.2
250.4 255.6 261.8 265.3 269.6 273 276.5 279.2 281.9 283.3 282.7 281.1 277.8 274.9 273 272.2 277.8 275 269 262.7 258.3 255.7 254.1 253.5 255 250.9 248.9 249 246.3 245.2 243.4 241.4 241 242.5 243.5 244.2 252.8 255.1 254.8 256.6 257.2 258.6 261.6 254.3 257.1 259.5 261.6 264.9 270.5 269.9 271 274 278.4 282 286.5 291.2 296 298.5 300.3 301.1 300.4 297.9 295.1 290.1 287.9 286.6 284.4 282.8 280.3 274 274.7 272.2 267.1 262.2 254.8 246.6 239.7 231.8 229.4 227.5 224.7 222.9 221.6 220.4 218.6 213 211.3 215.7 215.9 215.8 217.1 217.4 216.2 213.5 207.7 208.1 209.2 211.2 212.6 212.4 210.3 207.6 204.4 198.9 194.2 192.8 192.2 191.1 189.8 189.2 189.2 187.1 185.5 185.1 186.5 187.3 187.5 187.3 187.2 186.5 182.5 177.3 171.7 166.8 168.8 170.1 171.8 174.3 176.4 178.1 180.2 183.1 186.1 188.5 190.9 193.5 198.2 201.9 205.4 208.6 209.6 207.3 204.8 205.6 206.8 208.2 212.1 214.1 218.1 222.4 226.9 229 230.8 232.7 234.4 236.2 238.1 239.4 240.4 241.6 242.9 244.4 248.3 249.7 249.6 249.6 249.4 249.5 249.6 249.5 249.2 249.4 249.7 248.1 245.7 242.9 240.8 239.1 236.4 235 235 234.2 232.5 231.9 232.9 234.5 235.5 235.7 235.8 235.4 234.6 233.5 232.3 231 229 227.6 226.1 224.8 220.8 223
251.2 258.5 264.8 268.1 270.7 273.7 277.2 280.4 284.7 284.6 281.9 279.7 277.5 276.5 277.4 275.9 270 268.2 263.9 262.7 258.8 257.2 259.1 256.4 256.2 255.1 256.2 254.5 251.5 250.4 249.8 247.7 244.6 244.5 245.6 246.8 250.8 256.1 255.4 257.2 259 258.9 259.8 258.8 259.6 260.6 262.1 264.9 269.9 272.1 272.2 275 278.4 282 287.8 292.8 296.4 299.1 300.2 301.3 300.9 299.7 296 292.3 290.6 289.6 287.8 284.6 282.9 279.4 277.5 277 273.5 267.2 261.7 253.3 249 240.8 231.6 229.3 227.3 226.1 225 223.7 220.5 214.9 209.9 218.4 218.5 218.3 219.2 220 219.8 217.7 212 212.1 212.3 211.7 212.3 211.9 211.7 210.1 207.8 203.8 198.1 195.9 194.7 193.7 193.8 193.3 191.5 189.4 187.2 187.3 188.8 190.2 190.1 190.1 190 189.4 188.7 181.9 174.9 169.2 168.8 169.5 171.8 173.7 174.2 177.8 180.6 183.6 186.9 189.3 191.1 193.7 197.1 200.7 203.9 206.9 208.2 206.5 203.9 203.9 206.2 208.3 210.7 213.2 215.9 220.4 225.4 228 230.4 232.5 234.2 236.3 238.3 239.6 240.9 242.1 243.3 245.1 248.6 251.2 251.5 250.8 250.7 250.7 250.8 250.6 250.2 250.5 251 249.6 247.3 244.5 243.2 241.4 238.3 237.1 237.4 236.3 234.8 233.7 234 235.6 236.9 237.2 237.5 237.1 236.5 235.7 234.5 233.1 231.3 229.2 227.9 227.1 222.5 227.3
251.9 258.9 266.2 271.4 274.4 275.8 278 280.4 283.4 284.3 283.1 281.5 279.8 279.6 281 277.5 273.3 271.8 269 268.7 263.6 260.9 267.6 261.4 261.6 260.3 261 259.4 256.5 255.4 254.1 252.8 253 247.6 248.7 250.4 251.8 257.4 259.3 259.7 262.3 266.6 265.8 262 262.8 263.4 262.3 265 267.1 272.4 273.7 276.1 278.2 282.5 287.1 292.7 296.9 299.6 300.7 301.8 302 300.7 297.8 295.2 293.3 293.1 290.7 287.3 286.1 284.4 282.8 278.3 273.3 272.5 267.8 260.8 254.9 245.5 238.3 231.4 230.1 229.2 228.3 226.1 222.5 221.4 215 221.5 221.3 220.9 221.1 221.9 222.1 220.1 219.1 217 215.9 214.4 212.7 212.6 212.4 212.1 210.8 207.6 203.8 200.5 197.3 196.2 195.7 196.1 193.9 191.9 190.1 189.7 191.8 192.3 191.9 191.6 191.9 191.9 190.9 187.8 180.8 171.2 169 169.8 171.8 172.3 172.2 173.5 177.6 179.8 184.5 189.1 191.5 193.8 196.5 198.6 201.7 204.1 206.7 205.3 203 203.2 205.5 207.8 210 211.8 214.5 219 223.7 226.9 229.5 232 234.1 236.1 238.1 239.7 241.1 242.5 243.7 245.9 249.3 251.6 252.3 252 252.3 252.4 252 251.4 251.1 251.9 252.5 250.7 248.6 245.9 246.1 243.1 240.3 239.5 239.6 238.3 236.9 235.4 235.2 236.9 238.3 238.5 239.1 238.7 238.4 237.8 236.9 235.2 233.4 231.3 229.9 228.8 224.5 228.4
252.7 259.4 266.5 272.3 277.6 279.1 279.2 281.1 283.4 285 287.6 284.9 285.6 284.3 283.5 280.7 280.1 280.1 278.6 277 272.1 268.3 272.8 268.6 270.7 268.3 265 263.3 261.6 260.4 258.9 257.5 255.2 252.5 252 253.1 254.7 257.9 259.2 260.5 261.8 263.1 265.1 266 266.7 267.4 267.2 268.1 267.2 270.5 272.6 273.4 277.2 281.6 285.8 290.9 296.6 299.8 301.4 302.4 302.7 302.1 299.1 298.7 295.3 294.9 292.8 290.4 289.6 288.3 286.2 282.1 278.2 275.2 271.9 267 259.7 251.4 243.8 236.7 235.7 233.6 228.4 227.6 226.1 225.3 220.8 224.4 224.1 223.6 223.8 224.5 224.2 220.8 223.1 222.1 220.1 217.1 215 213.9 213.8 213.8 213.6 210.9 209.6 206.4 202.4 198.9 198.1 198.2 198.3 194.7 193.5 194.2 193.9 194.3 193.9 194.2 193.8 192.9 191.4 189.9 185.4 176.1 169.3 169.6 170.1 170.9 171.9 172.9 174 176.6 177.3 181.3 190.7 193.5 193.5 194.8 198.9 202.6 205.1 203.9 199.6 203.3 205.4 207.3 208.9 210.2 212.2 216.5 221.7 225.5 227.9 230.4 232.7 235 237.3 239.4 240.7 242.1 243.6 245.8 248.7 251.6 252.8 253.3 254.1 254.1 253.4 252.7 252.7 253.7 253.8 251.7 249.7 246.5 247.9 245.1 242 242 242.2 240.4 238.1 236.9 236.4 238.3 239.7 240 240.8 240.4 240.6 240.2 239 237.2 235.3 233.1 231.8 230.6 226.9 230.1
255 261.1 266.9 272.5 278.2 284 283.8 284.2 286.4 289.2 292.6 292.2 292.8 292.3 293.2 292.8 291.9 290.4 289.4 287.6 283.6 280.1 278.7 275.3 275.6 274.6 270.4 268.6 267.4 266.6 264.4 262 260 258.2 256.5 256.6 257.4 260.5 262 263.2 264.4 266.2 268.3 269.4 269.5 270.3 271.5 272.6 271.8 269 269.9 271.4 274.2 280.7 285.6 290.6 296.6 299.8 301.9 302.8 303.4 303 301.4 300.1 298.1 296.8 295.1 293.8 293.2 291.6 289 286.9 284.4 280.7 276.6 271.5 265.4 256.9 248.5 244.5 240 235.8 234.3 232.6 230.7 229.3 225.9 229.3 228 226.3 226.4 226.4 226.4 223.6 224.6 225.2 223.9 221.3 217.8 215.5 215 215.2 215.5 215.2 214.1 211.3 206.9 202.5 201.8 201.2 201.5 197.7 197.4 197.2 196.4 196.3 196.6 196.7 195.7 194.5 193.2 191.4 189 182.8 172.2 170 169.5 169.6 176.9 177.2 173.2 173 174.8 178.8 177.4 182.6 184.4 190.4 195.7 200 203.6 202.9 197 203.3 205.1 206.5 208.3 209.7 211.4 215.2 219.5 223.6 226.5 228.8 231.1 232.9 235.7 238 239.9 242 243.2 245.2 248.1 250.9 252.6 254 255.6 254.9 254.5 254.1 254.1 255.4 254.8 252.7 250.5 248.8 249.4 246.7 243.9 244.3 244.7 242.6 239.7 237.7 238.1 239.9 241.1 241.7 242.4 242.7 242.9 243.7 242.1 239.5 237.1 235.2 233.8 232.8 228.5 231.3
258 263.5 271.2 275.5 280.2 286 290.8 288.9 292 294.6 295.3 298.7 299.7 302.8 304.7 304 302.6 303 300.9 300.8 298.8 294.8 288.4 282.6 282.2 281 276.7 275.1 274.2 272.4 271 267.3 265.4 263.7 262.6 260.9 259.9 266.9 267.8 269 270.7 272.4 273.8 273.9 273.8 274.6 274.2 275.3 276.1 276.6 276.1 277.4 278.8 279.3 285.6 291.9 296.4 299.3 301.9 303.1 304.2 304 303.2 301.9 300.6 299.6 297.5 295.8 295.4 294.5 291.7 291.2 288.5 284.4 279.8 274.6 267.8 261.7 256.6 250.3 245.5 240.1 240.2 238.1 235.9 230.6 231.3 232.8 231.4 229.3 228.6 228.5 228.5 227.8 228.2 228.4 226.9 225.5 221.5 219.7 217.3 216.9 217.8 218.7 217.8 215.3 211.1 207.4 205.1 204.2 203.2 199.4 199.4 199.9 199.2 198.6 199.4 199.1 197.9 196.4 194.6 192.8 190.1 185.7 174.3 171.5 171.5 171.5 176.9 177.7 179.1 177.5 182.3 182.2 182.3 180.7 179.7 183.2 188.7 197 202.2 198.8 199.7 202.9 204.1 205.7 207.5 209.2 210.2 213.4 217.3 221.4 225.1 226.8 228.8 231.7 234.6 236.7 239.7 241.9 242.6 244.9 247.3 248.9 251.2 254 255.9 255.7 255.3 254.9 255.6 257 255.5 253.1 251.3 250.6 250.6 248.1 245.9 247.1 247.4 244.8 241.3 238.9 239.5 241.5 242.8 243.5 244.1 244.2 244.5 245.7 244.4 241.8 239.4 237.4 235.7 234.4 232 230.6
261.6 266.2 273.8 278.3 281.6 286.4 290.9 298.4 299.1 300 300.7 304.7 309.6 312.4 314.3 316.1 316.5 316.5 314.7 313.8 311.7 306.7 300.8 296.5 291.7 288.3 285.5 282.2 280.6 279 277.6 276 272.6 270.1 268.2 265.1 264 268.8 272.2 274.9 276.6 279.2 279.6 279.8 279.5 279.2 279.3 278.8 279.1 279.5 280.1 281.4 280.2 279.4 284.9 290.5 295.2 298.3 301.1 303.2 304.5 304.9 304.7 304.1 302.9 301.7 300.2 298.6 298.3 296.5 294.2 295.1 291.4 286.7 281.5 274.3 269 264.2 258.6 253.3 245.6 244.7 245.4 242.7 239.4 237.6 235.9 235.3 237.5 233.2 232.3 230.9 230.8 230.3 231.5 231.4 230 227.4 226.2 224.4 220.8 218.3 219.9 220.9 220.4 218.3 214.6 211.1 208.2 207.2 205.8 203.5 201.9 202.6 201.7 201.7 202.3 201.9 200 197.8 196 194 190.7 187.5 178.7 172.1 171.3 170.9 172 177.8 180.1 181.9 185.3 188 189.7 192.2 195.8 187.2 179.5 187.9 191.8 197.3 200.4 201.9 203.2 204.8 206.6 207.9 209.1 211.8 215.5 219.4 222.4 224.7 227.5 230.5 233.6 236.7 239.7 241.8 242 243.5 244.8 246.6 249.3 252.8 255.4 255.8 255.8 255.7 257.1 258.6 256 254 252.3 252.6 253.1 250.6 248.1 250.2 251.1 247.4 243.5 240.6 240.9 242.3 244.1 245.3 245.8 246.1 246.4 246.7 247 244.2 241.7 239.6 237.5 235.8 233.7 230
268 272.3 277.5 281.1 284.4 289.2 293.2 301.9 308.8 310.8 312.9 313.5 318.7 320.8 324.8 327.2 329.7 329.3 329 326.8 324.1 321.9 315.2 308.5 301.3 297.3 293.5 291.2 289.6 286.3 284.5 282.9 280.5 278.3 275.5 271.5 268.4 272.6 275.9 278.9 282.6 284.7 285.3 285.5 285.3 285.5 284.7 283.4 283 282.5 283.2 283.8 284.2 278.9 282.2 287 291.5 295.1 297.9 302.8 304.5 305.7 305.5 305.4 305 303.8 303 301.8 300.1 299.6 297.9 297.5 294.1 287.8 282.5 277.1 270.1 265.3 260.1 256.8 251 247.5 247.8 246.6 240.7 241.4 238.3 239.4 241.7 238.7 235.9 234.1 232.2 232 233.7 233.5 231.7 230.3 230.7 229.5 226.4 221.4 222 223.2 222.5 220.2 216.7 213.3 211.1 210.1 208.6 206.7 204.8 205.4 204.9 205.1 204.7 204.3 202.2 200.1 198 194.9 190.6 185.9 180.3 173.4 172 171.5 171.8 177.9 179.8 182 185 188 191.2 194.1 196.9 196.3 192.9 186.2 192.5 199.1 194.3 195 196.5 201 204.2 206.3 207.6 209.5 213 217.2 220.7 223.5 226.5 229.6 233.3 236.5 239.7 241.4 241.3 242.3 243.2 244.6 247.5 251.2 253.5 253.8 255.3 255.6 257.9 260.2 257.3 255.2 254.2 255 255.2 252.1 250.5 253.3 254.1 250.5 246 242.7 242.6 244.4 245.6 247 247.9 248.3 248.5 248.8 249 246.9 243.9 241.6 239.5 237.4 236.9 232.7
277.4 280.3 282.9 285.1 287.6 292.5 297 303.8 313.4 317.8 321.9 320.7 324 328.9 332.8 337.7 338.4 340.7 341.2 339.6 337.4 335.5 330.8 321.3 311.7 306.7 301.5 299.3 298.2 295 292.6 291 287.6 285.4 283.6 279.3 275.3 275.6 282 285.9 290.4 292.8 292 292 292.1 291.4 290.5 289.1 288 287.1 287 287.5 288.2 289.1 285.3 284.6 287.4 291 295.6 300.7 304.1 305.7 306.3 306.2 306.2 305.8 305.3 304.3 303.7 302.6 301.5 299.7 296.7 291 285.7 280 272.5 267.6 263.1 259.6 255.5 250.7 251.7 248.8 245.9 245.3 241.8 246.1 244.8 241.2 238.5 236.5 234.3 233.6 235.2 235.1 233.6 232.8 234.1 233.8 230.5 225.8 224.8 225.8 224.8 222.2 219.1 216.3 214.3 213.1 211.2 208.8 207.7 208 208 207.3 206.9 206.3 203.8 201.7 198.4 196.4 190.1 183.8 179.8 175.7 172.6 171.6 171.2 173.3 179.1 181.8 184.7 188 191.3 194.3 197.4 197.9 197.7 198.4 186 190.7 188.6 189.4 191.3 190 194.8 198.5 205.4 208.6 212 216.7 220.2 222.9 225.7 229 232.9 236.2 239.5 240.6 240.6 241.6 242 243 246.3 250 251.2 250.7 252.1 254.8 257.8 260.7 258.3 257.1 256.4 257.2 257.3 254.2 254.1 256.3 257.6 254 249 245.3 244.6 246.5 248.1 248.9 249.8 250.6 251 251.3 251.5 249.5 246.1 243.7 241.3 239.2 239.2 234.9
286.4 289.3 290.8 293.4 295.5 298 300.2 306 315 319.3 328.2 331.2 330.9 336.2 338.8 344.5 349.2 350.8 351 350.3 348.3 347.9 343.5 336.5 327.2 320.3 313.5 310.2 306.9 305.3 303.7 300.9 296.9 293.7 291.3 288.5 282.5 283.7 291.2 296.4 302.9 305.5 303.6 300.4 297.9 297.3 296.5 296 294.8 292.7 292.3 291.9 292 292.9 293.6 292 290.3 289.3 292.3 297.5 302.3 305.1 306.5 307 307.3 307.1 307.2 306.9 306.7 306.2 304.8 302.4 299.7 295.2 288.6 283.5 275.9 270.4 266 261.9 258.9 253.3 255.4 253.3 247.1 250.3 243.4 250.9 249 245.4 241.5 239.1 237.1 234.8 236.2 236.7 235.8 235.4 237.2 237.6 235.5 232.1 228.4 228.5 227.6 225.1 222.5 219.8 217.4 215.6 213.1 210.7 210.3 210.6 210.1 209.5 208.8 207.7 206.6 203.4 199.6 194.8 189.6 183.3 179.6 177 172.5 171.7 172 173.3 175.2 181.5 184.7 188 191.3 194.7 198 198.8 199.3 200.4 198.5 188.9 199.6 200.3 201.5 198.8 192.6 196.7 203.4 207.9 211.5 215.9 219.4 222.2 224.9 228.1 231.6 235.7 239 237.3 238.7 238.9 239.5 241.9 245.3 247.4 247.8 247.8 249.1 251.9 257.8 261.7 260.1 259 259 260.2 260 257.8 256.9 259 261.4 257.6 251.9 248 246.6 248.6 250 250.7 251.6 252.5 253.2 253.6 254.1 252.1 248.3 245.6 243 241.2 240.9 237.3
288.2 292 294.3 297 301.8 305.8 307.2 311.4 316.8 324.4 337 341.3 340.7 342.1 347.1 352.3 356.4 359.2 360.1 361.4 361.4 359.2 355.8 349.2 341.9 336.6 331.4 326.3 322 318.5 314.3 310.8 307.1 301.7 298.9 295.2 289.5 295.4 302.8 310.1 317 319.6 317.4 313.7 308.5 305.1 304.3 303.4 300.7 298.6 297.4 296.6 295.9 296.1 297.4 298.9 298.2 297.2 293.8 294.2 299.9 304.5 306.1 305.5 302.7 305 306.2 307.5 309.2 308.7 307.6 304.9 302.4 297.9 291.1 286.5 278.4 273.5 269 264.2 260.6 256.3 256.6 253.5 255.6 253.3 250.2 255 252.8 249.5 246 242.5 239.9 237.5 237.7 238.5 237.8 236.7 239.8 241 239.2 236.3 233.4 230.4 229.3 227.8 225.8 223.5 221 218.2 216.1 212.5 214 214.4 213.2 211.6 210.4 209 206.8 203.5 202.1 198.1 191.7 185.2 180.3 178.9 173.2 172.1 173.7 173.9 174.4 180.4 184.2 187.8 191.1 195.3 198.5 199.8 201 201.9 200.1 191.4 199.1 201.1 202.8 204.4 197.8 196.7 202.5 207.1 211 215.1 218.6 221.4 223.5 225.9 229.7 231.5 230.4 235.1 240 240.3 240.9 243.1 244.2 244.8 245.5 246.3 247 249.5 257 262.4 261.1 261.2 262.5 263.7 263.3 261 260.5 263.1 265.2 261.5 255.6 251.2 250.2 251.5 252.2 252.4 253.4 254.3 255.3 255.8 256.3 254.9 250.7 247.3 245.3 244 243.2 240.5
273.4 288.5 291.7 295.2 298.7 303.4 308.9 315 321.5 329.7 339.4 344.4 347.7 346.6 351.8 356.8 361.2 366 368.8 369.8 369 367.6 364.3 359.4 354.9 349.9 344.3 338.7 336.5 334.9 329.8 323.5 317.2 311.2 307 302.7 294.4 305.2 312.4 321.6 329 331.6 331.6 328.5 323.3 316.6 312.4 309.3 306.4 304.3 302.8 302.7 301.8 300.2 301 302.3 302.7 302.5 300.6 295.4 295.5 300.1 302.1 303.1 301.5 302.7 303.5 307.2 311.8 311.2 310 307.6 304.4 299.7 295.3 289.4 283 275 270.6 266.5 263.1 260 258.1 254.1 256.8 253.9 253.6 257.9 257.4 253.9 250.7 246.8 242.9 240.1 240.1 238.4 238.9 238.3 241.5 243.6 242.4 239.7 236.7 233.6 231.6 229.8 228.7 226.7 224.3 221.7 219.4 215.5 215.9 217.8 217.2 215 212 210.1 208.1 206.3 203.5 199.4 193.5 187.1 181.6 179.7 175.5 172.6 174.2 175.4 175.3 180 183.6 187.3 191.1 195.6 199 201.4 202.7 202.7 201 196.9 201.3 202.6 202.8 204.7 203.3 195.5 201 206.6 210.5 213.9 216.6 218.9 220.6 224.2 227.8 232.9 237.4 239 240.4 242.2 243 244.6 244.6 244 244.3 245 245.8 248.1 255.5 262.1 262.5 263.3 264.9 267 266.3 264.3 264.2 266.9 268.9 265.1 259.7 254.8 253.4 254.1 254.4 254.7 255.1 256.1 257 258.2 258.5 257 253.6 250 247.9 246.7 244.8 242.6
259.5 285.7 288.2 291.8 294.6 299.6 305.2 312.5 321.8 332.6 342.7 353.1 354.4 358.3 359.7 362.1 366.7 370.8 375.3 377 376.4 374.3 372.7 370.7 366.5 361.6 357.8 352.8 350.1 346.7 343 336.5 329.5 320.6 314.9 307.9 299.2 314.3 323.3 331 338.4 342.4 343.3 341.3 336.8 330.4 323.9 317.3 312.9 310.7 308.8 308.4 308.2 306.3 305.2 305.2 306.2 307.1 305.7 303.1 300.3 299.4 299.8 301.5 302.3 303.9 310.3 308.9 313.6 313.9 312.7 310.6 307.2 303.2 298.5 292.4 286 278 272.7 268.5 264.5 261.4 258.5 254.8 257.2 256.4 257.2 260.4 260.3 258.5 255.8 251.6 247.1 243.3 240.7 238.9 239.4 239.3 242.8 245.4 244.8 243.1 240.2 236.8 234.4 232 230.3 229.1 227.6 225.1 222.5 219.9 218 220.7 220.7 217.1 213.5 211.3 210.4 208.8 205.1 200.5 195.5 189.9 183.3 180.4 178.5 174.2 173.7 174 174.6 180 181.2 185.8 190.4 195.5 198.9 202.4 203.8 204 201.9 199.8 199.9 204.1 204.4 205 205 197.6 198.4 205.7 208.6 209.3 213.8 218.2 221.5 224.9 228.8 232.9 236.7 238.9 240.6 242.4 244.1 245.7 245.1 244.3 244.4 244.7 245.4 247.6 254.3 260.7 263.2 264.8 267.3 270.2 269.5 267.8 267.7 270.2 273.2 269.6 264.1 258.2 257.3 257.4 256.7 257 257.3 257.8 258.9 260.4 260.8 259.5 256.2 252.6 250.3 248.3 246.4 244.7
259.8 272.7 283.9 289 292.5 296.8 302.8 309.6 319.7 338.8 346.7 354.7 362.2 364.1 368.5 369.5 371.2 374.8 376.1 377.1 380.6 382.7 382.3 379.6 375.1 372.5 369.8 367.3 363.6 359.9 355.5 349.8 341.9 333.5 324.5 315.6 311.7 319.6 332.7 342.8 349.8 353.3 352.2 352.5 348.3 341.7 336.3 329.3 321.1 318.6 316.2 315 313.8 312.5 310.5 310.5 310.9 310.7 310.1 308.9 308.1 308 306.4 307 310.3 308.5 307.6 309.3 315 316.2 315.4 313.8 310.4 306.5 301.7 295.1 288.1 280.3 274.5 270.4 266.5 263.1 259.7 257.3 259.1 257.4 259 262.1 262.7 261.5 259.5 256.4 252.4 247.2 243.5 241.1 240.2 240.3 243.4 246.7 247.2 246 243.8 240.2 237.1 234.6 232.1 230.8 229.3 227.1 225 222.5 220.9 221 220.8 218.1 214.4 214.3 213.7 211.8 207.4 202.2 197.4 191.4 185 181.2 179.8 178 174.7 174.7 175.5 177 181.3 184.9 189.6 194.9 199.4 202.9 204.9 205.2 203.6 201.8 203.2 204 205.8 206.2 206.3 203.9 198.6 200.1 207.5 211.8 215.5 218.7 222.1 225.2 229.6 233.1 236.3 238.2 239.7 241.5 243.6 246.4 245.9 244.5 244.6 245.1 245.5 248.3 254 260.1 264.4 266.4 268.8 272.2 272.3 270.9 271.3 274.1 276.8 274 269.4 263.3 261.1 260.1 259.5 259 259.3 259.7 260.9 262.4 263 262 258.7 255.1 252.3 250.1 248 247.2
260.4 265.7 281.7 289.3 292.6 296.5 301.8 309.5 320.2 339.6 345.5 353.7 364.1 369.2 372.3 376.5 379 381 381.6 381.1 385.2 383.1 384.5 385.9 385 381.9 378.9 377.8 375.6 371.3 366 360 353 345.8 340.9 331 324.3 320.4 339.4 349.3 357.9 361.7 362.6 362.2 358.5 354.6 349.1 343.4 336.1 329.2 325.6 322.8 320 318.6 316.2 315.6 315.8 315 313.8 312.8 312.5 312.7 312.5 313.8 315.7 317.1 317.6 316.8 312.8 315.4 317.4 315.8 312.9 309.1 304.2 296.7 291.1 283.1 277.2 272.4 268.7 265.4 261.7 260.4 260.6 258.7 259 262.5 264.2 263.8 262.1 259.2 256.1 252.2 247 243.8 241.9 241.4 244 246.9 248.9 249.3 248.1 244 240.8 238.2 235.4 233.5 231.3 229.3 227.3 225.2 224.2 222.5 220.4 218.4 216.8 217.2 216.8 214.6 210.4 204.2 198 191.9 185.9 181.9 180.5 179.3 178.8 176.3 175.9 176.9 180.2 184.3 189.3 194.2 199.1 203.2 206.1 205.5 204.1 203.7 204.6 204.4 206.6 207 207.4 206.1 202.5 198.8 204.1 211.8 215.4 218.7 222.2 225.6 230.1 233.2 235.4 237.1 239 240.9 243.9 246.8 246.7 245.2 245.2 245.3 245.8 249.2 254.7 260.2 265.7 267.7 269.9 273.3 273.5 273.2 274.3 278.3 281.3 279.9 274.2 267.3 264 262.8 262.5 261.2 261.8 262.5 262.7 264.3 265.2 264.5 261.2 257.6 254.5 252.4 250.2 248.9
259.9 265.2 278 289.7 292.9 296.1 302.1 309.8 318.9 331.2 342.7 355.7 365.1 369.8 374.4 379.2 382.2 383.2 384.2 385.2 385.4 386.6 389.4 391.7 391.9 390.1 388.9 388.3 387.7 384.2 378.5 371.6 364.9 359.2 353.8 348.2 344.6 337 348.7 358.7 367.2 372.1 373.8 374.1 371.1 368.7 364.5 358.8 351.8 344.9 337.2 332.4 329.3 326.9 323.9 320.8 319.7 319.1 317.7 316.8 316.6 316.4 316.1 317.2 318.9 321.2 321.9 322.7 322.8 320.7 318.1 318.1 315.5 311.4 306.8 300.8 294.1 286 279.8 275.3 271.5 268.4 263.4 263.5 262.2 260.5 257.8 261.4 264.2 264.9 264.6 262.5 259.7 256.6 252.1 248.2 243 242.6 244.3 247.1 249.1 250.8 250.6 247.6 244.8 241.9 238.9 236.5 233.8 232 229.9 227.7 226.7 224.7 222.3 220.3 219.6 220.2 219.8 216.3 212.3 207.6 200.5 192.5 187 183 181 179.2 180 180 177 177 180.7 184.4 188.5 193.4 198.3 202.9 205.6 206.2 205.6 205.4 206.1 206 207.4 207.9 208.3 207.5 205.4 203.9 199.9 208 215.3 218.6 221.6 225 229.8 232.7 234.4 235.9 237.9 240.4 243.2 246.1 247.3 246.3 246.5 246.4 246.7 250.4 255.1 260.9 266.5 268.9 271.1 274 274.5 274.5 276.6 281.3 286.1 284.9 279.1 271.2 268.1 266.1 265.1 263.9 264.6 265.1 264.7 266.1 267.3 267.1 263.9 260.3 257 255 252.6 250.9
264.4 263.6 267.7 286.1 290.4 295 300.8 307.6 314.1 326.7 338.4 348.9 359.6 370.5 375.2 378.4 380.6 382.1 383.3 384.3 387.4 392.8 395.9 396.4 397.2 398.4 398.6 397.9 396.1 394 389.3 383.9 379.4 372.7 370.9 368.3 365.1 360.3 349.4 369.3 376.1 382.8 383.8 384.9 383.3 380.1 377 371.9 366 359.9 353.4 346 339.8 335 331.3 328.1 324.3 321.6 320.1 320.2 320.2 320 319.8 320.7 322.5 324.8 326.3 327.4 327.2 327 326.2 324.3 318.4 316.2 310.9 303.3 297.7 290.3 282.9 282 275.2 270.2 266 265 264 261.9 260.3 259.6 262.6 265.5 266.5 265 263 261 257.2 252.4 248.1 247 246.6 247.3 249.2 250.8 252.3 251.6 249.6 246 242.5 239.2 236.6 234.4 232.1 229.7 227.7 226.4 226.3 224 222.3 222.6 221.3 217 212.6 208.7 204.5 193.2 188 184.3 182.1 179.7 180.9 180.2 178.7 176.7 180.8 183.9 187 191.9 196.9 201.8 204 206.3 206.7 206.6 207.2 207.6 208.1 208.6 208.8 208.1 206.9 208 204.4 202.9 213.1 217.5 220 224.8 228.9 232 233.6 235.4 238.2 240.7 243.1 245.5 247.4 248 248.4 247.2 247.8 251 255.7 261.4 267.1 269.6 271.5 274.4 274.7 276.3 278.8 283.6 289 289.5 284.4 275.9 272.1 269.5 268.2 266.7 267.4 267.6 267.3 267.8 269.4 269.6 267 263.5 259.3 257.6 254.9 253.3
265.8 267 269.2 280.8 286.8 291.4 297.6 307.3 315.7 324.4 333.7 343 352 362.2 369.1 373.8 377.9 377.3 380.7 382.9 387.8 393.8 397 399.4 403.6 405 405.9 406.6 405.7 404.4 398.2 393.8 391.5 388 384.7 381.3 377.6 372.7 373.2 378.9 383.4 389.2 390.5 392.7 394.8 391.3 387 383.9 380 374.8 369.7 361.4 350.1 342.2 337.1 333.6 329.8 325.6 323.1 323.4 323.4 323.4 323.4 324.5 326.9 329.2 330.3 331.6 331.5 331.4 329.7 327.7 324.8 320.3 316 308.7 300 293.8 288.7 285 282.5 273.5 269 266.9 265.4 262.8 261.5 261.4 261.2 264 266.9 267.6 266.2 264.5 261.3 255.8 252.8 250.4 249.1 248.1 249.4 251.1 252.9 253.8 253.2 250 246.1 242.6 238.9 235.6 233.5 231.5 229.6 227.4 228.1 226.9 224 222.8 221.6 217.6 213.6 209.2 205.4 194.6 189.4 185 183 182.5 181.7 180.8 179.2 178.2 177 183.1 185.9 190.4 195.3 200.1 203 206.1 207.3 207.7 208.1 208.2 208.7 209.2 209.5 209.1 208.3 208.9 209.3 202.3 205.9 213.6 219.8 224.1 227.8 231.3 232.9 235.7 238.4 241 243.4 245.8 248 250.2 250.4 249.1 248.7 251.5 256.6 261.7 267.2 269.8 272 274.9 276.4 278.2 279.9 284.6 290.6 293.5 289.5 280.3 276.5 273.6 272.2 269.9 270.3 270.1 269.6 269.4 271.8 271.4 269.5 266.1 262.8 259.3 257.6 255.5
278.3 266.4 269.7 277.7 281.3 287 297 304.2 304.2 320.7 332.2 342.1 342.4 345.5 351.6 358.2 363.7 379.4 382.2 384.4 388 392.1 399 405 407.8 410.9 412.8 414.7 416.3 413.3 407.5 404 401.2 399.6 397.7 392.9 388.3 381.2 382.7 391.1 391.5 396.8 400.5 403.2 404.7 400.7 398.4 396.2 393.7 389 383.6 375.8 363.8 351.5 342.9 338.4 334.7 328.4 326.2 326.9 327.1 327.2 329 330.3 332 333.6 334.2 335.6 335.9 336.1 334.2 331.2 328.5 324.5 319.2 313 304.6 296.4 291.3 290.5 279.5 274.5 272.3 269.2 266.3 263.4 262.2 261.7 261.6 262.3 265.6 267.6 266.7 267.6 265.8 260.1 256.2 252.7 250.9 249.6 249.7 251.3 253 255.2 255.2 253.7 250.2 245.5 241.1 237.2 234.1 232.2 229.9 228.7 229.3 227.4 224.5 221.7 220.6 218.4 214.7 209.7 203.8 196.2 190.4 186.5 184 183.3 182.6 181.7 182.1 179.5 179.6 177 185.5 189.3 193.6 198.4 202.5 206.3 207.9 208.5 208.9 208.9 209.2 209.7 210 210 209.6 210.5 211.3 209.7 204.1 207.8 216.7 223 226.7 230.6 233.2 235.9 238.6 241.4 243.8 246.1 248.9 251.5 252.3 251 250.3 251.9 257.1 262.6 267 269.5 272.1 275.5 278 279.9 281.8 286.3 292.3 296.7 293.5 284.7 281 278.2 276 272.9 272.9 272.7 272 271.5 272.3 273.6 271.8 269.4 265.6 262.7 260.2 258.1
283.8 277.1 268.4 275 281.5 294.3 305.7 315.2 321.7 320.8 324.4 331.6 343.6 361.4 367 371.8 378.7 383.1 386.9 389.1 391.8 395.9 401.6 406.4 411.5 414.9 418.8 420.1 421.8 420.1 414.6 411.8 409.6 407.9 406.5 403.3 397.8 387.1 390.2 396 399.7 405.4 408.9 412.1 413.3 411.6 410.3 409.6 406.2 402 397.1 390 379.4 363.3 352.3 344.1 341.1 335.7 329.3 330.5 331.2 331.6 334.3 335.9 337.6 337.9 337.5 339.1 340 340.4 339 335.6 331.5 327.6 323.4 318.2 311.2 302 292.3 285.8 282.9 279 274.2 270.4 266.8 264.1 263.2 262.9 262.8 261.8 263.5 265.7 268.6 270.3 269 263.9 259.9 255.9 252.1 250.4 250.4 251.4 253.5 255.9 257.2 255.9 252.8 247 242.2 238.7 235.4 233.3 231.5 229.7 229.2 227.1 223.6 220.8 218.5 215.8 213.1 208.5 202.8 196.3 191.3 187.7 184.9 184.1 183.4 183 182.4 181.3 180.1 179.6 178.3 188.3 191.6 196.6 201.6 206.2 209 209.7 209.7 209.7 209.8 210.2 210.7 210.5 210.8 211.4 212.8 213.8 205.2 209.2 215.4 221.8 225.6 230.1 233.3 236.1 238.8 241.6 244.3 247 249.7 252.4 253.9 252.8 252.2 252.8 255 260.1 264.5 269 272.4 276.4 279.2 281.2 283.6 288.1 294.3 298.7 296.4 289.6 285.4 282.7 280.6 276.8 276 275.2 274.2 273.2 272.8 274.5 273.6 272.5 269.2 266 263.6 261
293.7 283.3 270.1 279.5 289.7 304.7 315.8 324.3 330 336.3 343.5 348.6 358.3 367.8 373 378 382.6 387.5 392.1 395.6 398.8 403 406.6 411.7 415.9 419.1 423.5 427.3 428.1 424.3 420.4 417 415.6 414.1 412.1 408.4 404.1 395.8 393.7 403.4 407.5 414.7 418.1 420.6 421.9 420.8 421.4 420.4 418.8 414.6 409.1 402.8 394.2 380 364.5 358.2 350.9 343.2 333.9 333.8 334.7 335.6 338.2 341.1 341.8 342.9 345 344.3 343.7 344.1 343.1 340.9 335.8 330.5 325.8 322 315.5 305.4 297.2 289.5 285.6 284.1 278.5 273.3 269.2 266.2 265.2 264.6 263.8 263.1 263.1 266.1 269.1 271.7 272 269.8 264.7 259.7 254.4 252.5 252.3 252.8 254.7 256.9 258.3 258.4 255.3 250.2 243.5 240.2 237.4 235.2 233 230.8 228.3 226.1 222.7 219.6 216.6 213.3 210.8 206.6 201.7 196.5 192.1 188.9 185.8 184.8 184.2 183.8 183.4 180.4 180.6 180.3 180.1 184.7 190.9 195.6 201.5 206.8 209.4 210.4 210.4 210.4 210.4 211.3 211.5 211.6 211.8 212.9 214.3 215 208.2 206.1 213.4 220.2 224.3 229.2 233.3 236.1 239 242.1 244.7 247.4 250.1 252.8 254.9 254.4 253.9 254.4 255.1 258.4 263.9 268.2 272.2 277.4 280.5 282.8 285.4 289.7 296.5 301 300.3 295.1 290.2 288 285.2 281.2 279.3 277.7 276.4 275.4 275.2 275.6 275.2 274.8 271.8 269.3 266.9 263.9
297.2 284.7 272 285 297.4 313.6 325.2 334.3 340.4 346.1 353.8 359.8 365.5 372.6 378.3 384.8 389.9 394.9 399.7 404 408.2 410.8 413.2 417.5 420.8 424.9 425.9 427.4 431.2 430.5 427.8 424.3 423.5 423.9 421.7 417.7 414.1 405.4 392.7 408.4 415.6 422.8 428.5 431.1 432.9 432.7 429.8 430.2 429 427.4 421.3 416 405.1 393.5 377.4 367.2 363.3 353.4 348 340 344.1 343.7 344.8 346 346.6 351.3 352.4 352 349.7 349 347.3 344 339.7 333.7 329.2 323.7 312.6 312.4 304.1 298.1 293.6 288 282.3 276.4 272.7 268.9 267.7 267 265.9 264.8 263.8 264.9 267.5 271.1 273.4 272 270 264.9 256.9 254.5 254.2 254.7 255.7 257.8 258.8 259.6 256.8 252.5 245.6 242.3 239.4 236.7 234.3 231.5 228.9 225.5 222.5 219.4 216.3 213.4 208.8 205.3 201.4 196.2 193.4 190.6 187.4 185.5 185 184.6 183.8 181 181.5 181.3 180.8 186.5 190.3 195.1 200.6 207.1 210 211.1 211.1 211.1 211.5 212 212.4 212.5 212.7 214.3 215.8 216.7 214.2 206 214.7 221.1 224.4 228.7 233.5 236.7 240 242.6 245.2 247.8 250.6 253.5 255.4 255.3 254.9 255.3 255.9 258.6 262.2 267 272.1 277.6 281.9 284.5 287.2 290.9 297.6 303.3 304.4 300.8 296.9 293.7 289.4 285 282.5 280.1 278.8 277.5 276.3 276.2 276.1 276.2 274.9 272.5 269.5 266.4
296.8 284 275.4 289.7 305.8 322 333.4 341.7 349 356.3 364.7 370.5 375.8 381.3 387.2 393.3 398.7 404.3 408.7 410.9 416.1 417.4 421.1 422.6 424.1 428.9 431.5 435.2 435.9 436.8 435.9 434.9 432.8 432.3 429.2 423.6 421.8 416.1 408.5 418.5 424.7 431.3 437.9 440.6 442.4 443.8 441.4 442.8 442 441 436.6 429.4 418.6 404.7 399.2 387.7 377.6 369.3 362.5 357.5 358.4 358.9 356.4 356.4 357.3 356.7 359 357.5 355 354.2 351.5 347 341.7 336.4 329.7 323.2 320.9 316.3 309.8 303.1 297.3 290.8 282.4 277.4 274.4 271.8 269.6 268.5 268.6 268.3 266.9 265.4 266.2 270.2 273.6 275.2 273.9 270.1 262.1 256.6 255.9 256.5 257.3 258.5 259.1 259 257.2 254.2 247.4 243.3 240.7 238.1 235.4 232.5 229.6 225.9 222.2 219 216.1 213.2 209.5 205 200.9 197.5 194.6 191.7 188.6 186.7 185.6 184.9 184.2 182.2 182 182.2 183.2 184.7 189.9 193.9 199.8 206.3 210.5 211.7 211.7 211.8 212.2 212.6 213 213.4 213.8 215.7 217.2 218.1 213.1 207.2 213.7 220.8 224.4 228.4 233.3 237.5 240.4 243.1 245.8 248.6 251.5 254.3 256 255.9 256.1 257 258 258.5 261 266.5 272.2 277.3 282.6 285.4 288.4 291.7 296.9 305.8 308.3 307.3 304.8 301.7 294.9 289.5 286.8 283 280.5 278.9 277.3 277 277.1 277.2 277.1 274.3 271.4 268.5
294.6 278.1 277.8 294.2 312.9 334.8 346.9 355.3 364.6 372 378.8 384.9 390.4 395.8 400.3 405 408.6 412.3 417.3 420.7 423.5 427.8 430.6 433.2 435 435 438.2 441.5 444.1 444.2 445.3 444 441.8 441.7 438.1 433.3 429 422.9 418.1 422.7 431.9 436.4 444.6 447.5 450.2 451.6 452.5 454 452.3 450.7 444.8 439.5 433.8 424 419.8 409.9 396.2 386.7 377.2 375.2 377.4 376.2 372.1 370.7 371 369.4 366.5 362.9 358.7 357.3 354.2 349.6 342.8 335.5 332.8 328.2 323.7 319 314.2 308.8 303.2 293.9 287.3 280.8 276.5 273.9 271.9 271.4 272.3 271.7 270.5 269.8 267.6 268.6 271.6 275.6 276.4 274 268 260.4 257.9 259.5 260.3 259.7 259 257.7 256.3 254.6 249 243.7 241.6 239.3 235.8 232.6 229.8 226.9 223 219.4 216.5 213.4 210.7 206.1 201.9 198.4 195.6 192.5 189.1 187 186.2 185.5 184.5 183.3 182.7 183 183.1 183.3 188.9 193.5 198.8 204.9 210.7 212 212.1 212.4 213 213.4 213.8 214.2 214.7 216.4 218.4 219.1 216.7 208.6 213.8 221.1 224.5 227.7 232.7 237.7 241 243.2 245.7 248.5 251.7 254.9 256.7 256.5 257.1 258.6 259.6 259.8 260.4 264.4 271.6 277.3 280.6 285.7 288.2 292.1 296.4 301.9 310.6 312.9 311.7 308.4 301.9 294.2 291.2 286.8 283.7 281.1 279.3 278.7 278.8 278.8 278.6 276 273.1 270.2
292.9 278.8 282.1 301.5 323.8 345.5 360.9 370.6 381.5 388.1 393 396.4 401 406.1 412.7 419.3 422.4 424.5 426.5 429.9 433.6 436.3 439.7 443.5 444.8 446.7 448.7 452 454.9 454.9 454 453.3 452.8 450.3 448 445.2 438.3 431.2 424.1 427.5 438 444.2 451.3 453.8 457.9 458.2 461.4 460.4 460.5 458.6 454.9 449.3 444.2 440.2 434.1 426.5 412.8 399.8 393.1 391.1 392.4 391.4 386.9 383.6 379.4 377.3 373.8 368.4 360.8 357.4 352.5 345.2 343.3 340.3 335.9 330.2 326 322.3 318 312.7 307.8 300.9 293.5 286.5 280.7 276.3 273.3 274.4 276.2 275.6 274.3 273 272 272.9 273.3 273.8 276.4 276.1 272 266.3 260.3 261.9 262.8 261.6 259.3 258 255.9 254.1 250 244.5 241.9 239.5 236.5 233 230 227.2 224 220.5 216.7 213.6 211 207.8 204.4 200.1 196.5 192.9 189.8 187.5 186.8 186.1 185.1 184.9 184.5 184.1 184.6 183.9 185.9 193 197.5 203.3 209 211.8 212.3 212.8 213.9 214.4 214.7 215 215.5 217.2 219.2 220.7 219 208.8 213.2 220.6 224.6 227.1 231.9 237.1 241 243.7 245.9 248.5 251.6 254.7 257.1 257.4 257.5 259.1 260.6 261.9 262.4 263.6 269.1 277.2 280.3 285.2 288.3 292.5 296.7 301.1 306.5 313.1 315.9 314.7 305.2 298.5 295.3 290.6 287.3 284.3 281.8 281.3 280.9 281 279.7 277.4 274.3 272.2
291.9 279 295.5 310 331.8 354.1 371.6 384.9 395.6 401.5 404.2 406.8 410.6 415.6 422.8 429.5 433.2 436.2 437.1 439.6 442.7 444.9 448.2 452 453.7 455.1 457.4 459.6 461.3 461.4 462 462.1 461.6 459.9 457.3 454.5 449.2 440.5 432 436.5 445.5 452 456.7 460.4 462.6 464.7 468.7 471.4 471.4 469.2 463.2 461.9 457.5 455.2 448.4 439.2 425 411.7 404.1 399.5 404.2 403.9 399.9 396.9 389.4 384.1 377.2 368 359.7 355.5 352.9 349 345.7 342.8 338.8 330.7 327.4 323.9 319.7 315.3 310.4 304.9 298 291.3 285.4 279.8 274.1 278.2 279.8 279.1 277.6 276.5 276.2 276.3 276.7 276.9 276.8 276.9 274.3 271 263.6 262.8 265.1 263.4 260.9 258.3 255.9 253.3 249.3 244.8 241.7 239.2 236.6 233.9 231.4 228.8 225.8 221.8 217.9 214.2 211.5 209.4 206.6 202.5 198.6 193 188.8 188.1 187.4 186.8 186.5 186.2 186 185.5 184.9 183.8 186.9 192.8 196.8 201.5 207 210.5 212.6 213.2 214.2 215.3 215.7 215.7 216.1 217.9 220.4 221.4 221.1 211.6 210 217.5 224.4 226.8 230.9 235.9 240.9 243.8 246 248.4 251 254 256.8 257.4 257.7 259.5 261.2 262.6 264.1 263.6 268.4 273.7 278.2 284.1 287.7 290.8 293.9 298.6 304.8 310.2 312.9 313.9 309 303.1 298.1 293.4 290.8 287.4 284.7 283.8 283.3 283 281.1 278.4 276.3 274.2
285.6 284 297.8 309.2 334.1 360.2 377.4 392.3 404.2 409.8 412.3 414.8 418.4 424.8 432.9 439.5 444.2 444.6 445.7 447.5 450.8 454.6 456.2 458.9 461.1 462.3 464.2 466.1 466.9 467.5 467.7 468.6 468.9 467.4 466 461.7 457.2 450.9 445.7 441.8 451.8 458.8 463.1 466.8 470.1 475.1 478.3 481.9 481.1 479.7 475 470.7 467.9 465.2 460.5 451.4 436.3 420.9 410.5 404.8 403.4 402.8 400.1 395.7 388 381.3 373.8 364.3 363.2 359.3 356.5 353.4 349.3 345.2 338.8 332.7 329.5 325.6 320.5 315.5 310.9 305.8 300.6 295 289.2 281.5 278.3 282.5 284.7 283.7 282.2 281.6 281.3 281.6 281.8 282.1 282 280.2 278 275.1 267.5 265.4 267.4 265.6 262.5 259.3 256.1 252.9 249 244 241.5 239.7 237.8 235.3 233 230.2 226.7 222.7 218.7 214.5 212.1 210 207.5 203.4 198.3 193.6 189 189 188.9 188 187.2 186.8 186.7 184.9 184.4 187.2 188.7 192.4 196 200.5 204.7 209.1 211.9 213.9 215.1 216.1 217 217.7 217.3 218.2 220.5 222.4 222.6 221.7 209.8 216 223.8 226.9 230.6 234.9 239.5 243.4 245.8 248.5 251.4 254 256.3 257.1 257.7 258.9 260.8 263.4 265.2 266.4 268 271.7 276.5 282.5 285.7 288.9 292.3 296.1 301.8 307.6 311.4 312.6 310.2 306.3 301.6 299.1 294.6 290.4 287.8 286.3 285.8 284.3 282.8 280.2 277.8 276.2
285.6 292.1 299.5 316.1 339.9 363.9 382.2 398.9 407.9 408.9 408.9 412.9 420.4 430 437.9 443.6 445.3 450 450.9 454 457.8 464.3 464.8 467.1 467.7 470.4 471.6 471.8 474 475.8 476.1 477.6 478.7 477.1 472.5 469.6 464.3 459.9 454.5 447.8 458 464.4 468.9 472.6 475.8 482.6 486.4 490.9 490.2 488.1 482.7 477.7 473.7 471.9 466.9 455.6 441.8 425.5 413.1 406.9 403 398.7 394.1 389.7 384.4 378.7 373.4 370.8 366.4 363.9 361.5 358 353.8 346.7 337.4 336.2 333.2 327.6 321.7 316.1 311 305.4 300.5 295 290.1 283.8 282.3 286.2 289.1 288.7 287.3 286.8 286.5 286.7 286.7 286.6 286.8 286.3 282.8 278.4 272.8 267.8 268.8 266.6 263.2 260 256.9 253.3 248.2 243.7 241.4 239.4 237.8 236.2 234 230.2 226 224.3 218.4 214 212.3 210.8 207 202.7 197.6 191.3 190.2 192.5 191.3 191.5 188.2 187.3 187.1 187.2 185.5 188.4 189.8 192 195.6 199.5 203.7 208.5 212.6 214.7 216.3 217 217.8 218.9 218.4 218.4 220.6 222.7 223.6 223.1 217.6 210.4 222.7 226.9 230.3 234.3 238.6 242.5 245.4 247.9 250.8 253.8 256.2 256.9 257.3 258.2 260.5 263.5 266.5 268.4 269.6 270.9 276.1 281.6 286.5 288 291.2 295.2 301.2 305.6 309.7 312 311.6 308.8 305.7 302.2 298.2 293.5 290.4 288.8 287.1 286.2 285.4 282.7 279.8 278.2
287.4 290.9 300.3 318.9 338.6 355.7 371.3 384.7 389.2 395.2 400.1 406.9 418.2 431 440.7 448.2 451.2 448.9 457.2 463.4 467.2 469.8 470.7 469.6 472.3 474.1 475.2 476.3 478.5 481 480.6 481.4 484.6 483.3 480.3 477 472.6 467.4 462.4 452.5 460.9 468.5 474 478.9 481.4 484.3 492.9 495.7 497.3 494.2 490.2 485.8 480.5 475.2 467.9 455.7 442.4 427.9 414.7 408.5 402.9 398.3 393.5 392.6 386.6 382.2 380 376.5 373.3 370.1 367.2 363.7 358.4 350 344.5 338.9 335.7 329.9 323.9 317.7 311.3 304.4 299.6 295.4 289.8 285.8 284.3 288.2 291.9 293.1 292.6 291.9 291.6 291.5 291.5 291.5 291.7 291.1 288.4 283.1 275.6 271.4 269.1 267.2 263.6 259.2 255.3 252.2 247.3 243.6 241.3 239.1 238.2 236.9 234.1 230.2 226.4 224.2 217.4 213.1 212.1 209.9 205.2 201.3 192.5 191.5 193.9 192.8 191.7 192.6 188.2 187.8 188.1 183.8 187.8 189 190.4 192.3 196.2 199.7 203.9 208.6 213 215.8 217.5 218 218.8 219.7 219.6 219.1 220.8 222.9 224.1 224.3 220.1 214.1 211.2 222.7 229 233.8 237.6 241.1 243.7 246.3 249.4 252.5 255.6 256.5 256.5 257.7 259.9 263.5 266.5 269.8 271.6 272.3 276.5 281.4 286.1 288.9 291.5 295.7 300.7 305.1 308.6 311.3 312.4 311.3 308.5 305.6 300.7 295.8 292.8 290.4 288.1 287.6 287.6 285.2 282.5 280.6
290.7 293.6 297.2 312.1 325.9 338.6 348.3 356.9 361.3 370.4 379.9 392.6 403.8 419.9 435 444.8 444.8 452.2 459.3 465.4 468.9 470.9 473.3 474.7 474.3 477.1 480.4 482 485.7 491.5 492.8 494 492.1 489.8 487.5 483.9 480.9 474.9 469.9 458.6 465.7 472.5 479.5 485.7 490.9 497.7 503.4 504.4 502 500.1 495.9 491.2 483.4 475.4 466.9 456.1 438.4 428.2 418.9 412.4 406.8 402.1 396.7 394.5 390.5 389 386.8 383.7 380.9 378.1 374.8 370.4 364.1 356.8 345.8 344.4 338 334.2 327.7 320.4 313.2 306.3 300.6 296.6 293.3 288.1 284.4 289.7 294.6 297.4 298.1 298.2 298.4 298.2 298 296.8 296.7 295.4 293.9 288.4 280.4 270.5 270.9 268 263.4 258.9 255.6 250.4 246.1 242.9 240.2 237.7 236.7 235.7 233.9 227.7 225.6 222.8 217.6 212.8 210.4 208.9 204.4 194 192.5 194.5 196 194.2 194 192 188.6 188.4 188.2 184.5 188.8 189.8 191 192.6 196.3 200.1 204.1 208.6 212.7 216.2 218.1 218.9 219.9 220.8 220.8 220.2 221 223.1 224.5 225.1 225.8 225.5 212.3 216.3 225.1 231.9 236.7 240 242.6 244.9 248.1 251.2 254 256.5 256.4 257.8 259.3 263.7 267.5 270.2 272.8 273.8 277 281.5 285.7 289.7 291.6 294.8 300.4 304.9 308.8 311.3 312.6 312.4 310 306.8 302.3 297.6 293.5 290.5 289.1 289 289.2 287.8 285.6 284.5
296.3 294.7 299.8 303.6 313.8 320.7 327.4 337 344.6 348 357.3 368.5 382.8 402.8 420.5 433.2 437.5 442.9 452.8 462 466.6 467.7 469.1 471.6 474.9 477.8 483.1 489.8 494.7 500.3 503.2 503.4 501.5 498.2 493.5 489.2 485.7 480.3 473.5 464.4 471.5 477.9 485.3 491.5 497.9 503.1 508.8 509.8 508.5 505.8 500.7 494.6 486.6 477.6 469 459.6 450.3 439.5 430 418 414.5 408.8 402.6 399.1 397.5 397.4 396.1 394.9 392.7 388.5 385 380.1 373.4 365.3 356.7 352.1 344.2 337.6 331.9 324.5 316.8 308.5 302.8 298.4 293.4 289.4 287.4 291.1 297.3 300.3 303.1 304.7 304.6 304.7 303.6 302.8 301.6 300 296.5 291.2 280.4 276.2 271.1 268.6 262.8 258.5 255.1 249.9 245.3 242.2 239.1 235.7 234.6 233.8 230.2 225.5 223.7 221.5 216.8 213.6 210.4 206.4 201.7 194.8 197.2 200.3 197.9 195.4 193.5 193.1 189 187.9 187.6 187.1 189.9 190.5 191.7 192.9 195.3 199 202 205.5 210.5 214.1 217.8 219.7 220.2 220.9 221.5 221.3 221.4 223.2 224.9 225.9 226.3 226.8 218 215.4 220.7 229.5 236.1 238.5 240.2 243.4 246.7 250 252.8 255.2 256.3 257.8 259.5 263.5 267.6 271.2 274 275.2 277.6 280.6 284.8 288.6 291.4 294.2 297.6 304.2 308.5 311.2 312.4 312.1 310.2 306.2 302.2 297.2 292.8 290 288.9 289.4 290.2 289.8 288.5 288.3
303.9 294.3 304.5 317.6 325 329.7 347.4 358.6 366 370.4 371.9 371.4 364.5 377.2 398.1 406.1 424.8 432.5 444.2 455 459.3 460.9 463.3 467.3 471 477.4 484.3 494 499.7 507.3 511.2 512.4 510.7 503.4 500.4 495.7 490.9 485.3 479.1 471.4 477.3 484.2 492.9 499.7 507.4 513.6 516.4 518.2 515.8 512.2 506.1 499.7 491.8 483 474.8 467.5 460.3 450.9 440.9 429.7 420.9 415.9 409 407.1 408.6 409.8 407.4 405.6 403.3 400.6 395.5 388.9 381.7 372.9 363.6 354.5 348.6 341.3 335 327.7 319.7 310.8 305.4 301.5 295.5 291.4 289.3 290.2 297.2 302.6 306.2 308.8 310.5 309.3 308.4 306.9 303.8 301.6 297.3 289.6 280.8 276.3 271 266.8 262.2 258 253.9 249.5 244.5 241.1 237.8 234.2 231.2 229.3 226.1 224.2 222 219.5 217.7 215.1 211.9 207.9 201.6 196.3 201.3 201.9 198.3 196.3 195.3 194.9 189.4 188 188.3 189.9 190.8 191.5 192.2 193.5 195.2 197.7 201.4 201.6 205 207 211.2 217 216 217.8 220.4 220.4 221 223.3 225.1 226.6 227.3 227.5 227.2 218.5 218.3 224 232.6 236.2 239.3 242.3 245.6 249 252 254.4 256.3 258 259.8 262 266.9 271.7 275.2 276.7 278.6 281.2 285.7 290.3 293.2 293.5 295.2 300.1 305.4 309.8 310.7 310.4 307.9 305 301.1 296.3 292.3 289.8 288.4 289.3 290.8 291.9 291.4 291.1
304.5 296.6 308.6 323.9 338.6 351.2 366.3 375.2 383.3 389.3 392.1 395 389.2 386.7 381.2 386.4 405.7 418.8 433.6 442.9 447.6 451.3 453.5 458.5 465.1 474.5 484.3 496 504.6 512.1 517.6 518.4 516.4 513.5 507.3 500.8 496 491.2 484.5 480.8 485.3 491.4 501.3 510.1 517.6 523 527.1 526.3 522.8 518.9 513.9 505.7 498.5 491.9 484.5 476.6 469.3 460.3 447.4 434.1 428.3 420.5 416.7 416.3 418.3 418.4 416.7 416.6 414.5 411.4 404.3 396.6 388.4 377.8 367.6 358.6 349 343.4 335.8 329 322.8 316.5 309 302.9 298.8 293.9 292.7 292.1 293.5 299.2 308.3 310.6 312.5 312.5 310.2 307.9 303.9 299.8 294.5 287.1 280 274.6 269.2 265 261.1 256.7 251.5 248.1 243.9 239.8 236.6 233.2 229.6 226.2 223.9 223.5 221.5 219.7 218.6 216 212.7 209.1 196.8 197.6 203.8 202.6 199.9 197.8 189.9 194.7 189.4 188.9 189.5 190.9 191.6 192.4 193.2 194.8 197.9 201.1 204.5 207.5 209.1 212.8 210.6 216.4 222.8 223.2 220.7 221.6 223.1 223.4 225 226.8 227.7 227.8 228 221.3 217.7 222.8 231.8 235.2 238.4 241.2 244.5 247.8 251.2 253.7 256.4 258.5 260.3 262.6 265.9 271.4 275.7 278.2 280.2 282.5 286.7 291.3 295.5 295.7 294.6 297.2 301.8 305.9 306.5 306.4 304.7 302.4 300.4 296.4 292.2 290.2 288.2 289.3 290.3 291.7 293.4 293.9
307.2 301.3 313.3 334.4 348.9 361.9 375.8 386.2 395.6 404.5 411.7 415.8 414.5 410.9 408.6 406.2 393 403.2 419.9 430.1 434.7 438.2 445.1 451.6 458.3 468.8 480.4 495.6 507.3 515 518.1 520.6 519.2 516.4 511.7 505.8 501.2 496.7 492.5 490.8 494 501.8 511.7 520.3 527.3 531.5 534.7 533.7 530.3 525.1 518.9 512.6 506.3 500.9 493.9 486 478.2 469.1 456.7 441.5 436.1 434.7 424.9 426.2 426.3 427.1 426.7 425.8 423.6 419.1 411.8 403.3 393.4 380.2 369.5 361.3 353.9 348.6 341.8 333.6 326.8 321.3 314.2 306.1 302.7 298.9 295.4 299.1 299.3 298 307.3 311.4 313.4 313.7 310.4 306.8 302.5 296.5 290.1 283.3 276.3 271.3 267.4 263.1 259.2 254.3 249.5 246.5 243.1 238.4 234.3 232.6 229 224.4 221.8 221.3 219.7 218 216.8 213.8 210.1 205.7 197.5 200.3 204 203 202.9 189.8 190.5 189.3 189.1 190.9 191.6 192.9 193.7 193.9 194 195.9 199.4 202.3 205.5 209.9 214 218.9 219.7 222.3 224.9 225.5 224.3 223.4 223.8 223.6 225.2 226.8 228.3 229.6 229.3 224.8 220 223.8 232.3 235.3 237.8 240.4 243.2 246.4 249.9 252.7 255.8 258.8 260.9 262.6 265.5 270.4 276.4 279.8 281.8 284 286.7 291.7 297.4 297.3 296.2 296.6 299.4 302.8 303.7 304.2 302.7 301 299.2 296 293.2 291.4 289.3 289.6 291.2 293 294.3 295.4
313.7 302.6 321 344.9 360.4 373.1 385.8 398.8 406.5 415 424.1 430.9 434.8 433.5 429.4 424.4 414.6 403.9 409.5 416.3 422.9 429.7 438.1 444.8 452.6 462.1 475.9 492.2 505.6 512.7 516.3 518.6 519.9 517.7 514 511.2 506.8 503.4 502.3 501.3 504.8 513.2 521.3 528.8 535.2 539.9 541.9 541 536.7 531 525.6 521.5 515.8 510.6 503 495.1 486.4 476.1 463.5 449.8 444.4 439.9 437.1 431.5 431 433.1 436.1 432.9 429.7 426.5 418.1 407.8 396.3 381.7 371.3 364.9 359.2 355.2 349 341.4 332.9 326.8 319.4 310.2 305.6 303.4 297 299.8 301.8 299 304.1 309.1 311.6 311.5 308 303.7 299.4 292.6 285.3 278.5 271.9 267.4 263.9 260.7 257 252.9 248.7 245.1 241.7 238.5 234.1 230.6 227.7 223.3 219.8 218.5 216.1 213.3 211.3 208.6 203.3 200.1 201.8 206.2 204.4 203.1 193 191.1 191.3 192.3 193.2 194.3 194.7 193.6 194.4 194.4 195.2 196.9 199.8 202.5 205.4 209.8 214.3 220 222.2 224 226.4 227.3 226.2 224.9 224.5 224.3 225.5 227.9 229.9 230.2 230.1 227.6 218.4 221.8 228.7 234.1 236.9 238.9 241.9 245.1 248.6 251.8 254.8 258.2 260.4 262.1 264.7 268.3 274.8 280.8 283.3 285.5 287.3 292.1 298.2 299.1 298.2 297.8 298.4 300.7 301.5 302.1 301.1 299.7 297.8 296.1 294.1 292.3 290.6 290.6 292.2 293.8 295.2 295.9
314.5 305.8 325.9 351.7 369.3 384.5 397.2 407.3 417.1 428.8 437.1 441.4 444.4 442.5 437.9 434.1 426.4 417.4 407.4 418.4 428.9 436 439.9 441.9 442.4 454.8 469.3 485.5 497.7 505.6 509.7 513.6 517.2 517.9 517 515 513.5 510.8 511.7 511.8 517.1 523 531.9 539.2 545 549.4 550.5 547.9 542.9 538.5 534.1 529.9 524 518.4 511.2 503.5 493.3 482.9 471 458.8 456.8 449.4 449.1 447.5 451 452.3 445.3 436.4 434.2 430.1 422.2 412.2 397.2 381.5 372.7 369.5 367.1 362.1 357 350 340 331.4 324.5 317.1 311.4 308.3 300.9 299.6 303.6 302.4 300.2 303.6 305.6 305.3 302.9 298.3 294.7 288.1 279.6 273 266.9 263.5 261.2 257.5 254.1 250.1 246.7 243.5 240 236.2 232.1 228.5 225.8 222.4 219.5 212.1 209.1 206.4 204.6 203.1 202.7 207.8 213.4 207.7 205 196.2 191.2 194.1 196.4 197.8 197.6 197.4 196.3 194.8 195.2 195.3 196.9 198.6 200.5 202.8 205.3 209 215.1 220.4 222.6 225.4 228.2 229 228 226.4 225.5 225.1 226.3 229.1 230.2 230.6 230.6 229.2 224.6 220 221.2 226.7 232.1 237.2 240.4 243.9 247.3 250.6 253.3 256.2 259.2 261.6 264 266.4 273.1 280 284.9 286.9 287.9 292.2 298 301.2 300.5 299.4 298.1 298.4 299.3 299.9 298.9 297.9 296.7 295.7 295 293.6 291.9 290.7 292.6 294.2 295.6 296
315.1 309.5 330.7 355.1 374.2 390.5 405.1 415.4 427.9 437.7 444.2 448.5 450.3 448.8 445.9 443 439.4 430 420.6 417.5 429.3 440.5 449.2 453.8 460.1 464.8 465.1 473.9 486.7 494.1 499 505.9 512 515.3 518.7 519.7 519.3 519.4 521.4 523.1 528.2 534.8 541.5 548.5 554.5 557.8 558.4 554.9 550.8 548 544 539.8 533.7 525.6 518.5 509.5 499.4 487.8 474.2 475.9 467.9 464.6 462.8 464.2 466 466.7 461.4 453.3 442.5 435 425.1 413.9 397.9 382.7 378.4 376.1 375.4 373.5 366.2 359.6 349 337.4 329.8 317.4 316.4 313.7 307.5 301.7 304.7 305.2 301.2 301.4 300.9 298.1 295.6 292.2 286.9 280.1 273.5 268.3 263.5 259.4 256.3 252.8 250.8 246.9 243.5 240.5 237 233.2 229.4 227.1 225 223.8 220.9 213.8 206.8 208.9 207.6 212.3 214.3 217.3 212 207.1 201.9 192.7 193.6 198.9 201.9 201.7 200 198.7 197 196.1 196.6 196.9 198.1 199.8 202.3 205.4 207.3 208.6 214.7 221 223.5 227.1 230.1 230.7 229.5 227.9 227 226.7 226.6 229.1 230.4 231 231.2 231.1 230 225.7 222.5 223.2 227.7 235.4 238.9 242.1 245.7 249 251.4 254.2 257.1 260.2 263.5 266.5 269.7 278.1 284.6 287.8 289.1 290.3 297.8 302.7 303.1 301.5 299 298.3 298.2 298.4 297.3 296.2 295.3 294.5 294.5 294.7 293.2 291.2 292.7 294.6 296 296.3
318.1 309.4 329.7 350.3 372.1 389.3 406.3 422.8 434.6 442.9 449.7 453.6 455.6 455.6 455.3 453.3 449.3 445.4 434.9 423 430 441.1 451.8 460.6 468.3 475.5 482.8 487.3 478.1 484.1 490.5 499.4 507.2 514 519.7 523.9 526.1 528.6 532.4 534.5 537.2 545.1 551.4 556.9 561.8 564.9 564.8 563 559.9 556.6 552.9 547.9 539.7 532.4 524.7 516 506.4 495.8 492.1 487.5 478.6 478.5 477.9 478.8 480.1 480.4 474.5 465.4 455.1 441.3 431.4 416.8 401.4 391.1 386 386.8 388.5 384.6 378.8 367.7 357.8 344.6 334.6 325.1 316.4 316.9 313.7 310.6 306.8 307.2 304.9 303.1 301.5 298.6 295.1 291.3 286.1 280.7 274.7 269.1 262.1 257.9 256.2 251.9 247.3 243.7 240 237.9 234.1 229.8 227 224.8 225.6 225.6 222.5 218 208.5 215.6 219 219 220.1 221.2 208.9 203.6 196.6 194.1 199.2 203.7 205.3 203.3 201.7 200 198.3 197.9 198.5 198.4 199.1 200.9 203.7 206.9 209.7 210.7 214.6 221 224.9 228.4 232.3 232.8 231.4 229.7 228.6 228.4 228.3 229.2 230.9 231.3 231.8 232 232 231.2 229.8 223.7 224.5 231 236.7 240.5 244.4 247.4 249.9 252.2 255.1 258.9 262.7 264.7 267.8 273.3 282.4 288.6 289.3 290.7 293.1 301.1 305.1 303.2 300.3 297.8 297.4 297.4 296.2 294.8 293.9 293.1 293.7 294.8 293.9 292.5 292.5 295 296.3 295.7
317.3 316.3 323.6 343.1 365.7 387 407.6 424.1 436.1 446.1 452 457.4 460.2 463.4 464.7 462.9 459.9 455.3 450 439.9 428.6 441.4 452.1 463.8 473.2 480.6 488.8 494.4 498.5 499.6 498.7 501.1 505.3 513.6 521.6 528.1 533.5 538.1 542.3 545.8 545.7 555.8 563 566.1 570.2 574.6 574 569.9 567 563.2 558.5 551.2 543.4 536.9 529.6 521.1 511.5 505.1 501.5 497.5 490.2 489.2 489.7 490.4 492.1 491.1 485.7 475.2 463.8 449.8 437.4 423 407.3 400.2 400.3 401.9 401.4 397.9 391.3 378.1 365.3 351.9 343.5 334 324.7 321 317.6 315.5 308.1 308 307.3 305.2 302.2 298.7 295.1 290.9 286.4 281.5 276.1 270.8 264.1 258 252.9 249.1 245.7 241.2 236.7 234.2 230.9 225.2 223 222.5 224 224.7 221.4 215.7 210 216.3 218.4 219.6 219.9 212.5 204.1 199.1 195.6 196.6 205.4 207.8 206.6 205.1 203.5 201.5 199.9 199.6 199.3 198.7 200 202.3 205 207.9 210.6 213.1 215.1 219.7 225.4 229.7 234.1 235 233.3 231.3 230.2 229.4 229.2 229.6 231.5 232 232.5 233.1 233.2 232.9 232.8 229.9 225.2 224.4 233.9 239.3 243.1 245.9 248.4 250.8 254 257.7 261.5 264.4 265.6 270 277.7 285.5 289 290.3 291.7 295.2 300.8 304.4 301.2 298.4 296.6 296.9 295.8 293.9 292.6 292.3 294.4 295.4 294.6 292.4 292.8 295.2 296.1 295.8
319.2 338.5 348.3 344.3 359.4 381.6 402 418.2 432 443.6 452 459 465.8 470.3 472.9 473.5 470.7 466.3 459.2 452.1 442.7 435.7 452.3 465 475.7 485.7 494.8 500.7 504.5 506.5 506 506.9 508.9 515.5 524.3 534.1 541.6 547.9 553 556.7 561.3 566.7 572.7 578.3 583.3 583.4 580.7 575.6 571.7 567.2 561.1 553.4 545.7 538.5 532.6 523.7 518.2 514 510.3 506.6 499.9 497.8 498 499.6 501.7 500.2 493.6 483.6 470.6 455.3 442.9 428.2 416.3 416.4 417 416.6 412.8 409.8 402 388.6 370.1 361.5 348.9 339.4 332.8 328.5 323.5 318.5 312.2 309.5 309.3 306.5 303.6 300.3 296.5 292.7 287.4 282.2 276.1 270.3 263.7 258.1 252.1 247.7 243.2 239.5 234.8 229.1 225.4 220.2 218.7 219.7 221.6 221.8 217.3 212.4 213.7 217.8 219.9 219 217 211.3 202.1 199.2 197.8 195.3 201.4 207.3 207 205.9 204.8 203.4 202.4 201.5 201 200 200.7 203.2 206 208.9 211.8 214.5 216.9 220.1 225.4 230.4 235.3 236 234.4 232.4 231.5 230.8 229.7 230.2 232.1 232.7 233.5 234.2 234.3 234.6 233.6 233.7 228.9 224.7 230.9 237.7 241.7 244.7 247.7 249.9 253.2 256.9 260.6 263.4 263.9 267.6 273.2 280.8 287.5 289.4 290.9 293.4 297.3 300.8 301.6 298.8 296.8 297.1 295.8 294.4 292.2 293.2 294.9 296 295.1 292.6 293.4 295.5 295.7 295
332.4 353 366.3 368.8 356.9 373.1 392.4 409.4 425.6 438.6 449.2 459 467.9 475.9 480.8 481.8 480.3 475.9 468.9 460.6 452.1 443.3 453 465.8 477.5 489 500 506.5 510.2 511.7 512.5 512.5 515 518.8 529.2 541 550 557.6 562.9 566.3 571.5 577.5 583 587.5 591.6 590.4 585.3 580 573.5 567.8 560.4 552 545.3 538.7 533.6 528.9 523.5 519.5 516.1 512.5 507.4 503 504.3 505.9 508.1 505.8 497.8 487.2 475 457.3 442.8 436.9 434.3 433.2 430.9 429.4 423.8 417.5 408.8 395 376.3 366.1 355 345.2 338 332.4 326 321.9 314 313.9 311.6 307.9 305.1 301.7 298.1 294.1 288.8 283.4 277.8 270.7 264.9 257.8 251.7 246.8 242.3 238.2 233.3 227.8 223.3 219.5 217.5 217.2 218.8 216.7 213.8 216.7 217.6 219.7 220.6 217.6 215.5 214.1 209.3 204.1 200.3 194.6 202.1 201.2 203.2 206.4 206.6 205.6 204.7 203.8 203.3 201.6 201.8 204.2 207 209.7 212.4 215.2 218.5 222.1 224.9 230 235.2 237.2 236.1 234.4 232.9 231.9 230.7 230.8 232.3 233.5 234.5 235.3 235.5 236 234.8 234.9 233.4 226 230.2 236.1 241.4 244.6 247.3 249.4 251.6 255.2 259 262.4 263.3 265.1 269.4 275.8 282 287 289.1 291.2 294.2 296.8 299.4 298.5 297.5 297.6 296.3 294.8 291.8 291.8 294 295.6 294.8 292.5 293.2 295.2 296.2 295.1
341.5 359.6 379.2 387.6 388.4 380.9 385.1 399.9 418 432.8 445.2 458 469.2 480.5 486.7 489.6 489.1 484.7 478.1 468.7 457.4 453.7 452.1 467.6 479.5 490.9 501.6 510.1 515.1 516.9 518.3 517.8 521.3 526.5 533.7 547.8 558.5 566.4 571.3 578.3 584.9 589.1 592.4 596 597.1 594.8 590.2 581.8 573.9 565.1 557.6 550.5 543.5 537.3 535.3 532.5 528.8 524.2 520.3 515.5 511.3 506.3 507.8 509.6 510.9 508.6 499.5 488.3 477.8 458.3 456.4 450.6 446.8 443.8 438.5 436.1 433.2 423.8 412.4 398.5 382.4 370 358.1 348.5 341.4 335.7 328 326.3 318.8 315 314.9 310.7 306.5 303.7 300.6 296.2 291.2 284.9 279.7 271.8 264.4 257.9 252.8 247.2 242.8 238.9 234.7 229.7 224.9 220.2 217.1 216.7 216.3 215.7 217.4 222.9 222.3 220.8 221.2 218.2 216.1 216.8 215 210.9 207.8 197.2 195.9 197.8 202 206.5 208.6 207.6 206.8 205.9 205.8 202.9 203.1 206.2 209 211.6 213.9 215.6 219.2 223.7 227.8 232.2 237.8 239.8 239 237 235 233.8 232.8 231.7 232.7 234.3 235.3 236.2 236.8 237.5 236.7 236 234.8 227.1 230.9 234.3 241.1 244.4 246.8 248.9 251 253.6 257.3 261.6 262.8 264.4 266 271.4 278.7 283.9 286.6 288.9 291.3 293.3 295.1 297.7 297.8 298.4 297.2 294.9 291.7 291.6 294.8 295.4 293.7 291.4 292.6 294.9 296.3 295.8
344.5 365.2 388.7 401 406 406.6 399.2 393.5 406.8 425.7 441.5 455.9 470.6 482 491.2 495.7 495.4 490.9 485.3 476.9 466.2 459.5 448.3 467.9 480.4 492 503.1 512.9 518.8 521.6 525 524.5 528.4 535.2 545.3 555.6 566.8 575.9 583.1 588.9 594.2 598.5 601.4 602.8 600 597.1 593.1 583.5 572.2 561.8 553 544.4 540.2 536 534.3 533.6 530.1 526.6 522.6 518.1 514.3 509.5 510.4 511.7 511.9 507.3 498.6 489.9 481.4 467.2 465.7 459.5 455.4 451.3 447.2 441.7 438.9 429.6 413.7 399.1 384.5 372.3 359.7 350.2 343.9 338.4 332.8 328.2 325.8 317.8 317 314.1 308.7 306.3 303.2 299.8 293.7 287.4 280.3 272.8 264.1 258.2 252.2 247.6 243.2 238.3 235.1 230.6 226.7 222.7 219 217.7 217.3 216.4 221.3 224.7 224 220.5 220 218.2 217.2 218.1 218.5 216.3 213.4 206.2 198.5 197.7 201.8 208.5 210.6 210 208.8 207.9 207.3 204.5 204.4 208.2 210.9 213.4 215.9 217.6 220.1 224.8 228.6 232.5 238.9 241.7 241 239.3 237.4 236.5 235.4 233.8 233.2 235 236.2 237.3 237.9 237.8 237.9 237.1 236.6 231.2 229 233.9 240 244.2 246.2 248.3 250.4 252.5 255.8 260.3 262.1 263.7 265.2 267.4 272.7 281.1 283.3 285.3 287.8 290.7 292.1 295.1 296.5 297.7 297.7 294.9 291.6 290.6 293.9 295.3 292.9 290 291.6 294.4 296.1 295.2
345.6 369.1 395.5 411.6 419 423.5 424.2 422.5 418.8 412.6 437.3 454.5 468.6 482.5 492.7 499.4 500.5 495.1 489 483.1 474.9 467.3 462.6 468.3 480.4 492.7 503.7 514.1 520.6 526.7 530.4 532.9 536 544.8 556.1 567.4 577.9 586.9 592.4 597.5 602.7 606.3 607 606.3 601.6 597.1 592 581.5 568.9 557.3 549 540.1 534.1 530.4 528.7 528.9 527.1 524.8 521.1 517.1 513.6 510 509.3 510.7 509.3 505 499.1 491.4 484.3 479.7 473.7 466.9 459.9 456.1 449.8 444.2 440.5 431.4 416.1 400.8 386.4 373 362.3 352.8 346.5 340.7 335.1 330.6 328 323.9 320.3 317 313.4 308 304.9 302 297.4 289.6 281.6 273.5 265.7 257.4 251 246.9 243.4 238.4 234.7 231.2 226.8 224 219.9 218.9 218.3 216.5 220.1 223.5 223.1 221.1 220.1 218.9 218.1 219.1 220.2 218.7 215.1 210.4 202.4 198.7 203.2 210.5 212.4 212.2 210.9 210.1 208.6 206 205.7 209.8 212.8 215.3 217.9 219.6 221.8 224.6 228.7 232.3 239.6 243.3 243 241.7 239.8 239 238.1 235.9 234.9 235.5 237 238.4 239.1 239.3 238.5 238.1 237.7 233.7 230.2 234 238.4 243.2 246 248.1 250.1 252 254.8 259.1 261.5 263 264.5 266 269.6 274.7 280 282.2 284.8 288 289.3 290.2 291.9 295.2 297.6 295.1 290.4 288.7 292.7 295.1 293.7 289 290.1 293.8 295.9 294.5
347.1 370.2 398.1 420.1 431.6 438.9 441.2 440.5 439.9 435.7 423.6 445.8 467.3 481 490.2 497.4 500.1 496.4 491.7 486.8 482.4 476.8 472 462.2 479.3 492.2 503.2 512.9 521.6 530 537 540.9 546.2 557.4 568.7 579.1 588.8 597 601.3 605.6 610 611.7 610.4 606.7 600.3 594 585.7 575.1 562.8 553.3 544.9 535.4 526.2 522.7 521.3 521.3 519.3 518.1 515.4 512.3 509.5 507.2 505.4 506 505.4 503.8 500.4 493.2 485.7 485.1 479 472.7 467.2 461 450.5 445.9 439.3 428.7 416 401 387.7 374.2 364.3 355.5 349.2 343.3 338 334.4 331.1 326.9 323.8 320.3 314.7 310.4 306.5 302.8 296.7 289.7 280.4 273.3 265.2 255.8 250.5 245.9 242 237.7 234.9 231.3 227.5 223.5 220.7 220 218.9 217.8 219.3 222.5 222.5 222.2 222 220.6 219.9 220.4 220.9 219.6 216.6 213.3 202 200.9 207.7 212.9 214.9 215.2 213.9 212.5 210.1 207.6 206.2 211 214.9 217.6 220.2 222 223.4 225.6 228.5 232.2 242.9 245.5 245 244.2 242.8 241.8 240.7 238.5 237 236.3 237.8 239.3 240.3 241.2 240.3 239.2 238.7 236.5 231 234.2 235 242.8 245.7 247.7 249.6 251.5 253.5 257.8 261 262.5 264 265.2 267.4 271.3 276 279.5 281.8 284.9 286.7 287.9 289 292.2 296.5 295 289.4 285.5 290.6 293.9 293.1 288.7 290.2 293.3 295.5 294.2
347.3 367.7 393.5 419 437.6 448.4 453.4 454.7 455 455.1 449.3 446 463.9 477.9 486.9 493.7 498 497.2 494.6 490.8 487 483.5 476.5 465.2 481 491.1 502.6 512.4 522.1 531.1 540.3 547.7 557.8 568.6 578.6 588.7 597.7 605.5 609.3 612.2 615.7 616.1 612.9 608.1 598.2 589.4 579.9 568.4 557.6 548.7 539 529.5 520.6 507.2 508.2 512.1 510.6 509.1 507.3 504.9 503 500 497.6 499.5 499.9 500 497.9 494 490 490.2 483.9 475.9 470.7 464.7 454.7 445.6 438.1 426.8 413.2 400.9 388.1 375.6 366 358.4 352.7 347.7 340.4 337.1 333.1 327.8 323.7 320.8 315.5 310.3 306.8 302.5 297.4 290.1 281.4 273.5 266 259.3 251 244.7 239.6 237.6 234.9 231.2 227.2 223.1 221.3 220.4 220.2 219.9 219.4 221.6 223.4 224.4 224.5 222.9 221.4 220.7 220 219.2 217 212.1 197.7 205.5 210.9 214.2 217.1 218 216.7 215.1 212.6 209.9 207.8 212.7 216.6 219.6 222.4 224.9 226.4 227.4 230.1 234.3 245.2 247.7 247.3 246.6 245.4 244.3 243.2 242 239 238.1 238.6 240.2 241.5 242.5 241.9 241.6 240.6 238.8 230.6 231.9 232.6 235.7 244.9 247.3 249.1 250.6 252.7 256.5 260.5 262 263.2 264.4 266 269 272.9 276.9 279.4 282 283.9 284.8 286.6 290 294.1 294.4 289 285.3 288.2 292.2 291.7 289.8 289.8 292.3 295.2 294.3
350.5 366 388.1 410.3 434 455.5 464.4 466.1 466.2 467.4 467.9 469.1 463.6 476.2 485.6 492.1 496.9 497.5 496.5 494 491 488 481.9 475.4 477.4 490.1 500.7 510.9 521 532.5 542.8 553.2 565.7 577.5 588.1 598.3 606.6 613.8 617.8 619.6 621.4 619.8 615.8 609.4 594.7 584.1 573.2 563.4 552.4 542.3 531 522.1 512.3 504.6 495.1 498.8 500 499.1 497.3 495.1 493.7 490.2 487.9 489.7 491.5 494 494.5 494.3 492.9 492.2 484.9 477.9 472.7 466 457.2 445.9 438 424 409.5 398.4 388 377.4 367.2 361.8 358.8 354.2 347.6 341.3 334 327.8 322.8 322.5 314.7 309.1 306.8 304.2 300.1 294.1 283.6 273.7 267.6 261 249.9 242.6 239.9 237.9 234.6 231 227.6 223.7 221.2 220.5 221.8 221 220.8 220.9 224.9 227.1 226.8 225 223.3 222 219.3 218.1 212.4 205 202.4 212.1 212.7 216.9 220.2 221.6 219.6 217.8 215.5 212.6 209.8 214.5 218.3 221.3 224.6 227.9 229.7 230.4 232.2 235.6 246.7 249.6 250.1 249.6 248.5 247.1 245.8 244.7 241.9 239.8 239.4 240.6 242.8 243.8 244.2 243.4 242.3 241.1 239 237.5 237.5 235.6 238.8 245.6 249 250.3 252 255.6 259.4 261.3 262.6 263.7 264.9 266.7 270.5 274.1 276.3 278.6 280.3 281.4 283.9 287.4 291.5 293.2 288.5 284.7 286.2 290.3 290.7 289.3 290.1 291.8 294.9 293.9
352.7 370.9 392.5 417.6 447.7 464.8 473.1 476.9 478.8 480.1 480.1 480.4 477.4 479.2 485.8 492 497.3 498.6 498.5 496.7 494 492.8 487.8 485 484.3 487.6 498.9 507.6 517.8 529.2 542.7 557 572.3 585 596.8 607.1 615.9 622.9 625.3 625.6 625.1 621.3 614.9 604.5 592.3 580.9 571.9 561.1 550.2 538.4 525.7 509.6 500.4 494.9 487.6 483.5 487.5 488.8 486.8 485 483.3 480.1 477 477.2 479.3 484.4 488.2 490.1 490.9 491.8 484.4 478.7 472.8 464.5 455.9 447.3 436 420 406.9 394.3 385.5 377.2 368.5 364.6 361.5 355.8 351.2 342.8 334.3 326.6 320.1 318 312.7 308.4 308.7 305.6 301.6 294.7 284.2 275.6 267.9 260.6 252.1 245 241.3 237.4 234 230.5 225.9 223.8 221.9 222.4 222.1 221.7 221.2 222.1 226 228.9 228.6 227 225.4 222.9 220 216.9 207.2 202.8 204 212.5 216.6 220.5 224.2 225 222.9 220.5 218.4 215.1 213 216.6 220.1 223.4 226.9 231 233.2 234.1 235.2 238 240.9 251.9 253.2 252.7 252 250.4 248.9 247.9 246.1 242.1 241.4 241.8 243.7 245.2 246 245.1 244 242.8 241.1 238.6 242.8 239.6 236.8 245.8 249.3 250.5 251.5 255.3 259 261 262.1 262.8 263.7 265 267.7 271.2 273 274.9 276.4 278 281.3 285 289.2 292.3 287.8 284.1 285.9 287.5 290.2 289.5 290 291.4 294.9 293.8
353.7 370.9 395.6 418.4 448.1 469.2 481.6 488.3 491.8 493.5 491.7 487.7 486 479.6 488 493 498.3 500.2 500.1 498.9 497.2 495.6 492.1 492 491.8 485.9 500 508.8 518.7 530.9 546 562.2 577.2 591.4 604.7 615.9 625.9 631.6 632.3 630.8 626.9 621.8 613.2 601.2 589.2 578.5 569.4 557.7 547.1 535.1 522.9 511.4 500.8 489.6 474.6 461.8 473.2 476.4 475.9 474.4 472.3 469.8 465.8 461.9 464.5 469.4 474.6 479 480.9 483.7 481 471.5 467.3 459.7 447.5 439.1 428.7 416.2 402 386.9 378.6 371.1 367.5 364 359.6 353.4 347.3 340 331.6 323.9 315.6 311.5 309.3 308.3 306.1 303.6 299.4 292.1 283.7 274.3 266.6 261 254.4 246.4 241.9 237 233.9 229.9 227.3 225.5 223.8 223.2 222.7 222.2 221.8 222.2 226.1 228.9 229.9 228.6 226.6 223.7 220.5 217.6 207.8 205.3 202.4 216.5 218.8 223.6 227.5 228.3 226.2 223.7 221.4 217.7 216.3 219.5 222.7 226.4 230.3 234.4 236.7 238 238.6 241.1 242.4 254.8 256.4 256.3 255.5 253.5 252.2 250.6 248.6 244.6 243.4 243.5 244.5 246.1 247.7 246.9 245.8 244.4 243.1 240.7 244.9 240.6 238.6 245.7 249.8 250.6 251.5 254.8 258.7 260.5 261.3 262.1 263 264.1 265.3 268.3 270 271.1 272.6 275.1 279 282.8 287.6 290.9 287.9 283.9 284.6 288.2 290.7 290.1 290.5 291.8 294.9 295
354.4 375.7 392.1 414.8 439.2 459.8 479.1 491.7 498.6 504 501.2 494.6 492.3 488.6 492.5 496.5 500.4 502.6 502.9 501.4 500.3 498.3 497.4 496.9 497.3 494.4 503.2 512.1 522 534.7 551.9 567.9 583.2 597.2 612.1 624.8 636.1 641.6 640.1 635.3 629.5 621.8 610.7 597.7 584.7 574.1 564.5 553 542.3 529.6 518 507.1 497.4 488 477.2 465.1 457.2 464.6 465.3 463.8 462.2 459.7 456.1 449.7 448.9 450.3 457 460.3 462.8 462.6 459.3 453 448.3 441.6 431.8 423.3 416.1 404.4 392.6 377.1 369.5 362.9 359.2 356.3 351.2 346.1 339.8 331.9 322.6 315 308.1 303.6 304.7 303.7 302.3 298.7 293 287.8 281 272.1 265.2 258 251.7 246.3 242.3 237.9 234.2 230.6 227.7 225.4 224.5 223.9 223.4 222.9 222.5 222.3 224.8 228.7 231.2 230.4 229.3 225 222 218.4 210.4 206.2 201.1 217.5 220 224.4 228.3 230.7 229.2 227.1 223.3 219 220.1 224 227.2 230.7 233.7 237.7 240 241.3 242 243.3 244.9 257.8 259.9 260.6 259.2 256.5 254.8 252.9 250.3 246.8 245.4 245.5 245.5 248 248.8 248.7 247.9 246.4 244.8 242.3 245 246.4 237.6 239.5 244.7 249.5 251.5 254 258.4 259.8 260.6 261.5 262.3 263.3 264.4 266 268.1 268.8 269.1 272.3 276.5 280.5 284.7 289.3 288.1 283.5 284.8 288 291.8 291 291.2 292.9 295.8 296.5
351.9 368.2 385.1 403.1 424.6 447.4 465.8 484.5 495.8 504.7 506 501.1 498 494.3 496.8 500.7 503.6 505.3 505.8 505.1 504.5 502.9 501.4 501.3 501.9 501.6 506.6 516.5 525.8 539.2 556.6 571.9 587.5 603.9 619.4 632.4 643.9 649 646.6 640.1 631.1 620.6 607.5 594.2 579.6 566.7 554.6 545 534.7 523.6 512.8 501.5 491.5 482.4 474.4 464.5 446.3 449.8 453.5 453.1 452.2 449.7 444.7 437.8 431.9 433.2 434.7 437.3 438.9 440.3 438.4 432.6 427.8 421.6 412.7 402.8 394.8 385.9 375.6 365.1 358.1 353.2 349.2 344.5 339.6 335.5 329.5 322.5 314.7 309.6 305.2 301.4 297.3 296.3 296.3 293.2 286.6 283 276.8 267.5 260 249.1 247.2 246.2 242.7 238 234.7 231.3 228.9 227.7 226.5 225.3 224.4 223.9 223.1 223.6 226.1 229.9 233.5 232 230 226.6 222.9 219.1 212.5 205.7 201 217.6 221.8 224.3 228.6 232.1 232.4 230.3 225.9 221.7 224 227.5 230.9 233.6 237.2 240.1 243.3 244.9 244.6 245 247.1 259.1 262.7 263.7 262.9 259.8 257.5 255.2 251.7 249.3 247.4 247.3 247.2 249.5 250.1 250.2 250 248.5 246.9 245.1 245.6 248.2 243.3 242.2 242 242.5 248.9 252.9 258.1 259.1 259.9 260.8 261.6 262.5 263.5 264.5 266.3 266.8 267.8 269.4 273.7 277.9 281.4 283.7 282.6 283 286.1 289.9 293.1 292.9 291.9 294.2 296.8 297.5
349.3 363.5 379.5 396.4 413.8 433.4 454.3 474.1 491.1 501.4 505.7 504.9 501.8 498.1 501.4 504.5 506.8 508.8 509.6 509.7 509.3 507.8 507 506.2 507.5 508.2 505.3 518.3 529 543.4 561.7 575.7 591.9 608.9 623.4 637.2 649.1 654.9 650.6 642.4 630.5 618.2 605.3 590.9 576.2 559.9 545 533.6 524.5 516.2 506.9 495.9 487.6 477.9 467.6 460 448.7 434.5 440.7 441.1 439.9 438.8 433.3 424.9 420.1 416.4 413 412.6 412.5 412.8 411.6 408 402.6 397.3 388.9 380.2 370.6 364.8 360.3 353.1 349.8 345.4 340.5 336.1 331.2 327.8 325.2 319.3 314.6 307.2 303.3 300.1 294.1 291 283.2 286.7 282.7 279.4 272.7 261.7 250 250.3 245 241.1 239.9 236.5 233.5 231.8 231.3 229.3 228.4 227.2 226.1 224.9 223.7 224.7 228.3 230.7 235 234.1 230.3 227.4 223.7 219.5 213.2 204.7 206.9 218.6 223.1 223.9 229.4 233.1 235 233.6 229.1 225.1 225.8 229.6 233.8 236.7 239.8 242.6 245.7 248.3 249.4 246.4 250.3 264.7 265.2 266.5 266.3 263.3 260.5 258.8 254.4 251.4 249.3 249.5 249.1 250.7 251.4 251.7 251.8 250.6 248.9 247.5 248.6 248.5 248.8 246.1 246.4 245.6 242.3 250.2 257.1 258.2 258.7 259.6 260.6 261.8 262.7 263.7 264.5 265.4 266.5 268.1 271 274 276.1 279 284.6 285.5 288.4 291.6 295.2 295.5 293.9 296.4 298.1 299.4
349.7 359.6 373.4 388.9 403.5 419.2 439.3 462.1 485.3 497.7 503.5 505.9 503.9 501.5 504.1 507.6 511.5 514.2 515 515.1 513.2 513.1 512 512.3 511.8 513 514.3 519.3 530.1 547.2 565.3 578.4 596.1 612.9 627.2 641.4 652.6 656.9 652.3 642.4 628.3 616.4 604.1 589.4 572.2 554.4 536.3 525.5 516.2 508.2 499.9 490.6 481.6 471.3 463.2 453.8 444.4 431.8 428.7 427.5 427 423.7 418.8 412.8 408.8 402.8 396.9 391.4 388.1 387.5 385.6 382.1 377.4 371.5 367.5 363.8 358.6 356.5 352.9 347.8 343 339.1 334.3 329.9 325.6 322.5 321.9 318.3 311.7 310.1 307.4 309.6 303.3 293.6 288 278.2 273.1 272.3 262.7 257.7 254.6 250.4 245.7 242.4 238.9 237.1 235.3 233.1 230.9 229.3 228.3 228.1 227.1 227.7 226.6 227.3 229.5 231.4 235.7 233.4 231.1 228.2 223.1 216.4 206.8 204.7 214.3 219.8 224 225.7 230.8 234.5 237 236.8 232.6 229 230.1 233.3 236.3 239.5 242.3 245.1 247.8 250.4 253.1 251.9 255.2 254.9 268.7 269.7 269.8 267.5 265.2 262.4 257.4 253.7 251.3 252.1 251.3 251.5 253.5 254.2 254 253 251.4 249.9 250.6 250.5 251.7 252.1 252.1 251.9 246.1 243.1 253.5 256.9 257.3 258.6 259.9 261.1 262 263 263.4 264.3 265.8 267.7 269.8 272.1 276.7 282.8 287.4 287.9 289.4 293.5 297.5 297.5 296.3 297.2 298.7 300.2
353.8 356.8 372.7 389.5 407.9 426.8 448.7 466.1 484.3 496.6 504.2 507.6 506.6 504.9 506.9 511.1 516 519.1 519.3 519 518.3 517.8 518.6 519.1 518.3 519.7 521.4 521.9 533.2 550.2 567.9 583.3 600.4 616.3 630.6 643.5 653 655.2 649.4 640.2 626.9 615.9 603.5 589.1 570.7 550.6 534.3 519 508.2 500 492.8 482.5 471.1 460.9 453.2 446.3 439.5 431.4 423.8 418.1 415 413.9 410 405.6 400.9 395.9 391 386.8 380.4 376.4 372.3 374.2 370.4 365.1 361.4 356.9 352.4 349.3 346.2 343.4 339.4 337.6 337.2 334.6 331.9 325 317.9 319.5 322.1 317.3 312.1 310.9 302.5 295.3 288.7 283.5 280.7 277 273.8 265 258.8 254.2 246.7 242 241 239.5 236 232.7 230.6 229.3 228 227.6 227.4 230.8 230.5 229.8 230.7 232.1 233.8 233.2 231.8 228.5 219.5 209.9 205.8 210.9 216.7 221.7 225.8 227.9 231.2 235.3 239 240.1 236.3 232.6 233 236.1 239.1 241.4 244.1 246.8 249.7 254.5 257.6 257.8 255.2 259.3 268.5 272 272.2 271.3 269.2 265.4 260.6 256.1 253.7 254.8 253.2 252.7 255.3 256 256.7 255.9 254 252.6 252.6 253 252.8 254.3 254.6 253.7 251.9 248.8 244.6 252.6 256.6 257.9 259.1 260.4 261.3 261.9 263 264.1 265.1 267 269 273.2 277.2 281.2 285.6 289 290.8 294.9 299.2 300.7 299.3 297.9 299.5 301.6
360.8 355.4 367.7 386.7 408.5 432.7 458.5 478 489.9 500.1 506.9 509.2 508.7 507.6 509 512.5 517.1 520.5 522 522.7 524 524.4 525.1 524.2 525.2 526.3 529.4 530.5 537.6 552.1 570.1 586.8 602.3 616.9 629.8 640.7 649 649 644.1 635.5 626.3 615 602 587.5 570.7 550.7 528.7 512.6 501.1 490.3 479.3 472 464.7 455 446.2 437.6 426.3 421.4 417.6 421.2 414.1 406.6 404.2 401 396.4 393.6 387.3 386.2 384.7 382.3 378.8 374 368.8 367.9 365.6 362 359.6 355.6 352 348.1 346.1 344.5 341.7 338.7 335.6 330 324.9 323 324.9 319.4 314.1 308.1 303.6 297.5 290 284.7 281.3 277.1 269.7 261.1 258.5 254.6 247.3 245.4 241.6 239.2 235.7 232.5 230.4 229.2 227.9 227.3 227.1 232.2 234.4 233.3 233.1 233.4 233.8 233.3 230.1 222.8 215.1 203.2 211 214 218.9 224.5 229 231.4 230.4 236.7 241 242.9 239.5 236.2 235.1 238.4 241.6 243.4 245.8 248.4 251.6 258.2 260.7 261.8 260.5 262.4 268.7 272.3 273.5 274.1 271.8 268.2 263.3 258.4 255.7 257.1 255.8 254.4 256.7 257.8 258.7 258.5 256.6 254.9 255.1 254.9 254.2 255.7 255.9 255 253.2 252 247.6 249.7 255.7 257.2 258.4 259.6 260.6 261.5 262.4 263.2 264.2 265.5 267.4 271.4 275.5 279.5 283.6 289 292 296.1 300.9 302.8 301.7 299.6 300.4 303.3
364.7 357.2 364.1 382 408.7 437.7 466.9 489 496.9 499.3 505.4 508.4 508.5 507.8 508.6 511.7 515.3 520 523.8 527.7 529.5 531.1 532.1 530.9 531.4 532.6 535.8 539.2 542.4 552.1 569.7 587 601.7 614.4 626.5 636 642.7 642.4 637.8 632.6 624.7 613.3 599.2 580.9 555 539.3 524.9 519 510.4 501.1 484.9 470.1 456.8 447.1 440.2 429.7 431.5 431 431.5 433 430.8 424.5 416.5 405.1 400.8 396.6 392.7 390 386.5 384.4 381.9 378.7 374.8 371.6 368.7 365.9 362.9 359.7 356.6 353.8 351.5 349.5 346.2 343.5 340.2 336.6 331.9 325.9 323.9 320.7 316.5 310.8 305.3 301.2 291.9 285.7 281.3 275.6 268.3 262.3 257 252.6 250.1 245.8 240.9 237.6 234.5 231.3 229.8 228.7 227.5 228.1 229.9 234.3 237.8 236.4 236 234.6 234.1 231.9 225.1 219.3 209 207 215.3 218.9 223.1 228.1 232 233.3 232.8 236.8 241.8 245.6 242.9 239.6 237.6 240.9 243.9 245.7 247.6 250.1 253.3 261.8 263.6 266 266.3 266.8 268.8 272.4 274.8 276.3 273.7 270 265.4 260.7 258.7 259.3 258.7 256.9 258.3 259.6 260.9 260.8 259.3 257.7 257.2 256.7 255.6 257.2 257.3 256.3 254.7 253.5 248.4 245.6 251.1 256.4 257.3 258.2 259.6 260.5 261.4 262.3 263.3 264.3 265.9 269.6 273.7 277.8 282.3 288 292.1 297.8 302.7 305.4 303.8 301.6 300.7 303.7
368.5 359.8 362.4 378.4 405.8 435.1 466.7 495.2 500.2 499 498.6 499.7 500.9 501.4 501.9 507.2 513.1 519.2 524.2 531 536 536.7 537.2 537.8 537.6 539.3 543.9 547.7 551.6 557.9 569.3 587.1 600.5 612.3 622.9 631 634.8 635.5 634 629.3 622.5 612.1 598.2 584.8 569.3 554.1 542.9 531.1 519 504.8 487.2 472.2 461.5 451.1 440.6 439.8 441.4 440.6 443.5 442.9 440.7 435.3 430 421.8 413 406.2 399.3 394.9 392 388.7 385.9 383.1 379.9 376.6 373.1 370.2 367.4 364.3 361.5 359.5 357.5 355.7 352.9 349.7 346.1 342.3 337.6 332 327.4 323.4 319.4 314.5 306.8 302.7 294.8 286.7 280.4 274.5 268.2 263.5 256.9 254 252.9 248.3 239.5 235.6 233.2 230.1 229.1 228.3 227.6 228.7 232.3 234.8 238.8 239.1 238.4 236 233 228.9 222.4 216.3 204 209.6 218.1 222.5 226.3 230.5 233.8 235.3 235.8 236.6 243.8 247.4 245.9 242.5 239.9 243.4 246.2 248 249.7 251.9 256.4 263.9 268.6 270.8 271.3 270.5 272.7 273.5 276 275.2 275.7 271.6 266.9 263.3 260.5 261.5 261 259.5 259.2 261.4 263 263.3 262.3 260 259.1 258.5 257.9 258.6 258.9 257.9 256.5 255.1 253.2 250.4 246.9 253.7 255.7 256.8 258.5 259.5 260.4 261.4 262.4 263.4 264.5 268 272.3 276.5 280.6 286.3 292 297.5 302.8 306.8 305.8 303.5 301.5 304
378.4 365.1 362.7 375.2 398.2 425 452.6 475.1 482 488.7 487.4 487.2 490 493.2 497.1 503.6 509.9 516.3 523.2 531.6 537.7 539.7 540.9 543.2 545 549.9 555.3 559.4 561.9 571.2 580.4 588.2 601 610.1 617.9 624.7 628.6 629.2 628.7 624.3 617.5 608.4 597.1 585.4 573.3 560 546.4 531.6 518.8 503.9 487.2 472.7 460.3 449.6 448.2 451.4 453 452.1 454 452.7 449.3 444 437.3 430.1 423.1 415.2 406.5 400.6 396.6 393.2 390.3 387.4 384.6 381.5 377.8 374.9 371.9 368.7 365.9 364.3 363.3 361.1 358.3 355.2 351.9 348.1 344 340.6 333.3 327.9 322.4 316.8 310.9 304.3 297.3 288.3 281 273.6 267.2 262.1 255.2 253.5 251.4 244.5 237.5 233.8 231.7 230.4 229.7 228.3 227.7 229.6 233.2 236.4 239.5 241.4 240.8 236.2 231.1 226.1 221.9 217.2 206 213.5 222.3 225.1 229.3 234.6 236.3 236.8 236.8 240.7 245.4 248.5 248.1 245.5 242.7 245.8 248.5 250.2 252.4 254.9 259.3 266.9 272.5 274 274.8 274 274.7 273.8 276.7 277.3 270.7 273.7 269.4 265.9 262.4 263.2 262.6 261.4 260.9 263.4 265.2 266.1 265.4 263.1 261.3 260.6 259.9 260 260.6 259.5 257.9 256.4 254.8 255 253.7 246.3 253.8 257.2 257.5 258.4 259.5 260.5 261.7 262.8 263.5 266.4 270.2 275.1 279.3 284.4 290.4 295.2 300.1 307.1 307.5 305.3 303 303.9
388.8 369.9 365.8 369.6 390.5 412.4 431.5 447.7 454.5 463.5 466.1 470.2 477.5 483.9 490.4 498 504.2 510.6 520.4 530.2 537.4 543.3 546.1 549.4 554.3 559.9 566.4 571.1 577 577.3 592 597.3 598.7 607.4 614.6 620 622.6 622.3 620.9 617 611.2 603.5 593.8 582.8 571.9 559.3 544.3 528.6 514.5 499.7 484.1 471 455.1 456.7 460.1 462.6 463.5 462 463.2 460.9 457.1 451 443.6 436 430.4 423.4 414.5 407.2 403.1 398.5 395.1 391.7 388.9 385.9 382.5 379.5 376.6 374 371.5 370.4 369.3 367.4 364.7 362.7 359.6 354.9 351 345.6 339.1 333.1 326.4 319.9 313.2 306.8 297.8 290.5 282 274.7 267.7 260.1 254.5 250 246.3 240.5 236.6 233.4 232.5 231.1 230.4 227.4 227.8 230.3 233.1 236.9 239.7 242 241.8 237.6 233.1 226 221.2 213.9 206.9 217.8 225 228.3 232.7 238.2 238.8 239.1 239.4 243.5 247.5 250.1 250.4 248.8 245.5 248.6 250.8 252.9 255 258.5 261.8 268 277.1 278.2 278.2 277.4 276.7 276.2 277.1 278.3 276.8 274.2 271.4 268.6 264.9 265.7 264.7 263.8 262.8 265.3 267.2 268.4 267.8 265.7 263.7 262.7 262.2 262.5 262.7 261.5 260.1 258.5 256.8 256.3 256 250 250.2 254.8 256.7 257.8 258.8 259.9 261 262 262.8 264.5 268.1 271.9 277.1 282.6 288.6 293.8 299.2 306.3 308.1 306.8 304.2 304.9
398.6 378.4 369.3 368.1 380.2 399.6 415.4 427.2 436.2 443 449.2 456.6 466 474 482.3 490.3 496.8 508.5 520.2 530.8 540 546.7 553.5 558.6 564.1 570.8 578.5 586 592.3 595.5 599.1 603 604.8 607.6 611.6 614.8 616.5 615.5 613.1 609.4 605.3 598.3 588.2 576.6 565.1 553.2 539.7 524.3 507.7 493.8 479.1 467.1 466.2 467.9 468.9 471.3 472.7 472.7 471.3 469.1 463.8 457.4 450.3 442.6 437 431.3 422.1 415 409.7 404.4 400.3 396.8 393.3 390.2 387.3 384.8 382.3 379.7 378.1 376.9 375.7 374.6 372.9 371 367 362 357.3 351.1 344.9 337.4 330.7 323.8 316.9 308.5 300.3 291.8 282.9 275.3 268.5 260 252.4 248.2 245.6 239.5 236.6 234.9 234.4 233.1 230.6 226.9 227.6 229.4 231.2 235.1 238.2 242.3 244.1 239.7 235.1 225.9 220.8 209.5 209.2 220.4 226.9 230.3 234.5 240.7 240.7 240.7 241 244.7 248.5 251.6 252.5 251.9 248.1 250.4 253.3 255 257.6 262.1 267 272.3 279.9 281.9 281.4 280.6 279.9 278.4 277.4 278.9 278.6 276.3 273.5 270.7 266.6 267.6 267 266.3 264.8 267 269.2 270.3 269.9 268.4 266.4 264.8 264 264 264.5 263.5 262.3 260.5 258.7 257.4 257 256.7 249.2 252.6 255.8 257.2 258.3 259.4 260.4 261.3 262.2 263.4 266.1 269.7 275.2 280.9 286.9 292.2 299.5 306.7 309.2 308.6 306 306.3
411.9 390.5 374.7 370.2 377.5 389.5 403.4 413.8 422.4 428.1 436.8 445 454.7 462.6 472.5 473.9 493.5 509.4 524.8 536.8 546.4 555 562 568.6 576.2 588.3 597.8 605.1 610.2 611.9 611.3 611.5 610.7 612 611.7 612.5 611.7 609.2 607.4 604.1 598.6 590.9 579 567.6 557.3 545.9 533.3 517 498.8 486.3 474.3 473.8 482.1 480.8 480.2 481.1 481 481 478.5 475.6 472.1 466.2 458.8 450 442 435.8 428.6 421.7 416.5 411.5 406.9 402.5 398.9 395.9 392.8 390 388 386.3 385.2 384.3 383.5 383.3 381.8 379.5 374.8 368.5 363.9 357.9 350.6 343 335.6 328.3 320.9 311.5 303 292 283.4 275.2 268.6 262.7 251.6 247.3 245.8 243 237.3 236.1 236 234.5 229.4 226.2 228.1 228.7 229.9 232.8 236 242.4 245.8 242 236.5 227.3 219.9 210 209.8 221 228.5 232.3 235.9 241.6 241 240.3 241.7 245.8 249.4 253 255.2 255 251.8 251.6 255.7 257.6 260.6 265.1 271.6 277.2 282.7 284.9 283.5 282.2 281.3 279.8 278.2 279 279.6 278.2 275.5 272.8 269.1 269.5 268.5 268 267.3 268.6 270.9 272 271.5 270.7 268.7 267 265.9 265.3 265.9 265.2 264.1 262.4 260.5 258.7 257.2 256.5 249.6 252.5 254.9 256.5 257.7 258.8 259.8 260.7 261.6 262.7 265.2 269 273.8 279.3 285.3 290.9 297.6 304.7 309.9 311.1 308.6 308.3
425.7 398.1 378.9 375 376.5 387 398 406.2 413.1 419.3 427.4 436.2 445.1 450.2 464.6 481.1 499.4 517.8 532.3 546.7 557.4 565.9 573 580.7 589.6 600.8 609.5 616.1 619.2 619 619.5 620.1 618.3 616.4 613.9 610.6 609.2 602.5 600.2 596 590.3 581.2 573.4 563.2 550 536 522.3 512 497.8 489.9 497.3 501.3 500.7 497.6 497.6 493.2 492.5 492.3 491 488 484.9 478.8 471.3 460.6 449.8 442.1 435.8 430.2 424.3 419 413.9 408.7 404.6 401.7 398.9 397.1 395.4 394.2 393.2 392.4 391.7 392.4 390.7 388.2 382.2 377 372.1 365.3 357.3 349.3 342 334.8 326.4 317.1 306.7 292 283.1 275.3 269 261.2 251.3 245.8 243.4 240.3 236.7 235.9 236.8 233.7 227.9 225.9 227.1 227.2 227 227.5 234.8 241.4 246 243.7 238.5 230.7 220.1 209.7 209.5 221.5 229.1 232.8 235.1 238.9 239.8 238.7 241.6 246.3 250.3 254.6 258.1 259.1 256.4 254.8 258.8 260.2 263.1 268.3 275.6 280.9 285.5 286.7 284.7 283.4 283 281.6 279.6 280.8 281.2 279.8 277.4 274.8 271.7 271.3 270.7 270.1 269.6 270.6 272.2 273.7 273.3 272.4 271.1 269.5 267.9 266.8 267.3 266.8 265.7 264.2 262.4 260.6 258.7 256.4 249.9 251.8 254.5 255.9 257.2 258.1 259.1 260 261 262 264.2 268.1 272.7 278 284.3 290.8 296.3 301.9 310.1 312.7 311.2 311
439.4 407.7 386.3 380.5 381.8 390.9 396.8 402.8 407.6 419.3 427.4 435.5 443.1 450.9 467.4 488 509.3 530.4 545.3 558.3 567.7 576.9 583.1 587.6 596.3 607 614.8 619.8 622.9 622.7 623.5 623.2 621.2 617.9 614.3 610.4 605.7 601 586 581.1 577.9 565.4 561.3 546.4 526.8 515.8 512.1 507 503.3 504.7 514.4 517.1 517.7 516.6 513.8 511.6 508.5 507.5 505.8 502.6 500.3 494.5 485.4 473 459.9 451.8 444.7 437.6 432.4 427.1 421.1 414.7 410.3 408.9 406 403.9 403.1 402.3 402.7 402.5 402.3 402.4 400.4 397.6 392.3 387.6 381.3 374 364.6 356.5 348.7 341.4 333.3 323.6 311.2 296.4 284.3 276.2 269.1 261.9 251.9 245.3 241.2 238.4 236.3 235.8 239.1 231.4 228.1 226.1 225.6 224.4 223.8 225.8 233.5 239.3 246.5 246.1 239.6 234 220 209.6 209.4 222.7 227.7 232.8 234.3 236.8 238.2 238.5 240.6 245.9 250.2 256.5 260.6 261.7 260.7 260.5 263.3 265.4 267.9 272.3 279.4 284 288.2 289.1 286.9 286.6 285.7 284.1 282.1 283.1 283.1 281.6 279.6 277.3 274.3 273.4 272.9 272.3 272.2 272.9 274.7 276.1 275.8 275 273.3 271.7 270.1 268.8 268.6 268.4 267.2 266 264.3 262.4 260.3 257.4 253.5 250.4 253 254.7 256.4 257.3 258.2 259.2 260.1 261.2 263.1 267 271.7 277 282.8 288.9 296.2 301.6 308.8 313.5 313.6 313.2
449.1 413.5 393.1 392.3 387.2 393.5 401 411.1 416.8 426.9 430.7 439.1 449.6 458.9 467.7 490.5 520.6 543.5 556.7 568.6 578.5 587.1 593.4 596.5 599.4 607.5 614.9 620.5 623.8 624.9 624.9 625 623.5 619.1 614.4 611.3 607.4 603.3 594.8 594 589.3 582.5 574.1 562.1 548.4 535.1 529.6 520 519.5 517.6 526 531.5 533.1 532 532.4 532.3 530.3 525.7 525.5 524.7 522.4 516.4 505.8 490.7 476 464.3 455.6 448.8 442.3 437 430.3 424 418.5 415.2 413.4 412.5 411.8 412.6 413.1 413.4 413.7 414.5 412.5 409.6 404 399.9 393.2 385.6 376.2 366.2 357.2 348.7 340.8 331.2 316.8 302.1 287.6 277.3 269 261.6 253.2 245.4 242.5 238.2 235.9 234.5 234.2 230.6 228.1 226.3 225.4 227.3 223.7 225.4 231.4 237 246 246.5 240 230.6 220.9 209 220.8 222.2 226.3 233.3 233.2 234.7 236.6 238.9 240.5 244.5 249.7 256 262 264.4 265.4 265.3 268 269.6 272 275.9 283.8 288.6 291.5 292.7 291.6 290.1 288.5 286.5 284.4 284.9 285.2 283.7 282.1 279.4 276.7 275.6 275 274.5 275.1 275.8 277.1 278.5 278.8 277.2 275.4 273.8 272.4 270.9 270.1 270.4 268.8 267.6 266.1 264.2 261.8 258.6 255.4 253.3 252.4 253.9 255.6 256.5 257.4 258.3 259.3 260.4 262.2 266 270.7 275.9 281.8 286.9 293.5 301.6 309 313.4 315.2 316.1
449.2 417.9 408.2 409.6 391.9 402.9 410.7 421.8 427 438.3 436.2 448.5 462.4 474.1 489.3 511.5 531.5 553.8 565.1 575.8 584.1 591.3 597.8 601 603.6 608.2 615.3 620.4 624.3 626.3 626.8 626.2 624.2 621.5 616.7 613.1 609.5 605.7 602.2 591.1 587.4 578.5 579.3 569.6 556.7 555.4 550.8 545.5 538.9 529.8 541.2 545.9 547.8 547.1 548.1 549.4 547.9 545.8 546 544.8 542.5 537.8 526.9 509 493.4 480.3 470 461.3 455.3 448.9 440.6 433.4 428.2 425.3 423.3 423.3 423.6 423.8 425.3 427.2 428.8 429 427.9 425.1 419.8 414 405.5 396 387.4 377.9 367.1 358.2 349.8 339 325.8 309.3 293.8 279.4 269.2 260.9 253.2 245.6 243.1 239.4 235.6 233.9 233.2 230.8 228.4 226.1 224.9 226.4 223.1 225.8 229.5 234.4 240.7 244.9 239.5 228.5 219.5 215.7 222.8 221.8 220.4 232 232.6 233.2 235.9 239.2 241.2 244.3 248.9 255.3 262 266.8 268.7 270.1 272.7 273.5 275.6 279 286.7 292.6 295.3 295.4 294.6 292.4 290.5 288.1 286.5 286.6 286.8 285.4 283.9 281.9 279.2 277.9 277.2 277.3 278 278.7 279.6 280.8 281.3 279.3 277.6 276 274.6 272.8 272 272.6 271.5 269.8 268 265.7 263 258.9 256.1 255.1 253.4 253.7 254.8 255.7 256.6 257.5 258.4 259.8 261.5 264.9 269.2 274.2 280.3 285.3 291.7 300.8 308.7 313 316.8 318.4
443.7 415.6 425.1 428.4 404.5 416.4 429.9 441.9 441.2 450.1 457.7 454.5 471.2 493.1 519.4 536.5 548.4 560.3 568.9 578.9 587.4 594.1 599 602.3 604.4 606.8 613 618.5 622.8 625.1 626.7 625.5 623.4 621.5 618.3 615 612.8 608.4 603.9 600.3 596.3 590.3 585.5 581.8 578.8 577.7 572.4 566.2 559.6 554.6 550.5 557.4 562.2 566.8 566.7 565.2 563.4 562.8 562.3 560.1 557.5 553.3 546.4 530.3 513 500.3 489.7 480.2 471.1 464.8 455.8 447.8 442 438.2 436.1 436.1 436.3 436.5 439.5 442.9 445 446 444 441.5 436.7 429.1 420.9 409.8 400.4 389.6 378.6 369.2 360.2 347 334.7 318.2 301 286.2 272.8 263.1 254.7 246.6 241.3 238.7 237.6 235.2 233.6 231.6 229.8 225.9 224.3 224.8 222.3 224.2 229 232 235.8 237.7 234.2 226.8 212.3 220 222.4 219.9 217.8 224.5 228.7 228.8 235.9 239.2 241.4 245.3 248.8 254.9 260.1 266.5 271.2 273.9 277 277.2 279.6 282.2 288.6 295.2 299.5 298.8 297 294.6 291.9 289.3 288.7 288.5 288.3 287 285.7 283.8 281.6 280.2 279.6 279 279.2 280.1 281.2 282.7 283.5 282 279.8 278.1 276.3 274.4 273.5 273.4 273 271.2 269.6 267.1 263.7 258.7 256.8 255.4 254.3 253.4 254.2 255.1 256.1 257.1 258 259.3 261.1 264.1 268.7 273.1 279.2 285 289.1 299.4 307.3 313.1 317.5 320.1
444 441.1 446.7 446.3 415.2 434.7 448 459.4 457.7 461 473.4 459.1 480 507.3 534 545.6 553.9 564.3 575.9 583.4 586 592.9 598.9 602.5 604.6 605.6 608.6 613.5 617.3 620.3 621.3 621.6 621.5 620.4 619.3 618.2 616.8 614.2 610.9 606.2 600.6 594.3 590.2 588.7 587.2 586.9 581.8 578.7 572.3 567.3 562.5 568.1 573.5 578.2 578.5 578.6 578.1 577.8 576.3 572.6 569.3 566.8 561.4 550.8 533.1 520.6 510.8 500.9 492.5 484.1 474.3 466.1 458.7 453.6 452.4 451.7 451.2 453.2 457.2 459.8 461.8 462.7 461.6 459.2 453.5 446.7 439.2 429.1 416.4 405 392.8 381.7 372 358.7 343.8 328.2 312 296.2 279.1 269.2 258.1 247.3 239.7 236.3 234.9 234.6 233.3 230.6 229.9 226.6 223.6 222.4 219.5 224.5 226.4 228.7 229.7 231.2 228.8 222 211.9 219.2 221.3 217.9 217 219.6 222.5 225.9 232.9 236.8 240.2 244.2 249 253.9 258.7 263.9 272.8 275.9 279.3 281.7 283.6 285.7 291.2 297.8 302.7 301.5 298.5 295.8 293 291.5 290.8 290.3 289.5 288.6 287.5 285.6 283.7 282.4 281.8 281.3 280.7 281.1 282.3 283.8 285.1 284.2 281.6 278.7 276.5 274.3 273.2 273.6 274 272.8 270.9 268 262.4 262.2 259.2 255.8 255.4 253.7 254.2 254.7 255.7 256.7 257.6 258.7 260.6 263.9 268.7 274 279 284.9 289.4 298.7 306.9 312.5 318 321.9
449.6 464.7 475.8 463 432.3 451.3 462.7 473.4 476.4 478.4 492.1 482.3 487.9 505.9 537.8 553.7 562.7 571.3 580.8 588.5 592.7 595 594.9 601.1 603.1 603.5 604.3 605.5 607.9 611.4 614.8 617 618 619.4 620 620 619.8 617.4 613.8 608.7 603.2 597.2 592.4 589.9 587.9 586 583.7 580.8 577.6 572.4 571.6 575.5 580.5 584.7 586.7 587.3 587.6 587.7 587.6 585.9 583.4 579.9 576.3 570.6 559.6 544.3 536.9 526.6 514.1 503.4 494.2 486.5 478.4 473.3 469.7 467.9 469.2 472.2 475.7 478 479.6 480.5 479 475.5 470.5 464.3 457.1 447.1 435.4 423.3 412.9 400.3 387.3 374.1 359.2 341.6 323.1 306.8 290.3 275.2 262.1 249.8 239.3 234.6 235.2 235 232.2 229 227.6 227.1 222.5 219.1 217.5 219.4 222.5 225.4 226.5 225.2 222.5 218.4 212.3 216.6 216.7 216.2 215.7 217.7 220.6 225.2 229.4 234.6 239 244.1 248.5 254.7 258.4 263.2 270.7 277.1 282.4 285.1 287.4 289.5 293.6 300.6 306.6 304.1 301.2 298.8 296.2 294.5 293.4 291.9 291.4 290.4 289.4 287.5 285.8 284.2 283.8 283.2 282.4 282 283.4 284.8 285.9 285.6 283 280.2 277.2 273.5 272.3 273.6 274.6 274.3 271.8 268.3 268.2 265.2 261 257.7 257 254.7 254.9 255.2 255.6 256.3 257.2 258.2 260.4 263.5 267.8 272.7 279.2 285.4 290.5 298.1 307.1 312.9 318.6 323.5
475.7 489.3 496.7 465.5 456.9 474.6 479.3 490.4 498.8 501 513.3 505.6 496.7 516.1 545.4 563.4 573.8 581.1 587.8 592.5 595.8 598.1 598.9 599 599.7 600.8 600.9 600.9 602.3 604.3 607.1 610.1 613.7 617.3 619.8 620.9 621.8 620 616.2 608.4 600.6 593.5 589.6 587.1 584.5 582.4 580.7 579.5 578 576.6 574.1 578.4 583.1 588.3 591.6 593.1 594.1 595.4 595.8 594.8 592.8 589.9 586 582.2 574.8 566.7 560.2 552.7 543.4 532 516.2 506.5 499.6 493.5 489.4 487.5 488.9 490.4 494.2 495.9 496.9 496.5 495.1 492 487.2 481 471.6 461.9 452.1 442.7 430.7 417.8 404 389.4 373.5 356.8 337 318.4 299.3 283.3 267.1 252.3 239.3 233.8 233.6 232.5 230.8 232.6 227.1 223 222.1 216.8 215.8 215.6 217.8 222.1 223.3 222.7 219.4 216.2 212.9 212.4 213.7 214.6 215.3 216.6 219.5 223.7 229.1 233.6 238.2 244.2 248.4 253.2 258.5 262.7 268.1 277.4 284.3 288.3 291.1 293.3 296.9 302.3 310.1 307.1 303.4 300.6 297.8 297.1 296.1 294.7 293.2 292.2 291.2 289.6 288 286.4 285.4 285 284.2 283.1 284.4 285.8 286.7 287 284.4 281.9 279.7 273.7 273.1 275.1 275.6 275.5 274.2 270.6 268.8 268.5 262.7 260 258.2 255 254.6 255 255.6 256.1 257 257.9 259.6 263 267.3 272.6 279.1 284.5 291.5 298.4 306.9 312.8 318.6 324.3
498.5 511.3 505.5 486.7 491.1 508.6 510.8 510.6 521.6 529 544.8 532.7 505.9 526.9 554.6 571.5 581.4 588.6 593.4 597.7 600.2 601.7 602 601.1 599.6 598 597.7 597.2 597.4 598.2 600.4 603.2 607.9 613.7 617.7 620.7 622.4 621.1 617.1 607.8 596.7 589.2 585.2 582.6 580.2 578.7 577.6 576.4 575.1 572.5 575 580.5 587.8 593.6 596.5 598.1 602.3 602.2 601.8 601.4 599.5 598.6 595.8 592.4 585.5 578.3 572 566.4 560.4 552.4 539.2 527.7 519.8 513 507.5 507.1 507.7 509.3 511.2 512.2 512.1 510.9 509.3 507.2 501.1 494.7 487.4 478 468.3 461.2 450.9 435.2 421.8 405.7 387.4 370.5 352 332.2 310.7 291.7 273.3 257.6 241.3 233.8 232.6 233 234.3 234.6 230.5 222.6 221.2 217 214.4 214 214.7 218.3 220.4 219.2 216.3 214.1 213.3 211 213 213.9 214.6 215.6 217.9 221.4 227.3 233 238 242.7 247.4 252.4 257.4 261.5 267.1 274 283.9 290.2 294.2 296.4 299.1 303.9 309.6 309.3 305.8 303 300 299.4 298.2 296.2 294.6 293.6 292.8 291.2 289.7 288.1 286.8 286.1 285.6 285.2 285.1 286.9 288.3 289 286.5 283.7 281.1 277.6 275.4 276.5 277 276.9 275.1 271.8 271.9 271.7 266.6 260.9 259.3 256.7 255.2 254.9 255.5 256.1 256.8 257.7 258.7 262.6 268.1 273.7 280.8 288.7 293.4 298.4 306.3 312.8 318.3 325.1
525.5 538.1 531.5 518.8 501 534.5 542.5 544.9 567 555.3 566.1 555.6 527.3 533.1 561.2 577.2 586.9 594 598.6 602.7 604.4 605.3 604.3 601.9 599.5 597.3 595.4 593 593.2 593.7 595 597.9 602 608.2 615.1 617.6 619.1 618.4 615.3 606.6 595.1 586.2 581.6 577.8 575.5 573.8 572.6 570.1 570.2 572.9 575.5 580.5 587.7 592.7 596.6 599.7 604.4 606.2 606.7 604.8 603.9 602.5 601.2 597 590.7 585.3 579.6 574.6 570.3 564.9 555.3 547 538.9 531 526.1 526.1 527.1 527.9 527.3 527.1 526.5 525.4 521.9 518.8 513.2 507.2 500.2 492.3 484.8 476 465.5 452.5 436.7 423.2 404.5 384.2 363.6 345.2 323.6 302.9 282.1 264 245.6 235.3 233.1 233.3 235.1 235.8 232.1 224.2 220.7 216.2 213.9 213.3 212.9 213.9 215.9 217.2 215.4 214.1 212.5 211.3 212.1 213.2 213.7 214.9 216.2 218.9 224.5 232.2 237.3 241.6 247.3 252.3 256.5 261.4 266.8 273 281.2 291.8 297.1 299.2 300.5 304 307.7 308.4 306.9 303.7 302.2 301.1 299.5 297.7 295.9 295 294.4 292.7 291.1 289.6 288.3 287.3 286.7 286.2 286.2 288.1 290 290.8 288.5 285.7 281.7 277.9 277.1 277.6 277.4 278.3 276.7 273.2 274.8 274.7 270.4 264.2 259.9 257.8 256.2 255.8 255.4 256 256.7 257.6 258.5 263 268.7 274.5 281.9 291.5 297.6 299.8 306.6 313.4 318.2 325.3
564.9 570.6 566.2 536.1 523.6 548.1 565.5 584.9 584.2 579 577.1 573.3 555.4 539.9 565.5 583 591.5 598.4 603.5 607.4 609.5 608.5 605.7 602.6 599.5 595.5 591.4 588.1 588.2 589.5 590 592.6 597.1 602.5 609.5 612.8 614.4 614.7 612.1 604 593.8 584.1 578.7 572 566.2 568.7 568.4 567.8 568.5 570.6 573.1 578.8 584.6 589.1 593 597.3 600.6 602.9 606 605.1 604.6 604.3 603.3 599.7 595.2 591.2 586.7 582.8 577.8 572.1 567 560.5 554.1 547.4 542.1 542.5 543.1 542.8 542.1 542.6 539.9 538 534.5 529.6 524 518.5 511.1 505.1 497.3 488.5 479.5 467.3 449.8 436.2 416.2 393.1 372.6 353.2 332.6 312.1 291.3 272.9 254 238.2 233 233.1 235.9 237.2 232.3 222.5 217.1 215.9 213.6 212.8 212.4 213 213.9 215.1 214.2 213.2 211.5 212.3 212.7 212.9 213 214.2 216.1 221.8 226.4 230.9 235.2 240.3 247.5 252.3 256.5 261 267.3 272.8 278.7 290.5 299 300.7 300.9 303 306.1 308.3 307.6 305.7 304.3 302.4 300.6 299 297.3 296.4 296 294.1 292.5 291.1 289.7 288.8 287.9 287.3 287.6 289.5 291.2 292.7 291.1 286.9 281.9 277.3 278.4 278.2 277.9 278.2 277.5 273.9 275.9 275.8 271.4 266.1 262.3 258.7 257.3 256.7 256.4 256.1 256.7 257.3 258.6 263.9 269.1 274.7 282.3 291.7 300.2 300.5 306.8 312.9 318.8 324.3
585.2 582.6 573.8 544.2 519.9 554.4 582.3 597.1 592.7 587.8 583.4 580.4 573.1 553.2 566.7 586.6 595.3 601.9 607.4 612.7 613.5 611.1 607.6 603.5 598.8 593.6 587.8 583.4 581.9 583.2 584.8 587.8 592.3 596.9 602.9 606.5 607.8 608 606.9 601 590.7 583.3 576.3 569.6 552.3 559.7 563.2 564 564.9 567.3 569.6 574.1 579.4 584.3 586.5 589.2 592.5 595.9 601 600.6 601.5 602.5 601.6 599.6 597 593.1 590.1 587.2 584.1 579.9 574.7 570.4 565.3 561 556.6 555.1 554.1 556.1 556.1 556.3 554.7 550.9 545.8 542 536.8 531.3 524.1 517.8 511.1 502.7 493.2 480.1 463.8 447.8 429.3 407.9 383.8 361.3 340.1 320.4 295.9 278 261.7 243.9 235.2 234.3 235 236.8 231.2 222.5 216 214.3 213.2 212.5 212.2 213 213.7 213.3 212.8 211.9 211.5 212 212 212.7 212.8 213.6 217.3 221.5 225.8 229.6 234.6 241.7 247.2 252.4 257.1 261.4 266.3 271.8 276.5 284.9 296.7 301.6 301.5 303.4 306.7 308.7 308.4 307.9 306.1 304.1 302.3 300.5 298.9 298.3 297.5 295.6 294 292.6 291.2 290.3 289.4 288.5 288.6 290.5 292.2 293.7 293.6 289.4 284.8 279.9 279.1 278.9 279.1 279.6 278.5 276 276.8 277.2 275.6 268.7 265.3 260.7 258.8 257 256.5 256.6 257 257.6 258.7 262.5 269.2 275.4 283.1 292.3 301.6 302.2 306.6 313.9 321.3 326.5
590.7 582.4 567.4 540.1 533.1 564 592.9 603.5 599.4 593.9 589.5 586.3 582 574 572.9 588.3 597.8 604.9 610.4 615 615.2 612.6 608.7 604.1 598.8 592.5 584.8 577.8 574.8 576.6 579.4 581.3 586.8 591.7 596.5 599.8 601.8 601.7 600 595.2 589.1 582.4 575.3 569.8 560.5 549.6 557.8 558.2 560 562.9 564.9 568.7 574.2 578.3 580.7 582.9 585.4 588.1 591.4 593.1 595.5 597.1 597.9 598.7 597.5 593.8 593.3 591.2 589 584.2 580.9 576.6 573.1 570.1 566.7 565.8 566.2 568.2 569.4 568.5 569.4 568.4 561.7 554.6 548.8 542.3 536.5 530.8 525.2 518.5 510.5 497.8 484.5 466.3 446.5 427.8 400.1 374.8 352.4 330.6 300.5 277.8 262.4 248.5 237.1 235.4 234.5 235 230.9 221.9 216 214.2 213.3 212.1 212.1 212.8 212.8 212.5 212.5 212.1 211.4 211.5 211.8 212.5 213 213.1 215.6 219.4 223.6 228.8 235.2 241.7 247.7 252.6 256.7 260.9 265.5 271.5 276.1 282.1 290.8 298.5 302.3 304.2 308.2 309.4 309.3 309 307.6 305.7 303.6 301.6 300.5 300.2 298.9 297.2 295.4 293.9 292.8 291.6 290.6 289.8 289.5 291 293 294.8 294.9 291.3 287.3 282.1 278.8 279.6 279.4 280.2 279.8 276.5 277.6 279.4 277.3 272.7 267.9 263.3 259.8 257.9 257 257.2 257.5 258 259.1 262.5 269.4 275.2 283.4 291.1 300.9 303.6 308.4 315.7 323 328.8
586.6 573.4 554.4 532.7 548.4 577.2 605.4 607.9 603.8 598.4 593.8 590.6 587.4 584.7 583.8 590.6 598.8 604.6 610.1 613.2 613.7 611.4 608.4 602.9 597.7 591.2 583.5 572.8 567.4 568.7 573.1 575 580.8 585.8 591 594.7 597.1 597.6 595.7 591.8 585.3 577.9 570.2 563.9 552.3 538.2 548.7 550.1 551.9 554.8 558.1 562.5 567.9 571.7 574.3 576.9 579.5 581.9 584.5 587.5 591.2 594.7 594.5 595.4 596 595 595.6 594.3 591.9 586.9 584.3 580.2 578.1 576.6 575.4 574.2 576.5 579 581.3 583.3 583.6 582.9 577.6 571.7 565.2 558 553.7 547.3 541.4 534.2 526.9 516.5 505.2 485 467.6 449.6 421.5 393.6 369.3 344.5 309.1 284.9 264.2 251.7 241.9 237.5 236.3 234.1 230.7 224.8 216.3 213.8 213.6 212.8 212.1 212.3 212.3 212.4 212.6 212.2 211.5 211.5 211.5 212 212.6 213.2 214.5 216.5 220.6 225.6 234.1 239.7 245.9 251.2 255.7 260 264.9 269.9 274.6 279.3 286 294.2 299.9 304.1 309.2 310 310.1 309.8 308.8 307 304.6 302.4 301.3 301.4 300.8 299 296.7 295.3 294.4 293.2 292 291.1 290.7 291.5 293.4 295.5 296 294.2 290 284.7 278.6 279.4 280.3 280.9 279.7 277.7 279.6 281.3 279.8 275.6 270.9 266.1 260.6 259.1 258.6 258 258.1 258.4 259.9 262.2 268.8 274.7 281.3 291 300.7 304.9 309.8 316.8 323.5 328.9
572.8 548.6 538.7 538.4 563.7 593.7 608.8 609.9 606.6 600.5 595.5 592.6 589.5 589.8 589.3 593.1 600 605.5 609.7 612.6 612.7 611.1 607.8 602 596 589.6 581.4 569.6 560.3 557.3 566.4 568.6 574.7 580.5 586.1 589.7 592.5 593.9 591.1 586.6 579.7 571.7 563.2 555 534.1 523.9 538.1 540.2 544.3 548.3 551.4 554.4 558.7 563 566.8 569.3 571.8 574.9 578.4 581.9 584.7 588.2 589.3 593.1 595.6 596.5 596.5 596.3 593.7 590 587 585.4 583.7 583.8 585.4 584.3 586 589.4 592.2 593.6 594.4 593.4 591.8 589.5 583.2 576.5 570.7 565.3 559.9 552.3 543.8 535.6 523.4 505.9 487.3 470.1 444.2 411 382.4 351 318.1 292.4 270.4 255.2 245.4 239 238.4 234.1 231.5 226 217 214.2 213.6 213.3 213 212.2 212 212.3 212.5 211.4 211.5 211.6 212 212.7 213.1 213.2 213.9 216.4 221.1 225.1 230 237.7 243.9 249.8 254.7 258.8 262.6 267.9 272.3 276.3 282.9 289.6 295.8 302 308.6 310 310.6 310.6 310 308.1 305.7 303.4 302.3 302.8 302.7 300.8 298.5 297 296.1 294.9 293.7 292.7 291.9 291.9 293.9 296.1 297.3 295.8 292.5 287.1 282.9 280.3 281.4 282.2 282 279.5 280.3 281.9 282.4 277.8 274 267.7 262.3 260.8 260.2 259.6 259 258.5 259.2 261 266.4 271.1 277.2 285.9 295 303.9 309.9 315.9 321.2 325.5
548.9 548.8 568.7 575.6 584.7 602 607 608.9 606 600.7 596.4 594.2 591.8 590.7 591.6 593.6 599.6 604.3 608.5 611.7 612 610.4 606.7 600.8 594.3 586.9 578.6 564.7 556.7 549.6 556.1 561.1 566.9 575.4 580.6 584.9 587.4 589.3 585.4 579.1 573.1 565 556.3 536.5 519.4 520.5 526.5 528.9 536.9 542.2 545.8 549.7 552.8 556.5 560.5 563.2 566.7 570 573 577.5 580.9 584.4 586.6 589.4 594.8 596.2 596.9 597.2 595.3 592.6 590.6 590.3 591.7 592.1 594.2 594.9 595.1 597.3 600.9 603.6 606.2 604.7 606.1 603.4 599.5 595.5 588 583.5 579 570.9 563 553.9 541.4 525.1 509.1 491.4 465.2 426.6 396.1 361.9 329.5 300.4 277.1 262.3 248.6 241.2 239.6 234.3 232.4 228.1 223.6 215.3 213.5 213.2 212.9 212.8 212.4 212.2 212 212.4 213 212.4 212.7 213 213.1 213.2 214.3 215.8 219.2 223.6 229.1 234.9 240.3 246.8 252.2 256.7 260.3 264.5 268.8 273.2 278.4 285.1 291.5 296.8 303.5 309.4 310 310.8 310.4 309 306.7 304.6 302.8 303.7 303.9 302.2 300.5 298.2 297.7 296.6 295.3 294.4 293.7 292.8 294.5 296.7 298.6 297.7 294.6 289.7 284.5 282.3 282.4 283.3 281.2 279.6 280.3 281.3 281.9 280.4 277.5 272.6 266.3 264.8 263.4 262 260.5 259.3 259.7 262.1 266 269.9 278.1 284.5 295.2 306.7 311 316.8 317.3 322.5
554.1 573.4 583.3 591.1 595.5 602.1 604.5 605.4 603.7 599 595.6 593.9 592.2 590.8 591.8 593 597.6 602 606.9 609.5 609.7 608.3 604.6 599.4 591.8 584 575.5 561.2 550.2 544.6 547.5 553.7 559 568.6 575.7 580.7 584.3 584.3 579.2 571.4 565.8 558.3 549.3 535.1 509.2 509.6 514.9 518.9 530.5 536.6 540.4 543.7 547.7 550.4 554.9 558.1 560.5 563.2 566.6 571.4 577.1 580.8 582.9 585.8 589.3 592.6 594.9 599.5 600 594.2 592.6 593 595 596.2 599.1 600.7 602.5 604.9 609.5 613.1 616.8 620.4 625 620.2 615.3 612.6 608.6 602.4 595.9 587.2 577.9 568 557.1 542.7 527 508.3 483.9 444.7 406.2 370 336.7 308.8 285.5 267.6 252.3 244.1 240.7 235.3 231.9 227.6 221.9 215.7 213.8 213.4 213.1 212.9 212.9 212.6 212.1 212.6 213.4 212.9 212.6 213.3 213.4 213.4 213.8 215.5 218.3 224.1 228.7 233.2 239.1 245 249.1 253.2 257.3 261 264.8 268.7 273.8 280 286.8 292 297.4 304.4 308.8 310.1 310.1 309.3 307 305.1 303.5 304.4 305 303.3 301.6 299.7 298.7 298.3 297 296.2 295.3 293.9 295.6 297.7 299.8 300 296.6 291.6 284.9 280.1 283.3 284 282.6 281.1 280.2 281.3 281.9 282 279.6 276 271.4 267.9 265.8 263.6 261.6 260.4 260.8 262.1 263.5 269.7 277.6 286.7 297.5 306.5 311 320 323.3 322.6
564.5 579.9 585.7 591.2 595 598.2 600.5 600.9 599.5 596.7 594 592.3 590.9 590.8 591 591.3 594.2 598 603 605 606.1 605 602 598 589.3 580.9 570.4 559 546.8 540.9 538.9 545.9 551.3 561.1 569.8 576.3 579.8 579.3 573.5 564.5 558.4 548.7 539.4 525.6 501.8 495.4 501.5 517.4 525.3 530 533.6 537.4 541.6 543.8 547.7 550.4 553.3 555.8 558.2 561.8 568.2 574.1 577.2 580.6 586.2 589.2 591.8 598.1 602.4 594 593.7 594.7 596.2 598.7 601.4 604.2 607.8 611.6 616.9 621 624.5 634.8 640.1 638.3 634 631.3 629.4 623.8 616.3 607 597.6 584.7 571.6 560.6 545.5 527.9 500.5 464.6 426.9 375 341 313.4 290.3 273.7 260.1 248.1 242.3 235.6 230.6 228.1 223.4 216.9 214.9 214 213.7 214.6 213.6 212.6 212.1 212.8 212.7 212.5 212.7 213.7 213.7 213.6 213.7 215.3 218.3 223 227.5 232.1 237 241.3 245.1 250.1 253.7 257.3 261.1 265.6 268.9 274.4 281.1 286.2 291 296.2 304.2 308 309.3 309 307.2 304.9 303.6 304.3 305.7 304.2 302.7 301.4 300.7 299.9 298.5 297.7 297 294.7 297.5 299.4 301.2 302.4 299.1 293.8 288.5 285.7 284.4 285.2 283.7 281.6 281.2 281.1 281.5 282.2 281.7 278.1 274 272.3 268.5 266.1 263.5 260.9 260.3 262.4 263.7 266.4 276.1 286 296.9 306.9 313.2 322.5 325.5 324.7
569.1 581.2 587.4 591.5 593.8 595.8 596.9 596.7 595.7 593.5 591.3 589.8 588.8 589 589.9 588.8 590.1 593.8 597.9 599.3 600 599.6 597.9 593.9 585.1 576.8 566.2 557.1 542.2 534.7 531.4 538.9 544.9 552.9 562 569.4 571.6 571.5 567.4 559.7 551.3 539.3 530.1 512.9 494 485.6 498.2 511.1 519.1 524 528 531.4 535 537.5 539.7 542.2 545.5 548.3 551.6 555.5 560.8 565.7 571.5 576.1 582.2 586.1 588.6 590.5 591.4 590.5 591.4 593.9 596 599.2 602.3 606 610.4 615.3 621.1 626.1 629.6 640.7 650.9 654.9 650 643 642.1 639.1 634.6 626.5 618.5 601 584.6 573.7 559.8 544.8 519.9 486.7 428.3 387.3 350.7 321.9 299.1 280.4 266.4 252.9 243.9 236.7 231.5 228 222.9 217.6 215 215.2 215.9 216.3 214.2 212.7 212.3 212.4 212.5 212.6 212.7 213.4 212.9 213.8 214.7 215.4 218.3 222.1 226.2 229.8 233.8 237.8 242.1 246.9 250.3 253.5 257.6 261.4 264.7 269.3 276.2 280.8 285.2 289.7 294.5 305.2 306.4 307.1 306.6 305.1 303.7 304.5 305.7 304.7 303.4 302.9 302.3 301.4 300 298.8 298.4 297.1 299.1 300.9 302.6 303.7 301 295.8 290.6 287.6 286.7 286.4 285 282.1 281.9 280.9 281 282.5 283.8 280.7 276.2 275 271.4 268.2 266.1 264.2 261.3 262.9 263.4 265.4 273.7 282.5 293.8 303.3 313.1 321.9 325.9 325
582.9 584.8 589 591.6 592.9 594.1 594.5 593.4 592 590.3 588.9 587.6 586.5 587.3 587.3 586.5 586.4 587.7 590.5 592.9 594.5 593.4 591.1 586.1 579.7 570.5 561.9 553.3 539.1 529.9 523.4 530.3 536.3 542.7 553.2 560.7 562.2 562.1 559.2 554 545 535.4 524.4 511.8 489.7 468.1 485.2 500.9 509.8 517.3 521.3 524.9 528.5 530.1 532.1 533.8 535.9 539.4 542.5 548 554.7 559 563.7 568.2 573.5 580.2 583.3 584.3 584.5 584.5 587 589.8 591.5 596.2 600.4 605.1 610.7 615.7 622.6 627 631.6 639.6 648.1 659.3 655.5 648.6 648.8 646.5 640.6 633.9 630.4 610.1 592.3 579.9 567.2 551.8 525.3 484.5 424 389.1 358.3 332.3 307.8 286 269.3 255.7 244.3 237.7 232.5 228.2 221.4 217.1 215.4 215.2 215.3 215.4 214.4 212.8 212.4 212.6 212.7 212.8 212.9 212.9 213.2 213.6 214 214.7 218 221.8 224.8 227.4 230.3 234.7 239.2 243.4 246.2 249.7 254.4 257.6 260.3 264.6 273.4 277.1 280.3 284.3 288.5 296.4 302.1 304.8 304.1 303.7 303.9 304.6 305.4 305.3 304.7 304.3 303.8 302.8 301.3 300.1 299.4 299 300.4 302 303.8 304.8 302.8 297.8 292.9 288.9 288.2 287.6 286.4 282.6 282.1 281 281.4 283.5 286.4 285.2 281.2 278.4 274 270.2 268.3 266.4 264.2 263 262.9 267.2 270.9 278.5 288.9 302.4 316.1 320.6 324.4 323.3
587.7 582.2 588 591.3 591.5 592 592.1 591.2 589.6 587.4 586.1 585 583.6 582.7 582.6 583.1 582.8 582.9 583.8 585.2 586.1 586.1 583.9 579.2 572.6 565.5 556.8 547.9 536.9 524.3 517.1 522.2 529.7 532.7 543 550.1 552.9 552.2 548.7 544.2 537 528.1 520 509 486.8 464.8 473.7 490.2 501.1 510.2 515.5 519.5 522.3 523.3 524.4 524.2 524.4 529.8 535.6 539.3 544.1 549 553.6 558.4 564.9 569.6 571.4 571.9 571.9 573.2 577.9 581 584.4 589.4 595.4 601.1 607.9 614.4 621.6 626.2 632.9 638.8 645.1 649.4 646.8 644.2 642.1 638.4 632.6 626.6 620.7 606.2 592.4 580.2 569.7 554.5 535.9 494 440 399.5 368.1 340.5 312.5 289.1 272.4 259.2 245.9 239.4 232.9 227.3 220.2 216.2 214.6 214.6 214.7 215 213.7 213 212.6 212.7 212.9 213.1 213.2 213.1 213.1 213.5 213.8 215 217.4 220.4 223.5 226.7 227.4 230.9 235.1 239.5 243.5 246.8 250.5 253.6 257.9 262 268.4 274.5 276.5 279.9 284 288.4 295.5 298.4 302.4 302 302.2 303.3 304.7 304.4 304.8 304.8 304.5 304 302.6 301.5 300.5 300 301.7 303.4 304.9 306.1 305.1 302.1 297.7 292.3 290.4 289.7 287.3 283.8 282.7 282.1 281.9 284.5 288.2 289.8 285.7 281.2 276.7 272 269.6 267.7 265.1 263.4 263.6 264.8 269.2 276.3 286.6 299.8 311.3 318.1 321.3 324.6
588.5 585.3 588.8 590.7 590.7 591 591 589.4 588.4 586.3 584.3 582 580.8 579.1 578 578.5 577.6 577.9 578.4 578.9 578.5 577.4 575.5 571.1 565 557.9 550.3 541.6 530.3 518.3 511.9 513.2 521.4 525.2 531.1 537.6 541.3 540.9 538.1 533.8 526.6 519.6 512.2 504.6 484.1 454.9 463 479.4 494.1 504.7 510.8 515.2 516.7 517.7 517 516.4 517.4 522.7 529.2 532.8 536 540.3 545.9 551.8 556.4 560.6 563.1 563.3 562.5 565 569 572.4 575.9 581.1 587.3 593.2 600 607.5 614.7 621.6 628.6 635.9 643.2 643.9 640.8 637.1 633.4 626.1 618.9 613.2 606.9 594 585.7 576.3 567.1 552.4 535.7 513.4 466.8 430.8 397 361.9 322.8 298.4 278.9 264.8 252 243.2 235.3 229.2 219.6 214.8 214.5 214.2 214.3 214.6 214.1 213.4 212.7 212.9 213.1 213.3 213.5 213.3 213 213.2 214.1 215.2 216.3 219.6 222.8 225.4 225.7 228.4 233.5 236.9 241.2 244.5 247.6 250.4 254.3 258.5 263.1 269.8 272.4 276.2 280.1 283.2 287.6 291.6 294.6 298.2 299.7 301.7 303.1 303.3 303.5 304.2 304.5 304 303.4 302.6 301.5 301.1 303 304.8 306.3 307.2 306.6 304.4 299.2 295.3 293.3 291.4 288 284.3 284 283.3 282.6 286.4 290.1 290.9 288.3 284 279.3 274.6 271 268.8 266 263.8 263.5 266.2 269 275.3 284.2 296.9 311.5 317.7 319 322.9
589.8 589.2 591.3 593.1 592.5 590.9 589.9 588.2 586.6 585.6 582.8 580.5 579.2 576.8 576.4 575.5 574.8 574.7 574.4 574.3 573.5 571.5 568.4 562.7 557.6 550.8 543 535.3 523.4 511 503.4 504.5 512.3 518 520.8 525.6 531.1 532.8 531.5 526.1 517.4 512.3 507.2 499.6 479 454 453.4 472.4 489.1 500.6 506.3 510 510.2 510.3 510.5 510.9 511.5 516.1 522 526.1 530.1 533.5 538.6 542.9 546.5 551.3 554.5 555.5 554.3 556.8 558.1 561.8 567.8 572.6 580.6 587.5 595.2 601.7 608.1 614.9 621.6 628.5 634 636.5 634.6 630.7 625.8 618.6 611.1 604 594.3 586.6 579 570.9 560.8 545.5 531.6 514.7 495.2 465.9 427.4 382.9 342.2 311.4 289.7 273.6 259.8 248.6 238.1 229.8 220.1 215 214.6 214.1 213.9 213.9 213.4 213 212.9 213 213.2 213.4 213.6 213.6 213.5 213.4 213.9 214.3 215.3 219 221.8 223.3 223.8 225.9 229.3 234.9 238.9 242 245 247.9 252.3 256.6 260.5 264.4 269.5 272.9 276.6 279.5 283.3 287.3 290.8 293.1 296 298.7 300.9 301.9 302.2 302.6 303.2 303.5 302.7 298.8 301.7 302.3 304.1 305.9 307.1 307.9 308.2 306.4 302.6 298 295.2 292.4 288.7 286.9 284.9 284.7 285.1 288.3 289.9 291 290.6 286.7 282 277.2 272.5 268.9 266.4 265 263.6 265.4 268 273.7 282.1 290.7 302.8 315.2 314.2 321.7
591.7 591.9 594.5 596.4 596.4 592.3 589.9 588.3 585.8 584 581.9 579.5 578.8 577.9 574.4 573 572.5 571.5 570.9 571 569.6 567.6 564.5 559.1 553.2 546.1 538.6 528 517.9 507.7 497 488.8 500.6 506.6 510.7 514.7 518.8 520.7 518.1 514.7 506.8 503.1 498.7 489.2 470.6 443.8 451 471.3 488.5 499.3 502.8 503.3 503 502.3 502.4 503.4 504.9 508.4 513 517.8 522.6 526.7 530.1 533.6 536.2 537.8 539.7 541.8 543.3 546.2 548.5 552.6 558.7 562.8 569.5 578.7 588.1 595.6 602.4 607.1 613.9 620.3 626.1 627.5 626.4 622.8 617.6 609.6 602.1 593.5 585.9 579 569.8 562.2 552.4 538.1 525.6 510.8 492.8 475.7 443.5 394 356.1 323.7 300.1 283.2 266.1 249.9 238.2 229.5 219.3 214.7 214.4 214 213.7 213.4 213.3 213.3 213.2 213.2 213.3 213.5 213.7 213.8 213.7 213.5 213.7 214 214.4 217.6 219.7 221.4 223.2 225.5 230.4 234.2 237.3 240.1 243.1 246.9 250.8 254.5 257.8 261.4 266.3 269.4 272.5 276.5 280.5 284.6 288.1 290.5 293.1 295.8 299.2 299.7 300.1 300.6 301.5 302.5 301.7 299.5 301.1 302.7 304.5 306.4 307.8 308.8 309.4 308 304.3 298.5 295.9 293 290 287.3 285.7 285.7 286.6 288 289.7 291 291.2 289.1 283.9 278.3 272.4 269.2 267.7 266.2 264.6 265.6 269.2 272.9 279.3 286.2 299.5 305.9 314.2 320.2
596.5 596.5 597.3 599 598.6 593.4 590.9 589.1 588.2 585.1 583.2 581.6 580.6 578 576 573.9 570.7 568.2 567.7 567.5 566.3 564.1 560.7 555.5 548.4 541.6 533.6 523.2 511.4 500.3 487.4 473.9 488.1 492.7 495.5 499.4 501.7 501.4 501.4 496.9 492 489.1 484.7 477.1 459 429.3 445.4 472.1 492.5 499.4 500.8 498.2 495.5 493.3 493.2 494 496.2 499.2 503.3 507.8 513.2 518.2 521.7 524.1 524.5 526.5 527.2 527.7 530.3 533.1 539.2 545.3 549.6 554.3 560.1 568 576.7 584.4 592.1 599.7 604 609.4 615.4 615.6 615 612.4 607.6 600.2 591.7 584.2 577.7 572 562.4 553.9 544.7 531.7 517.8 504.6 486.8 469.9 441.2 404.8 368.8 333.8 311.1 293.5 277.7 254.8 240.6 228.5 217.8 214.5 214.2 213.9 213.7 213.6 213.6 213.5 213.4 213.5 213.6 213.7 213.8 213.9 213.8 213.8 214 213.7 214.4 216.3 218.7 221.3 223.2 226.3 230.4 233.5 236.6 239.4 242.3 245.9 249.9 252.4 255.7 259.4 263.6 266.8 270.7 275.4 278.8 282.4 285.5 288 290.7 294.3 297.6 298 298 298.7 299.7 301 301.4 299.8 301.4 302.9 305 306.9 308.4 309.5 310.3 309.3 306.5 302.4 299.3 293.9 291.8 288.7 285.6 286.2 287.2 287.4 287 290.7 291.8 290.8 284.3 277.3 273.7 270.6 268.6 267.1 265.6 265.6 266.9 272.5 280.1 287.5 296.3 305.9 313.2 319.8
601.3 599.7 597.7 596.4 597.1 595.1 593.6 591.9 591.1 588.6 586 584.7 581.7 577.9 575.2 573.2 570.5 567.5 565.4 564.5 563 560.6 557.5 552.9 546.6 537.4 528.7 518.1 508.6 495.5 479.5 460 468.5 474.4 475.4 478.6 480.2 479.9 480.4 478.6 476.8 474.4 470.3 465.2 450.2 423.8 439.9 467.5 489.1 496.9 498.3 491.9 487 482.9 482.4 482.2 485.5 488.6 492.5 497.6 503.1 508.3 511.9 514.4 514.5 516.2 515.6 516.3 519.1 522.4 529.8 535.9 540.1 543.4 548 555.8 565.8 573 581.1 590.1 596.4 600.7 602.6 603.1 602.9 601.9 596.8 590.9 583.8 578.9 575.4 567.8 559.9 551 541.2 528.1 513.5 498.5 482.8 463.5 439.1 408.8 381 352.1 325.4 307.5 288.6 267.8 244.9 230.3 217.9 214.4 214.1 213.9 213.7 213.6 213.7 213.8 213.7 213.7 213.8 213.9 214 214.1 214.1 214.2 213.8 213.6 214.4 216.2 218.7 220.7 222.3 224.7 228.9 232.8 235.9 238.8 241.7 244.2 247.2 250.8 254.4 258 261.6 266 270.1 273.3 276.4 280.1 283.8 286.7 289.2 291.8 295.5 297 297.3 297.4 298.6 299.8 300.5 300.4 301.9 302.9 305.1 307.3 309.1 310.2 311.3 310.9 308.6 303.7 297.3 295.1 293.5 290.1 289.2 289.4 288.8 288.1 286.5 288.4 291.6 291.8 285.8 278.2 274.1 271.9 269.8 267.8 265.5 265.8 267.4 273.9 280.1 289 296.7 306.4 313.4 319.9
607.8 604.8 601.3 598.9 599.4 599.6 602.7 601.4 599.6 598.2 594.6 588.7 584.5 580.1 577.1 574.8 570.8 567.1 565.3 561.1 559.6 556.8 552.7 548 541.2 532.1 523.4 512.8 503 490 479.7 463.7 444.3 450.9 452.8 455.7 456.5 459.7 461 459.7 459.3 459 458.1 457.9 443.4 411.4 429 459.5 484.4 492.5 491.8 484 477.2 472.1 469.9 469.9 473.9 477.5 481.4 487 492.5 497.4 501.3 504.3 505.6 507.9 509.1 509.2 511.6 515.3 521.3 525 529.4 534.5 539.4 545.1 553.9 562.4 568.4 579.1 587 591.4 594.6 595.5 592.6 591.7 587.4 583.1 579 575.4 570.4 565.7 560.1 551.3 539.8 526.4 511.9 494.2 479.7 466.6 452.1 429.9 409 383.1 346.2 325.3 305.4 280.9 256.5 233.9 221.2 214.4 214.2 214 213.8 213.7 213.7 213.8 213.9 213.9 214 214.1 214.3 214.3 214.3 214.3 214.2 214 214 215.5 217.5 220 222.2 224.6 227 231.5 234.8 238 240.7 243.4 246.5 249.5 253.1 256.5 260 263.1 266.5 270.1 274.1 278.1 281.5 285.1 287.9 289.4 293.2 297.4 298.1 297.8 297.5 298.5 299.6 300.8 302.5 303.3 305 307.2 309 310.7 312.3 312 309.7 304.3 297.4 297.5 294.4 291.5 291.2 290.4 289.6 288.8 286.8 287.5 291.2 291.6 286.5 280.2 275.8 273.9 272.1 268.3 265.3 266.4 268.3 273.3 279.8 287.9 297.6 306.3 313.5 319.6
614.4 612.9 608.9 603.8 602.7 606 610.2 611.3 609.4 607.1 603.4 596.7 588.4 582.4 578.5 573.2 568.3 565.3 565.1 562.1 555.7 549.6 545.9 538.8 531.8 524.7 515.3 504.2 494.5 483.7 473.9 463.4 444.3 432.4 433.7 433.4 434.1 436.5 436.3 437.6 439.9 443.2 445.7 446.8 430.5 403.9 425.2 451.6 473.8 482.6 480.8 471.4 464.6 458.7 456.6 452.5 461.9 466.3 470.5 475.9 481.4 486.6 491.1 494.7 497.4 500.5 501.6 503.1 505.8 510.5 511.6 514.1 519.1 525.7 532.5 539.3 546 552.5 559.1 569.2 574.5 577.9 581.1 581.9 581.7 579.6 576.5 575.6 571.7 568.9 565.1 561.4 555.4 547.9 534.6 521.7 507.6 489.6 476.7 464.2 452.2 436.2 422.6 408.4 382.4 343.1 323.8 297.3 268.2 244.4 224.8 215.3 214.6 214.4 214 214 214 214.1 214.2 214.2 214.2 214.4 214.4 214.4 214.4 214.5 214.5 214.4 214.1 214.9 217.3 220.6 222.8 223.8 226.3 227.9 229.8 235.1 239.6 241.8 244.3 247.9 250.5 253.8 257.2 260.3 264 268.6 273.4 276.9 280.1 283.4 286.8 287.5 291.3 295.7 298.9 298 297.3 298.4 299.8 301.3 302.9 303.6 305 307 308.8 310.7 312.5 312.5 311.7 306.5 300.5 298.5 294.2 293.7 292.3 291.4 291 289.9 288.7 289.4 290.8 291.3 287 281.3 276.9 274.9 273 269.7 268.3 266.7 267.3 270.4 278 288.4 296.9 305.5 313.4 320.1
625.7 623.5 618.7 614.7 613.4 612.1 617.9 619 618.1 615.1 610.9 605.9 600.2 591.9 584.5 578.4 570.6 567.3 567.8 564.7 561.6 556 545.5 522.7 516 511.5 503.9 494.4 481.4 477.3 467.7 456.6 441.5 424.2 421.2 419.2 415.3 415.5 415.9 416.2 419.4 420.5 426.9 427.9 409.9 393.8 416.2 436.9 455.4 465.7 463.4 453.9 449.4 442.6 441.3 440 448.8 454.5 459.5 464.8 470.2 476.2 481.1 485.3 488.7 491.1 492.6 495.1 499 501.5 504.1 506.3 510.3 517 525.1 532 538.5 544.1 549.4 554.8 558.9 562.2 567.1 567.3 567.7 569.3 568.6 567.1 564.2 562.7 560.8 558.2 551.3 544 534.4 520.5 504.7 485.3 473.8 461.8 452.1 439.7 428.9 417.4 404.7 380.2 351.3 323.2 287.2 258.8 232 216.2 214.8 214.3 214.1 214.3 214.4 214.5 214.5 214.5 214.4 214.6 214.6 214.6 214.6 214.7 214.7 214.6 214.5 214.6 217.7 221.5 223.3 224.3 225.2 226.6 228.3 234.3 238.1 240.6 242.4 245.6 248.9 252.3 255.3 258 262.4 267.9 271.3 275.3 278.6 282.2 286.4 287.4 290.1 294.5 297.9 297.7 297.6 299.1 300.6 302 303 303.7 305.1 307.1 309 310.9 312.7 312.9 311.7 307.8 303 299.9 296.3 294.5 294.2 293.8 292.9 291.6 290.3 290.4 290.7 291 286.2 281.6 278 275.1 273.5 270.8 268.9 267.9 267.9 271.2 279.8 287.9 295.4 302.1 311.3 319.3
639.4 632.5 631.2 627.3 627.5 625.6 627.5 626.7 625.4 622.6 618.9 615.2 609.4 603.3 594 586.3 579.5 572.1 571.7 572 569.5 565.6 553.9 532.3 507.8 495.6 492.8 486.4 478.2 469.7 459.2 450.1 436.5 423.6 409.9 411.2 405.1 403.9 401.4 401.9 400.4 401.3 403.2 403.6 394.1 385.3 399.6 423.9 441.1 447.4 445.3 438.9 433.5 427.8 426.9 428.1 435.4 442.3 449.7 455.5 460.9 467.1 472.1 476 478.7 480.1 482.6 486.1 487.9 491.2 493.9 497.8 501.2 506 514.3 523.2 530.5 536.9 541.9 546.8 549.8 551.6 552.1 553.5 555.3 557 558.1 558.7 557.3 555.8 555.5 552.1 547.3 542.9 532.9 517.9 500.5 482.3 470.9 460.3 451.8 441.4 427.8 417.9 405.9 394 372.1 343.7 306.8 268.5 241.7 219.1 214.6 214.2 214.5 214.7 214.8 214.9 214.9 214.8 214.7 214.8 214.8 214.7 214.8 214.9 214.9 214.8 214.8 215.2 218 222 223.8 224.6 224.8 225.2 226.7 232.4 236.3 239.3 242.2 244.6 247.2 250.5 253.3 255.8 260.2 265.3 268.6 273.1 277.9 282.5 285.9 286.9 288 291.7 296 296.7 298.2 300.1 301.7 302.2 302.7 303.4 304.8 307.1 309.2 311.2 312.8 313.4 312.1 308.8 304.7 301.6 299.5 297.2 296.8 296.4 295.6 293.8 292.4 290.8 290.9 290.9 286.3 282.5 278.9 275.9 273.8 272.7 270.1 268.6 268.9 273.9 280.3 290.1 296.1 302.3 312 321.1
649.3 644.4 641.7 640.7 640.9 641.4 640.1 638.2 635.5 631.2 627.9 624.9 621.5 617 611.7 606.7 599.3 582.3 577.9 581.1 579.2 575.9 567.4 549 523.2 500 478.2 476.1 467.4 458.4 450.2 440.7 428.7 417.3 407.2 404.4 397.3 387.5 386.5 389.7 390.4 388.7 382.9 380.8 378.6 366.3 380.8 404 416.4 424.9 429.5 429 423 415.9 410.8 412.8 421.3 430.6 438.9 446.6 452 458 463.1 466.6 468.3 468.8 470.8 473.7 476.9 480.3 483.4 486.4 490.4 493.5 500.6 510.8 520.2 527.6 533.2 538 540.5 541.8 543.1 544.6 546.1 547.5 548.6 548.7 548.5 547.4 546.4 542.9 541.2 537.4 530.8 513.5 493.1 479.9 467.4 458 453.2 446 433 419.3 407.9 395.7 381.5 367.3 334.3 288 254.5 226.2 214.9 214.9 215 215.1 215.2 215.2 215.2 215.1 215 214.9 214.9 214.9 215 215.1 215.1 215.1 215.2 215 217.8 221.3 223.5 223.6 223.9 224.6 226.2 230.5 234 237.9 241.6 243.6 245.8 249 251.7 253.8 257.7 263 266.7 271 277.4 282.6 283.6 284.7 286.5 289 292.5 294.7 298.1 300.6 302 302.2 301.6 301 302.8 305.4 307.9 311.2 312.8 313.7 313 310.4 306.5 304.3 302.8 300.4 299.5 299 298 295.7 293.6 292.7 291.5 290.9 287.6 283.4 280.1 276.4 274.1 272.1 270.8 268.6 268.8 275.2 282.1 289.7 295.2 301.4 310.6 321.3
655.3 651.6 649.9 648.9 648.1 647 645 643.6 641.3 636.5 632.9 630.3 627.7 624.1 620.8 615.6 607.7 586.5 584.5 588.5 588.1 586.2 578.6 564.3 536.5 515.4 492.6 471 457.8 451.1 442.7 430.9 427.1 426.1 424.8 420.7 414.5 404.2 391.2 376.9 373.9 374.8 370.8 365.4 362.5 359.2 359.8 372.2 383 392.7 401.4 405.8 405.9 403.2 389.5 399.5 404.4 418.7 429.6 437.2 443.4 449.2 453 455.8 458.1 458.1 460 461.4 464.6 466.7 470.3 472.6 478 483.4 487.1 495.7 505.5 515.4 523.4 527.9 531.1 532.7 534.8 535.9 536.8 537.9 538.6 539.8 538.2 537.5 535.5 534 531.6 527.9 517.9 502 491.1 477.6 467.7 458.6 452.9 445.8 434.7 421.3 412.7 400.9 389.1 375.8 345.5 297.9 263.7 236.9 215.9 215.4 215.4 215.5 215.6 215.5 215.5 215.4 215.3 215.2 215.1 215.1 215.1 215.2 215.3 215.3 215.2 215.1 217.1 219.8 222.1 222.5 223.4 224.1 225.5 228.2 230.3 233.1 239.6 242.5 244.6 247.6 250.3 252.9 255.6 260.6 263.9 266.4 271.3 279.1 283.2 284.5 285.6 287.6 289.4 293.7 297.2 299.3 300.7 301.7 301.2 299 300.9 303.3 306.9 310.6 313.1 314 313.6 312.4 309.2 307.4 305.7 303.8 302.4 301.8 299.7 296.8 294.4 292.2 291.6 291.2 287.1 284.8 280 277 274.7 274.1 272.3 270.3 270.1 275.9 282 289.2 295.2 303.5 309.8 322.6
660.3 656.2 654.3 652.9 651.7 651 648.9 647.3 645.3 641.1 637.5 634.6 631.2 628.5 624.2 619.6 611 592 592.2 595.7 596 593.7 587.5 577.7 551.6 527.4 507.1 485.9 469.6 460.1 457.4 455.2 450.5 445.6 440.6 437.3 432 423.5 411.5 396.5 379.1 364.3 354.7 352.1 351.2 349.4 347.4 346.3 349.7 362.4 371.3 379 383.1 384.1 374 380.4 385 404.2 417.4 426.8 434.6 439.7 442 443.2 443 443.8 446.5 449.7 452.5 455.3 452.8 457.5 463.8 469.2 473.7 479 490.2 499.5 505.5 512.1 517.7 521.1 525.4 525.4 526.9 528.3 529.3 529.5 529.5 527.8 526.7 525 522.9 517.8 508.8 499.3 486.2 475.9 468.7 462 454.1 446.2 438.6 424.1 415.1 406.7 393.5 377.2 349.6 304.7 270.8 242.5 218.8 215.8 215.9 215.9 215.9 215.9 215.8 215.7 215.6 215.4 215.3 215.3 215.4 215.5 215.6 215.6 215.5 215.3 216.2 219 220.2 221.2 222.1 223.2 224.6 227.5 229.4 231.5 235.3 240.3 242.8 246 248.8 251.9 254.4 257 261.1 265.6 272.2 278.6 283.9 285.5 285.6 287.1 289.5 292.6 295.4 297.3 298.7 298.5 298.4 297.8 299 302.7 306.4 310.1 312.8 314.5 314.7 314.2 312.3 310.4 308.6 307.3 305.8 303.8 301.6 298.7 295.8 293.3 291.2 290.9 286.3 283.9 281.8 278.4 278.7 276.3 274.1 272.1 270.8 272 280.5 287.9 295.1 303.3 310.8 323.8
663.2 660 658 656.9 655.1 654.6 653.4 651.1 648.6 644.9 641.4 637.7 633.7 630.7 626.8 622.2 614.4 600.4 600.9 603 602.7 601.4 597 591.5 566.4 540.4 520.3 504.2 492.5 485.8 482 478.1 472.9 466.1 460.8 458.9 455.2 446.8 434.3 419.7 404 388.6 373.6 362.2 348.5 337.4 337.8 333.4 331.3 335.1 342.9 350.4 353.8 356.8 362.2 359.8 369.7 384.7 398.8 407.3 417.3 421 422.2 422.4 423.5 425.7 424.6 426.8 429.4 433.3 432.7 439.4 450 454.7 461.4 463.9 464.4 475.4 484.5 495.3 498.9 503.4 505.1 510.4 514.4 516.8 517.9 520.1 519.8 517.3 518.2 516.7 514 511.6 504.7 493.6 483.8 475.5 468.4 462 454.1 445.7 438.8 425.8 419.7 411.1 397.2 381.3 360.4 319.7 279.6 249 223.9 216.2 216.2 216.2 216.2 216.1 216.1 216.1 216 215.9 215.7 215.7 216 216.2 216.3 216.2 216 215.6 215.8 218 219.2 220.5 221.6 223 225.9 227.6 229.4 231.4 233.4 235.8 238.5 243.2 246.3 249.4 252.9 257 260.9 265.2 272.1 278.1 282.8 285.8 286 287.1 288.7 291.2 293.1 295 296.6 296.2 296.2 296.2 297.7 301.5 305.2 309 312.7 314.5 314.9 315 314.4 312.9 311 311 309.3 307 303.8 300.9 298 292.5 289.5 289.5 287.5 282.3 281.1 280.7 280.4 278.3 275.9 273.9 272.6 271.7 278.5 286.6 294.7 301.8 315.1 327
664.9 660.8 660.3 659.9 658.9 658.8 656.5 653 650.1 646.5 642.2 638.2 634.6 631.1 628.6 624.5 617.6 609.3 608.4 609.6 610.2 609.9 607 603.2 584.1 557.7 539.7 524.1 515.7 513.2 508.1 503.2 494.8 485.3 482.9 483.4 480.1 474 461.7 446.2 432.3 418.1 403.3 388.7 375.4 359.9 347.7 336.9 326.6 319.7 324.8 328.2 329.2 329.8 341.8 341.6 349.4 361.4 374.8 383.3 390.5 391.2 390.5 390.4 390.3 391.4 394.1 397.5 402 402.5 397.7 415.7 426.3 436.6 447.2 450.8 449.4 453 464 470.6 475.8 477.7 485 487.9 493 496.4 503.3 508.2 507.2 508.4 510.9 510.1 507.2 503.5 497.8 489.6 482.1 474.2 467.4 460.7 454 444.9 437.6 430.1 420 412.8 401.3 383.9 367.2 330 287.8 254.9 228.8 217.5 216.4 216.4 216.5 216.4 216.4 216.4 216.4 216.3 216.2 216.1 216.3 216.7 216.7 216.3 216 215.7 215.8 217.2 219.4 219.7 220.8 224.2 227.1 228.8 230.1 231.3 232.9 235.1 238.4 241.7 245.1 249.4 252.5 256.5 259.8 263.5 270.4 277.3 281.6 284.3 285.7 286.5 287.5 288.8 290.8 292.7 294.4 295 294.8 294.7 295.8 299 303.2 307.7 311.8 314.6 315.4 315.8 315.7 314.6 313.4 313.6 312.7 310.8 307.4 303.6 300.1 294.1 288.8 287.1 286.8 283.5 282.5 282 282.3 279.9 277.9 275.8 273.6 273.5 279.5 285.4 294.9 301.2 316.3 326.5
663.1 660.9 659.8 660.6 660.5 660 657 653.2 650.4 646.1 641.8 637.9 634.9 631.5 629.6 624.9 619.7 615.3 614.8 615.7 616.4 616.8 615.9 612 602.9 587.1 564.4 548.3 543.5 546.7 541.8 532.8 519.9 503.6 506.1 508.7 505.8 502.3 491.6 477.4 463.5 449.1 429.7 414.7 399.1 383.2 368.8 355.6 341.2 327 313.9 314.8 316.2 316.9 324 328.4 329.3 339.2 349.1 355.6 361.6 360.7 358.5 357.5 355 357.3 359.1 362.1 365.4 366.5 361.4 381.2 391.2 408.3 418.7 424.6 429.7 432 439.7 448.7 454.4 458.7 458.5 462.2 468.4 476.9 484.9 490.7 494.6 497.6 500.6 499.2 496.3 493 488.7 487.4 482 473.9 465.6 458.9 452.5 441.8 436.2 430.9 422 413.2 404.5 386.6 371.2 338.1 292.5 258.5 233.3 218 216.8 216.7 216.7 216.7 216.7 216.7 216.6 216.6 216.6 216.5 216.6 216.9 216.5 216.3 216 215.6 215.3 216.3 218 219.6 221.1 224.5 227.7 229.2 230.6 231.5 232.5 235.2 238.4 241.7 245.2 248.8 252.3 255.9 258.9 261.9 267.4 275.2 279.6 281.7 282.9 283.9 285 286.8 289.2 291.8 293.7 293.6 293.4 293.2 294 297 301.2 305.8 310.3 314.2 316.1 316.7 316.7 316.1 315.1 314.8 314 312.6 310.3 306.4 303 297.3 291.1 288.5 287.5 285.5 283.7 283.2 282.9 281.3 278.3 276.4 274.6 273.9 279.2 283.6 292.8 303 315.4 330.9
659.3 658.8 658.6 660.5 660.5 659.3 657.3 653.7 650.3 645.6 641.5 636.9 633.7 630.6 627.5 624.2 621.2 620.8 620.2 621.4 622.4 623.2 622.1 619.7 613.4 603.9 592.6 578.5 573.1 571.7 564.8 554.6 542.8 523 519.4 516.2 513.8 511.4 506.4 496 488.3 479.5 465.5 443.3 422.2 405 390.8 377.4 362.5 344.3 323.5 306 307.5 309.4 314.4 316.3 315.5 323.1 328 332.3 333.2 330.8 327.4 325.4 325.5 324.3 327.1 328.8 329.8 329.1 335 346.9 358.6 373.9 381.8 390.3 398.2 404.8 414.4 422.6 432.2 438.2 437.1 443.8 452.2 459.2 468.1 474.5 481.4 486 488.8 488.1 483.9 483 483.5 483.3 480.1 471.3 462.3 456 451.8 446.5 441.1 433 429.4 416.3 405.6 391.4 374.7 343.8 298.7 264.3 234.6 219 217.3 217.1 217 217 217 217 216.9 216.9 216.9 216.9 216.9 216.6 216.3 216 215.7 215.5 215.2 215.8 217.6 219.2 221.3 223.8 226.6 228.6 229.1 230 232.5 235.1 238.2 241.6 245.3 248.9 251.9 254.4 257.2 260.1 264.3 271.9 276 277.7 277.6 279.1 280.4 283 284.7 289.2 291.9 292 292.6 292.6 293 295.7 299 304 309.1 313.6 316.3 317.2 317.8 317.2 316.5 316.3 316 314.9 312.6 309.3 306.1 300.7 294.3 291.4 289.3 287.6 285.3 283.7 282.8 280.9 279.3 277.8 275.8 275.8 279.9 283.7 291.8 302.9 317.2 335.4
653.8 655 656.4 657.8 658.6 657.8 655.9 652.4 649.6 644.7 640 634.6 630.8 628.4 626.4 624.1 623.1 625.2 625.6 625.6 626.9 627.6 624.1 620.1 613 605 596.4 586.3 578.9 572.4 565.6 555.9 544.5 529.9 519.1 514.1 510.3 505 500.7 494 488.2 482.5 474.9 461.7 448.5 433.1 418.3 398.9 375.2 353.5 330.9 314.4 302.6 299.7 305 305.1 300.7 310.6 313.3 312.5 309.3 304.1 300.1 297.7 296.9 295.6 297.3 299.1 296 302 303.7 314.5 326 335.2 344.5 353.9 363 372.6 381.7 390.6 399.6 407.9 410.2 416.1 423.2 431.1 442.1 451.8 463.2 471.8 473.1 473.7 473.3 472.7 475.2 475.7 473.5 466.2 460.3 456.9 454.3 448.5 444.7 439.4 432 421.3 412.3 394.4 374.8 345.6 303.4 267.5 237.7 219.5 217.7 217.6 217.4 217.3 217.3 217.3 217.3 217.3 217.3 217.3 217.1 216.5 216.4 216.5 216.6 216.8 215.6 215.7 217.2 218.7 220.5 222.8 225.2 227.2 227.6 229.9 232.6 235.3 237.9 241.5 244.9 247.9 250.3 252.9 255.6 258.3 262 266.7 269.6 269.8 273.4 276.8 278.8 282.5 285.3 286.1 289.2 290.9 291.5 286.4 292.2 294.9 298 303 308.4 312.8 315.7 317.9 319 318.3 318.2 318.2 318.1 317 315.3 312 308.5 304.4 296.6 294 291 288 286.3 284.9 283.8 282.3 280.3 278.8 278 276.5 279.7 284.2 292.3 302.2 318.9 336.4
645.9 649.5 651.8 653.6 655.1 654 652.6 650.7 648 640.6 636.3 630.8 627.8 625.8 624.3 622.5 623.6 626.2 626.9 625.9 626.5 625.1 620.4 615.3 607.4 599.4 591.4 582.6 574.6 567.5 560.8 551.6 540.1 525.3 513.2 507.3 501.7 497.5 492.8 486.4 479.8 474.1 466.8 455.3 444.6 428.8 404 383.3 362.5 346 327.5 312.7 303.9 295.6 294.1 293.9 288.2 293.9 292.8 289.7 283.7 278.2 275.9 274.2 274.1 272.2 274.2 275.9 273 281.2 281.6 287 292.1 300.5 311.2 321.1 330.2 340 348.9 355.4 364.1 370.5 374.4 382.3 390.2 398.2 411.7 423.3 436 445.1 452.1 456.7 459.6 460.3 461.5 462.9 462.4 457.2 454.8 454.5 452.8 453.2 449.7 442.2 436.2 429.4 416.9 397.6 382 355.3 308.6 268.7 236.9 220.7 218.3 218 217.7 217.8 217.8 217.8 217.8 217.8 217.8 217.6 217.2 216.8 216.7 216.6 216.7 216.8 215.8 215.3 216.8 218.3 220.9 223.4 225.3 226.4 227.9 229.7 232.4 234.8 236.8 240.3 243.9 246.9 249.2 251.4 253.6 255.5 257.1 259.6 266.9 272.4 275.6 278.4 280.1 281.8 287.1 290.1 290.1 289.9 292.3 292.5 292.9 295.2 298.1 302.3 307.6 312.8 316.3 318.6 319.8 320 320 320 320 319.5 319.5 314.8 311.2 306.8 299.3 295.3 292.7 289.2 288.1 287.1 286 284.8 282.7 280.5 278.5 278.1 279.3 284.8 291.1 299 320.6 329.6
636.6 640.9 646.4 648.5 649.9 649.4 648.8 647 642.1 636.5 632.2 627 623.6 622 619.6 619.1 621.2 624 624.4 622.7 621.9 618.9 612 606.2 598.1 590.3 583.5 575.7 568.3 560.6 553.6 544.2 531.9 516.2 503.5 497.9 491.7 486.8 479.6 474.3 469.1 461.1 452 441.9 430.6 408 380.5 361.6 341.7 330 315.4 303.1 297.4 294.3 286 279.3 277.2 275.8 274 272.6 271.2 269.7 267.7 265.3 263 261.9 260.5 260.5 262.2 264.5 266.9 271.8 273.2 273.3 279.7 289 300.2 308.4 316.8 322.5 329 333.9 339.5 348.4 355.9 365.8 378.3 389.6 401.5 413.2 422 428.6 433.4 437.5 439.8 443.8 446.9 447.2 447.9 448.1 448.9 449.5 446.5 446.3 443.8 438.7 423.2 404.5 389.3 357.4 315.9 273.8 239 220.7 218.6 218.3 218.1 218.2 218.3 218.3 218.3 218.2 218 217.8 217.4 217.2 217 216.9 216.7 216.6 215.9 215.6 216.6 217.9 221 223.9 225.3 226.7 228.1 229.6 232.4 235 237.1 239.7 242.9 245.2 247.4 249.5 251 252.3 256.8 262.1 267.4 271.3 274.1 276.8 278.6 282.2 286.4 291.3 292.3 292.8 293.4 293.6 294.1 296 298.8 302.3 306.9 312.1 316.6 319.4 321 321.7 321.7 321.8 321.8 321.9 320.4 317.4 315.2 309.2 303.1 297.1 294 291.4 290 289 287.9 286.6 285.4 283.2 280.9 279.8 279.7 284.7 289.9 298.2 309.3 316.9
626.6 631.7 639.5 643.5 645.1 644.9 644.4 641.4 635.9 631.6 627.5 621.8 616.1 615.5 613.8 607.1 616 618.8 620.3 617.9 613.2 610 601.8 595.4 587.4 580.4 573.4 566.5 559.8 552 542 534.1 521.4 505.6 491.9 486.1 479.7 472.1 466.8 462 454.5 445.3 435.5 424.7 410.1 383.1 360.1 338.9 324.3 313.4 304 295 289.3 284.3 285.7 287.3 288.5 284.3 281.8 278.2 275.6 273.7 269.4 267.2 265.1 264.3 262.1 259.5 256.8 257.7 259 258 262 260.8 263.5 268.3 274.4 280.1 286.3 291 294.9 299.9 308.9 316.5 324.5 334.1 344.9 356.1 367.7 379 389.1 397.6 403.4 409.6 416.6 420.1 422.8 429.8 436.9 444.2 448 447.3 446.7 446 443.4 437.9 423.8 408.9 389.2 358.3 321 276.6 242.2 219.9 218.7 218.6 218.6 218.6 218.7 218.7 218.6 218.4 218.2 218 217.7 217.6 217.4 217.3 217.1 216.9 216.4 216 216.5 217.7 220.7 223.5 224.9 226.3 227.8 229.7 232.9 235.3 237.1 239 241.3 243.7 245.3 246.9 247.8 251.9 255.6 260.6 264.8 269.3 271.9 274.9 277.4 281.4 286.2 290.1 292.5 293.7 294.6 294.6 294.9 296.5 299.3 302.1 306.7 312.3 317.8 320.8 322.3 323.2 323.3 323.4 323.9 323.3 321.5 318.5 315.5 312.7 306.7 300.5 297.1 293.9 291.9 290.9 289.9 287.9 287 286 284 281.6 280.4 282.5 288.6 294.3 299.1 308.1
617.3 623.8 631.1 637.3 640.4 641.5 639.7 635.7 631.1 626.8 622 615.6 609.4 605.1 602.5 597.4 607.9 612 612.2 609.4 603.1 596.7 588.8 581.6 573.4 566.6 560 554.7 549.1 541.7 532.9 521.6 507.4 494 482.1 472.7 465.4 458.1 450.8 443 436.5 427.9 415.9 400.3 381.6 360.4 336.5 324.4 312.9 300.7 293.1 287.8 289.9 293.9 292.4 294.5 294.7 289.6 288.7 288.9 290.5 289.1 284.4 278.3 271.7 265.3 262.3 261.7 258.9 255.6 255 254.8 254.4 254.6 254.5 257.7 262.2 265.2 264.7 266.1 268.7 274 279.5 288.1 297.6 305.7 313.8 323.3 334.4 346 357.2 367 375 382.1 387.5 393.3 398 406.7 417.5 426.5 434.1 439.2 445.4 448.2 439.4 429.8 420.8 406.4 380.2 358.4 322.4 279.3 247.1 219.8 219.3 219.2 219.1 219.1 219.2 219.1 218.9 218.7 218.5 218.3 218.1 217.9 217.8 217.6 217.7 217.4 216.8 216.3 216.2 218.5 221.1 223.1 224.6 226.1 227.5 229.9 232.5 234.4 236.2 238.2 240.4 241.9 243 245.3 247.5 251.9 256.2 259.9 263.8 267.1 270.1 273.6 277.3 281.3 286.1 289.4 291.8 294.1 295.2 295.9 295.8 297.1 299.9 302.6 306.6 312.8 319.1 322.1 323.5 324.7 324.8 324.9 325.6 326.1 323.4 319.5 316.3 313 310.8 303.5 301.1 296.9 293.9 292.9 290.9 289.3 288.3 288 285.4 286.2 283.1 283.7 288.3 294.2 296.8 303.7
607.2 615.5 623.4 630.8 635.1 635.6 634.7 630.7 625.4 620.6 614.6 607.8 602.2 581.3 582.8 583.7 597 603.2 603.3 599.2 592.6 581.7 573.9 566.1 557.5 551.1 544.9 540.8 536 529.5 521.5 510.7 496.1 484.6 472.6 461.2 450.9 443.4 434.7 427.5 420.2 409.3 395 376.7 358 337.9 323.3 314.3 301.5 293.3 287.6 294.7 302 303.6 302.9 304.6 304.2 305.3 304 309 309.4 307.6 304.3 296.8 287.6 281.9 274 261.1 256.5 256.4 253.8 253.2 252.8 251.9 251.5 251.1 252.2 253.7 253.6 254.4 252.8 250.3 256.2 264.8 270 278.4 285.5 291.7 303.2 316 326.3 336.8 345.8 353.6 359.5 364.7 371.7 380.7 392.6 401.1 409.4 417.6 425.2 428.9 429.5 421.9 411.2 393.5 376.9 351.3 315.6 276.4 244.9 222 220.2 219.8 219.6 219.6 219.6 219.4 219.2 219 218.8 218.6 218.4 218.3 218.1 218.1 218.1 217.8 217.3 216.8 216.1 218.6 221.1 223.3 224.6 225.9 227.3 229.4 231.4 233.3 235.1 237.1 239 240.1 241.9 243.9 247.2 252.7 255.8 259.2 262 265.1 268.3 271.8 276.6 281.3 285.2 288.4 291.1 294.2 297.1 297.7 297.3 297.9 300.4 303.1 307 313.4 320.1 323.8 325.3 326.3 326.2 326.1 326.9 326.4 325.8 321.2 317.4 314.1 311 307.9 303 297 295.9 294.3 291.8 290.6 290.5 289.3 287.1 287.6 284.9 281.7 287.9 293.2 297.6 299.5
598.3 608.1 617 623.6 628.4 628.8 628.3 624.8 619.7 613.4 604.9 596.7 591.6 582.1 555.9 570.6 586.1 593.4 593.6 588.3 581.5 569.8 558.3 551 542.1 534.4 528.6 524.5 520.5 515.4 508.1 497.9 487.3 475.2 463.2 450.8 438.7 429.1 420.3 411.6 400.8 386.2 369.1 351.4 335.1 324.5 313.3 302.3 294.1 291.8 301.5 308.9 316 314.9 318.7 320.2 323.1 326.6 325.3 329.3 331 330.7 327.2 320.6 313.2 304.4 287.5 268.1 257.2 257.1 255.6 253 251.6 249.9 249.4 248.2 247.1 246.5 247.9 249.6 246.7 243.2 242.1 243 243.2 249.4 260.1 266.1 277.7 289.3 296.5 306.2 313.8 323.1 331.6 339.1 345.6 354 366.1 376.4 385.7 392 396.3 399 399.4 394.8 387.1 377.1 359.3 337 307.4 274.4 243.2 223.9 220.2 220.2 220.1 220 219.9 219.7 219.5 219.3 219.1 219 218.8 218.6 218.3 218.3 218.2 217.8 217.2 216.7 216 218.7 221.2 223.2 224.4 225.5 227 228.7 231.1 232.5 233.7 236.4 238.3 240.2 241.8 244 247.4 251.3 255.3 258 260.7 264.6 267.9 271.5 276.2 280.4 284.3 287.5 290.8 294.5 297.8 298.9 297.5 298 301 304.1 307.9 313.3 320.4 325.2 327.2 328.1 328 327.5 327.1 326.2 325.7 322.5 318.8 315.8 312.8 309.1 302.2 302.4 299.7 294.3 292.9 293 293.1 290.9 290 290.6 288.9 287.3 284.1 292.1 297.4 299.9
589.3 599.8 609.2 616.3 621.2 621.9 621.1 618.7 613.8 604.3 592 572.4 576 566.7 545 558.7 575.6 584 583.5 578.7 570.9 559.3 543.7 536.3 527.5 518.5 511.4 507.7 505.1 501.2 495.1 486.4 477.4 466.6 455 441.2 427.7 415 405.2 392.6 377 361.8 347 329.1 318.4 308.3 298.2 293 295.7 306.1 317.8 324.7 332 339.4 342.6 343.4 348 351.6 350.9 351.6 357 358.9 356.8 347.9 334.5 316.7 299.3 282.2 269.7 262.6 259.7 255.5 251.4 249.9 248.1 247.4 246.5 246 244.8 244.9 244.2 242.5 241.7 241.1 240.4 239.6 239.8 240.1 252.7 263.1 273.2 278.6 286.3 293.4 302.3 311.5 319.3 327.8 338.2 346.1 355.4 361.9 366.5 367.5 366.7 362.1 358.2 348.2 335.7 320 298.8 277.1 250.4 227.2 220.7 220.6 220.8 220.7 220.4 220 219.8 219.7 219.5 219.3 219.2 218.9 218.6 218.4 218.3 218 217.3 217.4 216.6 219.1 220.9 222.1 223.5 225 226.6 228.9 232.2 235 235.7 237.1 239.5 240.2 241.8 245.2 247.4 250.1 253 256.9 260.1 263.4 266.9 270.6 275 279.5 283.3 286.3 290 294.4 298.4 300.1 299.4 299.6 302 305.1 308.7 313.9 320.2 326.3 328.2 329.2 330 328.4 327.6 326.4 325.3 322.5 319.8 317.1 314.4 310.6 304.6 307.6 302.9 296.4 296.1 295.6 294.8 293.5 293 291.9 290.6 288.6 285.2 291.9 296.1 299.7
581.6 591.8 601.2 609.1 614.1 615.6 615.4 614.3 608.2 593.2 572.6 556 553.8 548.6 529.3 552.1 568.3 573.6 574 570 562.9 552.4 537.3 523.3 510.6 498.4 490.5 489.8 488.1 484.8 479.5 473.3 465.6 456.1 443.5 431.7 417.9 401.7 387.2 370.8 356 341.3 328.6 317 304.2 296.5 294.2 297.4 308.7 320.4 331.1 345.8 355.7 363.6 370.1 372.5 374.5 375.2 380.1 381.3 391 391.2 386.3 369.8 342.2 323.1 308.5 293 279 270.9 264.8 262.2 255.8 252 249 247.2 244.1 242.7 242.7 242.5 242.6 242 241.4 240.9 240.2 239.3 238.7 238.5 238.1 238.1 248.4 256.4 263.5 270.2 276.1 284.2 293.3 301.4 310.4 320.6 327.6 332.4 336.6 337.6 336.3 332.3 328.5 320.8 309.6 302.8 290.8 273 249.8 229 221.1 221.3 221.5 221.3 220.8 220.3 220.1 219.9 219.8 219.6 219.3 219.4 218.9 218.7 218.6 218.4 217.7 216.8 217.4 220.4 222.8 223.8 224 224.8 226.2 228.8 232.6 235.4 236.1 236.9 240.6 241 241.8 244.1 246.4 248.3 251.6 256.8 259.9 262.5 266.3 270.4 273.5 277.9 281.6 285.1 289.2 293.8 298.4 301 301.6 302.3 303.5 306 309.6 314.3 319.8 325.5 328.4 329.6 330.8 329.3 328 327.1 325.8 323.2 319.8 317.2 315.3 312.8 308.8 311.7 307.5 302.9 299.6 297.1 295.8 295.4 294.3 293.3 292.2 290.3 287 290.8 294.4 299.2
574 583.8 593.2 600.9 606.3 609.4 609.8 609.9 604.7 591.3 568.4 540.2 525.5 528.6 527.8 547.5 560.9 566 565.8 561.6 555.5 545.9 531.9 520 506.2 478.3 466.8 469.2 470.5 467.4 463.4 458.6 452.4 444.1 432.1 421.1 408.1 388.7 367 351.3 336.9 327.5 317.4 302.6 295.2 296 294.1 311.2 324.2 339.3 351.6 365.6 376.2 384.8 390.4 390.8 391.1 395.3 403 407.6 414.5 417.9 409.1 390.6 354.8 334.3 320.3 304.8 290 283 277.5 276.1 267 259.2 253.3 248.7 247.6 247.4 244.4 242.7 241.6 241 240.8 240.5 240 239.3 238.5 238.1 237.1 236.2 236.3 238.1 237.3 247.2 252.1 259.7 270.5 278.6 286.4 294.2 300.7 307.1 310.1 309 305.9 303.3 299.3 293.5 283.5 281.4 272.7 259.3 240.9 226.7 221.7 221.3 221.3 221.6 221.2 220.7 220.4 220.2 220 219.8 219.6 219.4 219.2 219 218.9 218.7 218.5 216.7 218.5 221.4 223.5 225.8 226.9 228.7 227.4 228.7 232.1 234.2 236 237.8 240.5 241.7 241.9 244 245.9 247.8 251.5 255.6 259.6 263.1 266.6 269.5 273.2 276.3 280.1 283.7 288.8 294.4 299.5 302.1 304 304.6 305.3 306.8 310 314.7 319.8 324.8 327.9 329.3 330.7 329.7 328.8 328 326.4 324 320.2 318.1 316.6 312.8 314 314.4 311.8 306.4 302.4 299.6 298.6 297.1 295.6 293.9 292.3 290.7 288.5 291.2 295.1 298.1
565.4 575 585.3 592.5 599.1 602.6 604 603.4 598.9 589.8 567.4 543.6 518.4 508.1 522.8 540.1 552.3 558 557.8 553.8 548.1 539.5 527 514.3 503 481.8 459.6 444.8 449.9 451 447.6 443.7 438.9 429.9 420.3 409.2 395.4 373.9 350.4 336.2 325.6 316.1 299.2 297.4 298.1 302.1 312 327.2 341.7 356.9 367.7 382.3 393.2 398.8 401.6 401.5 403.5 407.8 415.5 421.8 429.8 437 436.9 407.1 369 346.2 331.4 315.1 309.4 300.9 293.3 289.4 281 273.5 267 259.9 256 252.2 247.8 242.8 241.7 240.8 238.9 239.1 239.3 238.7 238.1 237.5 236.7 236.3 235.4 236.3 235.1 234.4 235.1 238 244.2 253.5 260.4 268 274.1 279.8 280.8 282.9 282.5 278.6 274.4 268 258.4 254.9 249.8 242.9 230 224.1 222.5 221.7 221.3 221.5 221.4 221 220.7 220.5 220.3 220.1 219.9 219.5 219.4 219.2 219.1 219 218.8 217 219.4 221.5 223.3 225.4 227.7 231.4 229.6 229.1 231.5 233.3 235.4 237.7 239.8 240.9 242 244.6 246.7 248.7 250.6 253.6 256.9 262.1 265.9 269.2 271.5 274.7 278.7 283.4 289 295.4 300.4 303.1 305.7 306.9 307.6 308.6 310.3 315.3 320.3 324.4 326.8 329.3 330.5 329.5 329.3 328.3 326.9 324.7 321.3 319.2 317.8 314.8 315.6 316 314.4 311.4 304.2 301.7 299.9 299.3 296.7 294.7 293.2 292.3 289.8 289.2 293.2 296.8
556.3 565.6 575.6 584.1 591.7 596.7 598.6 598.2 593 585.1 564.2 541.4 518.1 501 513.3 528.7 543.4 550 549.8 546.7 542.5 533.7 521.9 510.3 499.2 484.2 462.3 444.1 424.4 430.2 429.9 428.4 424 417.7 407.6 395.7 380.5 360 337 322.8 310.1 300.9 299.2 301.3 303.8 315.4 327.7 341.6 356.3 368.8 381.2 393.7 403.2 408.6 411.1 412.2 413.8 418.2 426.3 432.7 440.7 447.7 449.3 418.1 384.2 360.3 342 331.6 328.8 323.7 315.4 306.8 297.1 289 280.4 272.3 265.9 257.8 252.9 243.8 241.6 241.1 239.2 238 238.3 237.9 237.8 237 236.2 236 235.2 234.4 234.2 233.8 233.4 233.2 232.8 235 241.6 248.2 253 257.7 259.3 259.3 258.6 256.7 254.1 250.4 243.3 239.2 235.2 230.8 226.3 223.5 222.6 221.9 221.4 221.5 221.3 221.2 221 220.8 220.7 220.5 220.4 219.7 219.4 219.3 219.2 219.1 217.9 218 219.8 221.6 223.3 225.1 227.7 230.9 230.5 230.6 232.6 233.7 235.2 237.6 239.2 240.6 241.9 244.8 246.5 248.7 250.3 252.5 255.5 259.2 265.4 268.8 271.7 274.6 278.8 283.6 289.7 295.9 301.3 304.1 306.7 309.3 310 311.2 311.6 315.3 322.4 326 327 328.7 329 328.7 328.9 329 327.5 325.5 322.1 319.9 318.5 318 318.1 318.2 316.9 314.7 306.9 303.1 301.9 301.5 298.8 296.1 294.2 292.3 290.6 290.1 293.2 296.7
546.6 556.5 566.3 576.7 584.8 591.1 594.7 595.5 590.9 580.7 554.9 534.2 515.9 493.4 502.3 516.5 533.4 540.7 542.8 540.8 537.2 528.6 517.4 505.5 494.1 482.7 465.6 446.4 429.1 408.5 410.3 410.5 409.3 403.8 394.7 381.2 365.5 345.6 328.5 309.8 302.7 300.3 301 307.6 317.1 331.3 341.3 354.4 366.5 379.6 393.3 404.6 411.6 415.8 419.5 421.3 423.3 428.3 434.5 442 448.6 454.6 452.7 423.9 391.4 371.7 359.5 353.9 351.3 351.1 339.4 329.3 319.2 312.5 302.4 290.9 280.5 270.8 262.9 256.7 253.6 247.6 239.8 238.7 237.5 237.7 237 236.3 235.7 235.3 234.6 233.7 233.7 233.3 232.9 232.5 232 230.8 231.2 233.1 238.8 245.8 247 245.4 243.4 242.1 239.8 237.5 234.4 231.3 228 226.4 224.5 223.5 222.7 222 221.5 221.4 221.2 221.1 220.9 221.2 221.4 221.4 220.7 220.5 219.6 219.3 219.2 218.6 217.5 218.1 220 222.5 224.2 226 227.2 229.5 230.4 231 232.6 233.8 234.7 236.8 238.6 240.6 242.4 244.6 246.3 248.5 250.4 253.1 256.1 259.1 264.1 267.6 271.5 275.1 278.5 284 290 296.3 301.9 305.7 308.1 310.5 312.6 313.3 313.6 316.1 322.6 326.6 327.4 328 328.1 328.3 329 329.3 327.9 326.3 323 320.5 318.7 317.3 320.2 321 319.7 316.8 311.3 305.7 303.2 302.2 301.4 297.6 295.8 293.9 292 291.2 294.2 298.1
535.5 546.4 557.5 569.6 580 587.6 592.4 594.6 590 582.4 558.6 537.9 517.5 496.5 494.6 505.4 523.1 532.4 535.3 534.2 530.6 522.1 511.5 500 489.1 477.7 464.5 450.1 435.8 423.8 408.7 395.8 388.4 383.8 373.1 359.9 346.6 332.6 318.6 304 301.8 306 310.6 316.7 331.5 343.6 354.4 364.8 376.8 391.1 403.3 411.8 417.8 422.2 425.3 428.2 430.8 435.9 442.2 449.5 455.9 460.7 461.8 437.2 404.9 391.8 384.5 380.9 380.6 375.6 364.5 354.3 343.1 332.6 321.9 311.6 301.2 289.4 277.2 269.6 266 257.5 248.1 240.2 237 237.3 235.3 234.8 234.5 234.7 233.9 233 233.5 233 232.5 232.1 231.4 230.6 230.1 229.7 229.6 239.2 243.1 239.8 235.4 233.1 231 231.2 230.4 228.5 226.4 224.9 224 223.5 222.8 222.2 221.5 221.3 221.2 221.1 220.8 220.9 221.1 220.4 220 220 219.4 219.3 218.8 218.1 217.4 218 220.4 223.7 225.4 226.8 227.3 228.2 229.4 230.6 231.5 232.9 234.6 236.7 238.5 241.9 244.2 246.2 248.3 250.4 250.8 253.8 256.8 259.4 262.6 265.7 270 275.4 279.9 284.4 290.3 296.8 302.2 306.7 309.7 312.2 314.5 315.4 315.1 317.7 321.4 325.4 327.1 327.8 328.1 328.8 329.4 329.2 327.9 326.8 323.9 321.1 318.2 316.2 319.9 323.1 322.8 318.9 313.9 308.7 305.6 304.2 303.1 299.9 297.8 296 294.2 291.7 294.2 299.6
523.7 536.4 551.9 565.4 576.6 585.7 592.1 596.1 592.1 584.8 571.1 549.3 526.4 500.7 486.2 497.9 512.4 524.4 526.4 526 522.4 514.8 504.3 494.3 483.7 472.3 461.2 449.8 439.7 429.8 419.8 409.4 396 380.8 360.1 337.3 331.8 322.8 312.1 303.3 309.4 314 319.4 322.3 340.7 353.9 363.8 373.2 386.4 401.1 411.2 417.1 421.7 427.2 430.9 434.1 437.7 442 448.1 455.4 461.6 466.7 468.9 462.5 435.4 425 417.1 414.9 415.8 407 386.8 371.8 357.4 345.3 333 324.7 313.6 293.6 292.6 287.3 283 276.8 269.6 262.7 255.8 251.9 249.3 246.4 238.4 236 233.6 233.4 232.8 232.6 232.3 231.7 231 230.3 229.7 229.1 228.9 228.5 228 228.9 228.1 228.4 227.4 227.3 227 225.9 224.8 224.6 224.4 224 223 222.3 221.6 221.2 221.2 220.9 220.7 220.7 220.8 221.3 221.5 221.2 219.7 219.1 218.5 217.9 217.3 218.4 221.6 224.7 226.6 226.6 227.2 228 229.3 230.3 231.1 232.4 234.5 236.7 239 243.1 245.5 248.4 250.3 252.3 253.4 254.5 257.3 260.1 262.8 266.5 271.4 276 280.1 284.7 290.7 297.2 302.8 307.2 311.1 313.9 316.5 317.5 317.3 318.9 323.2 325.6 327.1 325.8 327.1 327.2 327.9 329 327.8 327.5 325 322.1 319.4 316.5 320.4 324 325.3 322.8 317.3 312.2 308.5 307.4 306.4 303.1 300.4 297.9 295.7 294.8 295.2 298.8
522.8 536.1 549.6 563.1 574 584.7 593.4 597.4 594.8 588 578.1 561.3 533.1 504.5 476.4 490.6 502.6 512.2 512.7 514.2 511.7 505.3 496.9 487.6 476.6 465 455 446.1 438.1 431.3 423.2 413.9 402 384.6 364.7 345.8 327.7 315.1 305.4 310.9 320.4 327.8 332.5 321.3 347.4 361.1 370.4 380.9 395.3 407.3 415.3 420.6 426.8 431.6 436.5 439.2 442.8 448 454.4 460.8 466.5 471.4 474 473.5 467.9 462.7 455.6 453.5 443.8 420.2 397.4 380.9 368.2 354 343.8 334 318 313.3 307.9 305.8 304.3 300.5 294.8 288.6 280.5 272.9 267 262.4 257.3 248.2 242.2 236.1 233.8 232.2 232.2 231.8 230.3 229.8 229.7 228.9 228.6 228.9 228.3 227.6 227 226.8 226.6 226.3 226.3 226.2 225.1 224.6 224.5 225.2 223.2 222.9 223.3 222.7 221.4 220.9 221.1 221.5 222.1 221.6 220.9 220.2 219.6 218.8 218.2 217.8 217.3 218 220.9 225.2 227.8 226.8 227.3 227.9 229.2 230.1 230.8 232.2 234.4 236.6 240.2 244.3 247.1 250.6 252.7 254.6 256.2 255.1 258.4 261.2 264 267.6 271 275.2 279.6 285.2 291 297.4 303.4 307.7 311.9 315.1 317.7 319 319.5 320.2 324.1 326.1 327.1 326.8 325.8 325.9 326.6 327.6 328.2 328.3 326 323.1 320.4 318 321.5 325.3 327.5 325.4 320.8 315.3 311.6 308.7 308.3 306.1 302.4 300.2 298.1 296.2 296.3 300.6
520 532.9 546.6 559.5 571.4 582.4 590.1 595.7 592.6 587.1 577.3 566.1 543.3 513.2 484.7 477.5 491.6 497.8 499.8 501.4 499.4 494.6 487 477.9 466.8 455.6 447.3 439.3 432.8 426.7 419.8 409.9 396.7 379 359.6 341.1 321.3 307.4 310 322.6 334.2 338.3 339 333.3 348.5 366.5 375 386.3 400.6 411.2 417.7 424 430.6 436.1 441 444.6 448.7 453.9 460.2 467 472.4 476.1 478.9 479.6 477.8 474.4 470.2 463.3 444.5 421 403.1 387.4 373.3 363.3 351.5 340.1 328.8 329.7 324.7 321.1 323.7 322.1 317.1 310.5 301.5 293 285.5 277.1 271.2 264.4 259 253.5 249.3 237.1 230.7 230.9 231.6 231.4 230.4 229.8 229 229.1 228.7 227.9 227.4 227.3 226.8 226.2 226.3 226 225.1 224.7 224.4 224.1 223.3 223.6 223.1 222.6 222 221.9 222.4 222.1 221.3 220.8 220.1 219.5 219.1 219 218.6 218.2 217.5 217.5 220 224.6 226.8 227.5 227.5 228.1 229 229.9 230.5 231.6 233.9 236.7 241.3 245.5 249.4 252.8 255.2 257.3 258.5 257.5 259.4 261.4 264.6 267.6 270.9 274.6 279.2 285.4 291.3 297.6 304.1 308.5 312.8 316.1 318.7 320.8 321.2 322.4 325.3 326.7 327.9 327.2 326.1 325 325.2 326.2 328.2 328.8 327.1 324.1 322 320.3 323.1 325.7 327.4 327.3 323.8 318.5 314.7 311.4 309.9 307.8 304.8 301.6 300.6 299.7 297.7 301
516.1 527.6 542.2 555.1 567.1 578.7 586.6 591.3 589.1 583.6 573.9 564.6 551 520 489.1 463.1 480.7 481.9 486 488 485.9 480.7 474.7 466.2 455.1 446.2 439.3 431.7 425.9 420.5 412.6 403.1 388.7 371 352.7 332.1 315.3 310.3 321.3 334.1 345.8 351.6 350.8 348 348.9 369.3 378.2 391.4 402.3 412.5 419.8 426.5 433.3 439.6 445.5 450.4 454.9 460.5 467.5 474.6 480 483.9 487.4 488.1 486.8 483.5 478.7 465.2 439.9 422 408.2 393.6 380.8 370.4 360.1 345.2 344.6 343.3 340.8 337.9 341.7 340.3 336.4 329.6 320.6 311.8 304.1 294.2 286.9 280.6 275.3 268.5 264.6 254.4 253.3 251 248.6 246.9 243.7 242.9 243.1 241.5 239.9 233.6 229.2 227.6 227.3 227.2 231 233 227.9 227.2 227.6 227 223.7 223.2 223 222.5 222.6 222.8 222.9 221.7 220.9 220 219.6 219.4 219.2 219.1 219 218.4 217.7 217.4 219.3 223.3 227.1 227.7 228.4 228.4 228.9 229.6 230.2 231.4 233.7 237 242.3 246.7 251 255.5 258.4 261.5 260.3 258.2 259 261.1 265.1 268.1 271.2 274.6 279.2 284.5 292 298.4 305.5 309.8 313.8 316.7 319.6 322.1 322.1 323.8 326.4 328.4 328.7 327.7 326.7 325.1 324.2 325.4 327.3 328.9 326.9 323.6 322.4 321.3 323.5 327.5 328.8 329.6 325.5 321 317.7 314.5 311.8 308.4 307.3 305.3 304 301.9 299.6 301.3
512.3 522.8 537 550.6 563.7 574.4 582.3 584.9 583.9 578.4 569.9 561.9 551.4 527.6 497.3 468.4 462.9 465.7 468.5 471.7 470.7 466.3 459.9 452.2 443.7 437.1 431.1 424.9 418.2 412.1 404.4 395.8 382.6 363.9 340.7 321.6 309.3 316.4 332.7 347.4 355.7 359.9 362.2 361 344.4 365.8 381.6 392.3 404 413.5 421.4 428.8 435.7 443.8 449.8 455.1 460.4 467 474.5 481.6 488.6 494.2 497.5 498.7 497.3 494.2 488.5 462.2 437.7 424.5 413.5 401.9 390.8 379.6 362.4 360.7 357.7 356.2 353.8 354.6 360.3 361.2 358.1 349.9 339.3 329.2 321.4 312.9 303.8 295.5 289.2 283.5 277.6 264 268.2 269.9 268.4 268.1 262.8 260.7 259.5 258.9 256.3 256.6 255.2 245.3 254.6 254.2 251.7 247.2 243 240.1 236.6 233 229.2 226.1 224.7 224.3 224.3 223.5 222.5 221.3 220.5 220 219.7 219.5 219.4 219.2 218.9 218.3 217.7 217.4 219.8 222.3 225.5 228.7 229.7 228.9 228.8 229.4 230 231.4 233.5 237.4 242.9 247.5 252 256.1 259.5 262.2 261.6 259.2 259.2 260.5 265 268.4 271.5 275.7 281.1 286.5 292.9 299.9 306.4 310.8 314.2 316.7 320.2 322.2 322.9 324.7 327.4 328.9 329.5 328.4 326.8 325.3 323.7 324.7 326.9 329.1 327.3 324.2 323.2 322.6 323.2 328.2 330.8 331.9 327.7 323 320.1 317.3 314.2 312.1 307.7 308.5 307.8 305.3 302.6 301.7
508.4 520.5 532.2 545.9 560 570.7 576.8 579.6 578.4 574.1 567.4 557.5 547.1 532.6 503.1 474.3 443.6 449.9 453.4 453.3 453.4 451.3 445.6 439.6 433.3 427.5 422.5 416.8 410.6 404.3 397.6 389.9 377.4 355.8 334.3 318.2 312.3 323 342.4 354.9 363.3 369 373.7 375.4 362.1 356.6 375.4 389.5 403.2 413.1 421.8 430.9 439.2 447.5 454 459.6 465.9 472.4 480.8 489.1 497.5 504.2 508.8 510.6 511.2 508.8 501.8 463.7 442.6 430.9 420.5 411.1 403.2 383.2 379.1 374.7 372.3 368.5 366.5 371.7 379 384.1 383.3 374.7 361.2 346.7 336 329.2 319.2 309.4 301.2 294.6 285.7 280.8 284 285.7 287.9 287.2 284.6 282.3 278.4 275.3 273.2 271.5 268 266 264.9 263 260.3 255.5 250.6 248.5 244.4 238.7 234.5 229.5 227.6 227.8 227.6 225.9 223.1 221 220.6 220.2 219.9 219.6 219.5 219.3 218.8 218.2 217.5 218.6 220.9 223.1 225.3 229.3 231.5 230.1 228.8 229.4 230.1 231.5 233.5 237.6 242.9 247.1 251.3 255.4 259 261.4 262.1 261.4 262.3 263.4 265.1 269.1 272.6 277.5 282.8 287.1 292.2 299.4 306.4 311.5 314.7 316.7 319.2 320.1 321.4 325.2 328.7 331.1 329.9 328.6 327.1 325.5 324.5 325.2 326.6 329 328.1 325.6 324.5 323.8 323.2 328 332.3 333.8 330.8 326 321.4 318.7 315.2 312.2 309.3 309.2 311 308.4 305.6 302
506.1 518.1 529.1 541.8 555.5 567.3 574.2 576.2 574 568.9 562.2 552.4 541.9 531.2 516.3 489.7 460.5 430.5 434.2 438.4 436.8 435.8 431.5 427 422.5 417.4 412.2 407.4 401.5 396.2 391.7 384.3 370.6 350.1 327.8 314.1 316.1 332.1 348.2 359.9 371.3 379.6 384.8 385.4 376.9 364.7 375.3 376.5 398.1 411.8 422.4 431.9 441.5 450.2 458.4 464.4 471.4 478.6 487.1 496 505.5 513.1 519.2 522.8 525.8 523.8 502.4 470.5 447.9 435.3 425.8 417.2 406.5 395.9 392.9 390.5 389.9 384.4 382.1 392.1 401 408 409.6 402.5 385.3 367.6 354.1 343.9 331.9 320.2 310.9 303.8 294.1 297.1 300.5 307.1 310.4 310.3 308 306.2 303.2 299.1 296.2 291.4 288.4 284 280.2 275.6 272 267.1 261.4 255.5 250.8 247 241 235.7 232.6 231.1 229.7 227.4 224.4 220.9 220.3 220 219.8 219.7 219.5 219.3 219 217.9 217.3 218.7 221.5 223.1 224.7 227.8 229.7 229.4 228.2 229.2 230.2 231.6 233.3 236.9 241.5 246.1 250.4 254.6 258 260.5 262.8 264.3 265.6 266.8 268.1 271.3 274.4 278.3 284.2 288.6 293.6 299.5 306.3 311.7 314.9 316.8 318.8 318.1 320.7 324.8 328.8 331.9 329.5 329 327.5 326 325.5 326.1 326.8 329.3 329.4 327 324.8 323.8 323.4 326.8 332.7 334.8 333.1 328.5 324.1 321.1 317.8 314.8 311.9 311.8 313 311.2 307.7 303.8
505 517 528 538.1 550.9 562.9 570.2 571.7 568.5 563.5 555.4 545.2 535.7 525.6 514.9 501.8 482.7 453.1 428.5 414.1 415.6 418.4 417.7 414.4 410 406.2 402.1 397.1 392.2 388.6 384.5 376.4 360.9 343.1 322.6 311.2 324.5 340.9 355 368 380.7 389.1 394 394.6 385.3 370.8 386.9 395.3 388.6 404.8 420.1 432.1 443.1 453.3 462.3 470.7 478.2 485.3 493.3 504 514.1 523.2 531.2 535.8 540.6 541.6 517.7 485.4 457 442.6 432.6 428.2 413.5 414.3 412.5 409.3 405.5 401.6 399.7 410.2 419.8 429.1 433.7 430.2 410.3 388.5 371.2 360.2 349.6 335.4 323.9 308.4 310.5 316 323.8 329.8 333.4 334 332.2 330.2 327.7 323.5 319.5 313.7 311.3 305.2 301.6 299 292.9 286.9 281.5 272.8 263.8 260.2 255.8 246.7 238.1 234.3 232.1 228.6 225.5 221.3 220 219.9 219.8 219.6 219.5 219.3 219 218.6 218 219.6 220.5 222.1 223.7 225.2 227 227.6 227.1 228.1 229.1 230.4 232.5 235.6 239.8 244.4 248.7 254 257.5 260.3 263.2 265 267.8 270 271.2 274 276.7 279.9 284.9 289.7 293.4 299.1 305.4 311.3 315.2 317.5 319.5 321.7 321.4 323.9 328.3 331.8 331.1 330 327.5 326.3 325.9 326.2 327.4 329.7 330.5 328.5 326.2 324 323.4 326.4 332.8 335.6 334.8 332 327.4 324 320.5 317.5 314.5 314.4 316.4 313.7 310.3 306.8
501.1 514.3 525.6 535.4 545.4 555.8 564.1 566.4 563.2 558.2 548.8 537.3 526.3 515.8 506.3 496 482.8 465.7 450.1 435.8 414.3 393.5 395.3 391.7 390.7 394.4 392 387.7 383.1 378.6 372.6 361.5 345.7 327.1 315.7 319.9 333.2 348.8 363.6 375 389.3 399.1 402.4 402.2 396.4 375.8 391.1 402 409.7 412 408.4 428.8 441.9 452.7 463.5 473.1 481.5 488.9 496.9 508.9 520.7 531.9 541.1 548.6 556.2 558.5 537 499.9 468 451.8 443.7 437.5 432.9 433.2 430 424.6 418.6 414.6 415.7 426.3 437.4 448.5 456.1 456.5 436 409.1 389.6 377.3 363.8 345.9 332.8 324 331.2 341.3 349.1 354.6 358 358.1 356.5 353.8 350.6 347.1 342.2 338.5 335.5 329.3 325.5 321.9 316.8 310 303 295.3 288.5 284.4 275.5 260.2 250 240.6 233.8 230.1 225.3 221.3 220 219.9 219.7 219.6 219.5 219.4 219.1 218.3 217.2 219.2 219.1 220.7 222.1 223.2 224.4 225.8 225.9 226.8 228.1 229.4 231.6 234.5 238.4 242 245.8 251.5 256.2 260.1 263.3 266 268.9 271.5 274.1 276.6 279 281.4 286.2 290.3 294.1 298.8 304.9 310.3 314.7 317.8 320.6 321.4 322.3 322.8 326.6 330.4 332.3 331.4 328.1 326.5 326.4 326.3 327.3 329.5 330.9 329.7 327.5 324.6 323.6 326.1 332.4 336.4 336.4 334.2 331 326.9 323.1 320.1 317 317.9 319.5 316.5 313.2 309.2
496.9 509.7 520.7 530.8 540.6 549 557.7 560.7 558.6 551.9 540.9 529.4 516.3 506.5 496.6 486.6 474.2 459.7 445.6 435.3 424.4 414.2 404.6 389.3 371.5 373.4 379.2 375.6 370.6 366 358.1 343.9 326.2 317.1 324.3 329.6 342.9 355.5 369.5 380.7 394.7 404.1 407.5 408.5 406.5 396.9 389.4 405.2 415.4 422.4 428.5 429.5 430.1 450.2 462.8 473.8 483 491.7 500 512.8 524.7 536 547.5 557.2 566.6 573.1 558.8 519.4 485.8 466.3 460.6 455.2 451.8 449.4 446.8 440 434.3 429.8 429.7 441.5 455.8 470.1 477.3 478.6 454.8 425.7 403.9 387.6 372.9 356.3 343.6 344.3 355.7 367.6 377.9 382.2 382.7 383.2 381.6 379.4 376.5 373.1 369.2 363.9 358.8 355.6 351.1 345.4 339 332.2 324 317.7 311.9 304.4 293.1 281 271.8 259.8 246.5 233.2 225.3 222.3 220 219.8 219.7 219.5 219.4 219.3 218.9 218.2 217.5 218.4 218.8 219.3 220.7 221.8 223 224.1 225 226.3 227.8 229.2 231.2 234.2 236.8 239.6 243.1 248.2 253.4 258 262.4 266.9 269.9 272.4 275.1 278.3 280.6 282.4 286.4 290.4 294.1 297.6 302.7 308.4 312.3 315.8 321.8 320.6 322.5 321.6 326.2 330.2 332 330.8 328.8 326.9 326.8 326.6 326.9 329 330.6 330.1 328.5 325.5 324.1 325.2 331.7 337.1 338.2 336.6 333.8 329.9 325.8 322.6 320.8 320.4 321.8 319.1 316 311.8
489.4 503.7 514.3 524.9 534.9 543.9 552.7 556 553.1 544.9 531.9 518.9 507.1 496.6 486 475.2 463.8 450.9 437.7 428.5 418.6 409.3 400.2 389 379 355.5 366.7 363.6 358.8 351.9 339.5 325.4 316.7 327.8 334.7 342.1 352 363.3 374.8 385.4 397.9 407 411.9 414.2 414 410.1 395.1 407.2 422.3 429.3 436.1 442.7 448 441.9 460.5 474.6 484.7 495.2 504.3 515.1 526.9 538.4 549.9 559.9 572.2 581.2 582.4 543.4 505.5 482.2 473.1 463.8 472.8 471.1 467.9 461.5 453.1 445.4 444.4 457.4 473.6 489.2 498.7 498.9 469.5 439.7 417.1 399.9 382.8 369 357.8 365.3 381.1 395.8 405 409.2 410.3 408.6 407.1 404.3 401.3 399 395.4 391.2 384.9 379.4 376.5 370.6 364.5 356.4 348.9 342.2 332.1 318.5 310.9 303.6 296.8 285.2 267.7 246.7 228.8 223.6 220.8 219.8 219.6 219.5 219.4 219.4 219.3 218.5 218 217.7 218.3 219.4 220.1 221.2 222.3 223.3 224.4 226 227.8 228.8 230.3 232.7 234.4 237 240.6 245 249.6 255.6 261.3 265.7 269 271.8 275.2 279 282.4 283.8 287.7 291 293.4 296 300 305 308.8 312.7 321.1 324.7 323.2 322.7 325.5 329.3 330.1 329.8 328.9 327.7 327.1 326.9 327 328.2 330.2 330.1 328.9 326.4 324.6 325.1 331.3 337.5 340 338.9 336.2 332.2 328.3 325.4 323.4 323.2 324.2 321.3 318.4 314
480.9 496.6 508.1 518.3 527.8 537.3 546.5 551.3 548 537.8 525.6 510.8 498 486.2 474.6 462.4 451.8 440.8 430.4 419.2 409.9 400.4 390.2 382.1 373.4 364 341.2 349.9 343.6 335.9 325.5 318.3 329.1 337.6 344 352 359.8 369.1 380 390.2 401.4 410.8 416.4 419.8 420.5 420.5 409.3 410 428 436.2 443.1 450.1 456.3 462.7 455.3 473.7 487.6 497.8 508 517 528.3 539.7 550.5 562 573.2 582.1 586 556.5 522.1 495.4 480.6 471.3 481 490.3 491.6 484.1 470.8 460.3 460.5 475.7 492.8 508.2 518.5 519.1 484.1 454.6 431.7 412.4 397.7 385.4 379.3 389.1 406 422 432.3 435.8 435.7 435.8 433.2 430.3 426.8 423.6 419.7 414.9 409.4 403.7 398.5 392.3 386 377.6 369.1 360.9 350.1 341.4 333.9 325.9 315.2 300.6 283.6 262.5 234.3 225.8 221.9 220.2 219.6 219.6 219.6 219.6 219.6 219 218.2 217.6 218.4 219.6 220.3 221.2 223.1 224.4 225.7 226.9 227.7 228.5 229 231.2 232.4 234.6 236.7 240.9 244.8 249.9 256.5 262 266.4 269.9 273.7 278.8 282.4 284.4 287.1 290.4 293.3 293.7 297.4 301.7 305.5 309.2 313.9 327.2 325 324.3 325.6 328.6 331 331 330 328.7 327.9 327.4 327.4 328.3 330.5 330.2 329.7 328.1 325.4 326.3 330.6 337.7 341.3 340.7 338.5 335.1 331.6 328.6 325.9 325.6 326.1 323 319.8 316.2
471 487.7 500.2 511.7 521.5 532.1 540.2 545.6 541.1 529.1 516.4 503.2 488 474.5 463.6 451.3 440.2 430.2 418.8 408.6 398.8 388.1 378.1 370.2 359.8 349.3 340.6 333.5 329.4 324.3 321.2 331.8 342 346.9 352.7 359.7 366.8 375.9 385.1 394 405.8 414.8 421.1 424.9 426.9 428.1 422.9 430.7 433.7 443.9 450.4 457.4 464.7 472.1 477.7 476 484.4 500.7 511.2 520.5 529.4 539.5 549.7 562.3 572.8 582.4 589.1 571.3 537.7 507.6 483.6 472.6 472.6 476.8 486.6 490.5 487.4 480.7 478.5 495.1 513.1 529.7 540.2 538.3 502.6 473.1 447.3 427.7 412.4 400 404 413.7 429.2 445.8 457.4 462.3 462.7 460.5 457.9 455 451.7 448 443.3 438.2 432.2 425.2 417.9 412.1 406.6 399.9 393.5 383.9 370.8 364.1 352.3 340.1 326.5 306.3 283.4 264.9 241.5 227.8 222.9 220.6 220.1 219.8 219.8 219.8 219.7 219.4 218.6 219.4 218.4 219.9 220.6 222.5 224.5 226.3 227.6 228.2 228.3 228 228.6 229.7 230.7 232.3 233.6 236.1 239.5 244 248.7 253.9 259.3 264.5 270.8 275.6 279.7 284.4 286.3 290.1 292.6 292.3 295.5 298.1 302.1 305 309.2 315.5 321.1 321.3 324.2 328.2 331.1 332.3 331.1 329.8 328.8 328.8 328.8 329.7 331 330.3 330.6 329.7 327 327.4 330.7 338 342.5 342.4 340.3 338.1 334.7 331.9 329.5 326.4 327.3 324.5 321.6 318.2
460.1 476.4 490.9 501.5 512.7 524.3 533 537.9 533.6 520.6 508.3 494.4 478.8 466.5 451.9 439.8 429.1 417.8 405.9 394.2 384.3 372.8 361 349 339.7 334.3 327.7 324.4 323.9 324.5 331.8 341.1 346.8 352.5 358.8 366.4 373.8 381.8 390.9 400 410.3 418.8 425.8 430.1 433.1 435.4 437.5 440.8 445.4 451.3 458.4 465 472.6 480.1 487.6 493.8 496 492.9 510.8 522.6 531.3 541 550.2 563.4 574 584.2 593.5 596.8 563.6 518.7 488.9 473.1 472.6 472.6 473.6 476.4 484.2 493.9 497.7 515.6 534.3 551 564.4 562.2 525.7 492.1 466.7 445.3 432.5 422.9 428.2 439.4 453 468.5 480 484 485.8 483.6 481 477.8 474.6 470.7 464.8 459.5 453.7 447.1 440 431.9 424.5 419.4 413.9 404 391.5 382.1 372.8 362.1 339.4 307.9 282.5 262.9 245 229.5 224.6 221.8 221 220.5 219.9 219.9 219.9 219.8 219.7 218.5 218.2 219.7 221.5 223.7 225.7 226.8 227.8 228.9 229.4 228.9 228.3 228.4 229.6 230.4 231.1 233.3 236.4 240.1 244.8 249 252.9 257.1 262.8 267.8 273.6 279.2 284.3 287.5 289.1 287.8 290.7 292.6 296.8 300.8 304 308.2 311 316.6 322.2 328 331.9 333.6 333 331.9 330.8 330.6 330.4 331.4 332 330.4 331.3 331.4 328.9 328.6 331.2 337.6 343.1 344.8 343 340 336.7 333.8 330.3 330.3 328.4 325.6 324.4 318.6
448.2 467.2 480.3 490.4 502.7 514.2 524.4 529.4 526.6 514.1 501 487 472.1 456.7 440.1 427.3 415.4 404.2 392.6 383.3 373.2 359.8 345.4 334.5 331.4 329.1 327.3 327.7 327.9 330.3 338.2 344.5 350.7 357.7 365.4 373.2 381 389.4 397.3 405.5 416 424.3 430.8 435.9 439.6 443.2 445.6 449.1 453.6 459 465.4 473 480.7 488.5 496.1 502.8 507.5 511 509.9 522.2 533.1 542.2 553.4 564.2 574.7 585.1 595.1 603.4 579.8 531.8 494.3 472.6 472.6 472.6 472.6 473.3 488.3 503.9 516.1 535.1 555.2 573.6 586.8 584.1 547.4 513.9 487.8 466.9 452.6 449.6 456.5 465.4 477.4 490.5 501.5 507.9 508.9 507.2 504.1 500.5 497.5 492.9 486.2 479.6 473.8 466.8 459.9 451.8 444.9 436.7 430.1 421.5 411.2 403.2 393.5 376.4 351.4 316.3 289.6 264.2 246.1 232.6 226.9 223.4 222 221.4 220.6 220.4 220.3 220.2 219.7 219 218.9 220 222.1 224.7 226.3 226.1 227.2 228.3 228.9 229.3 228.5 228.6 229.1 229.5 230 231.5 234.5 237.9 242.1 245.9 249.4 252.5 255 257.9 262.3 269.3 275.9 282.3 283.9 284.5 287.1 289.9 293.6 297.4 300 303.6 306.4 313.1 319 326.6 332.7 334.9 335.1 334.7 334 332.9 332.6 334.8 334.6 332.8 333.1 333.8 331.6 330.5 332.4 338.2 343.4 346.1 345.2 341.7 338.5 335.3 332.4 330.1 329.7 326.9 323.4 322.5
436.2 456.2 470.3 480.9 494.8 505 515.2 521.7 519.8 508.1 493.6 477.1 463.1 446.7 429.4 415.1 403 393.5 382.3 370.8 359.6 345 335.6 332.2 330.3 328.3 328.5 330.2 333.3 337 342.3 349.9 358.3 367.5 374.6 381.3 389.4 397 404.5 413.4 422.7 430.7 437.6 442.4 446.7 451.3 454.1 456.7 461 466.9 472.7 479.9 487.3 495.1 502.9 509.4 515 519.1 522.7 520.6 532.1 544 555.9 565.9 576.7 587.1 596.8 604.9 587.9 541.2 508.6 481.2 472.6 472.6 472.6 477.9 498.2 518.4 536.5 555 574.9 595.3 609.2 599.2 570.6 537.8 507.6 487 477.4 476.3 482.4 490.5 501.5 513.5 523.8 529.3 530.5 529.2 527.1 523.7 519.4 514.3 506.5 498.2 490.7 483.5 477 469.6 462.7 454.6 445.7 436 428.4 421.2 410 386.1 353.1 324 297.7 272.4 251.6 238 229.1 224.9 222.8 222.1 221.3 220.9 220.8 220.6 220.4 219.9 219.6 220.3 222 224.5 226.2 226.1 226.2 226.1 227.6 228.9 228.9 228.7 229 229.3 229.6 230.7 233.3 236.5 239.5 242.9 245.8 247.7 250 252.7 255.6 258.9 264.9 273 278.7 281.4 284.6 287.6 290.4 295.2 297.7 300.8 304.2 309.3 314.6 322.7 331 335.3 337.1 337.6 337.2 336.4 335.3 337.8 338 335.9 335.7 336.4 334.2 332.4 333.5 339 343.9 346.9 346.8 343.9 339.9 336 332.9 330.2 328.4 326.2 325.4 326.2
424.3 443.9 457.9 470.8 484.6 496.1 505.7 512.3 510.4 500.7 485.7 469.5 453.2 435.9 418.6 402.1 392.5 382.2 370.8 359.7 348.7 338 331.5 331.5 329.7 330.7 334.4 336.5 338.1 341.7 350.4 361.3 370.6 378.6 386.4 392.7 399.1 404.5 411.9 421.1 430 438.2 445 449.7 454.6 459.2 462.2 464.6 469.2 473.9 480.2 487 494.2 501.7 509.4 515.3 521 526 530.2 533.5 533.7 547.4 558.4 568.4 579.3 589.7 599.6 607.5 604.7 565 534.6 512.8 499.7 482.7 482.8 496.4 517.4 537.5 556.9 575.7 594.9 613.5 628.1 617.4 592.8 563.4 532.6 510 499.6 500.5 508.6 517.3 527.4 539.6 548 552.1 553 551 546.8 542.8 537.9 530.9 523.5 517.3 509.5 502.3 494.5 485.8 478.8 471.4 464 454.4 443.9 434.1 421.3 391.7 356.9 329.9 301.1 275 257.9 242.5 232 226.8 224.3 222.7 222 221.4 221.3 221.1 220.9 220.7 220.3 221 221.7 222.8 224.8 224.7 224.6 224 225.5 226.7 228 229.4 229.9 230.2 229.1 230.1 232.5 235.3 237.9 241.1 243.9 245 246.7 249.2 252.1 257.2 262.4 268.6 274 277.8 283 286.7 288.9 292.9 296 298.6 301.9 305.6 310.2 317.9 327.4 334.7 338.5 340.1 340.6 340.4 338.8 340.3 341.3 339.1 337.8 339.1 336.9 334 334.3 339.4 344.3 347.5 347.9 346 341.9 337.9 334.6 331.5 328.4 328.3 328.6 328.5
411.9 431.8 445.9 462.2 476.3 487.7 496.9 502.9 500.3 490.3 475.7 459.4 442.5 423.3 408.6 394.5 383.8 372 358.8 349 341.7 336.1 333 333.4 334.4 331.2 337.2 339.7 341.8 348.5 360 374.8 385.5 391.4 398.2 404.4 408.3 412.3 420.6 429.3 438.2 446.1 452.1 458.1 462.5 466.6 469.9 472.4 477.3 482.9 488.7 494.2 501.2 508.3 515.6 521.3 527 532.6 537.4 541.8 544.2 548.8 562.5 572.6 583.6 593.8 603.8 611.7 616.9 594.5 557.1 534.3 518.8 507.8 511.9 523.1 544.8 561.6 579.8 598.1 616.5 631.5 636.6 626.2 610.2 587.7 558.5 535.7 527.6 530.2 538.3 545.3 555.2 566 573.4 575.9 573.8 570.2 565.6 560.8 555.3 548.5 543.1 537.3 529.3 520.8 512.2 503.8 496.2 486.4 478.7 469.4 459.3 446.2 429.6 397.9 366 337.2 309.3 284.4 263.5 248.6 235.4 228.9 226.3 224 222.6 222 221.8 221.6 221.4 221.2 221 221.5 222.1 222.7 223.3 223.4 223.3 223.5 224.3 225.6 227.6 229.1 230.2 229.8 229 229.8 232 234.5 236.6 239 242.2 243.8 245.2 247.4 251.9 256.9 261.7 265.8 270.1 275 279.9 283.6 287.6 291.4 294.3 296.4 299.9 303.4 306.8 312.5 323.6 331.5 339.1 343 344.1 344.4 342.5 343.3 345.7 341.9 340 342.2 339.8 336.7 336.2 339 344.3 348.1 348.7 347.2 343.3 339 336.8 334.4 330.8 331 331.9 330.5
399.9 419.1 435.6 453.1 466.7 477.3 486.1 492.1 491.1 481.5 467.2 450.9 431.1 409.5 398.2 386.9 372.4 358.4 349.7 345.1 339.6 336.3 337.9 338.3 339 338.3 338.2 342.5 345.2 354.1 368.8 384.9 395.5 403.6 410.2 416.5 421.3 425.7 432.4 438.3 446.5 453.6 459.5 464.5 469.5 473.6 477.3 481.3 485.8 491.6 497.3 501.9 508.3 515.3 522 527.6 533.6 539.1 544.1 549.4 554.7 560.7 566.8 578.2 588.5 598 608.5 619.1 626.3 623 592.6 572.5 558 545.6 552.4 554.2 570.9 591.8 605.4 623.4 638.7 650.7 649.3 636.7 623.2 606.8 585.2 569.5 563.1 564 568.6 573.7 581.6 589 595 594.7 590.4 584.4 581 575.1 570.7 567 562.6 554.3 544.4 534.9 526.7 517.7 511.4 502.9 492.8 482.6 472.1 457.2 436.8 403 376.6 347.9 322.1 298.6 277 259.5 241.1 231.3 228.5 226.1 223.8 222.5 222.3 222.2 222.1 222 221.9 221.8 221.7 222.1 222.7 222.9 222.9 223.5 224.2 226.2 227.6 228.6 230.2 229.8 229 229.8 231.6 234.1 235.1 236.7 240.3 241.3 242.6 247.4 251.8 256.2 259.3 261.3 269.9 277.5 280.4 283.8 287.7 290.7 293 294.8 298.4 302.5 305.8 308.6 320.2 328 338.2 345.3 347.3 348.1 347.4 347 349.4 345.5 342.3 344.6 342.9 339.8 338.8 339.5 343.9 348.3 349.5 348.2 344.9 340.4 337.7 335.6 333.5 333.5 334.1 332.8
393.6 405.3 423.9 441.8 455.3 466.5 473.8 478.8 476.5 470 455 437.9 415.8 401 388.5 376 358.9 350.3 346.8 342.7 338.5 335.1 341.6 343.2 344.1 343.6 340.1 345.1 347.2 354.4 371.5 391.3 402.9 413.5 421.5 427.8 432 436.7 442.7 448.5 455.9 462.4 466.7 470 475.3 480.1 484.6 488.1 493.6 499.4 505.2 511 516.7 522.4 529.1 534.9 540.9 547.5 552.8 558.1 563.3 569.6 577.2 585.4 594.5 604.4 615.7 627.1 636.9 641.7 635.3 611.5 593.1 578.9 581.3 588.8 610.4 624.5 635.1 648 658.3 663.5 659 648.8 638.7 628 612.5 601.6 595 593 592.8 593.7 598.5 602.2 604.6 602.7 597.3 592.2 589.1 582.8 578.9 575.2 571.8 564.1 555.1 544.4 537 532.2 525.2 515.3 506.7 494.6 483.3 468.9 447.6 419.6 391.9 367.5 343.6 323.2 295.2 274 256.3 237.2 230.3 227.8 225.4 223.3 223.2 223.1 223 222.9 222.8 222.7 222.6 222.5 222.4 222.7 223 223.6 224.7 227 228.4 228.6 229.6 229.4 229.2 229.7 231.6 233.6 235.2 234.8 237.1 238.6 240.4 244.8 249.1 252.6 254.9 259.9 267.8 275.5 278.8 283.8 288.7 291.8 292.7 294.9 298.9 302.7 305.7 308.6 317.3 325.1 333.5 343.7 350.7 352.2 351.6 349.4 352.8 349.1 344.4 346.2 345.7 342.8 341.3 341 343.4 348.1 349.9 348.8 345.9 342 338.6 335.9 334.6 334.8 335.3 335.6
389.8 394.6 409.4 424.2 438.1 448.1 455.2 458.2 454.4 447.3 434.3 418.8 403.2 389.6 376.4 362.5 350.6 344.6 343.3 341.8 336.8 341 346.1 349.2 349.2 349.7 343.7 346.3 350.3 355.7 370.3 385.5 402.2 418.4 429.3 435.4 440.5 448.2 453.8 458.8 464.9 470.3 473.3 476.8 482.1 488.4 492.1 495.5 500.9 506.9 512.9 518.9 524.6 530.3 536.2 542.2 548.5 554.9 561.5 566.8 571.9 577.8 584.4 593 601.9 611.9 622.3 633.3 642.4 649.1 651 647.8 632.7 614.2 614.7 626.9 643.4 652.9 657 660.8 665.1 664.5 660.9 656.3 651.2 641.6 630.7 621.3 612.6 606.5 602.4 599.6 598.4 598.5 598.9 595.5 591.1 588.1 583.7 579.1 575.1 571.8 567.1 562.3 556.9 548.9 543.6 539.9 532.5 524.9 516.7 504.2 490.3 474.6 456.9 436.2 413 386.7 368.5 348.8 326.5 300.7 274.8 249.9 233.3 229.5 226.1 223.8 223.8 223.9 223.9 223.8 223.7 223.6 223.5 223.4 223.2 223 223.2 223.7 224.8 227.6 228.4 228.4 228.8 228.9 229.3 229.7 231.1 232.8 235.2 234.3 235.3 236.8 238.2 240.4 245.7 249.7 253.8 259.5 266.9 274.4 278.4 282.5 289.1 291.7 292.1 295.5 299.1 302.8 305.9 309.7 317.7 324.1 331.2 338.5 349.1 354.2 354.4 353.2 353.3 352.7 347.2 348.1 347.3 345.3 344 343.6 343.2 347.4 349.6 349 346.4 339.3 339.2 338 336.8 336.8 337.2 337.5
385.7 388.1 397.3 410 419.6 427.6 431.9 432.9 429.3 425.3 415.2 404.1 392.6 378.7 364.2 351.2 346.3 345.7 344.9 341.7 339.8 340.8 347.2 351.4 353.7 355.7 355.8 349.3 350.4 354.7 365.4 381.1 397.3 411.2 427.5 439.8 447.5 455.6 460.8 466.5 472.4 476.7 479.5 483.2 490.2 494.7 499 502.3 508.1 514.2 520.4 526.7 532.4 538.4 544.2 550.3 556.2 562.8 569.6 575.2 580.6 585.8 593.1 602 610.4 619.7 629.3 639 647.5 654.9 658.3 658.5 655.6 649.5 647.3 650 655 658.5 657 657.8 658.3 657.2 655.4 651.6 646.5 640.2 633.4 625.4 616.8 608.1 601.9 596.4 591.2 588.1 586 581.1 576.7 574.3 571.2 566.9 562.3 559 555.4 554.3 551.2 547 540.4 537.4 531.9 525.2 516.2 504.5 489.9 472.2 454.7 440 423.3 407.4 388.9 376.2 364.1 347.5 315.6 277.3 244.9 231.6 227.6 224.3 224.3 224.6 224.6 224.6 224.6 224.4 224.2 224.1 223.9 223.6 223.6 224 224.9 227.3 228.4 228.3 228.8 229.2 229.6 229.9 230.9 232.3 233.5 233.9 236 237.3 238 239.8 242.3 244.2 251.3 256.8 261.9 270.1 275.9 279 282.4 287.2 291.5 295.6 301.1 304.9 307.3 310 317 324.5 330.1 336.9 345.7 355 355 355.7 353.4 354.2 350.1 349.1 348.9 347 345.8 345.1 344.5 345.3 347.2 348 346 342.5 340.2 339.1 339.1 338.9 339.1 338.8
380.1 382.5 387.3 395.9 404.7 412.1 415.4 415.4 414.2 410.3 402.5 392 380.7 364 354.7 348.6 347.4 346.6 345.4 337.5 341.7 346.6 349.8 352.1 356.9 359.6 361.4 360.6 359.2 357 362 373.3 389.5 405.7 419.7 440 449.6 458.1 464.2 469.7 476.5 481.5 484.9 488.1 495 500.5 504.7 508.7 514.8 521 528.8 534.7 540.8 546.9 552.8 558.5 564.6 570 576.7 583 588.5 594.3 601.9 610.8 619.7 628.4 637.4 645.5 653.5 660 664.7 665.2 661.8 656.4 653.7 651.7 650.8 649.8 647.5 646.3 645.5 643.8 641.6 639.3 635.8 631 624.2 616.5 608.9 600.7 594.2 585.9 578.5 574.6 568.9 562.4 559.6 555.7 552.7 547 542.5 538.3 536.2 536.2 535.7 534 528.4 526.9 522.3 515.5 507.1 495.9 482.1 464.8 447.9 433.9 421.8 414.3 401.2 389.2 371.9 362.9 343.5 310.8 268.7 236.7 228.8 225 224.9 225.1 225.3 225.3 225.2 225.1 224.9 224.7 224.5 224.3 224 224.3 224.5 226.1 227.6 228.6 229.1 229.6 229.7 230.1 230.9 232.2 232.8 234.3 236.9 239.6 240.3 240 241.5 246.7 250.8 255.4 260.2 269.4 275.5 278.8 281.9 285.6 290.6 295.5 300.8 306.6 308.5 311.5 318.8 325.8 329.9 336 342.5 356.1 357.5 357.9 355.5 356.8 352.9 351.2 350 348.8 347.6 346.6 345.4 344.9 346 346.8 344.7 342.3 340.8 339.5 340 340.1 339.7 339.3
385.7 376 379.9 385.7 391.6 396.7 398.8 399 399.1 394.1 385.9 376.3 365.3 356.1 351.7 349.1 347.2 345.5 341.8 339.3 344.9 349.8 353.6 356.3 360 363.3 366.5 369.2 373.1 364 363.8 364 376.3 395.7 412.4 431 447.1 456.6 464.2 471 478.1 484.6 488.9 492.9 499.9 505.5 510 514.1 520.2 527.9 536.5 544.2 550 555.8 560.9 566.3 571.7 577.4 583.4 589.7 595.2 601.6 610.3 620.1 629.3 637.7 645.1 652 658.2 663.8 666.3 665.7 661.8 657 652.5 648.1 643.6 639.8 635.6 632.9 630.6 627.5 624.8 621.4 617.3 614.1 608 598.2 590.7 585 577.6 569.3 561.8 556.2 548.1 541.3 535.7 530.5 525.9 520 515.7 513.4 512.5 514.2 516.3 515.5 511 508.1 506.4 498.8 490.9 480.5 466.7 452 437.9 425.2 413.8 409.2 405.4 392.2 379.9 369.6 354.3 325.6 283.5 250.1 231.1 226.1 226.3 226.3 226.1 226 225.9 225.7 225.5 225.3 225.1 224.9 224.4 224.4 224.6 224.8 226.6 229 229.5 229.8 229.8 230.3 230.9 232 232.6 234.9 237.5 240.3 240.1 241.8 242.9 245.1 249.1 253.5 256.2 263.8 274.1 280.7 284 286.4 290.8 294.5 300.1 307.1 309.7 313.1 320.2 325.4 327.9 333.4 339.1 349.2 357.1 357.9 358.3 358.6 356.9 353.8 351.5 350.3 349.1 347.6 346.2 345.1 345.4 346.2 344.6 342.8 341.5 340.1 339.7 339.6 339.5 340.3
388.4 376.2 374.2 377.6 380.9 383.9 384.7 383.2 381.5 377.2 371.3 363.7 357.4 354.2 351.8 349.5 347.2 345.2 340.4 341.2 348.3 354.5 358.6 361.2 362 368 371.5 376 380.7 382.5 371.7 372.1 374 386.4 403.4 422.6 443.3 453.3 461.5 469.9 478.4 485.5 491 496.3 501.9 507.7 512.8 518 526.6 534.6 544.2 551.6 558.1 564.2 568.4 572.9 579 584.8 590.5 596.4 602.4 609.1 619 629.3 638.5 646.4 653.2 659.7 664.7 668.4 668.7 666.8 662.1 656.1 649.3 642.4 636.1 629.3 623.6 619.5 615.2 610.7 606.4 601.6 596.9 591 584.9 575.8 566.6 562.1 555.6 546.9 540.1 531.7 522.7 517.8 507.8 500.8 494.5 489.7 487.5 484 484.2 486.6 490.6 492.6 492.2 491.2 486.2 478.8 468.9 457 443.7 432 419.2 407.9 401.2 395 392.6 390.2 380.2 371.9 357.3 335.3 305.3 272.1 233.7 227.5 227.4 227.3 227.1 226.9 226.6 226.4 226.1 225.9 225.5 224.9 224.3 224.4 224.7 224.9 225.9 228.2 229.8 229.9 230 230.5 231.1 231.9 233.6 235.4 237.2 238.9 241.4 243.8 245.5 247.1 250.5 251.3 257.8 264.3 264.9 277.5 282.4 283 290.2 294.6 301 307.8 310.7 315.1 321.9 326.7 326.8 330.2 334.7 342.8 350.1 358.3 360.1 360.3 360.4 356.2 353.3 351.8 351 348.9 346.8 346 345.5 346.4 345.2 343.3 342 340.7 338.9 338 339.2 341.6
385.2 380.3 371.6 373.2 374 374.4 373.3 372 368.2 364.4 362.3 358.6 355.8 353.5 351.3 349 347.4 344.9 341.3 343.7 352.3 359 364.2 368.5 369.1 371.7 375.6 382.6 388.7 393.1 390.9 380.3 375.1 382.4 392.3 407.6 430 445.8 455.7 466.3 477.2 485.4 491 496.9 503.1 508.5 513.9 521.2 531.4 541.8 551.2 559.3 566 571.4 575.5 581.5 585.9 591.5 597.2 602.8 608.9 617.2 628.2 638.7 648.3 655 661.1 667.5 672 674.7 672.4 668.2 661.2 654.4 645.3 636 626 617.1 610 604.6 598.5 593.1 587.5 581.6 574.6 566.9 559 550.8 542.1 535.8 529.8 522.7 516.3 507.3 498 489.1 476.9 462.5 456 450.6 448.3 446.8 450.5 452.7 458.4 463.1 465.4 464.6 461 454 443.7 430.5 417 404.7 394.8 384.7 379.6 376.2 372.8 374.6 377.2 366.2 355.2 330.8 304.8 268 238.2 228.5 228.5 228.3 227.9 227.6 227.3 227.1 226.8 226.1 225.3 224.7 224.3 224.4 224.7 225 225.9 228.1 229.2 229.8 230.2 231.7 233.3 234.3 236.1 238 238.2 238.8 241.5 244.3 247.8 249.2 253.4 254.7 257.7 263 263.4 272.2 279.6 278 289.7 295.5 303.1 309 311.8 315.8 321.6 325.4 326.4 327.9 332.6 338.5 345.1 359.9 360.3 362.3 364 359 355.2 353.5 352.5 350.2 348 346.6 345.9 346.8 346.1 343.9 342.6 341.3 339.2 337.7 340 342.6
381 377.5 373.2 368.4 370.1 369.4 368.2 365.8 363.3 362.1 359 356.3 354.8 352.5 350.3 348.3 346.5 342.4 343.5 350.2 358.7 364.4 370 374.7 376.5 377.4 382.3 389.7 396.7 403.4 405.9 400.6 385.8 380 386.2 393 406.9 427.3 446.3 460.2 472.9 482.5 488.5 495.2 502.5 508.8 514.5 524.5 536.1 546.9 556.4 566.4 573 577.7 581.6 587.2 592.4 597.9 603.6 609 615.1 625.3 637 650 659.2 665.5 671.4 676.3 679.3 679.8 675.3 668.4 660.5 652.1 641 628.2 605.7 599.5 593.4 587.7 580.8 573.3 566.1 558.8 550.4 542 532.3 523.6 514.6 507 499.2 492.4 485.4 476.3 466 455.2 442.6 430.3 421.4 413.6 411.1 410.2 411.3 414.9 420.3 425.7 435.7 437.1 432.7 424.9 415 401.5 388 375.3 365 358.4 352.3 351.2 349.7 351.7 355.6 358.1 350.2 332.3 306.2 267.9 239.1 229.9 229.4 229 228.6 228.3 228.1 227.7 227.2 226.4 225.5 224.6 224.3 224.4 224.8 225.2 225.9 227.1 227.9 229.2 230.9 233.8 235.2 235.5 237.9 240.6 241.6 242.2 243.7 246.8 250.2 251 254 256.3 258 262.1 263.6 266.1 270.2 279.7 290.2 296.8 304.2 311.4 312.8 316.8 321.9 326.8 326.3 327.8 330.4 333.9 340.7 353.6 358.6 362 365.3 361.3 357.3 355.2 353.8 351.4 349.4 347.7 346.5 347.2 347.1 345.3 343.4 341.5 339.5 338.6 340 342.7
377.3 374.1 372.1 366.1 365.7 366.9 365.2 363.1 360.9 358.7 355.9 352 348.1 350.1 349.3 343.8 345.2 344.6 346.3 358.7 365.6 371.3 376 380.7 384 384.4 389.8 397.1 406.8 414.2 417.2 415.2 399.8 396 395.2 394.8 397 410 431.4 445.9 463.9 474.1 479.4 491.9 500.5 507.4 514.8 526.3 538.8 549.9 560.9 570.3 576.7 581.3 586.3 592.2 597.9 604 609.5 614.4 621.2 633.1 646.1 659.7 669.6 677.1 683.3 688.6 688 685.2 678 668.8 659.4 648.7 635.8 621.3 601.1 576.4 572.8 567 559.8 550.9 541.9 533.4 524.4 514.7 504.4 494.8 485 476.6 467.6 460.5 452 443.2 433.6 423.4 411.5 400.1 391.4 384.2 379.8 377.9 379.7 382.4 386 392.1 401.8 406.6 403.9 396.3 386.4 371.2 356.5 344.5 335.8 328.4 323.2 321.5 322.7 328 331.3 333.7 336.6 329.3 312.1 273.1 244.4 230.9 230.3 229.7 229.3 229 228.6 228.2 227.5 226.6 225.7 224.8 224.4 224.4 224.6 225 225.3 225.7 226.3 228.3 230.4 232.1 232.9 235 237.7 240.7 243.8 245.9 247 249.7 252.8 252.5 253.7 255.5 257.9 260.6 263.2 265.5 268.3 279 289.6 296.7 307.7 312.9 313.6 317.9 322.3 324.8 328.3 327.8 329.3 330.8 336.1 340.5 350.4 359 361.7 362.5 359.3 357 355.1 352.7 350.6 348.7 346.8 347.5 348.2 346.4 344.2 342.1 340.5 339.8 340.8 343.6
373.6 371.2 369.5 368.1 364.9 361.2 362.2 360.8 358.9 356.2 350.7 351 350.6 349.9 346 346.3 345.9 347.4 359 367.3 373.8 379.8 384.9 388.7 392.4 390.4 398.1 405.3 417.1 424.5 427.5 427.4 418.7 408.5 410.1 405.5 398.6 404.4 413.1 424.5 439.6 450.8 466.5 486.4 497.3 506.6 515 527.3 540.3 551.9 562.2 571.8 578 583.7 589.7 596 602.7 608.4 614.1 619.7 627.5 639.1 653.8 670 680.3 686.8 695.5 699.3 696.8 686.1 678.1 666.7 655 642.7 628 611.3 590.3 565.1 544.2 541 533.9 525 515.9 506.2 496.5 486.5 476 466.2 457 447.8 439.7 431.2 422.9 413.7 402.6 392.7 380.8 372.3 365 359.3 351.6 350.5 349 351.1 355.6 361.6 367.2 370.4 369.7 361.6 351.4 340 327.9 315.7 306.6 300.8 297 296.7 296.8 297.8 299.4 300.5 303.5 302 292 269.5 249.1 234.5 231 231.1 230.2 229.5 229.1 228.6 227.8 226.9 225.9 225 224.8 224.8 224.8 224.8 224.8 225.2 225.6 226.1 227.5 228.5 230.3 233 236.3 239.3 242.5 245 247.4 250.1 252.8 252.7 252.9 253.3 257.5 260.5 263.5 261.3 268.7 277.9 289.5 296.8 307.2 314.3 313.6 318.5 322.5 324.3 325.7 329.6 328.5 328.9 331.9 334.1 339.8 349.8 355.7 358.6 360.1 358.6 356.7 354.6 351.9 349.5 347.4 347.2 348.3 346.8 344.7 342.7 341.8 341.2 341.9 343.9
371.9 369.3 367.9 366.6 365.6 363.2 357.4 356.1 353.8 353.1 352.9 353.4 352.8 351.9 352.3 355.6 360.6 364.2 369.7 377.4 384.2 390.7 395.1 399.1 402.6 402.4 404.5 413.1 425.9 434.9 438.9 439.1 431.1 424.6 422.9 416.9 406.8 406.6 415.6 432.4 445.3 440.1 448 477.1 494.6 504.1 513.5 528.4 541.6 552.1 562 572.1 578.7 585.2 591.9 598.9 605.6 612.1 618.3 623.9 632 643.8 660.8 676.3 687.7 695 701.5 700.4 695.9 685.7 674.7 663.7 650.9 634.9 612.2 593.8 573.2 554.4 529.8 515.7 507.4 497 486.9 476.9 467 457.6 448.6 438.8 430.2 421.2 413.3 405.6 396.5 387.7 377.3 366.9 354.5 349.3 341.6 337.1 332.1 327.1 324.8 326.6 329.1 332.4 338.9 340.5 336.2 329.3 320 312 303.1 293.2 286.3 280.2 275.8 272.5 270.9 268.9 268.6 268.2 268.1 268.3 261.4 254.5 240.7 236.2 232.5 231.6 230.7 230.5 229.6 228.9 228 227 226.1 225.3 225.2 225.2 225.2 225.2 225.2 225.2 225.1 225.3 225.7 225.7 228 231.5 234.8 237.9 240.5 243 245.4 247.8 249.8 251.6 251.8 250.3 254 257.3 261.2 260.4 270.7 277.9 289.1 297.8 305.4 310.9 313.6 318.8 323.5 324.3 323.3 326.9 328.4 327.6 327.9 329.2 333.3 341.1 349.8 353.6 357.1 359 357.8 355.9 352.9 349.6 348.4 347.3 348.6 346.9 344.9 343.4 343.7 343 343.6 346
370.3 367.7 366.7 366.3 365.1 362.9 359.7 356.8 352.2 358.6 356.7 356.9 355.2 360.9 365.8 370 372.8 375.9 381.8 388.5 394.8 402.3 408.3 412.2 414.4 414.7 412.4 423.1 435 445 449.6 450.8 446.8 438.9 434.8 425.6 410.7 409.4 422.5 436.6 455.7 465.1 468.9 457.8 483.3 498.5 512.2 528.2 540.7 551.5 562.1 570.5 578.2 585.3 592.4 601.5 608.5 615.3 621.7 627.3 635.5 647.4 664 680.1 690.1 695.9 701 697.2 689 681.3 671.7 660.6 648.7 634 610 588.4 566.7 549.4 534.1 516.2 497.5 476.1 459.5 451.3 438.5 429.7 423.7 414.6 404.4 400.5 391.8 384.2 380.3 378.4 376.4 373.8 370.5 364.7 359.1 348.9 337.8 330.8 323.3 310.8 311.6 311.6 313.2 312.9 309.1 305.6 297.4 291.4 285.8 279 273.5 269.1 265.6 263 260.8 258.6 256.5 252.2 247.5 244.8 242 240.8 237.6 235.6 233 232.4 231.7 230.5 230 229.1 228.1 227.2 226.3 225.6 225.6 225.6 225.6 225.6 225.6 225.6 225.4 225.3 225.2 225 226.4 229.9 233.3 235.8 237.9 240.3 242.8 245.1 246.8 249.1 249.3 246.7 247.7 249.8 254 262.6 266.6 275 288.5 299 305.7 310.6 314.1 319.5 323.9 324.7 322.1 320.9 322.8 324.4 326.5 327.7 330.6 335 342.2 349.4 354.9 357.6 357.4 357.1 353.9 349.9 348.8 347.8 348.5 347 345.4 344.1 344.5 345.3 345.3 346.8
369.4 368.8 368.2 365.8 361.1 358.7 357.8 355.2 363.7 364.6 364.5 367.1 370.4 375 378 380.3 384.3 389.1 394.4 401.6 409.6 416.4 423.4 427.9 426.6 424.5 419.5 430.3 443.8 455 460.3 462.9 461.6 455.9 449.5 440.2 419.8 412.3 425.5 438.2 455.8 471.3 482.7 486.8 476.8 482.4 506.4 524.7 538.7 549.8 560 568.4 576.3 584.9 593.5 602.3 609.9 616.2 622.3 628.6 638.3 651.5 666 679.1 686.9 691.5 693.8 688.7 681.7 675.5 666.5 656.3 645.7 634.9 620.5 601.6 584.5 569.1 551.2 529.8 506.9 486.9 472 461.7 453.8 447.5 439.3 433.4 428.4 422.5 416.5 410.3 408.7 407.6 405.4 403.2 399.5 392 382.1 369.6 358.4 345.5 332.7 322.2 312.5 302.2 291.8 296.6 297.1 292.8 287.9 282.7 278.1 271.2 267 264.3 261.7 258.7 255.8 254.5 251.9 247.6 243 240.4 238.6 237.1 235.4 234 233.3 232.7 231.9 231 230.2 229.3 228.4 227.4 226.5 226 226 226 226 226 225.9 225.7 225.6 225.5 225.4 224.9 225.2 228.3 230.8 233.2 235.4 237.7 240.2 242.4 244.1 245.7 245.8 242.6 243.7 248.7 252 256.6 261.8 276.8 283.5 295.8 303.2 309.1 313.7 321.2 323.2 324 320.9 318.1 318.4 321.1 323.2 326.3 327.5 330.7 337 343.6 351 357.5 357.4 356.9 353.9 350.3 348.7 347.5 347.9 346.4 345 343.8 344.7 345.9 346.3 347.7
367.8 369.7 367.7 364.4 362.7 363.2 360 368.5 375 378.5 382.4 384.9 385.4 389.1 390.4 392.3 398.5 404.2 409.4 416.9 425.9 433.1 439.2 443.6 441.1 436.3 427.7 438.6 452.4 464.1 469 471 472.6 471.6 469.1 455.9 436.3 415.5 431.2 438.7 455.2 476.7 488.1 494 500 496 501.1 507.7 527.2 544.5 556.2 566 575.8 584.3 593.2 602.1 609 616.1 622.8 629.4 638.6 652.2 664.1 674.5 682.2 684.7 684.7 680.1 673.8 668.1 660.7 651.3 641.1 632.3 621.9 610.6 599.2 585.9 567.8 545.2 524.6 505.2 492.7 485.3 480 475.5 470.2 463.6 456.4 451.3 446.7 441.7 438.9 436.7 434.2 431.6 426 418.6 407.7 395 379.6 362.6 345.8 330.2 318.4 309.6 300.5 289.4 287.1 285 280.9 277.1 273.2 268.2 264.3 261.8 259.3 255.6 252.9 251.2 248.9 245.9 242.1 239.5 238.1 236.4 235.5 234.9 233.6 233 232.2 231.4 230.5 229.5 228.6 227.6 226.6 226.2 226.3 226.3 226.3 226.3 226.2 225.8 225.8 225.8 225.6 224.4 224.8 225.8 227.9 230.1 232.7 234.8 237.4 239.6 241.4 242.1 242.4 239.4 245 249.5 253.9 258.6 263.2 277.4 289.4 297.2 302.9 307.4 312.5 319.5 320.8 323 323.5 318.9 317.6 317.8 320.9 322.9 325.8 329.7 335.1 339.7 345.5 352.8 355.8 356.7 354.8 351.3 349.5 347.5 346.7 345.4 344.1 342.6 344 345.5 346 346.5
365.9 367 366.9 363.2 365.6 369.4 373.5 380.1 385.7 390.9 396.4 400.8 403.8 405.3 405 403.8 413.6 421.6 428 435.6 442.4 449.2 455 458.3 458.1 450.4 437.3 447.5 460.7 472.3 477.8 480.7 482.2 482.5 482.6 472.3 447.2 422 432.7 443.4 456.6 478.8 491.7 499.2 506.6 513.4 521.3 531.1 540.9 550.2 559.2 566.9 573.5 582.8 592.1 601.6 609.2 616.8 623.6 630.2 637.7 651 661.9 670 675 675.9 674.5 669.2 665.1 659.3 653.1 645.5 637.9 629.4 620.1 609.7 599.7 589.1 577.4 564.5 546.5 532.1 521 514.1 508.9 505.7 501.4 494.8 488.7 482.5 478 473.5 471.2 469.6 467.2 463.5 457.9 448.4 435.2 418.8 401.7 381.1 360.2 338 321.7 311.9 302.9 295.4 277.8 279.7 275.9 272.5 269.4 265.6 262.3 259.5 256.8 252.9 250.3 248.3 246.7 244.1 241.3 239 237.6 235.8 236.1 235.7 234.3 233.2 232.6 231.5 230.6 229.6 228.7 227.7 226.7 226.5 226.4 226.5 226.7 226.7 226.3 225.9 226 226.1 225.6 224.6 224 224.5 225.2 227 229.7 231.5 233.7 235 236.1 237.4 238.3 239.2 245.1 249.2 254.3 261.3 269 277.5 289.9 300.8 308.2 311.7 314.4 315.7 317.6 319.6 321.6 320.7 317.9 317.1 317.2 320.5 323.6 328.7 332.8 337.1 340.9 346.9 353.4 356.5 355.8 352.4 349.5 347.2 345.4 343.6 342.4 341.5 342.6 343.8 345 346
367.5 366.4 366.2 363.4 369.7 374.8 381.8 388.9 395 401.4 407.4 412.6 417.4 420.6 422.7 420.2 428.3 436.6 443.4 452.6 459.8 466.3 471.2 475 473.6 463.7 446.3 458.2 470.7 482.2 486.9 489.5 491.5 492.8 490.8 485.8 458 427.9 432.9 451.9 459.1 478.1 493.7 503 511.1 519 527.2 537.1 548.3 558.4 566.8 574.3 581.6 587.8 593.3 602.7 609.3 616.8 623.2 630 638.6 648.9 657.7 664.4 668.1 667.6 665.5 660.7 656.3 651.8 645.8 638.9 631.6 624.3 615.4 606.9 598.5 588.9 578.8 568.8 558.5 548.9 540.9 534.4 529.1 525.1 522.2 517.8 514.8 511.4 508.5 505.6 503.3 500.6 498.4 494.4 487 478.6 466.1 447.8 427.2 401.6 373 345.8 324.6 312.2 303.4 296.8 287.9 271.4 271.1 268.3 265.3 261.6 258.6 256.5 253.6 250.4 248.4 245.8 244.4 241.2 239.9 238.6 237.8 233.8 233.5 234.5 233.3 232 231.6 231 230.3 229.6 228.8 227.8 227 226.8 226.9 227.5 227.5 228.5 227.3 226.2 226 226.6 226 225 224.1 223.6 224 224.6 226.3 228.4 228 229.5 231.9 234 234.9 239.7 245 249.3 254.2 261.5 271.7 279 292.1 304.4 312.4 316.7 318.9 318.8 318.1 317.7 319.8 321 319.5 318.1 317.5 317.4 321.9 326.2 331.5 335.3 338.6 343.2 349.7 355.4 354.9 352.7 348.8 346.1 344 341.9 340.7 339.8 339.7 341.6 343.4 344.3
369.3 369.4 371.1 372 376 383.2 391.3 397.9 403.2 410.3 418.4 424.9 430.5 434.2 439.5 443.7 446.2 453 462.3 471.1 478.6 483.8 488 489.8 488.6 472.9 459.7 469.1 482.5 491.4 495.3 497.8 499.8 500.1 498 494.4 471.1 442.6 435.1 459.1 462.3 475.7 496.7 507.3 515.5 523.2 532.5 545.9 557 566.5 574 581.4 588.7 594.4 599.9 605.4 610.7 617.3 623.8 630.1 638.3 646.4 654 658.9 661.9 661.6 658.4 654.5 650.2 645 638.5 632 624.8 617.4 608.9 601.5 594.2 586.9 578.2 569.9 560.8 553.8 547.4 542.6 539.3 538.3 535.7 532.7 530.5 529.3 527.6 527.4 526.7 524.6 524.2 520.4 512.3 502.2 490.8 475.1 458.2 430.3 404.1 365.7 334.1 311.2 300.9 298.5 290.2 282.3 266.8 264 261.3 252.7 252.1 249.9 245.3 248.3 242.6 242 239.2 236.6 238 234.5 229.9 230.3 228.8 225.9 231.4 231.4 230.9 230.2 229.7 229.2 228.5 227.8 227.3 227.3 227.3 228.2 229.6 231 227.7 226.5 225.7 226.1 225.8 224.5 224 223.5 223 222.8 223.5 224.6 225.4 227.4 229.6 231.9 231.4 240.3 244.8 249.2 254.1 262.8 273.3 280.2 297.2 307.5 317.2 322.4 322.8 321.5 319.5 318.5 320.4 324.5 319.6 319.9 320.1 320.3 318.9 324.2 328.8 333.9 337.1 340.8 345.4 350.9 352 349.6 346.8 344.3 342.2 341.4 340.5 338.9 337.8 338.9 340.6 341.5
371.6 371.7 373.3 376.7 382.8 391.5 399.1 404.9 411.9 418.8 428 436.7 443.3 448.8 455.2 462.1 465.8 475.1 480.7 488.1 493.7 498.3 500.8 502.8 499.7 478.5 473.1 483.6 495.5 500.4 502.9 505.1 506.1 506.5 504.6 501.3 482.6 463.3 446.4 444.8 465.8 478.3 500.2 511.5 519.5 527.2 540.8 552.6 563.1 572.6 580.4 587.6 594.2 599.7 605.9 610.8 615.5 619.4 626.4 631.5 637.9 645.1 651.4 656.1 657.6 656.4 653.1 649.4 644.2 637.5 631.1 624.3 617 609.8 603.3 596.2 588.8 581.3 573.1 565.7 558.5 553.9 550 547.1 544.1 542.6 540.7 540.5 540.2 541.7 543.8 543.7 542.3 541.1 541.5 540.3 533.5 523.5 512.3 496.8 478 450.4 419.3 383.4 347.7 319.4 305.3 295.5 288.4 283.7 280.2 270.3 257.5 253.5 254.8 254.7 251.9 251.4 257.2 256.7 256.7 255.1 249.9 244.9 241.2 235.8 229.9 224.1 231.3 230.9 230.1 229.4 228.8 228.5 228.2 227.8 227.9 228 228.3 229.4 231 231.9 229.5 226.1 225.1 225 224.4 223.6 223.1 222.9 222.7 222.7 223.3 223.9 225 226.2 228.1 229.7 233.2 239.7 244.3 248.9 253.8 263.6 275.3 281.7 300 311 321.3 327.7 327.1 323.6 321 320.5 322.9 327.5 321.2 322.2 323.8 323.6 320.8 322.5 326.2 331.6 336.5 339.6 342.9 347.1 348.8 347.3 345 342.7 341.6 340.9 340.2 338.9 337.5 336.3 337.1 338.3
373.5 374.4 376.6 383.5 390.4 396.6 405.7 412.7 417.9 427.6 437.7 447.4 455.8 463.1 472.3 480.1 484.3 490 497 502.7 507.2 511.7 514.5 515.3 507.8 479.6 485.2 497 506 509.1 510.9 512.4 512.7 512.2 511 506.7 490.3 472.9 455.1 444.7 468.7 480.4 500.7 514.2 523.4 534.3 546.2 557.2 567.3 577 586.1 593.3 599.5 605.5 611 616.2 620.4 624.7 628.1 633.3 639.7 645.3 650.7 653.9 654.4 652.1 648.8 643.8 636.1 628.8 621.6 614.4 607.4 601 594.9 588.3 581.2 573.3 565 557.6 552.2 549.3 547 544.1 541.5 540.9 541.4 541 544.3 546.9 547.5 546.9 546.1 547.9 551.2 550.8 546.7 536.4 524.3 511.1 495 463.9 418.5 384.6 354.2 327.3 309.2 296.7 288 290 283.4 274.6 255.4 259 260.6 263.3 265.5 267.5 270.4 269.1 266.8 264.5 259.9 258.4 255.5 248.9 235.9 221.3 229.1 230.2 229.4 228.5 228.4 228.5 228.4 228.3 228.5 228.8 230.3 231.4 232.3 231.6 228.8 226.2 225.1 225.1 224.7 223.8 223.1 222.8 222.5 222.6 223.2 223.8 224.6 225.8 227.3 228.5 232.9 239 243.6 248.5 254.2 263.4 275.4 282.6 303.7 313 323.6 331.1 329.8 324.4 321.4 319.7 321.7 322.4 322.1 319.3 323.5 327.1 323.9 322.6 325 329.3 334.8 338.6 341.4 344.8 346.2 345.4 344.1 342 341.5 340.8 340.1 339.2 337.9 336.4 334.7 335.4
376.1 377.9 382.2 389.3 396.6 402.4 408.7 417.6 425.7 436.8 448.7 458.8 469.1 479.7 489 496.2 500.7 505.4 511.7 517.8 522 524.1 527.1 525.9 514.8 484.7 500.3 511.3 515.4 517.5 519.1 519.6 519.9 519.7 518 513.5 497.9 478.7 454.6 452.2 470.9 483.8 500 516.9 528.2 538.3 549.2 561.3 571.1 580.9 589.8 596.7 602.8 609.3 615.7 620.6 625.1 628.5 631.7 635.4 640.6 646.1 649.8 652.3 651.4 649.3 645 634.9 616.2 606.3 601.4 596.8 591.5 587.5 581.1 575.8 568.2 560.4 552.5 545.7 540.2 537.9 535.6 533 533.1 534.4 533.8 532 533.6 537 540.6 540.7 541.8 544.7 544.9 543.6 537.8 528.4 518.8 505.4 489.1 470.6 441.8 408.7 367.2 330.1 308.6 299.4 295.8 288.5 280.9 262.5 263.7 265.7 268.3 274.5 281.8 289 292.5 291 289 286.6 287.6 284.1 282.3 261 239.7 225.3 224.1 229.1 228.1 227.6 228.3 228.3 228.7 229.8 230.3 231.2 232.2 233.2 232.7 231.8 228.8 226.4 225.3 225.2 225.1 224 223.2 222.9 222.5 222.5 223.1 223.7 224.5 225.5 226.7 228.5 233.3 239.3 243.5 248.1 254.9 263.4 272 281.5 303.4 310.8 319 326.5 328.9 323.2 320.7 320 322.1 322.8 320.1 319.2 325.1 329.3 326.2 324 324.8 328.7 333 337.1 340.1 342.4 344 344.3 343.7 341.9 341.3 341 340.3 339.7 338.5 336.9 334.3 332.5
378.4 382 387.7 395 401.9 408 414.8 423.9 435.4 447.1 459.4 469.5 481.3 492.6 502.5 509.5 515.4 520.7 526.6 531.6 535.5 538.1 539.2 535.8 519.6 500.9 513.3 522 525 525.8 526.5 527.1 526.9 526.7 524.4 520.1 505.5 483.3 450.8 459.7 475.2 484.7 497.5 517.3 530.2 540 551.2 562.3 572.7 582.2 590.8 598.5 605.2 611.9 619.4 625.1 629.2 632.7 635.6 637.9 642.8 646.6 650 651.1 649.6 645.9 639.4 608.7 586.2 576 572.8 571.4 567.7 565.5 560.5 555.6 549.6 542.6 536 529.7 524.3 520.6 519.4 517.8 516.4 516.3 514.9 513.6 514.5 516.6 519 519.7 521.8 523.3 523.1 520.2 515.2 507.3 496 481.2 463.6 443.1 422.9 400.1 366.5 334.6 311 303.2 295.4 285 272.1 263.5 270.4 276.4 285 297.9 309.7 318.4 321.1 319.6 314.5 310.1 310.5 307 288.2 261.9 239 227.4 220.1 223.9 226.9 227.1 227.8 228.6 230.2 231.2 231.8 232.6 233.7 234 233.1 231.9 228.8 226.7 226.1 225.7 225.5 224.4 223 222.3 222 222.5 223.1 223.7 224.4 225.4 227 231.3 235.5 240.5 245.4 249.1 255.8 261.4 271.9 281.8 297 306.6 313.8 318.6 330.9 323.3 320.7 321.2 326 325.4 320.2 320.5 324 332 328 325 325.3 327.1 333 335.8 337.3 340.2 341.7 343.2 342.7 341.8 340.9 340.8 340.6 339.9 339 337.2 333.8 330.4
381.3 386.6 393.2 400.4 407.1 413.5 423.4 433.8 444.9 457.7 469.7 479.9 489.7 503.2 513.9 520.8 528.3 534.3 539.7 544.8 547.6 549.3 550 546.5 527.5 513.3 525.2 532 534.3 534.6 535.2 535.7 535.4 535 532.3 528.4 512.3 485 451.3 471.9 478.1 486.1 497.6 516.1 531.5 541.7 551.8 562.9 572.8 582 591.2 599.2 606.9 616.2 624.3 630.6 633.6 635.9 638.1 640.7 645.1 648.1 649.7 649.4 646.4 637.2 612.1 582.2 559.8 547.7 542.9 541.7 540.2 537.6 535.4 532 527.6 522.9 516.5 509.9 504 501.2 497.2 495.1 494 491.6 490.4 489.2 490 491.5 493 492.8 494.6 495 494.6 491.4 486.1 478.5 467.2 451.1 435 417 397.5 375.3 350.2 328.4 311.6 302 292.6 271.9 267.3 274.7 281.1 292.3 308.1 324.9 338.4 347.7 353.6 356 350.6 346.8 336.2 309.4 286.8 258.8 241.2 230.1 223.3 221.8 222.9 226.2 228.2 229 231.4 232.5 233 233.6 234.3 234.8 234.1 232.3 229.9 227.6 227.7 227.7 226.8 225.5 222.5 221.7 222.1 222.5 222.9 223.6 224.2 225.5 228 232.8 237.5 242.1 246.5 250.5 254.5 259.4 270.5 279.2 289.2 300 306.6 317.3 327.2 323.9 321.5 322.3 327.6 323 320.4 319.8 323.7 333.6 329.7 327.5 327 326.1 330.2 335.1 335.7 337.5 339.3 341.1 342 341.4 340 340 340.2 339.3 339.3 336.9 333.8 330
